; generated by Slic3r 1.2.9 on 2019-07-21 at 15:30:05

; external perimeters extrusion width = 0.40mm
; perimeters extrusion width = 0.40mm
; infill extrusion width = 0.40mm
; solid infill extrusion width = 0.40mm
; top infill extrusion width = 0.40mm

M107
M83
T0
M116
G21 ; set units to millimeters
G90 ; use absolute coordinates
M83 ; use relative distances for extrusion
G1 E-3.50000 F1500.00000
G1 Z0.400 F15000.000
G1 X26.203 Y-9.284 F15000.000
G1 Z0.300 F15000.000
G1 E3.50000 F1500.00000
G1 X33.992 Y12.699 E1.79733 F960.000
G1 X34.201 Y13.913 E0.09494
G1 X34.201 Y29.694 E1.21612
G1 X33.806 Y31.341 E0.13052
G1 X32.708 Y32.630 E0.13052
G1 X30.565 Y33.329 E0.17373
G1 X15.665 Y33.329 E1.14828
G1 X14.814 Y33.228 E0.06606
G1 X-14.278 Y26.222 E2.30606
G1 X-16.348 Y25.600 E0.16661
G1 X-17.007 Y25.327 E0.05493
G1 X-18.705 Y24.419 E0.14843
G1 X-19.291 Y24.029 E0.05425
G1 X-20.821 Y22.780 E0.15217
G1 X-21.331 Y22.270 E0.05560
G1 X-22.569 Y20.763 E0.15032
G1 X-22.965 Y20.170 E0.05492
G1 X-23.884 Y18.450 E0.15032
G1 X-24.139 Y17.848 E0.05035
G1 X-34.026 Y-12.921 E2.49065
G1 X-34.201 Y-14.033 E0.08676
G1 X-34.201 Y-29.813 E1.21612
G1 X-33.806 Y-31.460 E0.13052
G1 X-32.708 Y-32.750 E0.13052
G1 X-30.565 Y-33.449 E0.17373
G1 X-15.665 Y-33.449 E1.14828
G1 X-14.861 Y-33.359 E0.06233
G1 X12.968 Y-27.051 E2.19913 F960.000
G1 X15.087 Y-26.418 E0.17037
G1 X15.745 Y-26.145 E0.05493
G1 X17.465 Y-25.226 E0.15032
G1 X18.058 Y-24.830 E0.05492
G1 X19.566 Y-23.592 E0.15032
G1 X20.070 Y-23.088 E0.05493
G1 X21.307 Y-21.581 E0.15032
G1 X21.703 Y-20.988 E0.05492
G1 X22.622 Y-19.268 E0.15032
G1 X22.843 Y-18.768 E0.04209
G1 X26.183 Y-9.341 E0.77079
G1 E-3.50000 F1500.00000
G1 Z0.700 F15000.000
G1 X29.579 Y16.757 F15000.000
G1 Z0.300 F15000.000
G1 E3.50000 F1500.00000
G1 X29.579 Y26.852 E0.77801 F720.000
G1 X28.359 Y25.894 E0.11957 F720.000
G1 X26.967 Y25.136 E0.12210
G1 X25.470 Y24.619 E0.12210
G1 X23.907 Y24.357 E0.12210
G1 X22.323 Y24.357 E0.12210
G1 X20.787 Y24.615 E0.12004
G1 X19.264 Y25.136 E0.12403
G1 X17.872 Y25.894 E0.12221
G1 X16.651 Y26.852 E0.11957
G1 X16.651 Y14.899 E0.92118
G1 X29.579 Y14.899 E0.99636
G1 X29.579 Y16.697 E0.13854
G1 X30.215 Y16.697 F15000.000
G1 X30.215 Y28.484 E0.90842 F720.000
G1 X29.171 Y27.340 E0.11937 F720.000
G1 X28.008 Y26.427 E0.11394
G1 X26.710 Y25.720 E0.11394
G1 X25.312 Y25.237 E0.11394
G1 X23.854 Y24.993 E0.11394
G1 X22.376 Y24.993 E0.11394
G1 X20.943 Y25.233 E0.11194
G1 X19.521 Y25.720 E0.11586
G1 X18.222 Y26.427 E0.11398
G1 X17.059 Y27.340 E0.11394
G1 X16.015 Y28.484 E0.11937
G1 X16.015 Y14.263 E1.09595
G1 X30.215 Y14.263 E1.09433
G1 X30.215 Y16.637 E0.18290
G1 X29.869 Y16.897 F15000.000
G1 X29.194 Y15.594 F15000.000
G1 X28.884 Y15.284 E0.03465 F960.000
G1 X27.961 Y15.284 E0.07303
G1 X29.194 Y16.517 E0.13793
G1 X29.194 Y17.440 E0.07303
G1 X27.038 Y15.284 E0.24121
G1 X26.116 Y15.284 E0.07303
G1 X29.194 Y18.363 E0.34449
G1 X29.194 Y19.286 E0.07303
G1 X25.193 Y15.284 E0.44778
G1 X24.270 Y15.284 E0.07303
G1 X29.194 Y20.209 E0.55106
G1 X29.194 Y21.132 E0.07303
G1 X23.347 Y15.284 E0.65434
G1 X22.424 Y15.284 E0.07303
G1 X29.194 Y22.055 E0.75762
G1 X29.194 Y22.978 E0.07303
G1 X21.501 Y15.284 E0.86090
G1 X20.578 Y15.284 E0.07303
G1 X29.194 Y23.900 E0.96418
G1 X29.194 Y24.823 E0.07303
G1 X19.655 Y15.284 E1.06746
G1 X18.732 Y15.284 E0.07303
G1 X29.194 Y25.746 E1.17074
G1 X27.325 Y24.800 F15000.000
G1 X17.809 Y15.284 E1.06485 F960.000
G1 X17.036 Y15.434 E0.06230
G1 X25.911 Y24.310 E0.99316
G1 X24.764 Y24.085 E0.09248
G1 X17.036 Y16.357 E0.86480
G1 X17.036 Y17.280 E0.07303
G1 X23.727 Y23.972 E0.74877
G1 X22.804 Y23.972 E0.07303
G1 X17.036 Y18.203 E0.64549
G1 X17.036 Y19.126 E0.07303
G1 X21.958 Y24.048 E0.55078
G1 X21.168 Y24.181 E0.06341
G1 X17.036 Y20.049 E0.46234
G1 X17.036 Y20.972 E0.07303
G1 X20.432 Y24.367 E0.37995
G1 X19.744 Y24.603 E0.05751
G1 X17.036 Y21.895 E0.30300
G1 X17.036 Y22.818 E0.07303
G1 X19.074 Y24.855 E0.22800
G1 X18.476 Y25.181 E0.05384
G1 X17.036 Y23.741 E0.16114
G1 X17.036 Y24.664 E0.07303
G1 X17.879 Y25.506 E0.09428
G1 X17.340 Y25.891 E0.05236
G1 X17.036 Y25.587 E0.03401
G1 E-3.50000 F1500.00000
G1 Z0.700 F15000.000
G1 X-16.521 Y-1.976 F15000.000
G1 Z0.300 F15000.000
G1 E3.50000 F1500.00000
G1 X-16.521 Y8.983 E0.84455 F720.000
G1 X-16.318 Y10.912 E0.14952 F720.000
G1 X-15.702 Y12.809 E0.15372
G1 X-14.704 Y14.537 E0.15372
G1 X-13.370 Y16.019 E0.15372
G1 X-11.756 Y17.192 E0.15372
G1 X-9.934 Y18.003 E0.15372
G1 X-7.983 Y18.418 E0.15372
G1 X-5.988 Y18.418 E0.15372
G1 X-4.037 Y18.003 E0.15372
G1 X-2.246 Y17.205 E0.15112
G1 X-0.602 Y16.020 E0.15613
G1 X0.734 Y14.537 E0.15386
G1 X1.731 Y12.809 E0.15372
G1 X2.347 Y10.912 E0.15372
G1 X2.550 Y8.983 E0.14952
G1 X2.550 Y-10.036 E1.46568
G1 X7.479 Y-10.036 E0.37984
G1 X7.479 Y21.893 E2.46061
G1 X-11.434 Y21.893 E1.45758
G1 X-13.233 Y21.716 E0.13929
G1 X-14.914 Y21.206 E0.13535
G1 X-16.442 Y20.389 E0.13356
G1 X-17.821 Y19.263 E0.13720
G1 X-18.935 Y17.906 E0.13526
G1 X-19.763 Y16.357 E0.13535
G1 X-20.273 Y14.676 E0.13535
G1 X-20.450 Y12.878 E0.13929
G1 X-20.450 Y-10.036 E1.76584
G1 X-16.521 Y-10.036 E0.30277
G1 X-16.521 Y-2.036 E0.61651
G1 X-15.885 Y-2.036 F15000.000
G1 X-15.885 Y8.949 E0.84661 F720.000
G1 X-15.693 Y10.779 E0.14180 F720.000
G1 X-15.118 Y12.549 E0.14342
G1 X-14.187 Y14.161 E0.14342
G1 X-12.942 Y15.544 E0.14342
G1 X-11.436 Y16.638 E0.14342
G1 X-9.736 Y17.395 E0.14342
G1 X-7.916 Y17.782 E0.14342
G1 X-6.055 Y17.782 E0.14342
G1 X-4.234 Y17.395 E0.14342
G1 X-2.564 Y16.651 E0.14092
G1 X-1.029 Y15.545 E0.14583
G1 X0.217 Y14.161 E0.14347
G1 X1.147 Y12.549 E0.14342
G1 X1.722 Y10.779 E0.14342
G1 X1.915 Y8.949 E0.14180
G1 X1.915 Y-10.672 E1.51210
G1 X8.115 Y-10.672 E0.47781
G1 X8.115 Y22.528 E2.55857
G1 X-11.466 Y22.528 E1.50897
G1 X-13.358 Y22.342 E0.14652
G1 X-15.158 Y21.796 E0.14500
G1 X-16.797 Y20.920 E0.14315
G1 X-18.273 Y19.715 E0.14685
G1 X-19.466 Y18.261 E0.14497
G1 X-20.353 Y16.602 E0.14500
G1 X-20.899 Y14.801 E0.14500
G1 X-21.085 Y12.909 E0.14652
G1 X-21.085 Y-10.672 E1.81723
G1 X-15.885 Y-10.672 E0.40074
G1 X-15.885 Y-2.096 E0.66087
G1 X-16.232 Y-1.836 F15000.000
G1 X-17.772 Y-9.650 F15000.000
G1 X-16.906 Y-8.784 E0.09550 F960.000
G1 X-16.906 Y-7.875 E0.07092
G1 X-18.682 Y-9.650 E0.19579
G1 X-19.591 Y-9.650 E0.07092
G1 X-16.906 Y-6.965 E0.29608
G1 X-16.906 Y-6.056 E0.07092
G1 X-20.064 Y-9.214 E0.34823
G1 X-20.064 Y-8.304 E0.07092
G1 X-16.906 Y-5.146 E0.34823
G1 X-16.906 Y-4.237 E0.07092
G1 X-20.064 Y-7.395 E0.34823
G1 X-20.064 Y-6.485 E0.07092
G1 X-16.906 Y-3.327 E0.34823
G1 X-16.906 Y-2.418 E0.07092
G1 X-20.064 Y-5.576 E0.34823
G1 X-20.064 Y-4.666 E0.07092
G1 X-16.906 Y-1.508 E0.34823
G1 X-16.906 Y-0.599 E0.07092
G1 X-20.064 Y-3.757 E0.34823
G1 X-20.064 Y-2.847 E0.07092
G1 X-16.906 Y0.311 E0.34823
G1 X-16.906 Y1.220 E0.07092
G1 X-20.064 Y-1.938 E0.34823
G1 X-20.064 Y-1.028 E0.07092
G1 X-16.906 Y2.130 E0.34823
G1 X-16.906 Y3.039 E0.07092
G1 X-20.064 Y-0.119 E0.34823
G1 X-20.064 Y0.791 E0.07092
G1 X-16.906 Y3.949 E0.34823
G1 X-16.906 Y4.858 E0.07092
G1 X-20.064 Y1.700 E0.34823
G1 X-20.064 Y2.610 E0.07092
G1 X-16.906 Y5.768 E0.34823
G1 X-16.906 Y6.677 E0.07092
G1 X-20.064 Y3.519 E0.34823
G1 X-20.064 Y4.429 E0.07092
G1 X-16.906 Y7.587 E0.34823
G1 X-16.906 Y8.496 E0.07092
G1 X-20.064 Y5.338 E0.34823
G1 X-20.064 Y6.248 E0.07092
G1 X-16.876 Y9.436 E0.35160
G1 X-16.769 Y10.452 E0.07968
G1 X-20.064 Y7.157 E0.36338
G1 X-20.064 Y8.067 E0.07092
G1 X-16.560 Y11.571 E0.38640
G1 X-16.123 Y12.918 E0.11046
G1 X-20.064 Y8.976 E0.43467
G1 X-20.064 Y9.886 E0.07092
G1 X-15.023 Y14.927 E0.55593
G1 X-13.205 Y16.745 F15000.000
G1 X-8.442 Y21.507 E0.52514 F960.000
G1 X-9.352 Y21.507 E0.07092
G1 X-20.064 Y10.795 E1.18127
G1 X-20.064 Y11.705 E0.07092
G1 X-10.261 Y21.507 E1.08098
G1 X-11.171 Y21.507 E0.07092
G1 X-20.064 Y12.614 E0.98069
G1 X-19.976 Y13.612 E0.07809
G1 X-12.169 Y21.419 E0.86097
G1 X-13.231 Y21.267 E0.08366
G1 X-19.824 Y14.674 E0.72703
G1 X-19.428 Y15.979 E0.10638
G1 X-14.536 Y20.871 E0.53940
G1 X-17.162 Y19.154 F15000.000
G1 X-17.717 Y18.600 E0.06113 F960.000
G1 X-11.032 Y18.009 F15000.000
G1 X-7.533 Y21.507 E0.38581 F960.000
G1 X-6.623 Y21.507 E0.07092
G1 X-9.640 Y18.491 E0.33263
G1 X-8.485 Y18.736 E0.09207
G1 X-5.714 Y21.507 E0.30556
G1 X-4.804 Y21.507 E0.07092
G1 X-7.509 Y18.803 E0.29823
G1 X-6.599 Y18.803 E0.07092
G1 X-3.895 Y21.507 E0.29823
G1 X-2.985 Y21.507 E0.07092
G1 X-5.756 Y18.737 E0.30554
G1 X-5.006 Y18.577 E0.05979
G1 X-2.076 Y21.507 E0.32312
G1 X-1.166 Y21.507 E0.07092
G1 X-4.256 Y18.418 E0.34070
G1 X-3.587 Y18.177 E0.05543
G1 X-0.257 Y21.507 E0.36723
G1 X0.653 Y21.507 E0.07092
G1 X-2.958 Y17.897 E0.39813
G1 X-2.329 Y17.617 E0.05371
G1 X1.562 Y21.507 E0.42902
G1 X2.471 Y21.507 E0.07092
G1 X-1.767 Y17.269 E0.46735
G1 X-1.238 Y16.888 E0.05080
G1 X3.381 Y21.507 E0.50936
G1 X4.290 Y21.507 E0.07092
G1 X-0.710 Y16.507 E0.55138
G1 X-0.219 Y16.088 E0.05030
G1 X5.200 Y21.507 E0.59760
G1 X6.109 Y21.507 E0.07092
G1 X0.212 Y15.610 E0.65037
G1 X0.642 Y15.131 E0.05021
G1 X7.019 Y21.507 E0.70314
G1 X7.094 Y20.673 E0.06536
G1 X1.062 Y14.641 E0.66514
G1 X1.395 Y14.064 E0.05191
G1 X7.094 Y19.763 E0.62843
G1 X7.094 Y18.854 E0.07092
G1 X1.728 Y13.488 E0.59172
G1 X2.060 Y12.911 E0.05191
G1 X7.094 Y17.944 E0.55501
G1 X7.094 Y17.035 E0.07092
G1 X2.288 Y12.229 E0.52992
G1 X2.511 Y11.543 E0.05628
G1 X7.094 Y16.125 E0.50532
G1 X7.094 Y15.216 E0.07092
G1 X2.728 Y10.850 E0.48139
G1 X2.815 Y10.027 E0.06453
G1 X7.094 Y14.306 E0.47185
G1 X7.094 Y13.397 E0.07092
G1 X2.901 Y9.204 E0.46231
G1 X2.936 Y8.329 E0.06827
G1 X7.094 Y12.487 E0.45850
G1 X7.094 Y11.578 E0.07092
G1 X2.936 Y7.420 E0.45850
G1 X2.936 Y6.510 E0.07092
G1 X7.094 Y10.668 E0.45850
G1 X7.094 Y9.759 E0.07092
G1 X2.936 Y5.601 E0.45850
G1 X2.936 Y4.691 E0.07092
G1 X7.094 Y8.849 E0.45850
G1 X7.094 Y7.940 E0.07092
G1 X2.936 Y3.782 E0.45850
G1 X2.936 Y2.872 E0.07092
G1 X7.094 Y7.030 E0.45850
G1 X7.094 Y6.121 E0.07092
G1 X2.936 Y1.963 E0.45850
G1 X2.936 Y1.053 E0.07092
G1 X7.094 Y5.211 E0.45850
G1 X7.094 Y4.302 E0.07092
G1 X2.936 Y0.144 E0.45850
G1 X2.936 Y-0.766 E0.07092
G1 X7.094 Y3.392 E0.45850
G1 X7.094 Y2.483 E0.07092
G1 X2.936 Y-1.675 E0.45850
G1 X2.936 Y-2.585 E0.07092
G1 X7.094 Y1.573 E0.45850
G1 X7.094 Y0.664 E0.07092
G1 X2.936 Y-3.494 E0.45850
G1 X2.936 Y-4.404 E0.07092
G1 X7.094 Y-0.246 E0.45850
G1 X7.094 Y-1.155 E0.07092
G1 X2.936 Y-5.313 E0.45850
G1 X2.936 Y-6.223 E0.07092
G1 X7.094 Y-2.065 E0.45850
G1 X7.094 Y-2.974 E0.07092
G1 X2.936 Y-7.132 E0.45850
G1 X2.936 Y-8.042 E0.07092
G1 X7.094 Y-3.884 E0.45850
G1 X7.094 Y-4.793 E0.07092
G1 X2.936 Y-8.951 E0.45850
G1 X3.146 Y-9.650 E0.05693
G1 X7.094 Y-5.703 E0.43531
G1 X7.094 Y-6.612 E0.07092
G1 X4.055 Y-9.650 E0.33502
G1 X4.965 Y-9.650 E0.07092
G1 X7.094 Y-7.522 E0.23473
G1 X7.094 Y-8.431 E0.07092
G1 X5.874 Y-9.650 E0.13444
G1 X6.784 Y-9.650 E0.07092
G1 X7.094 Y-9.341 E0.03415
G1 E-3.50000 F1500.00000
G1 Z0.700 F15000.000
G1 X-3.812 Y5.493 F15000.000
G1 Z0.300 F15000.000
G1 E3.50000 F1500.00000
G1 X-3.812 Y9.218 E0.28708 F720.000
G1 X-8.741 Y9.218 E0.37984
G1 X-8.741 Y-22.711 E2.46061
G1 X10.173 Y-22.711 E1.45758
G1 X11.971 Y-22.534 E0.13929
G1 X13.652 Y-22.024 E0.13535 F720.000
G1 X15.201 Y-21.196 E0.13535
G1 X16.559 Y-20.082 E0.13535
G1 X17.673 Y-18.724 E0.13535
G1 X18.501 Y-17.175 E0.13535
G1 X19.011 Y-15.494 E0.13535
G1 X19.188 Y-13.695 E0.13929
G1 X19.188 Y9.218 E1.76584
G1 X15.259 Y9.218 E0.30277
G1 X15.259 Y-9.801 E1.46568
G1 X15.056 Y-11.730 E0.14952
G1 X14.440 Y-13.627 E0.15372
G1 X13.443 Y-15.355 E0.15372
G1 X12.108 Y-16.837 E0.15372
G1 X10.494 Y-18.009 E0.15372
G1 X8.703 Y-18.807 E0.15112
G1 X6.723 Y-19.235 E0.15613
G1 X4.726 Y-19.235 E0.15386
G1 X2.808 Y-18.828 E0.15112
G1 X0.954 Y-18.010 E0.15613
G1 X-0.661 Y-16.837 E0.15386
G1 X-1.995 Y-15.355 E0.15372
G1 X-2.993 Y-13.627 E0.15372
G1 X-3.609 Y-11.730 E0.15372
G1 X-3.812 Y-9.801 E0.14952
G1 X-3.812 Y5.433 E1.17398
G1 X-3.176 Y5.433 F15000.000
G1 X-3.176 Y9.854 E0.34069 F720.000
G1 X-9.376 Y9.854 E0.47781
G1 X-9.376 Y-23.346 E2.55857
G1 X10.204 Y-23.346 E1.50897
G1 X12.061 Y-23.163 E0.14381
G1 X13.897 Y-22.614 E0.14767 F720.000
G1 X15.556 Y-21.727 E0.14500
G1 X17.010 Y-20.533 E0.14500
G1 X18.204 Y-19.079 E0.14500
G1 X19.091 Y-17.419 E0.14500
G1 X19.637 Y-15.619 E0.14500
G1 X19.824 Y-13.727 E0.14652
G1 X19.824 Y9.854 E1.81723
G1 X14.624 Y9.854 E0.40074
G1 X14.624 Y-9.767 E1.51210
G1 X14.431 Y-11.597 E0.14180
G1 X13.856 Y-13.367 E0.14342
G1 X12.926 Y-14.979 E0.14342
G1 X11.680 Y-16.362 E0.14342
G1 X10.175 Y-17.456 E0.14342
G1 X8.504 Y-18.200 E0.14092
G1 X6.655 Y-18.600 E0.14583
G1 X4.793 Y-18.600 E0.14347
G1 X3.005 Y-18.220 E0.14092
G1 X1.273 Y-17.456 E0.14583
G1 X-0.233 Y-16.362 E0.14347
G1 X-1.478 Y-14.979 E0.14342
G1 X-2.409 Y-13.367 E0.14342
G1 X-2.984 Y-11.597 E0.14342
G1 X-3.176 Y-9.767 E0.14180
G1 X-3.176 Y5.373 E1.16679
G1 X-3.523 Y5.633 F15000.000
G1 X-8.355 Y8.523 F15000.000
G1 X-8.046 Y8.833 E0.03414 F960.000
G1 X-7.136 Y8.833 E0.07092
G1 X-8.355 Y7.613 E0.13444
G1 X-8.355 Y6.704 E0.07092
G1 X-6.227 Y8.833 E0.23473
G1 X-5.317 Y8.833 E0.07092
G1 X-8.355 Y5.794 E0.33502
G1 X-8.355 Y4.885 E0.07092
G1 X-4.408 Y8.833 E0.43531
G1 X-4.197 Y8.133 E0.05693
G1 X-8.355 Y3.975 E0.45850
G1 X-8.355 Y3.066 E0.07092
G1 X-4.197 Y7.224 E0.45850
G1 X-4.197 Y6.314 E0.07092
G1 X-8.355 Y2.156 E0.45850
G1 X-8.355 Y1.247 E0.07092
G1 X-4.197 Y5.405 E0.45850
G1 X-4.197 Y4.495 E0.07092
G1 X-8.355 Y0.337 E0.45850
G1 X-8.355 Y-0.572 E0.07092
G1 X-4.197 Y3.586 E0.45850
G1 X-4.197 Y2.676 E0.07092
G1 X-8.355 Y-1.482 E0.45850
G1 X-8.355 Y-2.391 E0.07092
G1 X-4.197 Y1.767 E0.45850
G1 X-4.197 Y0.857 E0.07092
G1 X-8.355 Y-3.301 E0.45850
G1 X-8.355 Y-4.210 E0.07092
G1 X-4.197 Y-0.052 E0.45850
G1 X-4.197 Y-0.962 E0.07092
G1 X-8.355 Y-5.120 E0.45850
G1 X-8.355 Y-6.029 E0.07092
G1 X-4.197 Y-1.871 E0.45850
G1 X-4.197 Y-2.781 E0.07092
G1 X-8.355 Y-6.939 E0.45850
G1 X-8.355 Y-7.848 E0.07092
G1 X-4.197 Y-3.690 E0.45850
G1 X-4.197 Y-4.600 E0.07092
G1 X-8.355 Y-8.758 E0.45850
G1 X-8.355 Y-9.667 E0.07092
G1 X-4.197 Y-5.509 E0.45850
G1 X-4.197 Y-6.419 E0.07092
G1 X-8.355 Y-10.577 E0.45850
G1 X-8.355 Y-11.486 E0.07092
G1 X-4.197 Y-7.328 E0.45850
G1 X-4.197 Y-8.238 E0.07092
G1 X-8.355 Y-12.396 E0.45850
G1 X-8.355 Y-13.305 E0.07092
G1 X-4.197 Y-9.147 E0.45850
G1 X-4.163 Y-10.022 E0.06827
G1 X-8.355 Y-14.215 E0.46232
G1 X-8.355 Y-15.124 E0.07092
G1 X-4.076 Y-10.845 E0.47185
G1 X-3.990 Y-11.668 E0.06453
G1 X-8.355 Y-16.034 E0.48139
G1 X-8.355 Y-16.943 E0.07092
G1 X-3.773 Y-12.360 E0.50533
G1 X-3.550 Y-13.047 E0.05628
G1 X-8.355 Y-17.853 E0.52992
G1 X-8.355 Y-18.762 E0.07092
G1 X-3.322 Y-13.729 E0.55502
G1 X-2.989 Y-14.305 E0.05192
G1 X-8.355 Y-19.672 E0.59173
G1 X-8.355 Y-20.581 E0.07092
G1 X-2.656 Y-14.882 E0.62844
G1 X-2.323 Y-15.459 E0.05192
G1 X-8.355 Y-21.491 E0.66515
G1 X-8.281 Y-22.325 E0.06535
G1 X-1.904 Y-15.949 E0.70314
G1 X-1.473 Y-16.427 E0.05022
G1 X-7.371 Y-22.325 E0.65037
G1 X-6.462 Y-22.325 E0.07092
G1 X-1.042 Y-16.906 E0.59759
G1 X-0.553 Y-17.326 E0.05029
G1 X-5.552 Y-22.325 E0.55131
G1 X-4.643 Y-22.325 E0.07092
G1 X-0.026 Y-17.709 E0.50910
G1 X0.501 Y-18.091 E0.05077
G1 X-3.733 Y-22.325 E0.46690
G1 X-2.824 Y-22.325 E0.07092
G1 X1.067 Y-18.434 E0.42905
G1 X1.698 Y-18.713 E0.05379
G1 X-1.914 Y-22.325 E0.39836
G1 X-1.005 Y-22.325 E0.07092
G1 X2.330 Y-18.991 E0.36768
G1 X2.994 Y-19.236 E0.05524
G1 X-0.095 Y-22.325 E0.34070
G1 X0.814 Y-22.325 E0.07092
G1 X3.745 Y-19.395 E0.32312
G1 X4.495 Y-19.555 E0.05979
G1 X1.724 Y-22.325 E0.30554
G1 X2.633 Y-22.325 E0.07092
G1 X5.338 Y-19.621 E0.29823
G1 X6.247 Y-19.621 E0.07092
G1 X3.543 Y-22.325 E0.29823
G1 X4.452 Y-22.325 E0.07092
G1 X7.224 Y-19.554 E0.30565
G1 X8.385 Y-19.302 E0.09259
G1 X5.362 Y-22.325 E0.33334
G1 X6.271 Y-22.325 E0.07092
G1 X9.770 Y-18.826 E0.38583
G1 X11.944 Y-17.563 F15000.000
G1 X7.181 Y-22.325 E0.52520 F960.000
G1 X8.090 Y-22.325 E0.07092
G1 X18.803 Y-11.613 E1.18126
G1 X18.803 Y-12.523 E0.07092
G1 X9.000 Y-22.325 E1.08096
G1 X9.909 Y-22.325 E0.07092
G1 X18.803 Y-13.432 E0.98067
G1 X18.714 Y-14.430 E0.07809
G1 X10.907 Y-22.237 E0.86094
G1 X11.969 Y-22.085 E0.08367
G1 X18.562 Y-15.492 E0.72699
G1 X18.166 Y-16.797 E0.10638
