; generated by Slic3r 1.2.9 on 2019-07-21 at 16:38:17

; external perimeters extrusion width = 0.40mm
; perimeters extrusion width = 0.40mm
; infill extrusion width = 0.40mm
; solid infill extrusion width = 0.40mm
; top infill extrusion width = 0.40mm

M107
M83
T0
M116
G21 ; set units to millimeters
G90 ; use absolute coordinates
M83 ; use relative distances for extrusion
G1 E-3.50000 F1500.00000
G1 Z0.400 F15000.000
G1 X18.586 Y0.000 F15000.000
G1 Z0.300 F15000.000
G1 E3.50000 F1500.00000
G1 X18.586 Y17.114 E1.31888 F960.000
G1 X18.191 Y18.761 E0.13052
G1 X17.093 Y20.050 E0.13052
G1 X14.950 Y20.749 E0.17373
G1 X-4.998 Y20.749 E1.53727
G1 X-5.354 Y20.732 E0.02750
G1 X-7.297 Y20.540 E0.15051
G1 X-7.996 Y20.401 E0.05492
G1 X-9.863 Y19.835 E0.15032
G1 X-10.521 Y19.562 E0.05493
G1 X-12.220 Y18.655 E0.14843
G1 X-12.806 Y18.264 E0.05425
G1 X-14.335 Y17.015 E0.15217
G1 X-14.846 Y16.506 E0.05560
G1 X-16.083 Y14.998 E0.15032
G1 X-16.479 Y14.405 E0.05492
G1 X-17.399 Y12.685 E0.15032
G1 X-17.671 Y12.027 E0.05493
G1 X-18.238 Y10.160 E0.15032
G1 X-18.377 Y9.461 E0.05493
G1 X-18.568 Y7.518 E0.15051
G1 X-18.586 Y7.161 E0.02750
G1 X-18.586 Y-16.786 E1.84553
G1 X-18.191 Y-18.433 E0.13052
G1 X-17.093 Y-19.723 E0.13052
G1 X-15.118 Y-20.418 E0.16139
G1 X-7.864 Y-20.749 E0.55961
G1 X7.186 Y-20.746 E1.15986
G1 X15.100 Y-20.419 E0.61041 F960.000
G1 X16.730 Y-19.957 E0.13052
G1 X17.973 Y-18.806 E0.13052
G1 X18.586 Y-16.786 E0.16268
G1 X18.586 Y-0.060 E1.28902
G1 E-3.50000 F1500.00000
G1 Z0.700 F15000.000
G1 X6.050 Y-7.201 F15000.000
G1 Z0.300 F15000.000
G1 E3.50000 F1500.00000
G1 X6.050 Y-4.175 E0.23324 F720.000
G1 X4.830 Y-5.132 E0.11957 F720.000
G1 X3.438 Y-5.890 E0.12210
G1 X1.941 Y-6.408 E0.12210
G1 X0.378 Y-6.670 E0.12210
G1 X-1.206 Y-6.670 E0.12210
G1 X-2.742 Y-6.412 E0.12004
G1 X-4.265 Y-5.891 E0.12403
G1 X-5.658 Y-5.132 E0.12221
G1 X-6.878 Y-4.175 E0.11957
G1 X-6.878 Y-16.128 E0.92118
G1 X6.050 Y-16.128 E0.99636
G1 X6.050 Y-7.261 E0.68331
G1 X6.686 Y-7.261 F15000.000
G1 X6.686 Y-2.543 E0.36365 F720.000
G1 X5.642 Y-3.687 E0.11937 F720.000
G1 X4.479 Y-4.600 E0.11394
G1 X3.181 Y-5.307 E0.11394
G1 X1.783 Y-5.790 E0.11394
G1 X0.325 Y-6.034 E0.11394
G1 X-1.153 Y-6.034 E0.11394
G1 X-2.586 Y-5.794 E0.11194
G1 X-4.008 Y-5.307 E0.11586
G1 X-5.307 Y-4.600 E0.11398
G1 X-6.470 Y-3.687 E0.11394
G1 X-7.514 Y-2.543 E0.11937
G1 X-7.514 Y-16.764 E1.09595
G1 X6.686 Y-16.764 E1.09433
G1 X6.686 Y-7.321 E0.72767
G1 X6.340 Y-7.061 F15000.000
G1 X5.665 Y-5.281 F15000.000
G1 X-4.797 Y-15.743 E1.17074 F960.000
G1 X-3.874 Y-15.743 E0.07303
G1 X5.665 Y-6.204 E1.06746
G1 X5.665 Y-7.126 E0.07303
G1 X-2.951 Y-15.743 E0.96418
G1 X-2.028 Y-15.743 E0.07303
G1 X5.665 Y-8.049 E0.86090
G1 X5.665 Y-8.972 E0.07303
G1 X-1.105 Y-15.743 E0.75762
G1 X-0.182 Y-15.743 E0.07303
G1 X5.665 Y-9.895 E0.65434
G1 X5.665 Y-10.818 E0.07303
G1 X0.741 Y-15.743 E0.55106
G1 X1.664 Y-15.743 E0.07303
G1 X5.665 Y-11.741 E0.44778
G1 X5.665 Y-12.664 E0.07303
G1 X2.587 Y-15.743 E0.34449
G1 X3.509 Y-15.743 E0.07303
G1 X5.665 Y-13.587 E0.24121
G1 X5.665 Y-14.510 E0.07303
G1 X4.432 Y-15.743 E0.13793
G1 X5.355 Y-15.743 E0.07303
G1 X5.665 Y-15.433 E0.03465
G1 X3.796 Y-6.227 F15000.000
G1 X-5.720 Y-15.743 E1.06485 F960.000
G1 X-6.493 Y-15.593 E0.06230
G1 X2.382 Y-6.717 E0.99316
G1 X1.235 Y-6.941 E0.09248
G1 X-6.493 Y-14.670 E0.86480
G1 X-6.493 Y-13.747 E0.07303
G1 X0.198 Y-7.055 E0.74877
G1 X-0.725 Y-7.055 E0.07303
G1 X-6.493 Y-12.824 E0.64549
G1 X-6.493 Y-11.901 E0.07303
G1 X-1.571 Y-6.979 E0.55078
G1 X-2.361 Y-6.846 E0.06341
G1 X-6.493 Y-10.978 E0.46234
G1 X-6.493 Y-10.055 E0.07303
G1 X-3.098 Y-6.659 E0.37995
G1 X-3.785 Y-6.424 E0.05751
G1 X-6.493 Y-9.132 E0.30300
G1 X-6.493 Y-8.209 E0.07303
G1 X-4.455 Y-6.172 E0.22800
G1 X-5.053 Y-5.846 E0.05384
G1 X-6.493 Y-7.286 E0.16114
G1 X-6.493 Y-6.363 E0.07303
G1 X-5.650 Y-5.521 E0.09428
G1 X-6.189 Y-5.136 E0.05236
G1 X-6.493 Y-5.440 E0.03401
G1 E-3.50000 F1500.00000
G1 Z0.700 F15000.000
G1 X-10.036 Y-6.748 F15000.000
G1 Z0.300 F15000.000
G1 E3.50000 F1500.00000
G1 X-10.036 Y3.218 E0.76801 F720.000
G1 X-9.833 Y5.147 E0.14952 F720.000
G1 X-9.216 Y7.045 E0.15372
G1 X-8.219 Y8.772 E0.15372
G1 X-6.884 Y10.254 E0.15372
G1 X-5.271 Y11.427 E0.15372
G1 X-3.448 Y12.238 E0.15372
G1 X-1.497 Y12.653 E0.15372
G1 X0.497 Y12.653 E0.15372
G1 X2.448 Y12.238 E0.15372
G1 X4.240 Y11.440 E0.15112
G1 X5.883 Y10.256 E0.15613
G1 X7.219 Y8.772 E0.15386
G1 X8.216 Y7.045 E0.15372
G1 X8.833 Y5.147 E0.15372
G1 X9.036 Y3.218 E0.14952
G1 X9.036 Y-15.801 E1.46568
G1 X13.964 Y-15.801 E0.37984
G1 X13.964 Y16.128 E2.46061
G1 X-4.949 Y16.128 E1.45758
G1 X-6.748 Y15.951 E0.13929
G1 X-8.429 Y15.441 E0.13535
G1 X-9.957 Y14.624 E0.13356
G1 X-11.336 Y13.498 E0.13720
G1 X-12.449 Y12.141 E0.13526
G1 X-13.277 Y10.592 E0.13535
G1 X-13.787 Y8.912 E0.13535
G1 X-13.964 Y7.113 E0.13929
G1 X-13.964 Y-15.801 E1.76584
G1 X-10.036 Y-15.801 E0.30277
G1 X-10.036 Y-6.808 E0.69305
G1 X-9.400 Y-6.808 F15000.000
G1 X-9.400 Y3.185 E0.77006 F720.000
G1 X-9.208 Y5.015 E0.14180 F720.000
G1 X-8.633 Y6.785 E0.14342
G1 X-7.702 Y8.396 E0.14342
G1 X-6.457 Y9.779 E0.14342
G1 X-4.951 Y10.873 E0.14342
G1 X-3.251 Y11.630 E0.14342
G1 X-1.431 Y12.017 E0.14342
G1 X0.431 Y12.017 E0.14342
G1 X2.251 Y11.630 E0.14342
G1 X3.921 Y10.886 E0.14092
G1 X5.456 Y9.780 E0.14583
G1 X6.702 Y8.396 E0.14347
G1 X7.633 Y6.785 E0.14342
G1 X8.208 Y5.015 E0.14342
G1 X8.400 Y3.185 E0.14180
G1 X8.400 Y-16.436 E1.51210
G1 X14.600 Y-16.436 E0.47781
G1 X14.600 Y16.764 E2.55857
G1 X-4.980 Y16.764 E1.50897
G1 X-6.872 Y16.577 E0.14652
G1 X-8.673 Y16.031 E0.14500
G1 X-10.311 Y15.156 E0.14315
G1 X-11.787 Y13.950 E0.14685
G1 X-12.981 Y12.496 E0.14497
G1 X-13.867 Y10.837 E0.14500
G1 X-14.414 Y9.036 E0.14500
G1 X-14.600 Y7.144 E0.14652
G1 X-14.600 Y-16.436 E1.81723
G1 X-9.400 Y-16.436 E0.40074
G1 X-9.400 Y-6.868 E0.73741
G1 X-9.746 Y-6.608 F15000.000
G1 X-11.287 Y-15.415 F15000.000
G1 X-10.421 Y-14.549 E0.09550 F960.000
G1 X-10.421 Y-13.640 E0.07092
G1 X-12.197 Y-15.415 E0.19579
G1 X-13.106 Y-15.415 E0.07092
G1 X-10.421 Y-12.730 E0.29608
G1 X-10.421 Y-11.821 E0.07092
G1 X-13.579 Y-14.979 E0.34823
G1 X-13.579 Y-14.069 E0.07092
G1 X-10.421 Y-10.911 E0.34823
G1 X-10.421 Y-10.002 E0.07092
G1 X-13.579 Y-13.160 E0.34823
G1 X-13.579 Y-12.250 E0.07092
G1 X-10.421 Y-9.092 E0.34823
G1 X-10.421 Y-8.183 E0.07092
G1 X-13.579 Y-11.341 E0.34823
G1 X-13.579 Y-10.431 E0.07092
G1 X-10.421 Y-7.273 E0.34823
G1 X-10.421 Y-6.364 E0.07092
G1 X-13.579 Y-9.522 E0.34823
G1 X-13.579 Y-8.612 E0.07092
G1 X-10.421 Y-5.454 E0.34823
G1 X-10.421 Y-4.545 E0.07092
G1 X-13.579 Y-7.703 E0.34823
G1 X-13.579 Y-6.793 E0.07092
G1 X-10.421 Y-3.635 E0.34823
G1 X-10.421 Y-2.726 E0.07092
G1 X-13.579 Y-5.884 E0.34823
G1 X-13.579 Y-4.974 E0.07092
G1 X-10.421 Y-1.816 E0.34823
G1 X-10.421 Y-0.907 E0.07092
G1 X-13.579 Y-4.065 E0.34823
G1 X-13.579 Y-3.155 E0.07092
G1 X-10.421 Y0.003 E0.34823
G1 X-10.421 Y0.912 E0.07092
G1 X-13.579 Y-2.246 E0.34823
G1 X-13.579 Y-1.336 E0.07092
G1 X-10.421 Y1.822 E0.34823
G1 X-10.421 Y2.731 E0.07092
G1 X-13.579 Y-0.427 E0.34823
G1 X-13.579 Y0.483 E0.07092
G1 X-10.390 Y3.671 E0.35160
G1 X-10.284 Y4.688 E0.07968
G1 X-13.579 Y1.392 E0.36338
G1 X-13.579 Y2.302 E0.07092
G1 X-10.075 Y5.806 E0.38640
G1 X-9.637 Y7.153 E0.11046
G1 X-13.579 Y3.211 E0.43467
G1 X-13.579 Y4.121 E0.07092
G1 X-8.538 Y9.162 E0.55593
G1 X-6.719 Y10.980 F15000.000
G1 X-1.957 Y15.743 E0.52514 F960.000
G1 X-2.867 Y15.743 E0.07092
G1 X-13.579 Y5.030 E1.18127
G1 X-13.579 Y5.940 E0.07092
G1 X-3.776 Y15.743 E1.08098
G1 X-4.686 Y15.743 E0.07092
G1 X-13.579 Y6.849 E0.98069
G1 X-13.491 Y7.847 E0.07809
G1 X-5.683 Y15.655 E0.86097
G1 X-6.745 Y15.502 E0.08366
G1 X-13.338 Y8.909 E0.72703
G1 X-12.942 Y10.214 E0.10638
G1 X-8.051 Y15.106 E0.53940
G1 X-10.677 Y13.389 F15000.000
G1 X-11.231 Y12.835 E0.06113 F960.000
G1 X-4.546 Y12.244 F15000.000
G1 X-1.048 Y15.743 E0.38581 F960.000
G1 X-0.138 Y15.743 E0.07092
G1 X-3.155 Y12.726 E0.33263
G1 X-2.000 Y12.972 E0.09207
G1 X0.771 Y15.743 E0.30556
G1 X1.681 Y15.743 E0.07092
G1 X-1.024 Y13.038 E0.29823
G1 X-0.114 Y13.038 E0.07092
G1 X2.590 Y15.743 E0.29823
G1 X3.500 Y15.743 E0.07092
G1 X0.729 Y12.972 E0.30554
G1 X1.479 Y12.812 E0.05979
G1 X4.409 Y15.743 E0.32312
G1 X5.319 Y15.743 E0.07092
G1 X2.229 Y12.653 E0.34070
G1 X2.898 Y12.412 E0.05543
G1 X6.228 Y15.743 E0.36723
G1 X7.138 Y15.743 E0.07092
G1 X3.527 Y12.132 E0.39813
G1 X4.157 Y11.852 E0.05371
G1 X8.047 Y15.743 E0.42902
G1 X8.957 Y15.743 E0.07092
G1 X4.719 Y11.505 E0.46735
G1 X5.247 Y11.123 E0.05080
G1 X9.866 Y15.743 E0.50936
G1 X10.776 Y15.743 E0.07092
G1 X5.776 Y10.742 E0.55138
G1 X6.266 Y10.323 E0.05030
G1 X11.685 Y15.743 E0.59760
G1 X12.595 Y15.743 E0.07092
G1 X6.697 Y9.845 E0.65037
G1 X7.128 Y9.366 E0.05021
G1 X13.504 Y15.743 E0.70314
G1 X13.579 Y14.908 E0.06536
G1 X7.547 Y8.876 E0.66514
G1 X7.880 Y8.299 E0.05191
G1 X13.579 Y13.998 E0.62843
G1 X13.579 Y13.089 E0.07092
G1 X8.213 Y7.723 E0.59172
G1 X8.546 Y7.146 E0.05191
G1 X13.579 Y12.179 E0.55501
G1 X13.579 Y11.270 E0.07092
G1 X8.773 Y6.464 E0.52992
G1 X8.996 Y5.778 E0.05628
G1 X13.579 Y10.360 E0.50532
G1 X13.579 Y9.451 E0.07092
G1 X9.213 Y5.085 E0.48139
G1 X9.300 Y4.262 E0.06453
G1 X13.579 Y8.541 E0.47185
G1 X13.579 Y7.632 E0.07092
G1 X9.386 Y3.439 E0.46231
G1 X9.421 Y2.564 E0.06827
G1 X13.579 Y6.722 E0.45850
G1 X13.579 Y5.813 E0.07092
G1 X9.421 Y1.655 E0.45850
G1 X9.421 Y0.745 E0.07092
G1 X13.579 Y4.903 E0.45850
G1 X13.579 Y3.994 E0.07092
G1 X9.421 Y-0.164 E0.45850
G1 X9.421 Y-1.074 E0.07092
G1 X13.579 Y3.084 E0.45850
G1 X13.579 Y2.175 E0.07092
G1 X9.421 Y-1.983 E0.45850
G1 X9.421 Y-2.893 E0.07092
G1 X13.579 Y1.265 E0.45850
G1 X13.579 Y0.356 E0.07092
G1 X9.421 Y-3.802 E0.45850
G1 X9.421 Y-4.712 E0.07092
G1 X13.579 Y-0.554 E0.45850
G1 X13.579 Y-1.463 E0.07092
G1 X9.421 Y-5.621 E0.45850
G1 X9.421 Y-6.531 E0.07092
G1 X13.579 Y-2.373 E0.45850
G1 X13.579 Y-3.282 E0.07092
G1 X9.421 Y-7.440 E0.45850
G1 X9.421 Y-8.350 E0.07092
G1 X13.579 Y-4.192 E0.45850
G1 X13.579 Y-5.101 E0.07092
G1 X9.421 Y-9.259 E0.45850
G1 X9.421 Y-10.169 E0.07092
G1 X13.579 Y-6.011 E0.45850
G1 X13.579 Y-6.920 E0.07092
G1 X9.421 Y-11.078 E0.45850
G1 X9.421 Y-11.988 E0.07092
G1 X13.579 Y-7.830 E0.45850
G1 X13.579 Y-8.739 E0.07092
G1 X9.421 Y-12.897 E0.45850
G1 X9.421 Y-13.807 E0.07092
G1 X13.579 Y-9.649 E0.45850
G1 X13.579 Y-10.558 E0.07092
G1 X9.421 Y-14.716 E0.45850
G1 X9.631 Y-15.415 E0.05693
G1 X13.579 Y-11.468 E0.43531
G1 X13.579 Y-12.377 E0.07092
G1 X10.541 Y-15.415 E0.33502
G1 X11.450 Y-15.415 E0.07092
G1 X13.579 Y-13.287 E0.23473
G1 X13.579 Y-14.196 E0.07092
G1 X12.360 Y-15.415 E0.13444
G1 X13.269 Y-15.415 E0.07092
G1 X13.579 Y-15.106 E0.03415
G1 E-3.50000 F1500.00000
G1 Z0.700 F15000.000
G1 X-3.390 Y-16.557 F15000.000
G1 Z0.500 F15000.000
G1 E3.50000 F1500.00000
G1 X6.479 Y-16.557 E0.28484 F3363.623
G1 X6.479 Y-3.077 E0.38905
G1 X5.784 Y-3.840 E0.02978 F3363.623
G1 X4.593 Y-4.773 E0.04367
G1 X3.265 Y-5.497 E0.04367
G1 X1.835 Y-5.991 E0.04367
G1 X0.343 Y-6.241 E0.04367
G1 X-1.170 Y-6.241 E0.04367
G1 X-2.644 Y-5.994 E0.04312
G1 X-4.092 Y-5.497 E0.04419
G1 X-5.421 Y-4.773 E0.04369
G1 X-6.612 Y-3.840 E0.04367
G1 X-7.307 Y-3.077 E0.02978
G1 X-7.307 Y-16.557 E0.38905
G1 X-3.450 Y-16.557 E0.11132
G1 X-3.450 Y-16.914 F15000.000
G1 X6.836 Y-16.914 E0.29688 F3363.623
G1 X6.836 Y-2.296 E0.42192
G1 X6.682 Y-2.250 E0.00462 F3363.623
G1 X6.519 Y-2.503 E0.00868
G1 X5.540 Y-3.577 E0.04195
G1 X4.396 Y-4.474 E0.04195
G1 X3.120 Y-5.169 E0.04195
G1 X1.746 Y-5.644 E0.04195
G1 X0.313 Y-5.884 E0.04195
G1 X-1.141 Y-5.884 E0.04195
G1 X-2.556 Y-5.647 E0.04141
G1 X-3.948 Y-5.169 E0.04247
G1 X-5.224 Y-4.474 E0.04196
G1 X-6.368 Y-3.577 E0.04195
G1 X-7.347 Y-2.503 E0.04195
G1 X-7.510 Y-2.250 E0.00868
G1 X-7.664 Y-2.296 E0.00462
G1 X-7.664 Y-16.914 E0.42192
G1 X-3.510 Y-16.914 E0.11990
G1 X-3.250 Y-16.567 F15000.000
G1 X-7.099 Y-16.157 F15000.000
G1 X-6.908 Y-16.349 E0.00791 F4484.830
G1 X-6.396 Y-16.349 E0.01495
G1 X-7.099 Y-15.646 E0.02906
G1 X-7.099 Y-15.135 E0.01495
G1 X-5.885 Y-16.349 E0.05020
G1 X-5.373 Y-16.349 E0.01495
G1 X-7.099 Y-14.623 E0.07134
G1 X-7.099 Y-14.112 E0.01495
G1 X-4.862 Y-16.349 E0.09248
G1 X-4.350 Y-16.349 E0.01495
G1 X-7.099 Y-13.600 E0.11363
G1 X-7.099 Y-13.089 E0.01495
G1 X-3.839 Y-16.349 E0.13477
G1 X-3.328 Y-16.349 E0.01495
G1 X-7.099 Y-12.577 E0.15591
G1 X-7.099 Y-12.066 E0.01495
G1 X-2.816 Y-16.349 E0.17705
G1 X-2.305 Y-16.349 E0.01495
G1 X-7.099 Y-11.555 E0.19819
G1 X-7.099 Y-11.043 E0.01495
G1 X-1.793 Y-16.349 E0.21934
G1 X-1.282 Y-16.349 E0.01495
G1 X-7.099 Y-10.532 E0.24048
G1 X-7.099 Y-10.020 E0.01495
G1 X-0.770 Y-16.349 E0.26162
G1 X-0.259 Y-16.349 E0.01495
G1 X-7.099 Y-9.509 E0.28276
G1 X-7.099 Y-8.997 E0.01495
G1 X0.252 Y-16.349 E0.30391
G1 X0.764 Y-16.349 E0.01495
G1 X-7.099 Y-8.486 E0.32505
G1 X-7.099 Y-7.974 E0.01495
G1 X1.275 Y-16.349 E0.34619
G1 X1.787 Y-16.349 E0.01495
G1 X-7.099 Y-7.463 E0.36733
G1 X-7.099 Y-6.952 E0.01495
G1 X2.298 Y-16.349 E0.38847
G1 X2.810 Y-16.349 E0.01495
G1 X-7.099 Y-6.440 E0.40962
G1 X-7.099 Y-5.929 E0.01495
G1 X3.321 Y-16.349 E0.43076
G1 X3.832 Y-16.349 E0.01495
G1 X-7.099 Y-5.417 E0.45190
G1 X-7.099 Y-4.906 E0.01495
G1 X4.344 Y-16.349 E0.47304
G1 X4.855 Y-16.349 E0.01495
G1 X-7.099 Y-4.394 E0.49419
G1 X-7.099 Y-3.883 E0.01495
G1 X5.367 Y-16.349 E0.51533
G1 X5.878 Y-16.349 E0.01495
G1 X-5.395 Y-5.076 E0.46601
G1 X-4.275 Y-5.685 F15000.000
G1 X6.271 Y-16.230 E0.43595 F4484.830
G1 X6.271 Y-15.719 E0.01495
G1 X-3.496 Y-5.952 E0.40377
G1 X-2.733 Y-6.204 F15000.000
G1 X6.271 Y-15.208 E0.37222 F4484.830
G1 X6.271 Y-14.696 E0.01495
G1 X-2.118 Y-6.307 E0.34681
G1 X-1.504 Y-6.410 E0.01822
G1 X6.271 Y-14.185 E0.32140
G1 X6.271 Y-13.673 E0.01495
G1 X-0.953 Y-6.449 E0.29864
G1 X-0.441 Y-6.449 E0.01495
G1 X6.271 Y-13.162 E0.27750
G1 X6.271 Y-12.650 E0.01495
G1 X0.070 Y-6.449 E0.25636
G1 X0.540 Y-6.407 E0.01378
G1 X6.271 Y-12.139 E0.23694
G1 X6.271 Y-11.628 E0.01495
G1 X0.978 Y-6.334 E0.21884
G1 X1.415 Y-6.260 E0.01298
G1 X6.271 Y-11.116 E0.20073
G1 X6.271 Y-10.605 E0.01495
G1 X1.850 Y-6.184 E0.18276
G1 X2.230 Y-6.052 E0.01176
G1 X6.271 Y-10.093 E0.16705
G1 X6.271 Y-9.582 E0.01495
G1 X2.610 Y-5.921 E0.15133
G1 X2.991 Y-5.790 E0.01176
G1 X6.271 Y-9.070 E0.13562
G1 X6.271 Y-8.559 E0.01495
G1 X3.362 Y-5.650 E0.12026
G1 X3.693 Y-5.469 E0.01102
G1 X6.271 Y-8.048 E0.10658
G1 X6.271 Y-7.536 E0.01495
G1 X4.024 Y-5.289 E0.09289
G1 X4.355 Y-5.109 E0.01102
G1 X6.271 Y-7.025 E0.07920
G1 X6.271 Y-6.513 E0.01495
G1 X4.685 Y-4.927 E0.06559
G1 X4.971 Y-4.702 E0.01065
G1 X6.271 Y-6.002 E0.05374
G1 X6.271 Y-5.490 E0.01495
G1 X5.258 Y-4.477 E0.04189
G1 X5.545 Y-4.252 E0.01065
G1 X6.271 Y-4.979 E0.03004
G1 X6.271 Y-4.468 E0.01495
G1 X5.831 Y-4.027 E0.01819
G1 X6.271 Y-3.956 E0.01303
G1 X6.086 Y-3.770 E0.00767
G1 E-3.50000 F1500.00000
G1 Z0.900 F15000.000
G1 X0.526 Y16.557 F15000.000
G1 Z0.500 F15000.000
G1 E3.50000 F1500.00000
G1 X-4.970 Y16.557 E0.15865 F3363.623
G1 X-6.832 Y16.373 E0.05399
G1 X-8.593 Y15.839 E0.05313
G1 X-10.217 Y14.971 E0.05313
G1 X-11.640 Y13.803 E0.05313
G1 X-12.807 Y12.380 E0.05313
G1 X-13.675 Y10.757 E0.05313
G1 X-14.210 Y8.996 E0.05313
G1 X-14.393 Y7.134 E0.05399
G1 X-14.393 Y-16.229 E0.67432
G1 X-9.607 Y-16.229 E0.13813
G1 X-9.607 Y3.196 E0.56065
G1 X-9.411 Y5.058 E0.05405 F3363.623
G1 X-8.823 Y6.869 E0.05497
G1 X-7.870 Y8.519 E0.05497
G1 X-6.596 Y9.934 E0.05497
G1 X-5.055 Y11.054 E0.05497
G1 X-3.315 Y11.828 E0.05497
G1 X-1.452 Y12.224 E0.05497
G1 X0.452 Y12.224 E0.05497
G1 X2.315 Y11.828 E0.05497
G1 X4.055 Y11.054 E0.05497
G1 X5.596 Y9.934 E0.05497
G1 X6.870 Y8.519 E0.05497
G1 X7.823 Y6.869 E0.05497
G1 X8.411 Y5.058 E0.05497
G1 X8.607 Y3.196 E0.05405
G1 X8.607 Y-16.229 E0.56065
G1 X14.393 Y-16.229 E0.16699
G1 X14.393 Y16.557 E0.94629
G1 X0.586 Y16.557 E0.39849
G1 X0.586 Y16.914 F15000.000
G1 X-4.988 Y16.914 E0.16089 F3363.623
G1 X-6.902 Y16.725 E0.05552
G1 X-8.731 Y16.170 E0.05516
G1 X-10.416 Y15.270 E0.05516
G1 X-11.893 Y14.057 E0.05516
G1 X-13.106 Y12.580 E0.05516
G1 X-14.007 Y10.894 E0.05516
G1 X-14.561 Y9.066 E0.05516
G1 X-14.750 Y7.151 E0.05552
G1 X-14.750 Y-16.586 E0.68513
G1 X-9.250 Y-16.586 E0.15874
G1 X-9.250 Y3.177 E0.57042
