; generated by Slic3r 1.0.0RC2 on 2015-01-10 at 15:28:08

; layer_height = 0.24
; perimeters = 2
; top_solid_layers = 4
; bottom_solid_layers = 3
; fill_density = 0.3
; perimeter_speed = 20
; infill_speed = 20
; travel_speed = 60
; nozzle_diameter = 0.5
; filament_diameter = 1.75
; extrusion_multiplier = 1
; perimeters extrusion width = 0.50mm
; infill extrusion width = 0.87mm
; solid infill extrusion width = 0.85mm
; top infill extrusion width = 0.85mm

G21 ; set units to millimeters
G90 ; use absolute coordinates
M83 ; use relative distances for extrusion
M140 S65; Set bed temperature
G28 ; Home all axes
G1 Z5 F200 ; lift nozzle
G1 X2 Y50 F2000; Go to wait for warm position
M116; Wait for all temperatures
G10 P1 S185 R0 ; Set extruder temperature
T1; Select extruder
M116; Wait for all temperatures
G1 F1800.000 E-4.00000
G1 Z0.240 F3600.000
G1 X73.400 Y73.400 F3600.000
G1 E4.00000 F1800.000
G1 X74.390 Y72.600 E0.06350 F240.000
G1 X75.510 Y71.990 E0.06363
G1 X76.730 Y71.620 E0.06360
G1 X78.000 Y71.500 E0.06364
G1 X128.000 Y71.500 E2.49451
G1 X129.540 Y71.690 E0.07741
G1 X131.000 Y72.230 E0.07766
G1 X132.280 Y73.110 E0.07750
G1 X148.280 Y87.110 E1.06068
G1 X149.220 Y88.120 E0.06884
G1 X149.920 Y89.310 E0.06888
G1 X150.350 Y90.630 E0.06926
G1 X150.500 Y92.000 E0.06876
G1 X150.500 Y122.000 E1.49671
G1 X150.380 Y123.270 E0.06364
G1 X150.010 Y124.490 E0.06360
G1 X149.400 Y125.610 E0.06363
G1 X148.600 Y126.600 E0.06350
G1 X147.610 Y127.400 E0.06350
G1 X146.490 Y128.010 E0.06363
G1 X145.270 Y128.380 E0.06360
G1 X144.000 Y128.500 E0.06364
G1 X94.000 Y128.500 E2.49451
G1 X92.460 Y128.310 E0.07741
G1 X91.000 Y127.770 E0.07766
G1 X89.720 Y126.890 E0.07750
G1 X73.720 Y112.890 E1.06068
G1 X72.780 Y111.880 E0.06884
G1 X72.080 Y110.690 E0.06888
G1 X71.650 Y109.370 E0.06926
G1 X71.500 Y108.000 E0.06876
G1 X71.500 Y78.000 E1.49671
G1 X71.620 Y76.730 E0.06364
G1 X71.990 Y75.510 E0.06360
G1 X72.600 Y74.390 E0.06363
G1 X73.353 Y73.458 E0.05976
G1 F1800.000 E-4.00000
G1 X83.401 Y94.601 F3600.000
G1 E4.00000 F1800.000
G1 X84.296 Y94.311 E0.04697 F240.000
G1 X85.236 Y94.251 E0.04698
G1 X86.161 Y94.428 E0.04697
G1 X87.013 Y94.829 E0.04697
G1 X87.738 Y95.429 E0.04696
G1 X88.292 Y96.191 E0.04699
G1 X88.638 Y97.066 E0.04697
G1 X88.756 Y98.000 E0.04695
G1 X88.638 Y98.934 E0.04699
G1 X88.291 Y99.810 E0.04697
G1 X87.738 Y100.571 E0.04697
G1 X87.013 Y101.171 E0.04697
G1 X86.161 Y101.572 E0.04697
G1 X85.236 Y101.749 E0.04697
G1 X84.296 Y101.690 E0.04697
G1 X83.401 Y101.399 E0.04697
G1 X82.606 Y100.894 E0.04697
G1 X81.961 Y100.208 E0.04697
G1 X81.508 Y99.383 E0.04697
G1 X81.274 Y98.471 E0.04697
G1 X81.274 Y97.529 E0.04697
G1 X81.508 Y96.617 E0.04697
G1 X81.961 Y95.792 E0.04697
G1 X82.606 Y95.106 E0.04697
G1 X83.338 Y94.642 E0.04324
G1 X83.615 Y95.057 F3600.000
G1 X84.391 Y94.806 E0.04067 F240.000
G1 X85.204 Y94.754 E0.04068
G1 X86.005 Y94.907 E0.04067
G1 X86.743 Y95.254 E0.04066
G1 X87.371 Y95.774 E0.04066
G1 X87.850 Y96.433 E0.04069
G1 X88.150 Y97.191 E0.04067
G1 X88.252 Y98.000 E0.04065
G1 X88.150 Y98.809 E0.04069
G1 X87.850 Y99.567 E0.04067
G1 X87.371 Y100.226 E0.04067
G1 X86.743 Y100.746 E0.04067
G1 X86.005 Y101.093 E0.04067
G1 X85.204 Y101.246 E0.04067
G1 X84.391 Y101.194 E0.04067
G1 X83.615 Y100.943 E0.04067
G1 X82.927 Y100.506 E0.04067
G1 X82.369 Y99.912 E0.04067
G1 X81.976 Y99.197 E0.04067
G1 X81.774 Y98.408 E0.04067
G1 X81.774 Y97.592 E0.04067
G1 X81.976 Y96.803 E0.04067
G1 X82.369 Y96.089 E0.04067
G1 X82.927 Y95.494 E0.04067
G1 X83.552 Y95.098 E0.03694
G1 X83.678 Y94.561 F3600.000
G1 F1800.000 E-4.00000
G1 X117.274 Y97.529 F3600.000
G1 E4.00000 F1800.000
G1 X117.508 Y96.617 E0.04697 F240.000
G1 X117.961 Y95.792 E0.04697
G1 X118.606 Y95.106 E0.04697
G1 X119.401 Y94.602 E0.04697
G1 X120.296 Y94.311 E0.04697
G1 X121.236 Y94.251 E0.04697
G1 X122.161 Y94.428 E0.04698
G1 X123.013 Y94.829 E0.04698
G1 X123.738 Y95.429 E0.04697
G1 X124.291 Y96.191 E0.04697
G1 X124.638 Y97.066 E0.04697
G1 X124.756 Y98.000 E0.04696
G1 X124.638 Y98.934 E0.04699
G1 X124.291 Y99.810 E0.04697
G1 X123.738 Y100.571 E0.04697
G1 X123.013 Y101.171 E0.04697
G1 X122.161 Y101.572 E0.04697
G1 X121.236 Y101.749 E0.04697
G1 X120.296 Y101.690 E0.04697
G1 X119.401 Y101.399 E0.04697
G1 X118.606 Y100.894 E0.04697
G1 X117.961 Y100.208 E0.04697
G1 X117.508 Y99.383 E0.04697
G1 X117.274 Y98.471 E0.04697
G1 X117.274 Y97.604 E0.04323
G1 X117.774 Y97.592 F3600.000
G1 X117.976 Y96.803 E0.04067 F240.000
G1 X118.369 Y96.089 E0.04067
G1 X118.927 Y95.494 E0.04067
G1 X119.615 Y95.058 E0.04067
G1 X120.391 Y94.806 E0.04067
G1 X121.204 Y94.754 E0.04067
G1 X122.005 Y94.907 E0.04067
G1 X122.743 Y95.254 E0.04067
G1 X123.371 Y95.774 E0.04067
G1 X123.850 Y96.433 E0.04067
G1 X124.150 Y97.191 E0.04067
G1 X124.252 Y98.000 E0.04065
G1 X124.150 Y98.809 E0.04069
G1 X123.850 Y99.567 E0.04067
G1 X123.371 Y100.226 E0.04067
G1 X122.743 Y100.746 E0.04067
G1 X122.005 Y101.093 E0.04067
G1 X121.204 Y101.246 E0.04067
G1 X120.391 Y101.195 E0.04067
G1 X119.615 Y100.943 E0.04067
G1 X118.927 Y100.506 E0.04067
G1 X118.369 Y99.912 E0.04067
G1 X117.976 Y99.197 E0.04067
G1 X117.774 Y98.408 E0.04067
G1 X117.774 Y97.667 E0.03693
G1 X117.388 Y97.274 F3600.000
G1 X113.750 Y107.250 F3600.000
G1 X113.750 Y87.250 E0.99780 F240.000
G1 X92.250 Y87.250 E1.07264
G1 X92.250 Y107.250 E0.99780
G1 X78.750 Y107.250 E0.67352
G1 X78.750 Y78.750 E1.42187
G1 X127.250 Y78.750 E2.41967
G1 X127.250 Y107.250 E1.42187
G1 X113.825 Y107.250 E0.66978
G1 X113.250 Y107.750 F3600.000
G1 X113.250 Y87.750 E0.99780 F168.000
G1 X92.750 Y87.750 E1.02275
G1 X92.750 Y107.750 E0.99780
G1 X78.250 Y107.750 E0.72341
G1 X78.250 Y78.250 E1.47176
G1 X127.750 Y78.250 E2.46957
G1 X127.750 Y107.750 E1.47176
G1 X113.325 Y107.750 E0.71967
G1 X113.500 Y107.317 F3600.000
G1 X114.139 Y106.421 F3600.000
G1 X114.579 Y106.861 E0.05009 F240.000
G1 X115.720 Y106.861 E0.09179
G1 X114.139 Y105.280 E0.17991
G1 X114.139 Y104.139 E0.09179
G1 X116.861 Y106.861 E0.30973
G1 X118.001 Y106.861 E0.09179
G1 X114.139 Y102.999 E0.43955
G1 X114.139 Y101.858 E0.09179
G1 X119.142 Y106.861 E0.56936
G1 X120.283 Y106.861 E0.09179
G1 X114.139 Y100.717 E0.69918
G1 X114.139 Y99.577 E0.09179
G1 X121.423 Y106.861 E0.82900
G1 X122.564 Y106.861 E0.09179
G1 X114.139 Y98.436 E0.95882
G1 X126.780 Y79.139 F3600.000
G1 X126.861 Y79.220 E0.00917 F240.000
G1 X126.861 Y80.361 E0.09179
G1 X125.639 Y79.139 E0.13899
G1 X124.499 Y79.139 E0.09179
G1 X126.861 Y81.501 E0.26881
G1 X126.861 Y82.642 E0.09179
G1 X123.358 Y79.139 E0.39863
G1 X122.218 Y79.139 E0.09179
G1 X126.861 Y83.782 E0.52844
G1 X126.861 Y84.923 E0.09179
G1 X121.077 Y79.139 E0.65826
G1 X119.936 Y79.139 E0.09179
G1 X126.861 Y86.064 E0.78808
G1 X126.861 Y87.204 E0.09179
G1 X118.796 Y79.139 E0.91790
G1 X117.655 Y79.139 E0.09179
G1 X126.861 Y88.345 E1.04771
G1 X126.861 Y89.486 E0.09179
G1 X116.514 Y79.139 E1.17753
G1 X115.374 Y79.139 E0.09179
G1 X126.861 Y90.626 E1.30735
G1 X126.861 Y91.767 E0.09179
G1 X114.233 Y79.139 E1.43717
G1 X113.093 Y79.139 E0.09179
G1 X126.861 Y92.907 E1.56699
G1 X126.861 Y94.048 E0.09179
G1 X111.952 Y79.139 E1.69680
G1 X110.811 Y79.139 E0.09179
G1 X126.861 Y95.189 E1.82662
G1 X126.861 Y96.329 E0.09179
G1 X109.671 Y79.139 E1.95644
G1 X108.530 Y79.139 E0.09179
G1 X126.861 Y97.470 E2.08626
G1 X126.861 Y98.611 E0.09179
G1 X124.887 Y96.637 E0.22464
G1 X125.144 Y98.035 E0.11438
G1 X126.861 Y99.751 E0.19538
G1 X126.861 Y100.892 E0.09179
G1 X125.013 Y99.044 E0.21028
G1 X124.690 Y99.861 E0.07073
G1 X126.861 Y102.032 E0.24710
G1 X126.861 Y103.173 E0.09179
G1 X124.236 Y100.548 E0.29874
G1 X123.675 Y101.128 E0.06492
G1 X126.861 Y104.314 E0.36253
G1 X126.861 Y105.454 E0.09179
G1 X123.009 Y101.603 E0.43832
G1 X122.222 Y101.957 E0.06943
G1 X126.861 Y106.595 E0.52789
G1 X125.986 Y106.861 E0.07359
G1 X121.265 Y102.140 E0.53733
G1 X119.981 Y101.996 E0.10395
G1 X124.845 Y106.861 E0.55361
G1 X123.704 Y106.861 E0.09179
G1 X114.139 Y97.296 E1.08863
G1 X114.139 Y96.155 E0.09179
G1 X117.015 Y99.031 E0.32734
G1 X116.884 Y97.759 E0.10290
G1 X114.139 Y95.014 E0.31241
G1 X114.139 Y93.874 E0.09179
G1 X117.060 Y96.795 E0.33244
G1 X117.404 Y95.998 E0.06984
G1 X114.139 Y92.733 E0.37157
G1 X114.139 Y91.592 E0.09179
G1 X117.869 Y95.322 E0.42447
G1 X118.439 Y94.751 E0.06491
G1 X114.139 Y90.452 E0.48931
G1 X114.139 Y89.311 E0.09179
G1 X119.136 Y94.308 E0.56873
G1 X119.975 Y94.006 E0.07171
G1 X114.139 Y88.170 E0.66412
G1 X114.139 Y87.030 E0.09179
G1 X120.986 Y93.877 E0.77929
G1 X122.325 Y94.075 E0.10889
G1 X107.389 Y79.139 E1.69985
G1 X106.249 Y79.139 E0.09179
G1 X113.970 Y86.861 E0.87879
G1 X112.830 Y86.861 E0.09179
G1 X105.108 Y79.139 E0.87879
G1 X103.968 Y79.139 E0.09180
G1 X111.689 Y86.861 E0.87879
G1 X110.548 Y86.861 E0.09179
G1 X102.827 Y79.139 E0.87879
G1 X101.686 Y79.139 E0.09179
G1 X109.408 Y86.861 E0.87879
G1 X108.267 Y86.861 E0.09179
G1 X100.546 Y79.139 E0.87879
G1 X99.405 Y79.139 E0.09179
G1 X107.126 Y86.861 E0.87879
G1 X105.986 Y86.861 E0.09179
G1 X98.264 Y79.139 E0.87879
G1 X97.124 Y79.139 E0.09179
G1 X104.845 Y86.861 E0.87879
G1 X103.704 Y86.861 E0.09179
G1 X95.983 Y79.139 E0.87879
G1 X94.842 Y79.139 E0.09179
G1 X102.564 Y86.861 E0.87879
G1 X101.423 Y86.861 E0.09179
G1 X93.702 Y79.139 E0.87879
G1 X92.561 Y79.139 E0.09179
G1 X100.283 Y86.861 E0.87879
G1 X99.142 Y86.861 E0.09179
G1 X91.421 Y79.139 E0.87879
G1 X90.280 Y79.139 E0.09179
G1 X98.001 Y86.861 E0.87879
G1 X96.861 Y86.861 E0.09179
G1 X89.139 Y79.139 E0.87879
G1 X87.999 Y79.139 E0.09179
G1 X95.720 Y86.861 E0.87879
G1 X94.579 Y86.861 E0.09179
G1 X86.858 Y79.139 E0.87879
G1 X85.717 Y79.139 E0.09179
G1 X93.439 Y86.861 E0.87879
G1 X92.298 Y86.861 E0.09179
G1 X84.577 Y79.139 E0.87879
G1 X83.436 Y79.139 E0.09179
G1 X91.861 Y87.564 E0.95881
G1 X91.861 Y88.704 E0.09179
G1 X82.296 Y79.139 E1.08863
G1 X81.155 Y79.139 E0.09179
G1 X91.861 Y89.845 E1.21845
G1 X91.861 Y90.986 E0.09179
G1 X80.014 Y79.139 E1.34826
G1 X79.139 Y79.405 E0.07359
G1 X91.861 Y92.126 E1.44785
G1 X91.861 Y93.267 E0.09179
G1 X79.139 Y80.546 E1.44785
G1 X79.139 Y81.686 E0.09179
G1 X91.861 Y94.408 E1.44785
G1 X91.861 Y95.548 E0.09179
G1 X79.139 Y82.827 E1.44785
G1 X79.139 Y83.967 E0.09179
G1 X91.861 Y96.689 E1.44785
G1 X91.861 Y97.829 E0.09179
G1 X79.139 Y85.108 E1.44785
G1 X79.139 Y86.249 E0.09179
G1 X91.861 Y98.970 E1.44785
G1 X91.861 Y100.111 E0.09179
G1 X89.062 Y97.312 E0.31858
G1 X89.088 Y98.479 E0.09395
G1 X91.861 Y101.251 E0.31557
G1 X91.861 Y102.392 E0.09179
G1 X88.871 Y99.403 E0.34024
G1 X88.505 Y100.177 E0.06895
G1 X91.861 Y103.533 E0.38187
G1 X91.861 Y104.673 E0.09179
G1 X88.025 Y100.838 E0.43650
G1 X87.402 Y101.355 E0.06519
G1 X91.861 Y105.814 E0.50750
G1 X91.767 Y106.861 E0.08458
G1 X86.669 Y101.763 E0.58017
G1 X85.802 Y102.037 E0.07316
G1 X90.626 Y106.861 E0.54901
G1 X89.486 Y106.861 E0.09179
G1 X84.732 Y102.107 E0.54103
G1 X83.240 Y101.756 E0.12335
G1 X88.345 Y106.861 E0.58101
G1 X87.204 Y106.861 E0.09179
G1 X79.139 Y98.796 E0.91790
G1 X79.139 Y99.936 E0.09179
G1 X86.064 Y106.861 E0.78809
G1 X84.923 Y106.861 E0.09179
G1 X79.139 Y101.077 E0.65827
G1 X79.139 Y102.218 E0.09179
G1 X83.782 Y106.861 E0.52845
G1 X82.642 Y106.861 E0.09179
G1 X79.139 Y103.358 E0.39863
G1 X79.139 Y104.499 E0.09179
G1 X81.501 Y106.861 E0.26881
G1 X80.361 Y106.861 E0.09179
G1 X79.139 Y105.639 E0.13900
G1 X79.139 Y106.780 E0.09179
G1 X79.220 Y106.861 E0.00918
G1 X81.303 Y99.819 F3600.000
G1 X79.139 Y97.655 E0.24628 F240.000
G1 X79.139 Y96.514 E0.09179
G1 X80.884 Y98.259 E0.19859
G1 X80.958 Y97.193 E0.08606
G1 X79.139 Y95.374 E0.20700
G1 X79.139 Y94.233 E0.09179
G1 X81.227 Y96.320 E0.23756
G1 X81.631 Y95.584 E0.06759
G1 X79.139 Y93.092 E0.28362
G1 X79.139 Y91.952 E0.09179
G1 X82.179 Y94.992 E0.34596
G1 X82.830 Y94.502 E0.06556
G1 X79.139 Y90.811 E0.42009
G1 X79.139 Y89.671 E0.09179
G1 X83.597 Y94.128 E0.50735
G1 X84.516 Y93.907 E0.07607
G1 X79.139 Y88.530 E0.61193
G1 X79.139 Y87.389 E0.09179
G1 X85.692 Y93.942 E0.74578
G1 F1800.000 E-4.00000
G1 X97.709 Y100.190 F3600.000
G1 E4.00000 F1800.000
G1 X98.262 Y99.429 E0.04697 F240.000
G1 X98.987 Y98.829 E0.04697
G1 X99.839 Y98.428 E0.04697
G1 X100.764 Y98.251 E0.04697
G1 X101.704 Y98.310 E0.04697
G1 X102.599 Y98.601 E0.04697
G1 X103.394 Y99.106 E0.04697
G1 X104.039 Y99.792 E0.04697
G1 X104.492 Y100.617 E0.04697
G1 X104.726 Y101.529 E0.04697
G1 X104.726 Y102.471 E0.04697
G1 X104.492 Y103.383 E0.04697
G1 X104.039 Y104.208 E0.04697
G1 X103.394 Y104.894 E0.04697
G1 X102.599 Y105.398 E0.04697
G1 X101.704 Y105.689 E0.04697
G1 X100.764 Y105.749 E0.04697
G1 X99.839 Y105.572 E0.04698
G1 X98.987 Y105.171 E0.04698
G1 X98.262 Y104.571 E0.04697
G1 X97.709 Y103.809 E0.04697
G1 X97.362 Y102.934 E0.04697
G1 X97.244 Y102.000 E0.04696
G1 X97.362 Y101.066 E0.04699
G1 X97.681 Y100.260 E0.04323
G1 X98.150 Y100.433 F3600.000
G1 X98.629 Y99.774 E0.04067 F240.000
G1 X99.257 Y99.254 E0.04067
G1 X99.995 Y98.907 E0.04067
G1 X100.796 Y98.754 E0.04067
G1 X101.609 Y98.805 E0.04067
G1 X102.385 Y99.057 E0.04067
G1 X103.073 Y99.494 E0.04067
G1 X103.631 Y100.088 E0.04067
G1 X104.024 Y100.803 E0.04067
G1 X104.226 Y101.592 E0.04067
G1 X104.226 Y102.408 E0.04067
G1 X104.024 Y103.197 E0.04067
G1 X103.631 Y103.911 E0.04067
G1 X103.073 Y104.506 E0.04067
G1 X102.385 Y104.942 E0.04067
G1 X101.609 Y105.194 E0.04067
G1 X100.796 Y105.246 E0.04067
G1 X99.995 Y105.093 E0.04067
G1 X99.257 Y104.746 E0.04067
G1 X98.629 Y104.226 E0.04067
G1 X98.150 Y103.567 E0.04067
G1 X97.850 Y102.809 E0.04067
G1 X97.748 Y102.000 E0.04065
G1 X97.850 Y101.191 E0.04069
G1 X98.123 Y100.503 E0.03693
G1 X97.909 Y99.995 F3600.000
G1 F1800.000 E-4.00000
G1 X133.244 Y102.000 F3600.000
G1 E4.00000 F1800.000
G1 X133.362 Y101.066 E0.04699 F240.000
G1 X133.709 Y100.190 E0.04697
G1 X134.262 Y99.429 E0.04697
G1 X134.987 Y98.829 E0.04697
G1 X135.839 Y98.428 E0.04697
G1 X136.764 Y98.251 E0.04697
G1 X137.704 Y98.310 E0.04697
G1 X138.599 Y98.601 E0.04697
G1 X139.394 Y99.106 E0.04697
G1 X140.039 Y99.792 E0.04697
G1 X140.492 Y100.617 E0.04697
G1 X140.726 Y101.529 E0.04697
G1 X140.726 Y102.471 E0.04697
G1 X140.492 Y103.383 E0.04697
G1 X140.039 Y104.208 E0.04697
G1 X139.394 Y104.894 E0.04697
G1 X138.599 Y105.399 E0.04698
G1 X137.704 Y105.689 E0.04697
G1 X136.764 Y105.749 E0.04698
G1 X135.839 Y105.572 E0.04697
G1 X134.987 Y105.171 E0.04697
G1 X134.262 Y104.571 E0.04696
G1 X133.708 Y103.809 E0.04699
G1 X133.362 Y102.934 E0.04697
G1 X133.253 Y102.075 E0.04321
G1 X133.748 Y102.000 F3600.000
G1 X133.850 Y101.191 E0.04069 F240.000
G1 X134.150 Y100.433 E0.04067
G1 X134.629 Y99.774 E0.04067
G1 X135.257 Y99.254 E0.04067
G1 X135.995 Y98.907 E0.04067
G1 X136.796 Y98.754 E0.04067
G1 X137.609 Y98.806 E0.04067
G1 X138.385 Y99.057 E0.04067
G1 X139.073 Y99.494 E0.04067
G1 X139.631 Y100.088 E0.04067
G1 X140.024 Y100.803 E0.04067
G1 X140.226 Y101.592 E0.04067
G1 X140.226 Y102.408 E0.04067
G1 X140.024 Y103.197 E0.04067
G1 X139.631 Y103.911 E0.04067
G1 X139.073 Y104.506 E0.04067
G1 X138.385 Y104.943 E0.04068
G1 X137.609 Y105.194 E0.04067
G1 X136.796 Y105.246 E0.04067
G1 X135.995 Y105.093 E0.04067
G1 X135.257 Y104.746 E0.04066
G1 X134.629 Y104.226 E0.04066
G1 X134.150 Y103.567 E0.04069
G1 X133.850 Y102.809 E0.04067
G1 X133.757 Y102.075 E0.03691
G1 X133.326 Y101.732 F3600.000
G1 X129.750 Y92.750 F3600.000
G1 X143.250 Y92.750 E0.67352 F240.000
G1 X143.250 Y121.250 E1.42187
G1 X94.750 Y121.250 E2.41967
G1 X94.750 Y92.750 E1.42187
G1 X108.250 Y92.750 E0.67352
G1 X108.250 Y112.750 E0.99780
G1 X129.750 Y112.750 E1.07264
G1 X129.750 Y92.825 E0.99406
G1 X129.250 Y92.250 F3600.000
G1 X143.750 Y92.250 E0.72341 F168.000
G1 X143.750 Y121.750 E1.47176
G1 X94.250 Y121.750 E2.46957
G1 X94.250 Y92.250 E1.47176
G1 X108.750 Y92.250 E0.72341
G1 X108.750 Y112.250 E0.99780
G1 X129.250 Y112.250 E1.02275
G1 X129.250 Y92.325 E0.99406
G1 X129.683 Y92.500 F3600.000
G1 X135.936 Y93.139 F3600.000
G1 X142.861 Y100.064 E0.78808 F240.000
G1 X142.861 Y98.923 E0.09179
G1 X137.077 Y93.139 E0.65826
G1 X138.218 Y93.139 E0.09179
G1 X142.861 Y97.782 E0.52844
G1 X142.861 Y96.642 E0.09179
G1 X139.358 Y93.139 E0.39863
G1 X140.499 Y93.139 E0.09179
G1 X142.861 Y95.501 E0.26881
G1 X142.861 Y94.361 E0.09180
G1 X141.639 Y93.139 E0.13899
