; generated by Slic3r 1.0.0RC2 on 2015-01-11 at 12:16:23

; layer_height = 0.24
; perimeters = 2
; top_solid_layers = 4
; bottom_solid_layers = 3
; fill_density = 0.3
; perimeter_speed = 20
; infill_speed = 20
; travel_speed = 60
; nozzle_diameter = 0.5
; filament_diameter = 1.75
; extrusion_multiplier = 1
; perimeters extrusion width = 0.50mm
; infill extrusion width = 0.87mm
; solid infill extrusion width = 0.85mm
; top infill extrusion width = 0.85mm

G21 ; set units to millimeters
G90 ; use absolute coordinates
M83 ; use relative distances for extrusion
M140 S65; Set bed temperature
G28 ; Home all axes
G1 Z5 F200 ; lift nozzle
G1 X2 Y50 F2000; Go to wait for warm position
M116; Wait for all temperatures
G10 P1 S185 R0 ; Set extruder temperature
T1; Select extruder
M116; Wait for all temperatures
G1 F1800.000 E-4.00000
G1 Z0.240 F3600.000
G1 X73.690 Y63.293 F3600.000
G1 E4.00000 F1800.000
G1 X74.180 Y62.763 E0.03601 F240.000
G1 X75.090 Y61.893 E0.06281
G1 X80.370 Y57.303 E0.34904
G1 X81.360 Y56.523 E0.06288
G1 X81.920 Y56.133 E0.03405
G1 X82.680 Y55.663 E0.04458
G1 X83.370 Y55.293 E0.03906
G1 X84.190 Y54.913 E0.04509
G1 X84.890 Y54.643 E0.03743
G1 X85.740 Y54.363 E0.04465
G1 X86.400 Y54.183 E0.03413
G1 X87.350 Y53.973 E0.04854
G1 X120.740 Y47.133 E1.70043
G1 X122.130 Y46.943 E0.06999
G1 X122.860 Y46.893 E0.03651
G1 X123.750 Y46.883 E0.04441
G1 X124.400 Y46.913 E0.03246
G1 X125.300 Y46.993 E0.04508
G1 X126.110 Y47.113 E0.04085
G1 X126.980 Y47.303 E0.04443
G1 X127.690 Y47.503 E0.03680
G1 X128.540 Y47.793 E0.04481
G1 X129.050 Y47.993 E0.02733
G1 X129.870 Y48.353 E0.04468
G1 X130.680 Y48.773 E0.04552
G1 X131.440 Y49.243 E0.04458
G1 X132.000 Y49.633 E0.03405
G1 X133.000 Y50.423 E0.06358
G1 X136.020 Y53.053 E0.19979
G1 X151.170 Y67.193 E1.03390
G1 X152.050 Y68.193 E0.06646
G1 X152.700 Y69.353 E0.06634
G1 X153.100 Y70.623 E0.06643
G1 X153.240 Y71.943 E0.06622
G1 X153.250 Y121.933 E2.49401
G1 X153.210 Y122.633 E0.03498
G1 X151.820 Y135.463 E0.64384
G1 X151.700 Y136.353 E0.04480
G1 X151.580 Y137.013 E0.03347
G1 X151.370 Y137.883 E0.04465
G1 X151.150 Y138.603 E0.03756
G1 X150.840 Y139.443 E0.04467
G1 X150.570 Y140.073 E0.03420
G1 X150.170 Y140.883 E0.04507
G1 X149.810 Y141.503 E0.03577
G1 X149.330 Y142.253 E0.04442
G1 X148.870 Y142.893 E0.03932
G1 X148.300 Y143.583 E0.04465
G1 X147.810 Y144.113 E0.03601
G1 X146.900 Y144.983 E0.06281
G1 X141.340 Y149.803 E0.36711
G1 X140.630 Y150.353 E0.04481
G1 X140.070 Y150.743 E0.03405
G1 X139.310 Y151.213 E0.04458
G1 X138.620 Y151.583 E0.03906
G1 X137.800 Y151.963 E0.04509
G1 X137.100 Y152.233 E0.03743
G1 X136.250 Y152.513 E0.04465
G1 X135.590 Y152.693 E0.03413
G1 X134.710 Y152.883 E0.04492
G1 X133.990 Y153.003 E0.03642
G1 X133.100 Y153.093 E0.04463
G1 X132.380 Y153.123 E0.03595
G1 X131.480 Y153.113 E0.04490
G1 X130.760 Y153.063 E0.03601
G1 X96.480 Y148.873 E1.72296
G1 X95.880 Y148.773 E0.03035
G1 X95.010 Y148.583 E0.04443
G1 X94.300 Y148.383 E0.03680
G1 X73.140 Y141.073 E1.11690
G1 X71.920 Y140.513 E0.06697
G1 X70.850 Y139.713 E0.06665
G1 X69.970 Y138.703 E0.06683
G1 X69.310 Y137.543 E0.06658
G1 X68.900 Y136.263 E0.06706
G1 X68.760 Y134.933 E0.06672
G1 X68.750 Y84.943 E2.49401
G1 X68.790 Y84.253 E0.03448
G1 X70.150 Y71.593 E0.63524
G1 X70.290 Y70.523 E0.05384
G1 X70.410 Y69.863 E0.03347
G1 X70.620 Y68.993 E0.04465
G1 X70.820 Y68.333 E0.03441
G1 X71.120 Y67.493 E0.04450
G1 X71.440 Y66.743 E0.04068
G1 X71.850 Y65.933 E0.04529
G1 X72.180 Y65.373 E0.03243
G1 X72.660 Y64.623 E0.04442
G1 X73.120 Y63.983 E0.03932
G1 X73.642 Y63.351 E0.04091
G1 F1800.000 E-4.00000
G1 X103.438 Y66.693 F3600.000
G1 E4.00000 F1800.000
G1 X109.938 Y66.693 E0.32429 F240.000
G1 X109.938 Y115.659 E2.44289
G1 X96.502 Y131.116 E1.02181
G1 X98.841 Y133.150 E0.15466
G1 X107.370 Y123.339 E0.64857
G1 X107.845 Y123.751 E0.03138
G1 X108.442 Y124.333 E0.04161
G1 X108.958 Y124.961 E0.04056
G1 X109.400 Y125.644 E0.04055
G1 X109.762 Y126.371 E0.04056
G1 X110.041 Y127.135 E0.04056
G1 X110.233 Y127.924 E0.04056
G1 X110.335 Y128.731 E0.04056
G1 X110.346 Y129.544 E0.04056
G1 X110.266 Y130.353 E0.04056
G1 X110.096 Y131.148 E0.04056
G1 X109.839 Y131.919 E0.04055
G1 X109.496 Y132.656 E0.04056
G1 X109.073 Y133.350 E0.04056
G1 X108.562 Y134.009 E0.04161
G1 X103.997 Y139.260 E0.34713
G1 X103.416 Y139.858 E0.04161
G1 X102.787 Y140.373 E0.04056
G1 X102.105 Y140.815 E0.04055
G1 X101.377 Y141.178 E0.04055
G1 X100.614 Y141.457 E0.04056
G1 X99.824 Y141.649 E0.04056
G1 X99.017 Y141.751 E0.04055
G1 X98.204 Y141.762 E0.04056
G1 X97.396 Y141.682 E0.04056
G1 X96.601 Y141.512 E0.04055
G1 X95.830 Y141.254 E0.04056
G1 X95.093 Y140.911 E0.04056
G1 X94.398 Y140.488 E0.04055
G1 X93.739 Y139.977 E0.04161
G1 X90.752 Y137.381 E0.19746
G1 X90.155 Y136.799 E0.04161
G1 X89.639 Y136.171 E0.04056
G1 X89.197 Y135.488 E0.04056
G1 X88.834 Y134.761 E0.04056
G1 X88.555 Y133.997 E0.04056
G1 X88.364 Y133.207 E0.04056
G1 X88.262 Y132.401 E0.04056
G1 X88.251 Y131.588 E0.04055
G1 X88.330 Y130.779 E0.04056
G1 X88.500 Y129.984 E0.04056
G1 X88.758 Y129.213 E0.04055
G1 X89.101 Y128.476 E0.04056
G1 X89.524 Y127.782 E0.04056
G1 X90.035 Y127.123 E0.04161
G1 X98.357 Y117.549 E0.63289
G1 X99.282 Y116.405 E0.07340
G1 X100.131 Y115.187 E0.07406
G1 X100.890 Y113.911 E0.07406
G1 X101.556 Y112.584 E0.07407
G1 X102.125 Y111.213 E0.07406
G1 X102.595 Y109.805 E0.07406
G1 X102.963 Y108.366 E0.07406
G1 X103.227 Y106.906 E0.07406
G1 X103.386 Y105.430 E0.07406
G1 X103.438 Y103.959 E0.07340
G1 X103.438 Y66.768 E1.85547
G1 X102.938 Y66.193 F3600.000
G1 X110.438 Y66.193 E0.37418 F168.000
G1 X110.438 Y115.846 E2.47716
G1 X97.207 Y131.067 E1.00619
G1 X98.792 Y132.444 E0.10477
G1 X107.321 Y122.633 E0.64857
G1 X108.183 Y123.383 E0.05702
G1 X108.811 Y123.994 E0.04371
G1 X109.362 Y124.666 E0.04336
G1 X109.835 Y125.395 E0.04336
G1 X110.222 Y126.173 E0.04336
G1 X110.521 Y126.989 E0.04336
G1 X110.726 Y127.834 E0.04336
G1 X110.835 Y128.696 E0.04336
G1 X110.847 Y129.565 E0.04336
G1 X110.761 Y130.430 E0.04336
G1 X110.580 Y131.280 E0.04336
G1 X110.304 Y132.104 E0.04336
G1 X109.937 Y132.892 E0.04336
G1 X109.485 Y133.634 E0.04336
G1 X108.948 Y134.326 E0.04371
G1 X104.365 Y139.599 E0.34853
G1 X103.754 Y140.227 E0.04371
G1 X103.082 Y140.778 E0.04336
G1 X102.353 Y141.250 E0.04336
G1 X101.575 Y141.638 E0.04336
G1 X100.759 Y141.936 E0.04336
G1 X99.914 Y142.141 E0.04336
G1 X99.052 Y142.250 E0.04336
G1 X98.183 Y142.262 E0.04336
G1 X97.318 Y142.177 E0.04336
G1 X96.469 Y141.995 E0.04336
G1 X95.644 Y141.719 E0.04336
G1 X94.856 Y141.353 E0.04336
G1 X94.114 Y140.901 E0.04336
G1 X93.422 Y140.364 E0.04371
G1 X90.414 Y137.749 E0.19886
G1 X89.786 Y137.138 E0.04371
G1 X89.235 Y136.466 E0.04336
G1 X88.762 Y135.737 E0.04336
G1 X88.374 Y134.959 E0.04336
G1 X88.076 Y134.143 E0.04336
G1 X87.871 Y133.298 E0.04336
G1 X87.762 Y132.436 E0.04336
G1 X87.750 Y131.567 E0.04336
G1 X87.836 Y130.702 E0.04336
G1 X88.017 Y129.852 E0.04336
G1 X88.293 Y129.028 E0.04336
G1 X88.659 Y128.240 E0.04336
G1 X89.112 Y127.498 E0.04336
G1 X89.648 Y126.806 E0.04371
G1 X97.974 Y117.228 E0.63314
G1 X98.882 Y116.105 E0.07206
G1 X99.710 Y114.916 E0.07228
G1 X100.451 Y113.671 E0.07228
G1 X101.101 Y112.376 E0.07228
G1 X101.656 Y111.038 E0.07228
G1 X102.115 Y109.663 E0.07228
G1 X102.474 Y108.260 E0.07228
G1 X102.732 Y106.834 E0.07228
G1 X102.887 Y105.394 E0.07228
G1 X102.938 Y103.950 E0.07206
G1 X102.938 Y66.268 E1.87997
G1 X103.371 Y66.443 F3600.000
G1 X109.469 Y67.083 F3600.000
G1 X109.549 Y67.163 E0.00906 F240.000
G1 X109.549 Y68.297 E0.09067
G1 X108.335 Y67.083 E0.13729
G1 X107.202 Y67.083 E0.09067
G1 X109.549 Y69.430 E0.26552
G1 X109.549 Y70.564 E0.09067
G1 X106.068 Y67.083 E0.39374
G1 X104.934 Y67.083 E0.09067
G1 X109.549 Y71.697 E0.52197
G1 X109.549 Y72.831 E0.09067
G1 X103.854 Y67.137 E0.64412
G1 X103.828 Y68.244 E0.08858
G1 X109.549 Y73.965 E0.64711
G1 X109.549 Y75.098 E0.09067
G1 X103.828 Y69.377 E0.64711
G1 X103.828 Y70.511 E0.09067
G1 X109.549 Y76.232 E0.64711
G1 X109.549 Y77.366 E0.09067
G1 X103.828 Y71.645 E0.64711
G1 X103.828 Y72.778 E0.09067
G1 X109.549 Y78.499 E0.64711
G1 X109.549 Y79.633 E0.09067
G1 X103.828 Y73.912 E0.64711
G1 X103.828 Y75.046 E0.09067
G1 X109.549 Y80.766 E0.64711
G1 X109.549 Y81.900 E0.09067
G1 X103.828 Y76.179 E0.64711
G1 X103.828 Y77.313 E0.09067
G1 X109.549 Y83.034 E0.64711
G1 X109.549 Y84.167 E0.09067
G1 X103.828 Y78.446 E0.64711
G1 X103.828 Y79.580 E0.09067
G1 X109.549 Y85.301 E0.64711
G1 X109.549 Y86.435 E0.09067
G1 X103.828 Y80.714 E0.64711
G1 X103.828 Y81.847 E0.09067
G1 X109.549 Y87.568 E0.64711
G1 X109.549 Y88.702 E0.09067
G1 X103.828 Y82.981 E0.64711
G1 X103.828 Y84.115 E0.09067
G1 X109.549 Y89.835 E0.64711
G1 X109.549 Y90.969 E0.09067
G1 X103.828 Y85.248 E0.64711
G1 X103.828 Y86.382 E0.09067
G1 X109.549 Y92.103 E0.64711
G1 X109.549 Y93.236 E0.09067
G1 X103.828 Y87.515 E0.64711
G1 X103.828 Y88.649 E0.09067
G1 X109.549 Y94.370 E0.64711
G1 X109.549 Y95.503 E0.09067
G1 X103.828 Y89.783 E0.64711
G1 X103.828 Y90.916 E0.09067
G1 X109.549 Y96.637 E0.64711
G1 X109.549 Y97.771 E0.09067
G1 X103.828 Y92.050 E0.64711
G1 X103.828 Y93.183 E0.09067
G1 X109.549 Y98.904 E0.64711
G1 X109.549 Y100.038 E0.09067
G1 X103.828 Y94.317 E0.64711
G1 X103.828 Y95.451 E0.09067
G1 X109.549 Y101.172 E0.64711
G1 X109.549 Y102.305 E0.09067
G1 X103.828 Y96.584 E0.64711
G1 X103.828 Y97.718 E0.09067
G1 X109.549 Y103.439 E0.64711
G1 X109.549 Y104.572 E0.09067
G1 X103.828 Y98.852 E0.64711
G1 X103.828 Y99.985 E0.09067
G1 X109.549 Y105.706 E0.64711
G1 X109.549 Y106.840 E0.09067
G1 X103.828 Y101.119 E0.64711
G1 X103.828 Y102.252 E0.09067
G1 X109.549 Y107.973 E0.64711
G1 X109.549 Y109.107 E0.09067
G1 X103.828 Y103.386 E0.64711
G1 X103.809 Y104.501 E0.08915
G1 X109.549 Y110.241 E0.64927
G1 X109.549 Y111.374 E0.09067
G1 X103.761 Y105.586 E0.65471
G1 X103.650 Y106.609 E0.08233
G1 X109.549 Y112.508 E0.66719
G1 X109.549 Y113.641 E0.09067
G1 X103.499 Y107.591 E0.68436
G1 X103.319 Y108.545 E0.07764
G1 X109.549 Y114.775 E0.70468
G1 X109.365 Y115.725 E0.07736
G1 X103.088 Y109.448 E0.70999
G1 X102.832 Y110.325 E0.07310
G1 X108.838 Y116.331 E0.67935
G1 X108.310 Y116.938 E0.06427
G1 X102.548 Y111.175 E0.65180
G1 X102.226 Y111.986 E0.06981
G1 X107.783 Y117.544 E0.62866
G1 X107.256 Y118.150 E0.06427
G1 X101.891 Y112.785 E0.60692
G1 X101.512 Y113.540 E0.06755
G1 X106.729 Y118.757 E0.59013
G1 X106.202 Y119.363 E0.06427
G1 X101.121 Y114.283 E0.57465
G1 X100.699 Y114.994 E0.06615
G1 X105.675 Y119.970 E0.56285
G1 X105.147 Y120.576 E0.06427
G1 X100.257 Y115.686 E0.55312
G1 X104.620 Y121.183 F3600.000
G1 X99.792 Y116.355 E0.54613 F240.000
G1 X99.303 Y116.999 E0.06471
G1 X104.093 Y121.789 E0.54182
G1 X103.566 Y122.396 E0.06427
G1 X98.796 Y117.626 E0.53951
G1 X98.275 Y118.238 E0.06432
G1 X103.039 Y123.002 E0.53887
G1 X102.512 Y123.608 E0.06427
G1 X97.748 Y118.845 E0.53887
G1 X97.220 Y119.451 E0.06427
G1 X101.984 Y124.215 E0.53887
G1 X101.457 Y124.821 E0.06427
G1 X96.693 Y120.057 E0.53887
G1 X96.166 Y120.664 E0.06427
G1 X100.930 Y125.428 E0.53887
G1 X100.403 Y126.034 E0.06427
G1 X95.639 Y121.270 E0.53887
G1 X95.112 Y121.877 E0.06427
G1 X99.876 Y126.641 E0.53887
G1 X99.348 Y127.247 E0.06427
G1 X94.584 Y122.483 E0.53887
G1 X94.057 Y123.090 E0.06427
G1 X98.821 Y127.854 E0.53887
G1 X98.294 Y128.460 E0.06427
G1 X93.530 Y123.696 E0.53887
G1 X93.003 Y124.303 E0.06427
G1 X97.767 Y129.067 E0.53887
G1 X97.240 Y129.673 E0.06427
G1 X92.476 Y124.909 E0.53887
G1 X91.949 Y125.515 E0.06427
G1 X96.713 Y130.279 E0.53887
G1 X96.185 Y130.886 E0.06427
G1 X91.421 Y126.122 E0.53887
G1 X88.912 Y133.815 F3600.000
G1 X95.996 Y140.899 E0.80125 F240.000
G1 X97.535 Y141.304 E0.12730
G1 X88.658 Y132.427 E1.00413
G1 X88.670 Y131.306 E0.08970
G1 X98.729 Y141.365 E1.13785
G1 X99.761 Y141.263 E0.08291
G1 X88.825 Y130.328 E1.23695
G1 X89.088 Y129.456 E0.07277
G1 X100.658 Y141.026 E1.30869
G1 X101.464 Y140.699 E0.06962
G1 X89.439 Y128.674 E1.36024
G1 X89.870 Y127.971 E0.06592
G1 X102.193 Y140.294 E1.39386
G1 X102.849 Y139.817 E0.06490
G1 X90.367 Y127.335 E1.41186
G1 X90.894 Y126.728 E0.06427
G1 X103.416 Y139.250 E1.41634
G1 X103.982 Y138.683 E0.06411
G1 X98.935 Y133.636 E0.57093
G1 X99.462 Y133.029 E0.06427
G1 X104.510 Y138.077 E0.57094
G1 X105.037 Y137.470 E0.06427
G1 X99.989 Y132.423 E0.57094
G1 X100.517 Y131.816 E0.06427
G1 X105.564 Y136.864 E0.57094
G1 X106.091 Y136.257 E0.06427
G1 X101.044 Y131.210 E0.57094
G1 X101.571 Y130.603 E0.06427
G1 X106.618 Y135.651 E0.57094
G1 X107.146 Y135.044 E0.06427
G1 X102.098 Y129.997 E0.57094
G1 X102.625 Y129.390 E0.06427
G1 X107.673 Y134.438 E0.57094
G1 X108.200 Y133.831 E0.06427
G1 X103.152 Y128.784 E0.57094
G1 X103.680 Y128.177 E0.06427
G1 X108.699 Y133.197 E0.56773
G1 X109.135 Y132.499 E0.06579
G1 X104.207 Y127.571 E0.55744
G1 X104.734 Y126.965 E0.06427
G1 X109.493 Y131.724 E0.53830
G1 X109.760 Y130.857 E0.07252
G1 X105.261 Y126.358 E0.50890
G1 X105.788 Y125.752 E0.06427
G1 X109.921 Y129.885 E0.46748
G1 X109.946 Y128.776 E0.08869
G1 X106.316 Y125.145 E0.41068
G1 X106.843 Y124.539 E0.06427
G1 X109.705 Y127.401 E0.32380
G1 X108.668 Y125.231 F3600.000
G1 X107.370 Y123.932 E0.14686 F240.000
G1 F1800.000 E-4.00000
G1 X91.331 Y137.368 F3600.000
G1 E4.00000 F1800.000
G1 X90.183 Y136.220 E0.12985 F240.000
G1 F1800.000 E-4.00000
G1 X82.502 Y134.193 F3600.000
G1 E4.00000 F1800.000
G1 X76.002 Y134.193 E0.32429 F240.000
G1 X76.002 Y85.289 E2.43986
G1 X91.400 Y71.904 E1.01787
G1 X89.366 Y69.564 E0.15466
G1 X79.555 Y78.093 E0.64857
G1 X79.142 Y77.618 E0.03138
G1 X78.631 Y76.959 E0.04161
G1 X78.208 Y76.265 E0.04056
G1 X77.866 Y75.528 E0.04055
G1 X77.608 Y74.757 E0.04056
G1 X77.438 Y73.962 E0.04056
G1 X77.358 Y73.153 E0.04056
G1 X77.369 Y72.340 E0.04056
G1 X77.471 Y71.534 E0.04056
G1 X77.663 Y70.744 E0.04055
G1 X77.942 Y69.980 E0.04056
G1 X78.304 Y69.253 E0.04056
G1 X78.746 Y68.570 E0.04056
G1 X79.262 Y67.942 E0.04056
G1 X79.859 Y67.360 E0.04161
G1 X85.111 Y62.796 E0.34713
G1 X85.770 Y62.285 E0.04161
G1 X86.464 Y61.862 E0.04056
G1 X87.201 Y61.519 E0.04055
G1 X87.972 Y61.261 E0.04056
G1 X88.767 Y61.091 E0.04056
G1 X89.576 Y61.011 E0.04055
G1 X90.389 Y61.022 E0.04056
G1 X91.195 Y61.124 E0.04056
G1 X91.985 Y61.316 E0.04056
G1 X92.749 Y61.595 E0.04056
G1 X93.476 Y61.958 E0.04056
G1 X94.158 Y62.400 E0.04056
G1 X94.787 Y62.915 E0.04055
G1 X95.368 Y63.513 E0.04161
G1 X97.965 Y66.500 E0.19746
G1 X98.476 Y67.159 E0.04161
G1 X98.899 Y67.853 E0.04055
G1 X99.242 Y68.590 E0.04056
G1 X99.500 Y69.361 E0.04056
G1 X99.670 Y70.156 E0.04055
G1 X99.749 Y70.965 E0.04056
G1 X99.738 Y71.778 E0.04056
G1 X99.636 Y72.584 E0.04055
G1 X99.445 Y73.374 E0.04056
G1 X99.166 Y74.138 E0.04055
G1 X98.803 Y74.865 E0.04055
G1 X98.361 Y75.548 E0.04056
G1 X97.845 Y76.176 E0.04056
G1 X97.248 Y76.758 E0.04161
G1 X89.629 Y83.381 E0.50365
G1 X88.558 Y84.381 E0.07310
G1 X87.552 Y85.464 E0.07377
G1 X86.626 Y86.617 E0.07376
G1 X85.784 Y87.832 E0.07376
G1 X85.031 Y89.104 E0.07376
G1 X84.370 Y90.427 E0.07377
G1 X83.805 Y91.794 E0.07376
G1 X83.339 Y93.197 E0.07376
G1 X82.974 Y94.629 E0.07376
G1 X82.712 Y96.085 E0.07376
G1 X82.554 Y97.555 E0.07376
G1 X82.502 Y99.019 E0.07310
G1 X82.502 Y134.118 E1.75111
G1 X83.002 Y134.693 F3600.000
G1 X75.502 Y134.693 E0.37418 F168.000
G1 X75.502 Y85.061 E2.47617
G1 X90.694 Y71.854 E1.00429
G1 X89.317 Y70.269 E0.10477
G1 X79.505 Y78.798 E0.64857
G1 X78.756 Y77.936 E0.05702
G1 X78.219 Y77.243 E0.04371
G1 X77.767 Y76.501 E0.04336
G1 X77.400 Y75.713 E0.04336
G1 X77.125 Y74.889 E0.04336
G1 X76.943 Y74.039 E0.04336
G1 X76.857 Y73.174 E0.04336
G1 X76.869 Y72.305 E0.04336
G1 X76.978 Y71.443 E0.04336
G1 X77.183 Y70.599 E0.04336
G1 X77.482 Y69.782 E0.04336
G1 X77.869 Y69.005 E0.04336
G1 X78.342 Y68.275 E0.04336
G1 X78.893 Y67.603 E0.04336
G1 X79.521 Y66.992 E0.04371
G1 X84.793 Y62.409 E0.34853
G1 X85.486 Y61.872 E0.04371
G1 X86.228 Y61.420 E0.04336
G1 X87.016 Y61.054 E0.04336
G1 X87.840 Y60.778 E0.04336
G1 X88.690 Y60.596 E0.04336
G1 X89.555 Y60.511 E0.04336
G1 X90.424 Y60.523 E0.04336
G1 X91.286 Y60.632 E0.04336
G1 X92.130 Y60.837 E0.04336
G1 X92.946 Y61.135 E0.04336
G1 X93.724 Y61.523 E0.04336
G1 X94.454 Y61.995 E0.04336
G1 X95.126 Y62.546 E0.04336
G1 X95.737 Y63.174 E0.04371
