; generated by Slic3r 1.2.5 on 2015-02-19 at 15:07:37

; external perimeters extrusion width = 0.50mm
; perimeters extrusion width = 0.85mm
; infill extrusion width = 0.87mm
; solid infill extrusion width = 0.85mm
; top infill extrusion width = 0.85mm

G21 ; set units to millimeters
G90 ; use absolute coordinates
M83 ; use relative distances for extrusion
M140 S65; Set bed temperature
G28 ; Home all axes
G1 Z5 F200 ; lift nozzle
G1 X2 Y50 F2000; Go to wait for warm position
M116; Wait for all temperatures
G10 P1 S185 R0 ; Set extruder temperature
T1; Select extruder
M116; Wait for all temperatures
G1 E-4.00000 F1800.00000
G1 Z0.240 F3600.000
G1 X25.002 Y50.070 F3600.000
G1 E4.00000 F1800.00000
G1 X27.916 Y49.126 E0.24404 F240.000
G1 X172.916 Y36.626 E11.59561
G1 X173.500 Y36.601 E0.04657
G1 X181.500 Y36.601 E0.63739
G1 X183.789 Y36.998 E0.18513
G1 X185.811 Y38.143 E0.18513 F240.000
G1 X187.330 Y39.902 E0.18513
G1 X188.167 Y42.069 E0.18513
G1 X188.298 Y43.400 E0.10652
G1 X188.298 Y88.400 E3.58534
G1 X187.853 Y90.820 E0.19604
G1 X161.876 Y159.020 E5.81466
G1 X160.690 Y161.018 E0.18513
G1 X158.900 Y162.500 E0.18513
G1 X156.716 Y163.293 E0.18513
G1 X155.523 Y163.399 E0.09548
G1 X110.523 Y163.399 E3.58534
G1 X109.615 Y163.338 E0.07247
G1 X75.335 Y158.721 E2.75587
G1 X72.231 Y157.471 E0.26666
G1 X59.731 Y148.333 E1.23370
G1 X57.727 Y146.012 E0.24430
G1 X22.484 Y79.067 E6.02775
G1 X21.702 Y75.900 E0.25992
G1 X21.702 Y55.900 E1.59348
G1 X22.099 Y53.610 E0.18513
G1 X23.243 Y51.588 E0.18513
G1 X24.945 Y50.119 E0.17915
G1 E-4.00000 F1800.00000
G1 X82.732 Y82.192 F3600.000
G1 E4.00000 F1800.00000
G1 X83.314 Y81.274 E0.08663 F240.000
G1 X83.356 Y81.274 E0.00332
G1 X83.962 Y80.705 E0.06624
G1 X84.814 Y80.237 E0.07750
G1 X85.757 Y79.995 E0.07750
G1 X86.729 Y79.995 E0.07750
G1 X86.851 Y80.026 E0.00999
G1 X87.671 Y80.237 E0.06751 F240.000
G1 X88.524 Y80.705 E0.07750
G1 X89.233 Y81.371 E0.07750
G1 X89.754 Y82.192 E0.07750
G1 X90.055 Y83.117 E0.07750
G1 X90.116 Y84.088 E0.07750
G1 X89.933 Y85.044 E0.07750
G1 X89.519 Y85.924 E0.07749
G1 X88.899 Y86.673 E0.07750
G1 X88.112 Y87.245 E0.07750
G1 X87.208 Y87.603 E0.07750
G1 X86.243 Y87.725 E0.07750
G1 X85.278 Y87.603 E0.07750
G1 X84.374 Y87.245 E0.07750
G1 X83.587 Y86.673 E0.07750
G1 X82.967 Y85.924 E0.07750
G1 X82.552 Y85.044 E0.07750
G1 X82.370 Y84.088 E0.07750
G1 X82.431 Y83.117 E0.07750
G1 X82.709 Y82.264 E0.07152
G1 X83.300 Y82.460 F3600.000
G1 X83.737 Y81.772 E0.06495 F240.000
G1 X84.331 Y81.214 E0.06495
G1 X85.046 Y80.821 E0.06495
G1 X85.835 Y80.618 E0.06495
G1 X86.651 Y80.618 E0.06495 F240.000
G1 X87.440 Y80.821 E0.06495
G1 X88.154 Y81.214 E0.06495
G1 X88.749 Y81.772 E0.06495
G1 X89.185 Y82.460 E0.06495
G1 X89.437 Y83.235 E0.06495
G1 X89.489 Y84.049 E0.06495
G1 X89.336 Y84.849 E0.06495
G1 X88.989 Y85.587 E0.06495
G1 X88.469 Y86.215 E0.06495
G1 X87.810 Y86.694 E0.06495
G1 X87.052 Y86.994 E0.06495
G1 X86.243 Y87.097 E0.06495
G1 X85.434 Y86.994 E0.06495
G1 X84.676 Y86.694 E0.06495
G1 X84.017 Y86.215 E0.06495
G1 X83.497 Y85.587 E0.06495
G1 X83.150 Y84.849 E0.06495
G1 X82.997 Y84.049 E0.06495
G1 X83.049 Y83.235 E0.06495
G1 X83.277 Y82.531 E0.05897
G1 X83.033 Y82.038 F3600.000
G1 E-4.00000 F1800.00000
G1 X85.757 Y130.995 F3600.000
G1 E4.00000 F1800.00000
G1 X86.729 Y130.995 E0.07750 F240.000
G1 X86.851 Y131.026 E0.00999
G1 X87.671 Y131.237 E0.06750 F240.000
G1 X88.524 Y131.705 E0.07751
G1 X89.233 Y132.371 E0.07750
G1 X89.754 Y133.192 E0.07750
G1 X90.055 Y134.117 E0.07750
G1 X90.116 Y135.088 E0.07750
G1 X89.933 Y136.044 E0.07750
G1 X89.519 Y136.924 E0.07750
G1 X88.899 Y137.673 E0.07750
G1 X88.112 Y138.245 E0.07750
G1 X87.325 Y138.557 E0.06751
G1 X87.208 Y138.603 E0.00999
G1 X86.243 Y138.725 E0.07750
G1 X85.278 Y138.603 E0.07749
G1 X84.374 Y138.245 E0.07750
G1 X83.587 Y137.673 E0.07750
G1 X82.967 Y136.924 E0.07750
G1 X82.552 Y136.044 E0.07750
G1 X82.370 Y135.088 E0.07750
G1 X82.431 Y134.117 E0.07750
G1 X82.732 Y133.192 E0.07750
G1 X83.253 Y132.371 E0.07750
G1 X83.962 Y131.705 E0.07750
G1 X84.814 Y131.237 E0.07750
G1 X85.684 Y131.013 E0.07152
G1 X85.835 Y131.618 F3600.000
G1 X86.696 Y131.630 E0.06855 F240.000
G1 X87.440 Y131.821 E0.06123
G1 X88.154 Y132.214 E0.06495
G1 X88.749 Y132.772 E0.06495
G1 X89.160 Y133.421 E0.06123
G1 X89.437 Y134.235 E0.06855
G1 X89.489 Y135.049 E0.06495
G1 X89.344 Y135.804 E0.06123
G1 X88.989 Y136.587 E0.06855
G1 X88.469 Y137.215 E0.06495
G1 X87.810 Y137.694 E0.06495
G1 X87.052 Y137.994 E0.06495
G1 X86.243 Y138.097 E0.06495
G1 X85.434 Y137.994 E0.06495
G1 X84.676 Y137.694 E0.06495
G1 X84.017 Y137.215 E0.06495
G1 X83.497 Y136.587 E0.06495
G1 X83.150 Y135.849 E0.06495
G1 X83.000 Y135.002 E0.06855
G1 X83.049 Y134.235 E0.06123
G1 X83.300 Y133.460 E0.06495
G1 X83.737 Y132.772 E0.06495
G1 X84.331 Y132.214 E0.06495
G1 X85.046 Y131.821 E0.06495
G1 X85.763 Y131.637 E0.05897
G1 X86.052 Y131.168 F3600.000
G1 E-4.00000 F1800.00000
G1 X77.116 Y150.406 F3600.000
G1 E4.00000 F1800.00000
G1 X77.116 Y147.483 E0.23287 F240.000
G1 X71.605 Y141.971 E0.62104
G1 X64.616 Y141.971 E0.55679
G1 X64.616 Y77.718 E5.11931
G1 X107.869 Y77.718 E3.44615
G1 X107.869 Y141.971 E5.11931
G1 X100.881 Y141.971 E0.55679
G1 X95.369 Y147.483 E0.62104
G1 X95.369 Y150.406 E0.23287
G1 X94.337 Y149.849 E0.09344
G1 X93.061 Y149.282 E0.11126
G1 X91.745 Y148.814 E0.11128
G1 X90.392 Y148.445 E0.11172
G1 X89.025 Y148.182 E0.11092
G1 X87.666 Y148.027 E0.10895
G1 X86.241 Y147.971 E0.11369
G1 X84.820 Y148.026 E0.11325
G1 X83.459 Y148.183 E0.10918
G1 X82.094 Y148.445 E0.11074
G1 X80.741 Y148.814 E0.11174
G1 X79.425 Y149.282 E0.11127
G1 X78.149 Y149.849 E0.11128
G1 X77.182 Y150.370 E0.08745
G1 X76.493 Y151.526 F3600.000
G1 X76.493 Y147.741 E0.30155 F168.000
G1 X71.346 Y142.595 E0.57988
G1 X63.993 Y142.595 E0.58589
G1 X63.993 Y77.095 E5.21866
G1 X108.493 Y77.095 E3.54550
G1 X108.493 Y142.595 E5.21866
G1 X101.139 Y142.595 E0.58589
G1 X95.993 Y147.741 E0.57988
G1 X95.993 Y151.526 E0.30155
G1 X95.250 Y151.049 E0.07031
G1 X94.062 Y150.409 E0.10750
G1 X92.829 Y149.862 E0.10749
G1 X91.558 Y149.409 E0.10750
G1 X90.255 Y149.054 E0.10763
G1 X88.929 Y148.799 E0.10761
G1 X87.590 Y148.646 E0.10739
G1 X86.242 Y148.595 E0.10742
G1 X84.891 Y148.646 E0.10771
G1 X83.556 Y148.799 E0.10705
G1 X82.231 Y149.054 E0.10755
G1 X80.928 Y149.409 E0.10763
G1 X79.657 Y149.862 E0.10750
G1 X78.424 Y150.409 E0.10750
G1 X77.236 Y151.049 E0.10749
G1 X76.556 Y151.485 E0.06434
G1 X76.657 Y151.053 F3600.000
G1 X77.756 Y149.421 F3600.000
G1 X77.680 Y149.344 E0.00864 F240.000
G1 X77.680 Y148.213 E0.09023
G1 X78.530 Y149.064 E0.09593
G1 X79.319 Y148.722 E0.06862
G1 X65.180 Y134.582 E1.59550
G1 X65.180 Y133.452 E0.09023
G1 X80.153 Y148.425 E1.68960
G1 X81.014 Y148.155 E0.07200
G1 X65.180 Y132.321 E1.78678
G1 X65.180 Y131.190 E0.09023
G1 X81.903 Y147.913 E1.88705
G1 X82.847 Y147.727 E0.07681
G1 X65.180 Y130.059 E1.99363
G1 X65.180 Y128.928 E0.09023
G1 X83.825 Y147.574 E2.10399
G1 X84.844 Y147.462 E0.08180
G1 X65.180 Y127.797 E2.21898
G1 X65.180 Y126.666 E0.09023
G1 X85.933 Y147.419 E2.34179
G1 X87.085 Y147.440 E0.09192
G1 X65.180 Y125.535 E2.47176
G1 X65.180 Y124.404 E0.09023
G1 X88.309 Y147.533 E2.60987
G1 X89.631 Y147.725 E0.10666
G1 X65.180 Y123.274 E2.75914
G1 X65.180 Y122.143 E0.09023
G1 X91.088 Y148.051 E2.92346
G1 X92.737 Y148.569 E0.13793
G1 X65.180 Y121.012 E3.10955
G1 X65.180 Y119.881 E0.09023
G1 X82.452 Y137.153 E1.94900
G1 X81.862 Y135.433 F3600.000
G1 X65.180 Y118.750 E1.88249 F240.000
G1 X65.180 Y117.619 E0.09023
G1 X81.856 Y134.295 E1.88172
G1 X82.077 Y133.385 E0.07470
G1 X65.180 Y116.488 E1.90668
G1 X65.180 Y115.357 E0.09023
G1 X82.434 Y132.611 E1.94693
G1 X82.891 Y131.938 E0.06495
G1 X65.180 Y114.226 E1.99859
G1 X65.180 Y113.096 E0.09023
G1 X83.475 Y131.390 E2.06440
G1 X84.166 Y130.950 E0.06536
G1 X65.180 Y111.965 E2.14238
G1 X65.180 Y110.834 E0.09023
G1 X84.963 Y130.617 E2.23235
G1 X85.908 Y130.431 E0.07687
G1 X65.180 Y109.703 E2.33902
G1 X65.180 Y108.572 E0.09023
G1 X87.122 Y130.514 E2.47594
G1 E-4.00000 F1800.00000
G1 X83.886 Y138.587 F3600.000
G1 E4.00000 F1800.00000
G1 X94.708 Y149.409 E1.22123 F240.000
G1 X94.806 Y148.376 E0.08280
G1 X85.647 Y139.218 E1.03349
G1 X86.785 Y139.224 E0.09078
G1 X94.808 Y147.247 E0.90534
G1 X95.374 Y146.682 E0.06381
G1 X87.704 Y139.013 E0.86543
G1 X88.490 Y138.667 E0.06847
G1 X95.939 Y146.117 E0.84059
G1 X96.504 Y145.551 E0.06381
G1 X89.145 Y138.191 E0.83049
G1 X89.688 Y137.604 E0.06385
G1 X97.070 Y144.986 E0.83299
G1 X97.635 Y144.420 E0.06381
G1 X90.141 Y136.926 E0.84568
G1 X90.488 Y136.142 E0.06839
G1 X98.201 Y143.855 E0.87030
G1 X98.766 Y143.289 E0.06381
G1 X90.669 Y135.192 E0.91366
G1 X90.609 Y134.002 E0.09514
G1 X99.332 Y142.724 E0.98424
G1 X99.897 Y142.158 E0.06381
G1 X65.180 Y107.441 E3.91753
G1 X65.180 Y106.310 E0.09023
G1 X100.463 Y141.593 E3.98134
G1 X101.408 Y141.408 E0.07689
G1 X65.180 Y105.179 E4.08804
G1 X65.180 Y104.048 E0.09023
G1 X102.539 Y141.408 E4.21566
G1 X103.670 Y141.408 E0.09023
G1 X65.180 Y102.918 E4.34327
G1 X65.180 Y101.787 E0.09023
G1 X104.801 Y141.408 E4.47088
G1 X105.932 Y141.408 E0.09023
G1 X65.180 Y100.656 E4.59849
G1 X65.180 Y99.525 E0.09023
G1 X107.063 Y141.408 E4.72610
G1 X107.306 Y140.520 E0.07342
G1 X65.180 Y98.394 E4.75358
G1 X65.180 Y97.263 E0.09023
G1 X107.306 Y139.389 E4.75358
G1 X107.306 Y138.259 E0.09023
G1 X65.180 Y96.132 E4.75358
G1 X65.180 Y95.001 E0.09023
G1 X107.306 Y137.128 E4.75358
G1 X107.306 Y135.997 E0.09023
G1 X65.180 Y93.870 E4.75358
G1 X65.180 Y92.740 E0.09023
G1 X107.306 Y134.866 E4.75358
G1 X107.306 Y133.735 E0.09023
G1 X65.180 Y91.609 E4.75358
G1 X65.180 Y90.478 E0.09023
G1 X107.306 Y132.604 E4.75358
G1 X107.306 Y131.473 E0.09023
G1 X65.180 Y89.347 E4.75358
G1 X65.180 Y88.216 E0.09023
G1 X107.306 Y130.342 E4.75358
G1 X107.306 Y129.211 E0.09023
G1 X65.180 Y87.085 E4.75358
G1 X65.180 Y85.954 E0.09023
G1 X107.306 Y128.081 E4.75358
G1 X107.306 Y126.950 E0.09023
G1 X65.180 Y84.823 E4.75358
G1 X65.180 Y83.692 E0.09023
G1 X107.306 Y125.819 E4.75358
G1 X107.306 Y124.688 E0.09023
G1 X65.180 Y82.561 E4.75358
G1 X65.180 Y81.431 E0.09023
G1 X107.306 Y123.557 E4.75358
G1 X107.306 Y122.426 E0.09023
G1 X65.180 Y80.300 E4.75358
G1 X65.180 Y79.169 E0.09023
G1 X107.306 Y121.295 E4.75358
G1 X107.306 Y120.164 E0.09023
G1 X65.423 Y78.281 E4.72611
G1 X66.554 Y78.281 E0.09023
G1 X107.306 Y119.033 E4.59850
G1 X107.306 Y117.903 E0.09023
G1 X67.685 Y78.281 E4.47089
G1 X68.816 Y78.281 E0.09023
G1 X107.306 Y116.772 E4.34328
G1 X107.306 Y115.641 E0.09023
G1 X69.947 Y78.281 E4.21566
G1 X71.078 Y78.281 E0.09023
G1 X107.306 Y114.510 E4.08805
G1 X107.306 Y113.379 E0.09023
G1 X72.209 Y78.281 E3.96044
G1 X73.339 Y78.281 E0.09023
G1 X107.306 Y112.248 E3.83283
G1 X107.306 Y99.808 F3600.000
G1 X90.619 Y83.121 E1.88295 F240.000
G1 X90.652 Y84.285 E0.09285
G1 X107.306 Y100.939 E1.87930
G1 X107.306 Y102.070 E0.09023
G1 X90.468 Y85.232 E1.90007
G1 X90.106 Y86.001 E0.06781
G1 X107.306 Y103.201 E1.94091
G1 X107.306 Y104.332 E0.09023
G1 X89.638 Y86.664 E1.99367
G1 X89.081 Y87.238 E0.06381
G1 X107.306 Y105.463 E2.05654
G1 X107.306 Y106.594 E0.09023
G1 X88.426 Y87.713 E2.13045
G1 X87.625 Y88.044 E0.06910
G1 X107.306 Y107.725 E2.22080
G1 X107.306 Y108.855 E0.09023
G1 X86.687 Y88.237 E2.32664
G1 X85.521 Y88.202 E0.09307
G1 X107.306 Y109.986 E2.45820
G1 X107.306 Y111.117 E0.09023
G1 X74.470 Y78.281 E3.70522
G1 X75.601 Y78.281 E0.09023
G1 X81.888 Y84.568 E0.70944
G1 X81.849 Y83.398 E0.09341
G1 X76.732 Y78.281 E0.57741
G1 X77.863 Y78.281 E0.09023
G1 X82.050 Y82.468 E0.47245
G1 X82.391 Y81.678 E0.06865
G1 X78.994 Y78.281 E0.38332
G1 X80.125 Y78.281 E0.09023
G1 X82.830 Y80.986 E0.30525
G1 X83.418 Y80.444 E0.06386
G1 X81.256 Y78.281 E0.24398
G1 X82.387 Y78.281 E0.09023
G1 X84.095 Y79.989 E0.19275
G1 X84.875 Y79.639 E0.06828
G1 X83.517 Y78.281 E0.15324
G1 X84.648 Y78.281 E0.09023
G1 X85.798 Y79.431 E0.12977
G1 X86.974 Y79.476 E0.09385
G1 X85.779 Y78.281 E0.13480
G1 X86.910 Y78.281 E0.09023
G1 X107.306 Y98.677 E2.30150
G1 X107.306 Y97.546 E0.09023
G1 X88.041 Y78.281 E2.17389
G1 X89.172 Y78.281 E0.09023
G1 X107.306 Y96.416 E2.04628
G1 X107.306 Y95.285 E0.09023
G1 X90.303 Y78.281 E1.91867
G1 X91.434 Y78.281 E0.09023
G1 X107.306 Y94.154 E1.79106
G1 X107.306 Y93.023 E0.09023
G1 X92.565 Y78.281 E1.66345
G1 X93.695 Y78.281 E0.09023
G1 X107.306 Y91.892 E1.53584
G1 X107.306 Y90.761 E0.09023
G1 X94.826 Y78.281 E1.40823
G1 X95.957 Y78.281 E0.09023
G1 X107.306 Y89.630 E1.28062
G1 X107.306 Y88.499 E0.09023
G1 X97.088 Y78.281 E1.15301
G1 X98.219 Y78.281 E0.09023
G1 X107.306 Y87.368 E1.02540
G1 X107.306 Y86.238 E0.09023
G1 X99.350 Y78.281 E0.89779
G1 X100.481 Y78.281 E0.09023
G1 X107.306 Y85.107 E0.77018
G1 X107.306 Y83.976 E0.09023
G1 X101.612 Y78.281 E0.64257
G1 X102.743 Y78.281 E0.09023
G1 X107.306 Y82.845 E0.51496
G1 X107.306 Y81.714 E0.09023
G1 X103.873 Y78.281 E0.38735
G1 X105.004 Y78.281 E0.09023
G1 X107.306 Y80.583 E0.25974
G1 X107.306 Y79.452 E0.09023
G1 X106.135 Y78.281 E0.13212
G1 X107.266 Y78.281 E0.09023
G1 X107.306 Y78.321 E0.00451
G1 X70.874 Y141.408 F3600.000
G1 X65.180 Y135.713 E0.64256 F240.000
G1 X65.180 Y136.844 E0.09023
G1 X69.743 Y141.408 E0.51495
G1 X68.612 Y141.408 E0.09023
G1 X65.180 Y137.975 E0.38734
G1 X65.180 Y139.106 E0.09023
G1 X67.481 Y141.408 E0.25973
G1 X66.351 Y141.408 E0.09023
G1 X65.180 Y140.237 E0.13212
G1 X65.180 Y141.368 E0.09023
G1 X65.220 Y141.408 E0.00450
G1 E-4.00000 F1800.00000
G1 Z0.240 F3600.000
G1 X130.366 Y86.429 F3600.000
G1 E4.00000 F1800.00000
G1 X129.746 Y85.680 E0.07750 F240.000
G1 X129.332 Y84.799 E0.07749
G1 X129.309 Y84.680 E0.00969
G1 X129.150 Y83.844 E0.06781
G1 X129.211 Y82.873 E0.07750
G1 X129.511 Y81.948 E0.07750
G1 X130.033 Y81.127 E0.07750
G1 X130.742 Y80.461 E0.07750
G1 X131.594 Y79.992 E0.07750
G1 X132.536 Y79.750 E0.07750
G1 X133.509 Y79.750 E0.07750
G1 X133.627 Y79.781 E0.00969
G1 X134.451 Y79.992 E0.06781 F240.000
G1 X135.303 Y80.461 E0.07750
G1 X136.013 Y81.127 E0.07750
G1 X136.534 Y81.948 E0.07750
G1 X136.834 Y82.873 E0.07750
G1 X136.895 Y83.844 E0.07750
G1 X136.713 Y84.799 E0.07749
G1 X136.299 Y85.680 E0.07750
G1 X135.679 Y86.429 E0.07750
G1 X134.892 Y87.001 E0.07750
G1 X133.988 Y87.359 E0.07750
G1 X133.023 Y87.481 E0.07750
G1 X132.058 Y87.359 E0.07750
G1 X131.153 Y87.001 E0.07750
G1 X130.427 Y86.473 E0.07152
G1 X130.796 Y85.971 F3600.000
G1 X130.277 Y85.343 E0.06495 F240.000
G1 X129.930 Y84.605 E0.06495
G1 X129.777 Y83.804 E0.06495
G1 X129.828 Y82.991 E0.06495
G1 X130.080 Y82.216 E0.06495
G1 X130.517 Y81.527 E0.06495
G1 X131.111 Y80.969 E0.06495
G1 X131.825 Y80.577 E0.06495
G1 X132.615 Y80.374 E0.06495
G1 X133.430 Y80.374 E0.06495 F240.000
G1 X134.220 Y80.577 E0.06495
G1 X134.934 Y80.969 E0.06495
G1 X135.528 Y81.527 E0.06495
G1 X135.965 Y82.216 E0.06495
G1 X136.217 Y82.991 E0.06495
G1 X136.268 Y83.804 E0.06495
G1 X136.115 Y84.605 E0.06495
G1 X135.768 Y85.343 E0.06495
G1 X135.249 Y85.971 E0.06495
G1 X134.589 Y86.450 E0.06495
G1 X133.831 Y86.750 E0.06495
G1 X133.023 Y86.852 E0.06495
G1 X132.214 Y86.750 E0.06495
G1 X131.456 Y86.450 E0.06495
G1 X130.857 Y86.015 E0.05897
G1 X130.312 Y86.095 F3600.000
G1 X120.273 Y133.350 F3600.000
G1 X120.273 Y137.850 E0.35853 F240.000
G1 X111.773 Y137.850 E0.67723
G1 X111.773 Y133.350 E0.35853
G1 X120.198 Y133.350 E0.67126
G1 X120.773 Y133.350 F3600.000
G1 X129.208 Y133.917 F3600.000
G1 X129.511 Y132.948 E0.08091 F240.000
G1 X130.033 Y132.127 E0.07750
G1 X130.742 Y131.461 E0.07749
G1 X131.594 Y130.992 E0.07751
G1 X132.536 Y130.750 E0.07749
G1 X133.509 Y130.750 E0.07749
G1 X133.627 Y130.781 E0.00969
G1 X134.451 Y130.992 E0.06782 F240.000
G1 X135.303 Y131.461 E0.07749
G1 X136.013 Y132.127 E0.07750
G1 X136.534 Y132.948 E0.07750
G1 X136.834 Y133.873 E0.07750
G1 X136.895 Y134.844 E0.07749
G1 X136.713 Y135.799 E0.07750
G1 X136.299 Y136.680 E0.07750
G1 X135.679 Y137.429 E0.07749
G1 X134.892 Y138.001 E0.07750
G1 X133.988 Y138.359 E0.07750
G1 X133.023 Y138.481 E0.07750
G1 X132.058 Y138.359 E0.07750
G1 X131.153 Y138.001 E0.07750
G1 X130.366 Y137.429 E0.07750
G1 X129.746 Y136.680 E0.07750
G1 X129.332 Y135.799 E0.07750
G1 X129.150 Y134.844 E0.07750
G1 X129.203 Y133.992 E0.06801
G1 X129.826 Y134.031 F3600.000
