; generated by Slic3r 1.0.0RC2 on 2015-01-11 at 15:33:15

; layer_height = 0.24
; perimeters = 2
; top_solid_layers = 4
; bottom_solid_layers = 3
; fill_density = 0.3
; perimeter_speed = 20
; infill_speed = 20
; travel_speed = 60
; nozzle_diameter = 0.5
; filament_diameter = 1.75
; extrusion_multiplier = 1
; perimeters extrusion width = 0.50mm
; infill extrusion width = 0.87mm
; solid infill extrusion width = 0.85mm
; top infill extrusion width = 0.85mm

G21 ; set units to millimeters
G90 ; use absolute coordinates
M83 ; use relative distances for extrusion
M140 S65; Set bed temperature
G28 ; Home all axes
G1 Z5 F200 ; lift nozzle
G1 X2 Y50 F2000; Go to wait for warm position
M116; Wait for all temperatures
G10 P1 S185 R0 ; Set extruder temperature
T1; Select extruder
M116; Wait for all temperatures
G1 F1800.000 E-4.00000
G1 Z0.240 F3600.000
G1 X91.031 Y73.390 F3600.000
G1 E4.00000 F1800.000
G1 X91.831 Y72.400 E0.06350 F240.000
G1 X92.821 Y71.600 E0.06350
G1 X93.941 Y70.990 E0.06363
G1 X95.161 Y70.620 E0.06360
G1 X96.431 Y70.500 E0.06364
G1 X125.561 Y70.500 E1.45330
G1 X126.831 Y70.620 E0.06364
G1 X128.051 Y70.990 E0.06360
G1 X129.171 Y71.600 E0.06363
G1 X130.161 Y72.400 E0.06350
G1 X130.961 Y73.390 E0.06350
G1 X131.571 Y74.510 E0.06363
G1 X131.941 Y75.730 E0.06360
G1 X132.061 Y77.000 E0.06364
G1 X132.061 Y123.000 E2.29495
G1 X131.941 Y124.270 E0.06364
G1 X131.571 Y125.490 E0.06360
G1 X130.961 Y126.610 E0.06363
G1 X130.161 Y127.600 E0.06350
G1 X129.171 Y128.400 E0.06350
G1 X128.051 Y129.010 E0.06363
G1 X126.831 Y129.380 E0.06360
G1 X125.561 Y129.500 E0.06364
G1 X96.431 Y129.500 E1.45330
G1 X95.161 Y129.380 E0.06364
G1 X93.941 Y129.010 E0.06360
G1 X92.821 Y128.400 E0.06363
G1 X91.831 Y127.600 E0.06350
G1 X91.031 Y126.610 E0.06350
G1 X90.421 Y125.490 E0.06363
G1 X90.051 Y124.270 E0.06360
G1 X89.931 Y123.000 E0.06364
G1 X89.931 Y77.000 E2.29495
G1 X90.051 Y75.730 E0.06364
G1 X90.421 Y74.510 E0.06360
G1 X90.995 Y73.456 E0.05989
G1 F1800.000 E-4.00000
G1 X97.181 Y77.750 F3600.000
G1 E4.00000 F1800.000
G1 X124.198 Y77.750 E1.34792 F240.000
G1 X123.546 Y78.960 E0.06859
G1 X122.983 Y80.228 E0.06921
G1 X122.518 Y81.535 E0.06921
G1 X122.152 Y82.878 E0.06946
G1 X121.890 Y84.238 E0.06908
G1 X121.736 Y85.589 E0.06786
G1 X121.681 Y87.002 E0.07052
G1 X121.736 Y88.411 E0.07036
G1 X121.890 Y89.759 E0.06768
G1 X122.152 Y91.122 E0.06926
G1 X122.518 Y92.465 E0.06946
G1 X122.983 Y93.772 E0.06921
G1 X123.546 Y95.040 E0.06921
G1 X124.198 Y96.250 E0.06858
G1 X97.181 Y96.250 E1.34792
G1 X97.181 Y91.750 E0.22451
G1 X102.480 Y91.750 E0.26438
G1 X103.662 Y91.594 E0.05947
G1 X104.809 Y91.119 E0.06195
G1 X105.794 Y90.363 E0.06195
G1 X106.550 Y89.378 E0.06195
G1 X107.025 Y88.231 E0.06195
G1 X107.187 Y87.000 E0.06195
G1 X107.025 Y85.769 E0.06195
G1 X106.550 Y84.622 E0.06195
G1 X105.794 Y83.637 E0.06195
G1 X104.809 Y82.881 E0.06195
G1 X103.662 Y82.406 E0.06195
G1 X102.480 Y82.250 E0.05947
G1 X97.181 Y82.250 E0.26438
G1 X97.181 Y77.825 E0.22076
G1 X96.681 Y77.250 F3600.000
G1 X125.112 Y77.250 E1.41844 F168.000
G1 X124.636 Y77.993 E0.04402
G1 X123.996 Y79.181 E0.06732
G1 X123.448 Y80.414 E0.06731
G1 X122.995 Y81.685 E0.06731
G1 X122.640 Y82.988 E0.06740
G1 X122.385 Y84.315 E0.06740
G1 X122.232 Y85.654 E0.06724
G1 X122.181 Y87.001 E0.06725
G1 X122.232 Y88.352 E0.06747
G1 X122.385 Y89.684 E0.06690
G1 X122.640 Y91.012 E0.06746
G1 X122.995 Y92.315 E0.06739
G1 X123.448 Y93.586 E0.06732
G1 X123.996 Y94.819 E0.06731
G1 X124.636 Y96.007 E0.06731
G1 X125.112 Y96.750 E0.04402
G1 X96.681 Y96.750 E1.41844
G1 X96.681 Y91.250 E0.27440
G1 X102.447 Y91.250 E0.28769
G1 X103.531 Y91.107 E0.05456
G1 X104.557 Y90.682 E0.05538
G1 X105.437 Y90.007 E0.05538
G1 X106.113 Y89.126 E0.05538
G1 X106.538 Y88.101 E0.05538
G1 X106.683 Y87.000 E0.05538
G1 X106.538 Y85.899 E0.05538
G1 X106.113 Y84.874 E0.05538
G1 X105.437 Y83.993 E0.05538
G1 X104.557 Y83.318 E0.05538
G1 X103.531 Y82.893 E0.05538
G1 X102.447 Y82.750 E0.05456
G1 X96.681 Y82.750 E0.28769
G1 X96.681 Y77.325 E0.27065
G1 X97.114 Y77.500 F3600.000
G1 X97.570 Y80.895 F3600.000
G1 X98.536 Y81.861 E0.11033 F240.000
G1 X99.681 Y81.861 E0.09250
G1 X97.570 Y79.750 E0.24114
G1 X97.570 Y78.605 E0.09250
G1 X100.826 Y81.861 E0.37196
G1 X101.971 Y81.861 E0.09250
G1 X98.249 Y78.139 E0.42519
G1 X99.394 Y78.139 E0.09250
G1 X103.208 Y81.953 E0.43576
G1 X104.895 Y82.495 F3600.000
G1 X100.539 Y78.139 E0.49765 F240.000
G1 X101.684 Y78.139 E0.09250
G1 X119.406 Y95.861 E2.02465
G1 X120.550 Y95.861 E0.09250
G1 X102.829 Y78.139 E2.02465
G1 X103.974 Y78.139 E0.09250
G1 X121.695 Y95.861 E2.02465
G1 X122.840 Y95.861 E0.09250
G1 X105.119 Y78.139 E2.02465
G1 X106.264 Y78.139 E0.09250
G1 X123.086 Y94.961 E1.92184
G1 X122.309 Y93.040 F3600.000
G1 X107.409 Y78.139 E1.70232 F240.000
G1 X108.554 Y78.139 E0.09250
G1 X121.827 Y91.413 E1.51648
G1 X121.535 Y89.976 E0.11849
G1 X109.699 Y78.139 E1.35228
G1 X110.844 Y78.139 E0.09250
G1 X121.373 Y88.669 E1.20299
G1 X121.309 Y87.460 E0.09784
G1 X111.989 Y78.139 E1.06482
G1 X113.134 Y78.139 E0.09250
G1 X121.318 Y86.323 E0.93499
G1 X121.383 Y85.244 E0.08734
G1 X114.279 Y78.139 E0.81170
G1 X115.424 Y78.139 E0.09250
G1 X121.501 Y84.217 E0.69434
G1 X121.683 Y83.254 E0.07917
G1 X116.569 Y78.139 E0.58432
G1 X117.714 Y78.139 E0.09250
G1 X121.899 Y82.325 E0.47817
G1 X122.144 Y81.425 E0.07534
G1 X118.859 Y78.139 E0.37538
G1 X120.004 Y78.139 E0.09250
G1 X122.445 Y80.580 E0.27887
G1 X122.766 Y79.757 E0.07140
G1 X121.149 Y78.139 E0.18484
G1 X122.294 Y78.139 E0.09250
G1 X123.119 Y78.964 E0.09428
G1 X123.509 Y78.210 E0.06864
G1 X123.439 Y78.139 E0.00804
G1 X106.936 Y84.536 F3600.000
G1 X118.261 Y95.861 E1.29384 F240.000
G1 X117.116 Y95.861 E0.09250
G1 X107.477 Y86.223 E1.10113
G1 X107.525 Y87.415 E0.09642
G1 X115.971 Y95.861 E0.96488
G1 X114.826 Y95.861 E0.09250
G1 X107.373 Y88.408 E0.85144
G1 X107.038 Y89.218 E0.07079
G1 X113.681 Y95.861 E0.75894
G1 X112.536 Y95.861 E0.09250
G1 X106.612 Y89.937 E0.67679
G1 X106.115 Y90.585 E0.06597
G1 X111.391 Y95.861 E0.60277
G1 X110.246 Y95.861 E0.09250
G1 X105.480 Y91.095 E0.54448
G1 X104.789 Y91.549 E0.06679
G1 X109.101 Y95.861 E0.49263
G1 X107.956 Y95.861 E0.09250
G1 X103.979 Y91.884 E0.45432
G1 X103.021 Y92.071 E0.07885
G1 X106.811 Y95.861 E0.43295
G1 X105.666 Y95.861 E0.09250
G1 X101.944 Y92.139 E0.42519
G1 X100.799 Y92.139 E0.09250
G1 X104.521 Y95.861 E0.42519
G1 X103.376 Y95.861 E0.09250
G1 X99.654 Y92.139 E0.42519
G1 X98.509 Y92.139 E0.09250
G1 X102.231 Y95.861 E0.42519
G1 X101.086 Y95.861 E0.09250
G1 X97.570 Y92.345 E0.40168
G1 X97.570 Y93.490 E0.09250
G1 X99.941 Y95.861 E0.27087
G1 X98.796 Y95.861 E0.09250
G1 X97.570 Y94.635 E0.14006
G1 X97.570 Y95.780 E0.09250
G1 X97.651 Y95.861 E0.00925
G1 F1800.000 E-4.00000
G1 X97.181 Y103.750 F3600.000
G1 E4.00000 F1800.000
G1 X124.198 Y103.750 E1.34792 F240.000
G1 X123.546 Y104.960 E0.06859
G1 X122.983 Y106.228 E0.06921
G1 X122.518 Y107.535 E0.06921
G1 X122.152 Y108.878 E0.06946
G1 X121.890 Y110.238 E0.06908
G1 X121.736 Y111.589 E0.06786
G1 X121.681 Y113.002 E0.07052
G1 X121.736 Y114.411 E0.07036
G1 X121.890 Y115.759 E0.06768
G1 X122.152 Y117.122 E0.06926
G1 X122.518 Y118.465 E0.06946
G1 X122.983 Y119.772 E0.06921
G1 X123.546 Y121.040 E0.06921
G1 X124.198 Y122.250 E0.06858
G1 X97.181 Y122.250 E1.34792
G1 X97.181 Y117.750 E0.22451
G1 X102.480 Y117.750 E0.26438
G1 X103.662 Y117.594 E0.05947
G1 X104.809 Y117.119 E0.06195
G1 X105.794 Y116.363 E0.06195
G1 X106.550 Y115.378 E0.06195
G1 X107.025 Y114.231 E0.06195
G1 X107.187 Y113.000 E0.06195
G1 X107.025 Y111.769 E0.06195
G1 X106.550 Y110.622 E0.06195
G1 X105.794 Y109.637 E0.06195
G1 X104.809 Y108.881 E0.06195
G1 X103.662 Y108.406 E0.06195
G1 X102.480 Y108.250 E0.05947
G1 X97.181 Y108.250 E0.26438
G1 X97.181 Y103.825 E0.22076
G1 X96.681 Y103.250 F3600.000
G1 X125.112 Y103.250 E1.41844 F168.000
G1 X124.636 Y103.993 E0.04402
G1 X123.996 Y105.181 E0.06732
G1 X123.448 Y106.414 E0.06731
G1 X122.995 Y107.685 E0.06731
G1 X122.640 Y108.988 E0.06740
G1 X122.385 Y110.315 E0.06740
G1 X122.232 Y111.654 E0.06724
G1 X122.181 Y113.001 E0.06725
G1 X122.232 Y114.352 E0.06747
G1 X122.385 Y115.684 E0.06690
G1 X122.640 Y117.012 E0.06746
G1 X122.995 Y118.315 E0.06739
G1 X123.448 Y119.586 E0.06732
G1 X123.996 Y120.819 E0.06731
G1 X124.636 Y122.007 E0.06731
G1 X125.112 Y122.750 E0.04402
G1 X96.681 Y122.750 E1.41844
G1 X96.681 Y117.250 E0.27440
G1 X102.447 Y117.250 E0.28769
G1 X103.531 Y117.107 E0.05456
G1 X104.557 Y116.682 E0.05538
G1 X105.437 Y116.007 E0.05538
G1 X106.113 Y115.126 E0.05538
G1 X106.538 Y114.101 E0.05538
G1 X106.683 Y113.000 E0.05538
G1 X106.538 Y111.899 E0.05538
G1 X106.113 Y110.874 E0.05538
G1 X105.437 Y109.993 E0.05538
G1 X104.557 Y109.318 E0.05538
G1 X103.531 Y108.893 E0.05538
G1 X102.447 Y108.750 E0.05456
G1 X96.681 Y108.750 E0.28769
G1 X96.681 Y103.325 E0.27065
G1 X97.114 Y103.500 F3600.000
G1 X97.570 Y106.895 F3600.000
G1 X98.536 Y107.861 E0.11033 F240.000
G1 X99.681 Y107.861 E0.09250
G1 X97.570 Y105.750 E0.24114
G1 X97.570 Y104.605 E0.09250
G1 X100.826 Y107.861 E0.37196
G1 X101.971 Y107.861 E0.09250
G1 X98.249 Y104.139 E0.42519
G1 X99.394 Y104.139 E0.09250
G1 X103.208 Y107.953 E0.43576
G1 X104.895 Y108.495 F3600.000
G1 X100.539 Y104.139 E0.49765 F240.000
G1 X101.684 Y104.139 E0.09250
G1 X119.406 Y121.861 E2.02465
G1 X120.550 Y121.861 E0.09250
G1 X102.829 Y104.139 E2.02465
G1 X103.974 Y104.139 E0.09250
G1 X121.695 Y121.861 E2.02465
G1 X122.840 Y121.861 E0.09250
G1 X105.119 Y104.139 E2.02465
G1 X106.264 Y104.139 E0.09250
G1 X123.086 Y120.961 E1.92184
G1 X122.309 Y119.040 F3600.000
G1 X107.409 Y104.139 E1.70232 F240.000
G1 X108.554 Y104.139 E0.09250
G1 X121.827 Y117.413 E1.51648
G1 X121.535 Y115.976 E0.11849
G1 X109.699 Y104.139 E1.35228
G1 X110.844 Y104.139 E0.09250
G1 X121.373 Y114.669 E1.20299
G1 X121.309 Y113.460 E0.09784
G1 X111.989 Y104.139 E1.06482
G1 X113.134 Y104.139 E0.09250
G1 X121.318 Y112.323 E0.93499
G1 X121.383 Y111.244 E0.08734
G1 X114.279 Y104.139 E0.81170
G1 X115.424 Y104.139 E0.09250
G1 X121.501 Y110.217 E0.69434
G1 X121.683 Y109.254 E0.07917
G1 X116.569 Y104.139 E0.58432
G1 X117.714 Y104.139 E0.09250
G1 X121.899 Y108.325 E0.47817
G1 X122.144 Y107.425 E0.07534
G1 X118.859 Y104.139 E0.37538
G1 X120.004 Y104.139 E0.09250
G1 X122.445 Y106.580 E0.27887
G1 X122.766 Y105.757 E0.07140
G1 X121.149 Y104.139 E0.18484
G1 X122.294 Y104.139 E0.09250
G1 X123.119 Y104.964 E0.09428
G1 X123.509 Y104.210 E0.06864
G1 X123.439 Y104.139 E0.00804
G1 X106.936 Y110.536 F3600.000
G1 X118.261 Y121.861 E1.29384 F240.000
G1 X117.116 Y121.861 E0.09250
G1 X107.477 Y112.223 E1.10113
G1 X107.525 Y113.415 E0.09642
G1 X115.971 Y121.861 E0.96488
G1 X114.826 Y121.861 E0.09250
G1 X107.373 Y114.408 E0.85144
G1 X107.038 Y115.218 E0.07079
G1 X113.681 Y121.861 E0.75894
G1 X112.536 Y121.861 E0.09250
G1 X106.612 Y115.937 E0.67679
G1 X106.115 Y116.585 E0.06597
G1 X111.391 Y121.861 E0.60277
G1 X110.246 Y121.861 E0.09250
G1 X105.480 Y117.095 E0.54448
G1 X104.789 Y117.549 E0.06679
G1 X109.101 Y121.861 E0.49263
G1 X107.956 Y121.861 E0.09250
G1 X103.979 Y117.884 E0.45432
G1 X103.021 Y118.071 E0.07885
G1 X106.811 Y121.861 E0.43295
G1 X105.666 Y121.861 E0.09250
G1 X101.944 Y118.139 E0.42519
G1 X100.799 Y118.139 E0.09250
G1 X104.521 Y121.861 E0.42519
G1 X103.376 Y121.861 E0.09250
G1 X99.654 Y118.139 E0.42519
G1 X98.509 Y118.139 E0.09250
G1 X102.231 Y121.861 E0.42519
G1 X101.086 Y121.861 E0.09250
G1 X97.570 Y118.345 E0.40168
G1 X97.570 Y119.490 E0.09250
G1 X99.941 Y121.861 E0.27087
G1 X98.796 Y121.861 E0.09250
G1 X97.570 Y120.635 E0.14006
G1 X97.570 Y121.780 E0.09250
G1 X97.651 Y121.861 E0.00925
G1 F1800.000 E-4.00000
G1 Z0.480 F3600.000
G1 X97.181 Y96.250 F3600.000
G1 E4.00000 F1800.000
G1 X97.181 Y91.750 E0.22451 F1200
G1 X102.480 Y91.750 E0.26438
G1 X103.662 Y91.594 E0.05947
G1 X104.809 Y91.119 E0.06195
G1 X105.794 Y90.363 E0.06195
G1 X106.550 Y89.378 E0.06195
G1 X107.025 Y88.231 E0.06195
G1 X107.187 Y87.000 E0.06195
G1 X107.025 Y85.769 E0.06195
G1 X106.550 Y84.622 E0.06195
G1 X105.794 Y83.637 E0.06195
G1 X104.809 Y82.881 E0.06195
G1 X103.662 Y82.406 E0.06195
G1 X102.480 Y82.250 E0.05947
G1 X97.181 Y82.250 E0.26438
G1 X97.181 Y77.750 E0.22451
G1 X124.198 Y77.750 E1.34792
G1 X123.546 Y78.960 E0.06858
G1 X122.983 Y80.228 E0.06921
G1 X122.518 Y81.535 E0.06921
G1 X122.152 Y82.878 E0.06946
G1 X121.890 Y84.243 E0.06934
G1 X121.736 Y85.582 E0.06724
G1 X121.681 Y87.002 E0.07088
G1 X121.736 Y88.418 E0.07073
G1 X121.890 Y89.758 E0.06729
G1 X122.152 Y91.122 E0.06929
G1 X122.518 Y92.465 E0.06946
G1 X122.983 Y93.772 E0.06921
G1 X123.546 Y95.040 E0.06921
G1 X124.198 Y96.250 E0.06858
G1 X97.256 Y96.250 E1.34418
G1 X96.681 Y96.750 F3600.000
G1 X96.681 Y91.250 E0.27440 F840
G1 X102.447 Y91.250 E0.28769
G1 X103.531 Y91.107 E0.05456
G1 X104.557 Y90.682 E0.05538
G1 X105.437 Y90.007 E0.05538
G1 X106.113 Y89.126 E0.05538
G1 X106.538 Y88.101 E0.05538
G1 X106.683 Y87.000 E0.05538
G1 X106.538 Y85.899 E0.05538
G1 X106.113 Y84.874 E0.05538
G1 X105.437 Y83.993 E0.05538
G1 X104.557 Y83.318 E0.05538
G1 X103.531 Y82.893 E0.05538
G1 X102.447 Y82.750 E0.05456
G1 X96.681 Y82.750 E0.28769
G1 X96.681 Y77.250 E0.27440
G1 X125.112 Y77.250 E1.41844
G1 X124.636 Y77.993 E0.04402
G1 X123.996 Y79.181 E0.06731
G1 X123.448 Y80.414 E0.06731
G1 X122.995 Y81.685 E0.06731
G1 X122.640 Y82.988 E0.06740
G1 X122.384 Y84.321 E0.06772
G1 X122.232 Y85.655 E0.06698
G1 X122.181 Y87.001 E0.06719
G1 X122.231 Y88.341 E0.06694
G1 X122.384 Y89.679 E0.06719
G1 X122.640 Y91.012 E0.06770
G1 X122.995 Y92.315 E0.06740
G1 X123.448 Y93.586 E0.06731
G1 X123.996 Y94.819 E0.06731
G1 X124.636 Y96.007 E0.06731
G1 X125.112 Y96.750 E0.04402
G1 X96.756 Y96.750 E1.41470
G1 X96.931 Y96.317 F3600.000
G1 X97.570 Y93.105 F3600.000
G1 X98.536 Y92.139 E0.11033 F1200
G1 X99.681 Y92.139 E0.09250
G1 X97.570 Y94.250 E0.24114
G1 X97.570 Y95.395 E0.09250
G1 X100.826 Y92.139 E0.37195
G1 X101.971 Y92.139 E0.09250
G1 X98.249 Y95.861 E0.42519
G1 X99.394 Y95.861 E0.09250
G1 X103.208 Y92.047 E0.43576
G1 X104.895 Y91.505 E0.14312
G1 X100.539 Y95.861 E0.49765
G1 X101.684 Y95.861 E0.09250
G1 X119.405 Y78.139 E2.02465
G1 X120.550 Y78.139 E0.09250
G1 X102.829 Y95.861 E2.02465
G1 X103.974 Y95.861 E0.09250
G1 X121.695 Y78.139 E2.02465
G1 X122.840 Y78.139 E0.09250
G1 X105.119 Y95.861 E2.02465
G1 X106.264 Y95.861 E0.09250
G1 X123.086 Y79.039 E1.92184
G1 X122.309 Y80.960 F3600.000
G1 X107.409 Y95.861 E1.70232 F1200
G1 X108.554 Y95.861 E0.09250
G1 X121.827 Y82.587 E1.51649
G1 X121.536 Y84.024 E0.11845
G1 X109.699 Y95.861 E1.35233
G1 X110.844 Y95.861 E0.09250
G1 X121.373 Y85.331 E1.20298
G1 X121.309 Y86.540 E0.09781
G1 X111.989 Y95.861 E1.06485
G1 X113.134 Y95.861 E0.09250
G1 X121.318 Y87.677 E0.93500
G1 X121.383 Y88.756 E0.08736
G1 X114.279 Y95.861 E0.81169
G1 X115.424 Y95.861 E0.09250
G1 X121.501 Y89.783 E0.69435
G1 X121.683 Y90.746 E0.07917
G1 X116.569 Y95.861 E0.58434
G1 X117.714 Y95.861 E0.09250
G1 X121.899 Y91.675 E0.47818
G1 X122.144 Y92.575 E0.07534
G1 X118.859 Y95.861 E0.37538
G1 X120.004 Y95.861 E0.09250
G1 X122.445 Y93.420 E0.27888
G1 X122.766 Y94.243 E0.07140
G1 X121.149 Y95.861 E0.18485
G1 X122.293 Y95.861 E0.09250
G1 X123.119 Y95.036 E0.09428
G1 X123.438 Y95.861 E0.07150
G1 X123.509 Y95.790 E0.00804
G1 X106.936 Y89.464 F3600.000
G1 X118.260 Y78.139 E1.29383 F1200
G1 X117.116 Y78.139 E0.09250
G1 X107.477 Y87.777 E1.10113
G1 X107.525 Y86.585 E0.09642
G1 X115.971 Y78.139 E0.96487
G1 X114.826 Y78.139 E0.09250
G1 X107.373 Y85.592 E0.85144
G1 X107.038 Y84.782 E0.07079
G1 X113.681 Y78.139 E0.75894
G1 X112.536 Y78.139 E0.09250
G1 X106.612 Y84.063 E0.67678
G1 X106.115 Y83.415 E0.06597
G1 X111.391 Y78.139 E0.60277
G1 X110.246 Y78.139 E0.09250
G1 X105.480 Y82.905 E0.54448
G1 X104.789 Y82.451 E0.06680
G1 X109.101 Y78.139 E0.49263
G1 X107.956 Y78.139 E0.09250
G1 X103.979 Y82.116 E0.45432
G1 X103.021 Y81.929 E0.07885
G1 X106.811 Y78.139 E0.43295
G1 X105.666 Y78.139 E0.09250
G1 X101.944 Y81.861 E0.42519
G1 X100.799 Y81.861 E0.09250
G1 X104.521 Y78.139 E0.42519
G1 X103.376 Y78.139 E0.09250
G1 X99.654 Y81.861 E0.42519
G1 X98.509 Y81.861 E0.09250
G1 X102.231 Y78.139 E0.42519
G1 X101.086 Y78.139 E0.09250
