;(.../Electronics/Eagle/pcb-gcode/pcb-gcode.ulp)
;(Copyright 2005 - 2012 by John Johnson)
;(See readme.txt for licensing terms.)
;(This file generated from the board:)
;(.../Pond/Electronics/pump-shield.brd)
;(Current profile is .../pcb-gcode/profiles/generic.pp  )
;(This file generated 13/05/2017 16:09)
;(Settings from pcb-machine.h)
;(spindle on time = 1000.0000)
;(  Tool Size)
;(0.1778 )
;(spindle speed = 30000.0000)
;(tool change at 0.0000 0.0000 5.0000 )
;(feed rate xy = F500.00 )
;(feed rate z  = F200.00 )
;(Z Axis Settings)
;(  High     Up        Down     Drill)
;(5.0000 	2.0000 	-0.2000 	-2.0000 )
;(Settings from pcb-defaults.h)
;(isolate min = 0.0250)
;(isolate max = 0.5000)
;(isolate step = 0.0800)
;(Generated top outlines, top drill, )
;(Unit of measure: mm)
;(Metric Mode)
G21
;(Absolute Coordinates)
G90
;S30000
G00 Z5.0000  F3000
G00 X0.0000 Y0.0000  F3000
;M03 S1
G04 P1000.000000
G00 Z2.0000  F3000
G00 X7.5746 Y3.1246  F3000
G01 Z-0.2000 F200.00 
G01 X7.6966 Y3.0026 F500.00 
G01 X7.8401 Y2.9068 
G01 X7.9995 Y2.8408 
G01 X8.1687 Y2.8071 
G01 X8.3413 Y2.8071 
G01 X8.5105 Y2.8408 
G01 X8.6699 Y2.9068 
G01 X8.8134 Y3.0026 
G01 X8.9354 Y3.1246 
G01 X9.0312 Y3.2681 
G01 X9.0972 Y3.4275 
G01 X9.1309 Y3.5967 
G01 X9.1309 Y5.2933 
G01 X9.0972 Y5.4625 
G01 X9.0312 Y5.6219 
G01 X8.9354 Y5.7654 
G01 X8.8134 Y5.8874 
G01 X8.6699 Y5.9832 
G01 X8.5105 Y6.0492 
G01 X8.3413 Y6.0829 
G01 X8.1687 Y6.0829 
G01 X7.9995 Y6.0492 
G01 X7.8401 Y5.9832 
G01 X7.6966 Y5.8874 
G01 X7.5746 Y5.7654 
G01 X7.4788 Y5.6219 
G01 X7.4128 Y5.4625 
G01 X7.3791 Y5.2933 
G01 X7.3791 Y3.5967 
G01 X7.4128 Y3.4275 
G01 X7.4788 Y3.2681 
G01 X7.5746 Y3.1246 
G00 Z2.0000  F3000
G00 X10.1146 Y3.1246  F3000
G01 Z-0.2000 F200.00 
G01 X10.2366 Y3.0026 F500.00 
G01 X10.3801 Y2.9068 
G01 X10.5395 Y2.8408 
G01 X10.7087 Y2.8071 
G01 X10.8813 Y2.8071 
G01 X11.0505 Y2.8408 
G01 X11.2099 Y2.9068 
G01 X11.3534 Y3.0026 
G01 X11.4754 Y3.1246 
G01 X11.5712 Y3.2681 
G01 X11.6372 Y3.4275 
G01 X11.6709 Y3.5967 
G01 X11.6709 Y5.2933 
G01 X11.6372 Y5.4625 
G01 X11.5712 Y5.6219 
G01 X11.4754 Y5.7654 
G01 X11.3534 Y5.8874 
G01 X11.2099 Y5.9832 
G01 X11.0505 Y6.0492 
G01 X10.8813 Y6.0829 
G01 X10.7087 Y6.0829 
G01 X10.5395 Y6.0492 
G01 X10.3801 Y5.9832 
G01 X10.2366 Y5.8874 
G01 X10.1146 Y5.7654 
G01 X10.0188 Y5.6219 
G01 X9.9528 Y5.4625 
G01 X9.9191 Y5.2933 
G01 X9.9191 Y3.5967 
G01 X9.9528 Y3.4275 
G01 X10.0188 Y3.2681 
G01 X10.1146 Y3.1246 
G00 Z2.0000  F3000
G00 X12.6546 Y3.1246  F3000
G01 Z-0.2000 F200.00 
G01 X12.7766 Y3.0026 F500.00 
G01 X12.9201 Y2.9068 
G01 X13.0795 Y2.8408 
G01 X13.2487 Y2.8071 
G01 X13.4213 Y2.8071 
G01 X13.5905 Y2.8408 
G01 X13.7499 Y2.9068 
G01 X13.8934 Y3.0026 
G01 X14.0154 Y3.1246 
G01 X14.1112 Y3.2681 
G01 X14.1772 Y3.4275 
G01 X14.2109 Y3.5967 
G01 X14.2109 Y3.8147 
G01 X14.2579 Y3.8794 
G01 X14.3350 Y4.0308 
G01 X14.3875 Y4.1923 
G01 X14.4141 Y4.3601 
G01 X14.4141 Y6.5380 
G01 X15.6870 Y7.8109 
G01 X45.8049 Y7.8109 
G01 X45.9727 Y7.8375 
G01 X46.1342 Y7.8900 
G01 X46.2856 Y7.9671 
G01 X46.4230 Y8.0669 
G01 X48.9630 Y10.6069 
G01 X49.0831 Y10.7270 
G01 X49.1829 Y10.8644 
G01 X49.2600 Y11.0158 
G01 X49.3125 Y11.1773 
G01 X49.3391 Y11.3451 
G01 X49.3391 Y14.6899 
G01 X49.3125 Y14.8577 
G01 X49.2600 Y15.0192 
G01 X49.1829 Y15.1706 
G01 X49.0831 Y15.3080 
G01 X49.0089 Y15.3822 
G01 X49.0089 Y16.3688 
G01 X48.9801 Y16.5134 
G01 X48.9239 Y16.6492 
G01 X48.9239 Y16.8177 
G01 X48.9066 Y16.8595 
G01 X48.8745 Y16.8916 
G01 X48.8327 Y16.9089 
G01 X48.6892 Y16.9089 
G01 X48.6147 Y16.9587 
G01 X48.4784 Y17.0151 
G01 X48.3338 Y17.0439 
G01 X48.1862 Y17.0439 
G01 X48.0416 Y17.0151 
G01 X47.9053 Y16.9587 
G01 X47.8308 Y16.9089 
G01 X47.6873 Y16.9089 
G01 X47.6455 Y16.8916 
G01 X47.6134 Y16.8595 
G01 X47.5961 Y16.8177 
G01 X47.5961 Y16.6492 
G01 X47.5399 Y16.5134 
G01 X47.5111 Y16.3688 
G01 X47.5111 Y15.3822 
G01 X47.4369 Y15.3080 
G01 X47.3371 Y15.1706 
G01 X47.2600 Y15.0192 
G01 X47.2075 Y14.8577 
G01 X47.1809 Y14.6899 
G01 X47.1809 Y11.8770 
G01 X45.2730 Y9.9691 
G01 X15.1551 Y9.9691 
G01 X14.9873 Y9.9425 
G01 X14.8258 Y9.8900 
G01 X14.6744 Y9.8129 
G01 X14.5370 Y9.7131 
G01 X14.4169 Y9.5930 
G01 X12.5119 Y7.6880 
G01 X12.4121 Y7.5506 
G01 X12.3350 Y7.3992 
G01 X12.2825 Y7.2377 
G01 X12.2559 Y7.0699 
G01 X12.2559 Y4.3601 
G01 X12.2825 Y4.1923 
G01 X12.3350 Y4.0308 
G01 X12.4121 Y3.8794 
G01 X12.4591 Y3.8147 
G01 X12.4591 Y3.5967 
G01 X12.4928 Y3.4275 
G01 X12.5588 Y3.2681 
G01 X12.6546 Y3.1246 
G00 Z2.0000  F3000
G00 X15.1946 Y3.1246  F3000
G01 Z-0.2000 F200.00 
G01 X15.3166 Y3.0026 F500.00 
G01 X15.4601 Y2.9068 
G01 X15.6195 Y2.8408 
G01 X15.7887 Y2.8071 
G01 X15.9613 Y2.8071 
G01 X16.1305 Y2.8408 
G01 X16.2899 Y2.9068 
G01 X16.4334 Y3.0026 
G01 X16.5554 Y3.1246 
G01 X16.6512 Y3.2681 
G01 X16.7172 Y3.4275 
G01 X16.7509 Y3.5967 
G01 X16.7509 Y5.2933 
G01 X16.7172 Y5.4625 
G01 X16.6512 Y5.6219 
G01 X16.5554 Y5.7654 
G01 X16.4334 Y5.8874 
G01 X16.2899 Y5.9832 
G01 X16.1305 Y6.0492 
G01 X15.9613 Y6.0829 
G01 X15.7887 Y6.0829 
G01 X15.6195 Y6.0492 
G01 X15.4601 Y5.9832 
G01 X15.3166 Y5.8874 
G01 X15.1946 Y5.7654 
G01 X15.0988 Y5.6219 
G01 X15.0328 Y5.4625 
G01 X14.9991 Y5.2933 
G01 X14.9991 Y3.5967 
G01 X15.0328 Y3.4275 
G01 X15.0988 Y3.2681 
G01 X15.1946 Y3.1246 
G00 Z2.0000  F3000
G00 X17.7346 Y3.1246  F3000
G01 Z-0.2000 F200.00 
G01 X17.8566 Y3.0026 F500.00 
G01 X18.0001 Y2.9068 
G01 X18.1595 Y2.8408 
G01 X18.3287 Y2.8071 
G01 X18.5013 Y2.8071 
G01 X18.6705 Y2.8408 
G01 X18.8299 Y2.9068 
G01 X18.9734 Y3.0026 
G01 X19.0954 Y3.1246 
G01 X19.1912 Y3.2681 
G01 X19.2572 Y3.4275 
G01 X19.2909 Y3.5967 
G01 X19.2909 Y5.2933 
G01 X19.2572 Y5.4625 
G01 X19.1912 Y5.6219 
G01 X19.0954 Y5.7654 
G01 X18.9734 Y5.8874 
G01 X18.8299 Y5.9832 
G01 X18.6705 Y6.0492 
G01 X18.5013 Y6.0829 
G01 X18.3287 Y6.0829 
G01 X18.1595 Y6.0492 
G01 X18.0001 Y5.9832 
G01 X17.8566 Y5.8874 
G01 X17.7346 Y5.7654 
G01 X17.6388 Y5.6219 
G01 X17.5728 Y5.4625 
G01 X17.5391 Y5.2933 
G01 X17.5391 Y3.5967 
G01 X17.5728 Y3.4275 
G01 X17.6388 Y3.2681 
G01 X17.7346 Y3.1246 
G00 Z2.0000  F3000
G00 X20.2746 Y3.1246  F3000
G01 Z-0.2000 F200.00 
G01 X20.3966 Y3.0026 F500.00 
G01 X20.5401 Y2.9068 
G01 X20.6995 Y2.8408 
G01 X20.8687 Y2.8071 
G01 X21.0413 Y2.8071 
G01 X21.2105 Y2.8408 
G01 X21.3699 Y2.9068 
G01 X21.5134 Y3.0026 
G01 X21.6354 Y3.1246 
G01 X21.7312 Y3.2681 
G01 X21.7972 Y3.4275 
G01 X21.8309 Y3.5967 
G01 X21.8309 Y5.2933 
G01 X21.7972 Y5.4625 
G01 X21.7312 Y5.6219 
G01 X21.6354 Y5.7654 
G01 X21.5134 Y5.8874 
G01 X21.3699 Y5.9832 
G01 X21.2105 Y6.0492 
G01 X21.0413 Y6.0829 
G01 X20.8687 Y6.0829 
G01 X20.6995 Y6.0492 
G01 X20.5401 Y5.9832 
G01 X20.3966 Y5.8874 
G01 X20.2746 Y5.7654 
G01 X20.1788 Y5.6219 
G01 X20.1128 Y5.4625 
G01 X20.0791 Y5.2933 
G01 X20.0791 Y3.5967 
G01 X20.1128 Y3.4275 
G01 X20.1788 Y3.2681 
G01 X20.2746 Y3.1246 
G00 Z2.0000  F3000
G00 X22.8146 Y3.1246  F3000
G01 Z-0.2000 F200.00 
G01 X22.9366 Y3.0026 F500.00 
G01 X23.0801 Y2.9068 
G01 X23.2395 Y2.8408 
G01 X23.4087 Y2.8071 
G01 X23.5813 Y2.8071 
G01 X23.7505 Y2.8408 
G01 X23.9099 Y2.9068 
G01 X24.0534 Y3.0026 
G01 X24.1754 Y3.1246 
G01 X24.2712 Y3.2681 
G01 X24.3372 Y3.4275 
G01 X24.3709 Y3.5967 
G01 X24.3709 Y5.2933 
G01 X24.3372 Y5.4625 
G01 X24.2712 Y5.6219 
G01 X24.1754 Y5.7654 
G01 X24.0534 Y5.8874 
G01 X23.9099 Y5.9832 
G01 X23.7505 Y6.0492 
G01 X23.5813 Y6.0829 
G01 X23.4087 Y6.0829 
G01 X23.2395 Y6.0492 
G01 X23.0801 Y5.9832 
G01 X22.9366 Y5.8874 
G01 X22.8146 Y5.7654 
G01 X22.7188 Y5.6219 
G01 X22.6528 Y5.4625 
G01 X22.6191 Y5.2933 
G01 X22.6191 Y3.5967 
G01 X22.6528 Y3.4275 
G01 X22.7188 Y3.2681 
G01 X22.8146 Y3.1246 
G00 Z2.0000  F3000
G00 X25.3546 Y3.1246  F3000
G01 Z-0.2000 F200.00 
G01 X25.4766 Y3.0026 F500.00 
G01 X25.6201 Y2.9068 
G01 X25.7795 Y2.8408 
G01 X25.9487 Y2.8071 
G01 X26.1213 Y2.8071 
G01 X26.2905 Y2.8408 
G01 X26.4499 Y2.9068 
G01 X26.5934 Y3.0026 
G01 X26.7154 Y3.1246 
G01 X26.8112 Y3.2681 
G01 X26.8772 Y3.4275 
G01 X26.9109 Y3.5967 
G01 X26.9109 Y5.2933 
G01 X26.8772 Y5.4625 
G01 X26.8112 Y5.6219 
G01 X26.7154 Y5.7654 
G01 X26.5934 Y5.8874 
G01 X26.4499 Y5.9832 
G01 X26.2905 Y6.0492 
G01 X26.1213 Y6.0829 
G01 X25.9487 Y6.0829 
G01 X25.7795 Y6.0492 
G01 X25.6201 Y5.9832 
G01 X25.4766 Y5.8874 
G01 X25.3546 Y5.7654 
G01 X25.2588 Y5.6219 
G01 X25.1928 Y5.4625 
G01 X25.1591 Y5.2933 
G01 X25.1591 Y3.5967 
G01 X25.1928 Y3.4275 
G01 X25.2588 Y3.2681 
G01 X25.3546 Y3.1246 
G00 Z2.0000  F3000
G00 X29.1646 Y3.1246  F3000
G01 Z-0.2000 F200.00 
G01 X29.2866 Y3.0026 F500.00 
G01 X29.4301 Y2.9068 
G01 X29.5895 Y2.8408 
G01 X29.7587 Y2.8071 
G01 X29.9313 Y2.8071 
G01 X30.1005 Y2.8408 
G01 X30.2599 Y2.9068 
G01 X30.4034 Y3.0026 
G01 X30.5254 Y3.1246 
G01 X30.6212 Y3.2681 
G01 X30.6872 Y3.4275 
G01 X30.7209 Y3.5967 
G01 X30.7209 Y5.2933 
G01 X30.6872 Y5.4625 
G01 X30.6212 Y5.6219 
G01 X30.5254 Y5.7654 
G01 X30.4034 Y5.8874 
G01 X30.2599 Y5.9832 
G01 X30.1005 Y6.0492 
G01 X29.9313 Y6.0829 
G01 X29.7587 Y6.0829 
G01 X29.5895 Y6.0492 
G01 X29.4301 Y5.9832 
G01 X29.2866 Y5.8874 
G01 X29.1646 Y5.7654 
G01 X29.0688 Y5.6219 
G01 X29.0028 Y5.4625 
G01 X28.9691 Y5.2933 
G01 X28.9691 Y3.5967 
G01 X29.0028 Y3.4275 
G01 X29.0688 Y3.2681 
G01 X29.1646 Y3.1246 
G00 Z2.0000  F3000
G00 X31.7046 Y3.1246  F3000
G01 Z-0.2000 F200.00 
G01 X31.8266 Y3.0026 F500.00 
G01 X31.9701 Y2.9068 
G01 X32.1295 Y2.8408 
G01 X32.2987 Y2.8071 
G01 X32.4713 Y2.8071 
G01 X32.6405 Y2.8408 
G01 X32.7999 Y2.9068 
G01 X32.9434 Y3.0026 
G01 X33.0654 Y3.1246 
G01 X33.1612 Y3.2681 
G01 X33.2272 Y3.4275 
G01 X33.2609 Y3.5967 
G01 X33.2609 Y5.2933 
G01 X33.2272 Y5.4625 
G01 X33.1612 Y5.6219 
G01 X33.0654 Y5.7654 
G01 X32.9434 Y5.8874 
G01 X32.7999 Y5.9832 
G01 X32.6405 Y6.0492 
G01 X32.4713 Y6.0829 
G01 X32.2987 Y6.0829 
G01 X32.1295 Y6.0492 
G01 X31.9701 Y5.9832 
G01 X31.8266 Y5.8874 
G01 X31.7046 Y5.7654 
G01 X31.6088 Y5.6219 
G01 X31.5428 Y5.4625 
G01 X31.5091 Y5.2933 
G01 X31.5091 Y3.5967 
G01 X31.5428 Y3.4275 
G01 X31.6088 Y3.2681 
G01 X31.7046 Y3.1246 
G00 Z2.0000  F3000
G00 X34.2446 Y3.1246  F3000
G01 Z-0.2000 F200.00 
G01 X34.3666 Y3.0026 F500.00 
G01 X34.5101 Y2.9068 
G01 X34.6695 Y2.8408 
G01 X34.8387 Y2.8071 
G01 X35.0113 Y2.8071 
G01 X35.1805 Y2.8408 
G01 X35.3399 Y2.9068 
G01 X35.4834 Y3.0026 
G01 X35.6054 Y3.1246 
G01 X35.7012 Y3.2681 
G01 X35.7672 Y3.4275 
G01 X35.8009 Y3.5967 
G01 X35.8009 Y5.2933 
G01 X35.7672 Y5.4625 
G01 X35.7012 Y5.6219 
G01 X35.6054 Y5.7654 
G01 X35.4834 Y5.8874 
G01 X35.3399 Y5.9832 
G01 X35.1805 Y6.0492 
G01 X35.0113 Y6.0829 
G01 X34.8387 Y6.0829 
G01 X34.6695 Y6.0492 
G01 X34.5101 Y5.9832 
G01 X34.3666 Y5.8874 
G01 X34.2446 Y5.7654 
G01 X34.1488 Y5.6219 
G01 X34.0828 Y5.4625 
G01 X34.0491 Y5.2933 
G01 X34.0491 Y3.5967 
G01 X34.0828 Y3.4275 
G01 X34.1488 Y3.2681 
G01 X34.2446 Y3.1246 
G00 Z2.0000  F3000
G00 X36.7846 Y3.1246  F3000
G01 Z-0.2000 F200.00 
G01 X36.9066 Y3.0026 F500.00 
G01 X37.0501 Y2.9068 
G01 X37.2095 Y2.8408 
G01 X37.3787 Y2.8071 
G01 X37.5513 Y2.8071 
G01 X37.7205 Y2.8408 
G01 X37.8799 Y2.9068 
G01 X38.0234 Y3.0026 
G01 X38.1454 Y3.1246 
G01 X38.2412 Y3.2681 
G01 X38.3072 Y3.4275 
G01 X38.3409 Y3.5967 
G01 X38.3409 Y5.2933 
G01 X38.3072 Y5.4625 
G01 X38.2412 Y5.6219 
G01 X38.1454 Y5.7654 
G01 X38.0234 Y5.8874 
G01 X37.8799 Y5.9832 
G01 X37.7205 Y6.0492 
G01 X37.5513 Y6.0829 
G01 X37.3787 Y6.0829 
G01 X37.2095 Y6.0492 
G01 X37.0501 Y5.9832 
G01 X36.9066 Y5.8874 
G01 X36.7846 Y5.7654 
G01 X36.6888 Y5.6219 
G01 X36.6228 Y5.4625 
G01 X36.5891 Y5.2933 
G01 X36.5891 Y3.5967 
G01 X36.6228 Y3.4275 
G01 X36.6888 Y3.2681 
G01 X36.7846 Y3.1246 
G00 Z2.0000  F3000
G00 X39.3246 Y3.1246  F3000
G01 Z-0.2000 F200.00 
G01 X39.4466 Y3.0026 F500.00 
G01 X39.5901 Y2.9068 
G01 X39.7495 Y2.8408 
G01 X39.9187 Y2.8071 
G01 X40.0913 Y2.8071 
G01 X40.2605 Y2.8408 
G01 X40.4199 Y2.9068 
G01 X40.5634 Y3.0026 
G01 X40.6854 Y3.1246 
G01 X40.7812 Y3.2681 
G01 X40.8472 Y3.4275 
G01 X40.8809 Y3.5967 
G01 X40.8809 Y5.2933 
G01 X40.8472 Y5.4625 
G01 X40.7812 Y5.6219 
G01 X40.6854 Y5.7654 
G01 X40.5634 Y5.8874 
G01 X40.4199 Y5.9832 
G01 X40.2605 Y6.0492 
G01 X40.0913 Y6.0829 
G01 X39.9187 Y6.0829 
G01 X39.7495 Y6.0492 
G01 X39.5901 Y5.9832 
G01 X39.4466 Y5.8874 
G01 X39.3246 Y5.7654 
G01 X39.2288 Y5.6219 
G01 X39.1628 Y5.4625 
G01 X39.1291 Y5.2933 
G01 X39.1291 Y3.5967 
G01 X39.1628 Y3.4275 
G01 X39.2288 Y3.2681 
G01 X39.3246 Y3.1246 
G00 Z2.0000  F3000
G00 X41.8646 Y3.1246  F3000
G01 Z-0.2000 F200.00 
G01 X41.9866 Y3.0026 F500.00 
G01 X42.1301 Y2.9068 
G01 X42.2895 Y2.8408 
G01 X42.4587 Y2.8071 
G01 X42.6313 Y2.8071 
G01 X42.8005 Y2.8408 
G01 X42.9599 Y2.9068 
G01 X43.1034 Y3.0026 
G01 X43.2254 Y3.1246 
G01 X43.3212 Y3.2681 
G01 X43.3872 Y3.4275 
G01 X43.4209 Y3.5967 
G01 X43.4209 Y5.2933 
G01 X43.3872 Y5.4625 
G01 X43.3212 Y5.6219 
G01 X43.2254 Y5.7654 
G01 X43.1034 Y5.8874 
G01 X42.9599 Y5.9832 
G01 X42.8005 Y6.0492 
G01 X42.6313 Y6.0829 
G01 X42.4587 Y6.0829 
G01 X42.2895 Y6.0492 
G01 X42.1301 Y5.9832 
G01 X41.9866 Y5.8874 
G01 X41.8646 Y5.7654 
G01 X41.7688 Y5.6219 
G01 X41.7028 Y5.4625 
G01 X41.6691 Y5.2933 
G01 X41.6691 Y3.5967 
G01 X41.7028 Y3.4275 
G01 X41.7688 Y3.2681 
G01 X41.8646 Y3.1246 
G00 Z2.0000  F3000
G00 X44.4046 Y3.1246  F3000
G01 Z-0.2000 F200.00 
G01 X44.5266 Y3.0026 F500.00 
G01 X44.6701 Y2.9068 
G01 X44.8295 Y2.8408 
G01 X44.9987 Y2.8071 
G01 X45.1713 Y2.8071 
G01 X45.3405 Y2.8408 
G01 X45.4999 Y2.9068 
G01 X45.6434 Y3.0026 
G01 X45.7654 Y3.1246 
G01 X45.8612 Y3.2681 
G01 X45.9272 Y3.4275 
G01 X45.9609 Y3.5967 
G01 X45.9609 Y5.2933 
G01 X45.9272 Y5.4625 
G01 X45.8612 Y5.6219 
G01 X45.7654 Y5.7654 
G01 X45.6434 Y5.8874 
G01 X45.4999 Y5.9832 
G01 X45.3405 Y6.0492 
G01 X45.1713 Y6.0829 
G01 X44.9987 Y6.0829 
G01 X44.8295 Y6.0492 
G01 X44.6701 Y5.9832 
G01 X44.5266 Y5.8874 
G01 X44.4046 Y5.7654 
G01 X44.3088 Y5.6219 
G01 X44.2428 Y5.4625 
G01 X44.2091 Y5.2933 
G01 X44.2091 Y3.5967 
G01 X44.2428 Y3.4275 
G01 X44.3088 Y3.2681 
G01 X44.4046 Y3.1246 
G00 Z2.0000  F3000
G00 X46.9446 Y3.1246  F3000
G01 Z-0.2000 F200.00 
G01 X47.0666 Y3.0026 F500.00 
G01 X47.2101 Y2.9068 
G01 X47.3695 Y2.8408 
G01 X47.5387 Y2.8071 
G01 X47.7113 Y2.8071 
G01 X47.8805 Y2.8408 
G01 X48.0399 Y2.9068 
G01 X48.1834 Y3.0026 
G01 X48.3054 Y3.1246 
G01 X48.4012 Y3.2681 
G01 X48.4672 Y3.4275 
G01 X48.5009 Y3.5967 
G01 X48.5009 Y5.2933 
G01 X48.4672 Y5.4625 
G01 X48.4012 Y5.6219 
G01 X48.3054 Y5.7654 
G01 X48.1834 Y5.8874 
G01 X48.0399 Y5.9832 
G01 X47.8805 Y6.0492 
G01 X47.7113 Y6.0829 
G01 X47.5387 Y6.0829 
G01 X47.3695 Y6.0492 
G01 X47.2101 Y5.9832 
G01 X47.0666 Y5.8874 
G01 X46.9446 Y5.7654 
G01 X46.8488 Y5.6219 
G01 X46.7828 Y5.4625 
G01 X46.7491 Y5.2933 
G01 X46.7491 Y3.5967 
G01 X46.7828 Y3.4275 
G01 X46.8488 Y3.2681 
G01 X46.9446 Y3.1246 
G00 Z2.0000  F3000
G00 X48.8339 Y3.3102  F3000
G01 Z-0.2000 F200.00 
G01 X48.9540 Y3.1901 F500.00 
G01 X49.0914 Y3.0903 
G01 X49.2428 Y3.0132 
G01 X49.4043 Y2.9607 
G01 X49.5721 Y2.9341 
G01 X69.7317 Y2.9341 
G01 X69.8995 Y2.9607 
G01 X70.0610 Y3.0132 
G01 X70.2124 Y3.0903 
G01 X70.3498 Y3.1901 
G01 X70.4699 Y3.3102 
G01 X70.5697 Y3.4476 
G01 X70.6468 Y3.5990 
G01 X70.6993 Y3.7605 
G01 X70.7259 Y3.9283 
G01 X70.7259 Y26.1346 
G01 X70.6993 Y26.3024 
G01 X70.6658 Y26.4055 
G01 X70.6468 Y26.4639 
G01 X70.5697 Y26.6153 
G01 X70.4699 Y26.7527 
G01 X70.3517 Y26.8709 
G01 X70.2124 Y26.9726 
G01 X70.0610 Y27.0497 
G01 X69.8995 Y27.1022 
G01 X69.7867 Y27.1201 
G01 X69.7317 Y27.1288 
G01 X69.5619 Y27.1288 
G01 X69.3941 Y27.1022 
G01 X69.2910 Y27.0687 
G01 X69.2326 Y27.0497 
G01 X69.0812 Y26.9726 
G01 X68.9438 Y26.8728 
G01 X68.7725 Y26.7015 
G01 X68.2356 Y26.4791 
G01 X66.5901 Y26.4791 
G01 X66.4223 Y26.4525 
G01 X66.2608 Y26.4000 
G01 X66.1094 Y26.3229 
G01 X65.9720 Y26.2231 
G01 X65.8519 Y26.1030 
G01 X65.7521 Y25.9656 
G01 X65.6750 Y25.8142 
G01 X65.6225 Y25.6527 
G01 X65.5959 Y25.4849 
G01 X65.5959 Y23.2044 
G01 X65.3735 Y22.6675 
G01 X64.9625 Y22.2565 
G01 X64.4256 Y22.0341 
G01 X60.7466 Y22.0341 
G01 X60.7183 Y22.0371 
G01 X60.6618 Y22.0341 
G01 X60.6051 Y22.0341 
G01 X60.5770 Y22.0297 
G01 X60.5487 Y22.0282 
G01 X60.4933 Y22.0164 
G01 X60.4373 Y22.0075 
G01 X60.4103 Y21.9988 
G01 X60.3826 Y21.9929 
G01 X60.3297 Y21.9725 
G01 X60.2758 Y21.9550 
G01 X60.2505 Y21.9422 
G01 X60.2240 Y21.9320 
G01 X60.1749 Y21.9036 
G01 X60.1244 Y21.8779 
G01 X60.1015 Y21.8613 
G01 X60.0769 Y21.8471 
G01 X60.0329 Y21.8114 
G01 X59.9870 Y21.7781 
G01 X59.9670 Y21.7580 
G01 X59.9449 Y21.7402 
G01 X59.9070 Y21.6980 
G01 X59.8669 Y21.6580 
G01 X59.8503 Y21.6350 
G01 X59.8313 Y21.6139 
G01 X59.8004 Y21.5664 
G01 X59.7671 Y21.5206 
G01 X59.7542 Y21.4953 
G01 X59.7387 Y21.4715 
G01 X59.7157 Y21.4197 
G01 X59.6900 Y21.3692 
G01 X59.6812 Y21.3422 
G01 X59.6697 Y21.3163 
G01 X59.6550 Y21.2616 
G01 X59.6375 Y21.2077 
G01 X59.6330 Y21.1797 
G01 X59.6257 Y21.1523 
G01 X59.6198 Y21.0959 
G01 X59.6109 Y21.0399 
G01 X59.6109 Y21.0115 
G01 X59.6079 Y20.9833 
G01 X59.6109 Y20.9267 
G01 X59.6109 Y20.8701 
G01 X59.6154 Y20.8420 
G01 X59.6168 Y20.8137 
G01 X59.6286 Y20.7583 
G01 X59.6375 Y20.7023 
G01 X59.6463 Y20.6753 
G01 X59.6522 Y20.6476 
G01 X59.6725 Y20.5947 
G01 X59.6900 Y20.5408 
G01 X59.7028 Y20.5155 
G01 X59.7130 Y20.4890 
G01 X59.7414 Y20.4399 
G01 X59.7671 Y20.3894 
G01 X59.7838 Y20.3665 
G01 X59.7980 Y20.3419 
G01 X59.8336 Y20.2979 
G01 X59.8669 Y20.2520 
G01 X59.8870 Y20.2319 
G01 X59.9048 Y20.2099 
G01 X59.9470 Y20.1720 
G01 X59.9870 Y20.1319 
G01 X60.0100 Y20.1152 
G01 X60.0311 Y20.0962 
G01 X60.0786 Y20.0654 
G01 X60.1244 Y20.0321 
G01 X60.1497 Y20.0192 
G01 X60.1735 Y20.0037 
G01 X60.2253 Y19.9807 
G01 X60.2758 Y19.9550 
G01 X60.3028 Y19.9462 
G01 X60.3287 Y19.9347 
G01 X60.3834 Y19.9200 
G01 X60.4373 Y19.9025 
G01 X60.4654 Y19.8980 
G01 X60.9288 Y19.7739 
G01 X61.7079 Y19.3240 
G01 X63.0175 Y18.0144 
G01 X63.6940 Y17.3379 
G01 X64.1439 Y16.5588 
G01 X64.3767 Y15.6898 
G01 X64.3767 Y10.3452 
G01 X64.1439 Y9.4762 
G01 X63.6940 Y8.6971 
G01 X62.4229 Y7.4260 
G01 X61.6438 Y6.9761 
G01 X60.7748 Y6.7433 
G01 X59.8752 Y6.7433 
G01 X59.0062 Y6.9761 
G01 X58.2271 Y7.4260 
G01 X57.5910 Y8.0621 
G01 X57.1411 Y8.8412 
G01 X57.1070 Y8.9687 
G01 X57.0952 Y9.0242 
G01 X57.0850 Y9.0507 
G01 X57.0777 Y9.0781 
G01 X57.0546 Y9.1298 
G01 X57.0343 Y9.1827 
G01 X57.0201 Y9.2073 
G01 X57.0086 Y9.2332 
G01 X56.9777 Y9.2808 
G01 X56.9494 Y9.3298 
G01 X56.9315 Y9.3519 
G01 X56.9161 Y9.3757 
G01 X56.8782 Y9.4178 
G01 X56.8425 Y9.4618 
G01 X56.8214 Y9.4808 
G01 X56.8024 Y9.5019 
G01 X56.7584 Y9.5376 
G01 X56.7163 Y9.5755 
G01 X56.6925 Y9.5909 
G01 X56.6704 Y9.6088 
G01 X56.6214 Y9.6371 
G01 X56.5738 Y9.6680 
G01 X56.5479 Y9.6795 
G01 X56.5233 Y9.6937 
G01 X56.4704 Y9.7140 
G01 X56.4186 Y9.7371 
G01 X56.3912 Y9.7444 
G01 X56.3648 Y9.7546 
G01 X56.3093 Y9.7664 
G01 X56.2546 Y9.7810 
G01 X56.2264 Y9.7840 
G01 X56.1986 Y9.7899 
G01 X56.1420 Y9.7929 
G01 X56.0857 Y9.7988 
G01 X56.0573 Y9.7973 
G01 X56.0290 Y9.7988 
G01 X55.9726 Y9.7929 
G01 X55.9160 Y9.7899 
G01 X55.8883 Y9.7840 
G01 X55.8601 Y9.7810 
G01 X55.8053 Y9.7664 
G01 X55.7499 Y9.7546 
G01 X55.7234 Y9.7444 
G01 X55.6960 Y9.7371 
G01 X55.6442 Y9.7140 
G01 X55.5913 Y9.6937 
G01 X55.5668 Y9.6795 
G01 X55.5408 Y9.6680 
G01 X55.4933 Y9.6371 
G01 X55.4442 Y9.6088 
G01 X55.4222 Y9.5909 
G01 X55.3984 Y9.5755 
G01 X55.3563 Y9.5376 
G01 X55.3122 Y9.5019 
G01 X55.2932 Y9.4808 
G01 X55.2722 Y9.4618 
G01 X55.2365 Y9.4178 
G01 X55.1986 Y9.3757 
G01 X55.1831 Y9.3519 
G01 X55.1653 Y9.3298 
G01 X55.1369 Y9.2808 
G01 X55.1061 Y9.2332 
G01 X55.0945 Y9.2073 
G01 X55.0941 Y11.1134 
G01 X55.1061 Y11.0868 
G01 X55.1369 Y11.0392 
G01 X55.1653 Y10.9902 
G01 X55.1831 Y10.9681 
G01 X55.1986 Y10.9443 
G01 X55.2365 Y10.9022 
G01 X55.2722 Y10.8582 
G01 X55.2932 Y10.8392 
G01 X55.3122 Y10.8181 
G01 X55.3563 Y10.7824 
G01 X55.3984 Y10.7445 
G01 X55.4222 Y10.7291 
G01 X55.4442 Y10.7112 
G01 X55.4933 Y10.6829 
G01 X55.5408 Y10.6520 
G01 X55.5668 Y10.6404 
G01 X55.5913 Y10.6263 
G01 X55.6442 Y10.6060 
G01 X55.6960 Y10.5829 
G01 X55.7234 Y10.5756 
G01 X55.7499 Y10.5654 
G01 X55.8053 Y10.5536 
G01 X55.8601 Y10.5389 
G01 X55.8883 Y10.5360 
G01 X55.9160 Y10.5301 
G01 X55.9726 Y10.5271 
G01 X56.0290 Y10.5212 
G01 X56.0573 Y10.5227 
G01 X56.0857 Y10.5212 
G01 X56.1420 Y10.5271 
G01 X56.1986 Y10.5301 
G01 X56.2264 Y10.5360 
G01 X56.2546 Y10.5389 
G01 X56.3093 Y10.5536 
G01 X56.3648 Y10.5654 
G01 X56.3912 Y10.5756 
G01 X56.4186 Y10.5829 
G01 X56.4704 Y10.6060 
G01 X56.5233 Y10.6263 
G01 X56.5479 Y10.6405 
G01 X56.5738 Y10.6520 
G01 X56.6214 Y10.6829 
G01 X56.6704 Y10.7112 
G01 X56.6925 Y10.7290 
G01 X56.7163 Y10.7445 
G01 X56.7584 Y10.7824 
G01 X56.8024 Y10.8181 
G01 X56.8214 Y10.8392 
G01 X56.8425 Y10.8582 
G01 X56.8782 Y10.9022 
G01 X56.9161 Y10.9443 
G01 X56.9315 Y10.9681 
G01 X56.9494 Y10.9902 
G01 X56.9777 Y11.0392 
G01 X57.0086 Y11.0868 
G01 X57.0201 Y11.1127 
G01 X57.0343 Y11.1373 
G01 X57.0546 Y11.1902 
G01 X57.0777 Y11.2419 
G01 X57.0850 Y11.2693 
G01 X57.0952 Y11.2958 
G01 X57.1070 Y11.3513 
G01 X57.1411 Y11.4788 
G01 X57.3705 Y11.8760 
G01 X57.3871 Y11.8989 
G01 X57.4128 Y11.9494 
G01 X57.4412 Y11.9985 
G01 X57.4514 Y12.0250 
G01 X57.4642 Y12.0503 
G01 X57.4817 Y12.1041 
G01 X57.5021 Y12.1571 
G01 X57.5080 Y12.1848 
G01 X57.5167 Y12.2118 
G01 X57.5256 Y12.2678 
G01 X57.5374 Y12.3232 
G01 X57.5389 Y12.3515 
G01 X57.5433 Y12.3796 
G01 X57.5433 Y12.4362 
G01 X57.5463 Y12.4928 
G01 X57.5433 Y12.5211 
G01 X57.5433 Y12.8662 
G01 X57.5463 Y12.9228 
G01 X57.5433 Y12.9510 
G01 X57.5433 Y12.9794 
G01 X57.5344 Y13.0354 
G01 X57.5285 Y13.0918 
G01 X57.5212 Y13.1192 
G01 X57.5167 Y13.1472 
G01 X57.4992 Y13.2011 
G01 X57.4845 Y13.2558 
G01 X57.4730 Y13.2817 
G01 X57.4642 Y13.3087 
G01 X57.4385 Y13.3592 
G01 X57.4155 Y13.4110 
G01 X57.4000 Y13.4348 
G01 X57.3871 Y13.4601 
G01 X57.3538 Y13.5059 
G01 X57.3229 Y13.5534 
G01 X57.3040 Y13.5745 
G01 X57.2873 Y13.5975 
G01 X57.2472 Y13.6375 
G01 X57.2093 Y13.6797 
G01 X57.1872 Y13.6975 
G01 X57.1672 Y13.7176 
G01 X57.1214 Y13.7509 
G01 X57.0773 Y13.7866 
G01 X57.0527 Y13.8008 
G01 X57.0298 Y13.8174 
G01 X56.9793 Y13.8431 
G01 X56.9571 Y13.8560 
G01 X56.3210 Y14.4921 
G01 X55.8711 Y15.2712 
G01 X55.6383 Y16.1402 
G01 X55.6383 Y17.0398 
G01 X55.8711 Y17.9088 
G01 X56.3210 Y18.6879 
G01 X56.9571 Y19.3240 
G01 X57.7362 Y19.7739 
G01 X58.1996 Y19.8980 
G01 X58.2277 Y19.9025 
G01 X58.2816 Y19.9200 
G01 X58.3363 Y19.9347 
G01 X58.3622 Y19.9462 
G01 X58.3892 Y19.9550 
G01 X58.4397 Y19.9807 
G01 X58.4915 Y20.0037 
G01 X58.5153 Y20.0192 
G01 X58.5406 Y20.0321 
G01 X58.5864 Y20.0654 
G01 X58.6339 Y20.0962 
G01 X58.6550 Y20.1152 
G01 X58.6780 Y20.1319 
G01 X58.7180 Y20.1720 
G01 X58.7602 Y20.2099 
G01 X58.7780 Y20.2319 
G01 X58.7981 Y20.2520 
G01 X58.8314 Y20.2979 
G01 X58.8670 Y20.3419 
G01 X58.8812 Y20.3665 
G01 X58.8979 Y20.3894 
G01 X58.9236 Y20.4399 
G01 X58.9520 Y20.4890 
G01 X58.9621 Y20.5155 
G01 X58.9750 Y20.5408 
G01 X58.9925 Y20.5947 
G01 X59.0128 Y20.6476 
G01 X59.0187 Y20.6753 
G01 X59.0275 Y20.7023 
G01 X59.0364 Y20.7583 
G01 X59.0482 Y20.8137 
G01 X59.0496 Y20.8420 
G01 X59.0541 Y20.8701 
G01 X59.0541 Y20.9267 
G01 X59.0570 Y20.9833 
G01 X59.0541 Y21.0115 
G01 X59.0541 Y21.0399 
G01 X59.0452 Y21.0959 
G01 X59.0393 Y21.1523 
G01 X59.0319 Y21.1797 
G01 X59.0275 Y21.2077 
G01 X59.0100 Y21.2616 
G01 X58.9953 Y21.3163 
G01 X58.9838 Y21.3422 
G01 X58.9750 Y21.3692 
G01 X58.9493 Y21.4197 
G01 X58.9262 Y21.4715 
G01 X58.9108 Y21.4953 
G01 X58.8979 Y21.5206 
G01 X58.8646 Y21.5664 
G01 X58.8337 Y21.6139 
G01 X58.8147 Y21.6350 
G01 X58.7981 Y21.6580 
G01 X58.7580 Y21.6980 
G01 X58.7201 Y21.7402 
G01 X58.6980 Y21.7580 
G01 X58.6780 Y21.7781 
G01 X58.6321 Y21.8114 
G01 X58.5881 Y21.8471 
G01 X58.5635 Y21.8613 
G01 X58.5406 Y21.8779 
G01 X58.4901 Y21.9036 
G01 X58.4410 Y21.9320 
G01 X58.4145 Y21.9422 
G01 X58.3892 Y21.9550 
G01 X58.3353 Y21.9725 
G01 X58.2824 Y21.9929 
G01 X58.2547 Y21.9988 
G01 X58.2277 Y22.0075 
G01 X58.1717 Y22.0164 
G01 X58.1163 Y22.0282 
G01 X58.0879 Y22.0297 
G01 X58.0599 Y22.0341 
G01 X58.0032 Y22.0341 
G01 X57.9466 Y22.0371 
G01 X57.9184 Y22.0341 
G01 X51.1444 Y22.0341 
G01 X50.9473 Y22.1157 
G01 X50.9094 Y22.1350 
G01 X50.8690 Y22.1482 
G01 X50.8297 Y22.1645 
G01 X50.7883 Y22.1744 
G01 X50.7479 Y22.1875 
G01 X50.7059 Y22.1942 
G01 X50.6645 Y22.2041 
G01 X50.6221 Y22.2074 
G01 X50.5801 Y22.2141 
G01 X50.5376 Y22.2141 
G01 X50.4952 Y22.2174 
G01 X50.4528 Y22.2141 
G01 X50.4103 Y22.2141 
G01 X50.3683 Y22.2074 
G01 X50.3259 Y22.2041 
G01 X50.2845 Y22.1942 
G01 X50.2425 Y22.1875 
G01 X50.2021 Y22.1744 
G01 X50.1607 Y22.1645 
G01 X50.1214 Y22.1482 
G01 X50.0810 Y22.1350 
G01 X50.0431 Y22.1157 
G01 X50.0038 Y22.0995 
G01 X49.9675 Y22.0772 
G01 X49.9296 Y22.0579 
G01 X49.8952 Y22.0329 
G01 X49.8590 Y22.0107 
G01 X49.8266 Y21.9831 
G01 X49.7922 Y21.9581 
G01 X49.7621 Y21.9280 
G01 X49.7298 Y21.9004 
G01 X49.7022 Y21.8681 
G01 X49.6721 Y21.8380 
G01 X49.6471 Y21.8036 
G01 X49.6195 Y21.7712 
G01 X49.5973 Y21.7350 
G01 X49.5723 Y21.7006 
G01 X49.5530 Y21.6627 
G01 X49.5307 Y21.6264 
G01 X49.5145 Y21.5871 
G01 X49.4952 Y21.5492 
G01 X49.4820 Y21.5088 
G01 X49.4657 Y21.4695 
G01 X49.4558 Y21.4281 
G01 X49.4427 Y21.3877 
G01 X49.4360 Y21.3457 
G01 X49.4261 Y21.3043 
G01 X49.4228 Y21.2619 
G01 X49.4161 Y21.2199 
G01 X49.4161 Y21.1774 
G01 X49.4128 Y21.1350 
G01 X49.4161 Y21.0926 
G01 X49.4161 Y18.8200 
G01 X49.1843 Y18.2603 
G01 X49.1650 Y18.2224 
G01 X49.1518 Y18.1820 
G01 X49.1355 Y18.1427 
G01 X49.1256 Y18.1013 
G01 X49.1125 Y18.0609 
G01 X49.1058 Y18.0189 
G01 X49.0959 Y17.9775 
G01 X49.0926 Y17.9352 
G01 X49.0859 Y17.8931 
G01 X49.0859 Y17.8506 
G01 X49.0846 Y17.8342 
G01 X49.0800 Y17.8251 
G01 X49.0668 Y17.7846 
G01 X49.0505 Y17.7454 
G01 X49.0406 Y17.7040 
G01 X49.0275 Y17.6636 
G01 X49.0208 Y17.6215 
G01 X49.0109 Y17.5802 
G01 X49.0076 Y17.5378 
G01 X49.0009 Y17.4958 
G01 X49.0009 Y17.4533 
G01 X48.9994 Y17.4346 
G01 X48.9774 Y17.3428 
G01 X48.9706 Y17.3144 
G01 X48.9623 Y17.2100 
G01 X48.9572 Y17.1450 
G01 X48.9668 Y17.0232 
G01 X48.9705 Y16.9757 
G01 X48.9909 Y16.8909 
G01 X48.9994 Y16.8554 
G01 X49.0009 Y16.8367 
G01 X49.0009 Y16.7942 
G01 X49.0076 Y16.7522 
G01 X49.0109 Y16.7098 
G01 X49.0208 Y16.6684 
G01 X49.0275 Y16.6264 
G01 X49.0406 Y16.5860 
G01 X49.0505 Y16.5446 
G01 X49.0668 Y16.5053 
G01 X49.0800 Y16.4649 
G01 X49.0859 Y16.4532 
G01 X49.0859 Y15.8892 
G01 X49.0826 Y15.8468 
G01 X49.0859 Y15.8044 
G01 X49.0859 Y15.7619 
G01 X49.0926 Y15.7198 
G01 X49.0959 Y15.6774 
G01 X49.1058 Y15.6361 
G01 X49.1125 Y15.5941 
G01 X49.1256 Y15.5537 
G01 X49.1355 Y15.5123 
G01 X49.1518 Y15.4730 
G01 X49.1650 Y15.4326 
G01 X49.1843 Y15.3947 
G01 X49.4161 Y14.8350 
G01 X49.4161 Y11.2000 
G01 X49.2401 Y10.7751 
G01 X48.8232 Y10.3582 
G01 X46.4070 Y7.9420 
G01 X46.3071 Y7.8046 
G01 X46.2300 Y7.6532 
G01 X46.1775 Y7.4917 
G01 X46.1509 Y7.3239 
G01 X46.1509 Y7.1541 
G01 X46.1775 Y6.9863 
G01 X46.2281 Y6.8306 
G01 X46.2300 Y6.8248 
G01 X46.3071 Y6.6734 
G01 X46.4070 Y6.5360 
G01 X46.5271 Y6.4159 
G01 X46.6645 Y6.3161 
G01 X46.8158 Y6.2390 
G01 X46.9774 Y6.1865 
G01 X47.1451 Y6.1599 
G01 X47.8145 Y6.1599 
G01 X48.1648 Y6.0148 
G01 X48.4328 Y5.7468 
G01 X48.5779 Y5.3965 
G01 X48.5779 Y3.9283 
G01 X48.6045 Y3.7605 
G01 X48.6570 Y3.5990 
G01 X48.7341 Y3.4476 
G01 X48.8339 Y3.3102 
G00 Z2.0000  F3000
G00 X45.4971 Y10.3021  F3000
G01 Z-0.2000 F200.00 
G01 X45.6172 Y10.4222 F500.00 
G01 X46.8479 Y11.6529 
G01 X46.9477 Y11.7903 
G01 X47.0248 Y11.9416 
G01 X47.0773 Y12.1032 
G01 X47.1039 Y12.2709 
G01 X47.1039 Y14.8350 
G01 X47.3357 Y15.3947 
G01 X47.3550 Y15.4326 
G01 X47.3682 Y15.4730 
G01 X47.3845 Y15.5123 
G01 X47.3944 Y15.5536 
G01 X47.4075 Y15.5941 
G01 X47.4142 Y15.6361 
G01 X47.4241 Y15.6774 
G01 X47.4274 Y15.7198 
G01 X47.4341 Y15.7619 
G01 X47.4341 Y15.8044 
G01 X47.4374 Y15.8468 
G01 X47.4341 Y15.8892 
G01 X47.4341 Y16.4532 
G01 X47.4400 Y16.4649 
G01 X47.4532 Y16.5053 
G01 X47.4695 Y16.5446 
G01 X47.4794 Y16.5860 
G01 X47.4925 Y16.6264 
G01 X47.4992 Y16.6684 
G01 X47.5091 Y16.7098 
G01 X47.5124 Y16.7522 
G01 X47.5191 Y16.7942 
G01 X47.5191 Y16.8367 
G01 X47.5206 Y16.8554 
G01 X47.5287 Y16.8893 
G01 X47.5494 Y16.9757 
G01 X47.5529 Y17.0197 
G01 X47.5628 Y17.1450 
G01 X47.5578 Y17.2082 
G01 X47.5494 Y17.3143 
G01 X47.5435 Y17.3390 
G01 X47.5206 Y17.4346 
G01 X47.5191 Y17.4533 
G01 X47.5191 Y17.4958 
G01 X47.5124 Y17.5378 
G01 X47.5091 Y17.5802 
G01 X47.4992 Y17.6215 
G01 X47.4925 Y17.6636 
G01 X47.4794 Y17.7040 
G01 X47.4695 Y17.7454 
G01 X47.4532 Y17.7846 
G01 X47.4400 Y17.8251 
G01 X47.4354 Y17.8342 
G01 X47.4341 Y17.8506 
G01 X47.4341 Y17.8931 
G01 X47.4274 Y17.9352 
G01 X47.4241 Y17.9775 
G01 X47.4142 Y18.0189 
G01 X47.4075 Y18.0609 
G01 X47.3944 Y18.1013 
G01 X47.3845 Y18.1427 
G01 X47.3682 Y18.1820 
G01 X47.3550 Y18.2224 
G01 X47.3357 Y18.2603 
G01 X47.1039 Y18.8200 
G01 X47.1039 Y22.9467 
G01 X47.1072 Y22.9891 
G01 X47.1039 Y23.0315 
G01 X47.1039 Y23.0740 
G01 X47.0972 Y23.1160 
G01 X47.0939 Y23.1584 
G01 X47.0840 Y23.1998 
G01 X47.0773 Y23.2418 
G01 X47.0642 Y23.2822 
G01 X47.0543 Y23.3236 
G01 X47.0380 Y23.3629 
G01 X47.0248 Y23.4033 
G01 X47.0055 Y23.4412 
G01 X46.9893 Y23.4805 
G01 X46.9804 Y23.4950 
G01 X46.9893 Y23.5095 
G01 X47.0055 Y23.5488 
G01 X47.0248 Y23.5867 
G01 X47.0380 Y23.6271 
G01 X47.0543 Y23.6664 
G01 X47.0642 Y23.7078 
G01 X47.0773 Y23.7482 
G01 X47.0840 Y23.7902 
G01 X47.0939 Y23.8316 
G01 X47.0972 Y23.8740 
G01 X47.1039 Y23.9160 
G01 X47.1039 Y23.9585 
G01 X47.1072 Y24.0009 
G01 X47.1039 Y24.0433 
G01 X47.1039 Y25.1941 
G01 X47.0773 Y25.3618 
G01 X47.0248 Y25.5234 
G01 X46.9477 Y25.6747 
G01 X46.8479 Y25.8121 
G01 X46.7278 Y25.9322 
G01 X37.5368 Y35.1232 
G01 X37.1199 Y35.5401 
G01 X36.9439 Y35.9650 
G01 X36.9439 Y46.5850 
G01 X37.1199 Y47.0099 
G01 X37.4451 Y47.3351 
G01 X37.8700 Y47.5111 
G01 X47.2200 Y47.5111 
G01 X47.4731 Y47.4063 
G01 X47.5109 Y47.3870 
G01 X47.5514 Y47.3738 
G01 X47.5907 Y47.3575 
G01 X47.6320 Y47.3476 
G01 X47.6725 Y47.3345 
G01 X47.7145 Y47.3278 
G01 X47.7558 Y47.3179 
G01 X47.7982 Y47.3145 
G01 X47.8402 Y47.3079 
G01 X47.8828 Y47.3079 
G01 X47.9252 Y47.3046 
G01 X47.9457 Y47.3062 
G01 X48.2918 Y47.1628 
G01 X48.5598 Y46.8948 
G01 X48.7337 Y46.4751 
G01 X48.7373 Y46.4614 
G01 X48.7661 Y46.3967 
G01 X48.7932 Y46.3313 
G01 X48.8006 Y46.3192 
G01 X48.8064 Y46.3062 
G01 X48.8450 Y46.2468 
G01 X48.8820 Y46.1865 
G01 X48.8912 Y46.1757 
G01 X48.8989 Y46.1638 
G01 X48.9463 Y46.1111 
G01 X48.9923 Y46.0573 
G01 X49.0031 Y46.0481 
G01 X49.0126 Y46.0375 
G01 X49.0676 Y45.9930 
G01 X49.1214 Y45.9470 
G01 X49.1336 Y45.9396 
G01 X49.1446 Y45.9306 
G01 X49.2059 Y45.8952 
G01 X49.2663 Y45.8583 
G01 X49.2794 Y45.8528 
G01 X49.2917 Y45.8457 
G01 X49.3577 Y45.8204 
G01 X49.4232 Y45.7933 
G01 X49.4370 Y45.7899 
G01 X49.4503 Y45.7848 
G01 X49.5195 Y45.7701 
G01 X49.5883 Y45.7536 
G01 X49.6025 Y45.7525 
G01 X49.6164 Y45.7495 
G01 X49.6871 Y45.7458 
G01 X49.7577 Y45.7403 
G01 X49.7718 Y45.7414 
G01 X49.7860 Y45.7406 
G01 X49.8564 Y45.7480 
G01 X49.9270 Y45.7536 
G01 X49.9408 Y45.7569 
G01 X49.9549 Y45.7584 
G01 X50.0233 Y45.7767 
G01 X50.0922 Y45.7933 
G01 X50.1053 Y45.7987 
G01 X50.3032 Y45.8517 
G01 X50.3313 Y45.8562 
G01 X50.3851 Y45.8737 
G01 X50.4399 Y45.8883 
G01 X50.4658 Y45.8999 
G01 X50.4928 Y45.9087 
G01 X50.5432 Y45.9344 
G01 X50.5951 Y45.9574 
G01 X50.6189 Y45.9729 
G01 X50.6441 Y45.9858 
G01 X50.6900 Y46.0191 
G01 X50.7375 Y46.0499 
G01 X50.7586 Y46.0689 
G01 X50.7815 Y46.0856 
G01 X50.8216 Y46.1257 
G01 X50.8637 Y46.1636 
G01 X50.8816 Y46.1857 
G01 X52.7281 Y48.0321 
G01 X53.2060 Y48.3081 
G01 X53.7391 Y48.4509 
G01 X54.2909 Y48.4509 
G01 X54.8240 Y48.3081 
G01 X55.3019 Y48.0321 
G01 X55.3328 Y48.0012 
G01 X55.3511 Y47.9787 
G01 X55.3755 Y47.9568 
G01 X55.3905 Y47.9401 
G01 X55.4085 Y47.9256 
G01 X55.4324 Y47.9016 
G01 X55.4559 Y47.8846 
G01 X55.4775 Y47.8652 
G01 X55.5053 Y47.8471 
G01 X55.5225 Y47.8332 
G01 X55.5422 Y47.8219 
G01 X55.5698 Y47.8018 
G01 X55.5957 Y47.7886 
G01 X55.6201 Y47.7728 
G01 X55.6507 Y47.7592 
G01 X55.6696 Y47.7483 
G01 X55.6906 Y47.7403 
G01 X55.7212 Y47.7247 
G01 X55.7488 Y47.7157 
G01 X55.7753 Y47.7039 
G01 X55.8078 Y47.6953 
G01 X55.8282 Y47.6874 
G01 X55.8500 Y47.6828 
G01 X55.8827 Y47.6722 
G01 X55.9114 Y47.6676 
G01 X55.9394 Y47.6602 
G01 X55.9729 Y47.6567 
G01 X55.9943 Y47.6521 
G01 X56.0166 Y47.6510 
G01 X56.0505 Y47.6456 
G01 X56.0795 Y47.6456 
G01 X56.1084 Y47.6426 
G01 X56.1419 Y47.6444 
G01 X56.1639 Y47.6432 
G01 X56.1863 Y47.6456 
G01 X56.2203 Y47.6456 
G01 X56.2490 Y47.6501 
G01 X56.2780 Y47.6517 
G01 X56.3105 Y47.6587 
G01 X56.3328 Y47.6610 
G01 X56.3549 Y47.6669 
G01 X56.3881 Y47.6722 
G01 X56.4157 Y47.6811 
G01 X56.4441 Y47.6872 
G01 X56.4748 Y47.6990 
G01 X56.4969 Y47.7050 
G01 X56.5182 Y47.7144 
G01 X56.5496 Y47.7247 
G01 X56.5755 Y47.7378 
G01 X56.6026 Y47.7483 
G01 X56.6306 Y47.7645 
G01 X56.6521 Y47.7741 
G01 X56.6721 Y47.7871 
G01 X56.7010 Y47.8018 
G01 X56.7245 Y47.8188 
G01 X56.7496 Y47.8334 
G01 X56.7742 Y47.8534 
G01 X56.7945 Y47.8666 
G01 X56.8128 Y47.8830 
G01 X56.8384 Y47.9016 
G01 X56.8589 Y47.9221 
G01 X56.8815 Y47.9404 
G01 X56.9022 Y47.9635 
G01 X56.9208 Y47.9802 
G01 X56.9367 Y47.9999 
G01 X56.9585 Y48.0217 
G01 X56.9755 Y48.0452 
G01 X56.9950 Y48.0668 
G01 X57.0114 Y48.0921 
G01 X57.0276 Y48.1122 
G01 X57.0407 Y48.1349 
G01 X57.0583 Y48.1591 
G01 X57.0715 Y48.1850 
G01 X57.0873 Y48.2093 
G01 X57.0992 Y48.2361 
G01 X57.5910 Y49.0879 
G01 X58.2271 Y49.7240 
G01 X59.0062 Y50.1739 
G01 X59.8752 Y50.4067 
G01 X60.7748 Y50.4067 
G01 X61.6438 Y50.1739 
G01 X62.4229 Y49.7240 
G01 X63.6940 Y48.4529 
G01 X64.1439 Y47.6738 
G01 X64.3767 Y46.8048 
G01 X64.3767 Y42.2740 
G01 X64.3737 Y42.2174 
G01 X64.3767 Y42.1892 
G01 X64.3767 Y42.1609 
G01 X64.3856 Y42.1049 
G01 X64.3915 Y42.0485 
G01 X64.3988 Y42.0211 
G01 X64.4033 Y41.9931 
G01 X64.4208 Y41.9392 
G01 X64.4355 Y41.8845 
G01 X64.4470 Y41.8585 
G01 X64.4558 Y41.8316 
G01 X64.4815 Y41.7811 
G01 X64.5045 Y41.7293 
G01 X64.5200 Y41.7055 
G01 X64.5329 Y41.6802 
G01 X64.5662 Y41.6344 
G01 X64.5970 Y41.5868 
G01 X64.6160 Y41.5657 
G01 X64.6327 Y41.5428 
G01 X64.6728 Y41.5028 
G01 X64.7107 Y41.4606 
G01 X64.7328 Y41.4427 
G01 X64.7528 Y41.4227 
G01 X64.7986 Y41.3894 
G01 X64.8427 Y41.3537 
G01 X64.8673 Y41.3395 
G01 X64.8902 Y41.3229 
G01 X64.9407 Y41.2972 
G01 X64.9898 Y41.2688 
G01 X65.0163 Y41.2586 
G01 X65.0416 Y41.2458 
G01 X65.0955 Y41.2282 
G01 X65.1484 Y41.2079 
G01 X65.1761 Y41.2020 
G01 X65.2031 Y41.1933 
G01 X65.2591 Y41.1844 
G01 X65.3145 Y41.1726 
G01 X65.3428 Y41.1711 
G01 X65.3709 Y41.1667 
G01 X65.4275 Y41.1667 
G01 X65.4841 Y41.1637 
G01 X65.5124 Y41.1667 
G01 X65.5407 Y41.1667 
G01 X65.5967 Y41.1756 
G01 X65.6531 Y41.1815 
G01 X65.6805 Y41.1888 
G01 X65.7085 Y41.1933 
G01 X65.7624 Y41.2108 
G01 X65.8171 Y41.2255 
G01 X65.8430 Y41.2370 
G01 X65.8700 Y41.2458 
G01 X65.9205 Y41.2715 
G01 X65.9723 Y41.2945 
G01 X65.9961 Y41.3100 
G01 X66.0214 Y41.3229 
G01 X66.0672 Y41.3562 
G01 X66.1148 Y41.3870 
G01 X66.1358 Y41.4060 
G01 X66.1588 Y41.4227 
G01 X66.1988 Y41.4628 
G01 X66.2410 Y41.5007 
G01 X66.2588 Y41.5228 
G01 X66.2789 Y41.5428 
G01 X66.3122 Y41.5886 
G01 X66.3479 Y41.6327 
G01 X66.3621 Y41.6573 
G01 X66.3787 Y41.6802 
G01 X66.4044 Y41.7307 
G01 X66.4313 Y41.7773 
G01 X66.5033 Y41.8711 
G01 X66.5869 Y41.9547 
G01 X66.6808 Y42.0267 
G01 X66.7832 Y42.0858 
G01 X66.8659 Y42.1201 
G01 X66.8659 Y42.0917 
G01 X66.7681 Y42.0512 
G01 X66.6246 Y41.9554 
G01 X66.5026 Y41.8334 
G01 X66.4068 Y41.6899 
G01 X66.3408 Y41.5305 
G01 X66.3071 Y41.3613 
G01 X66.3071 Y41.1887 
G01 X66.3408 Y41.0195 
G01 X66.4068 Y40.8601 
G01 X66.5026 Y40.7166 
G01 X66.6246 Y40.5946 
G01 X66.7681 Y40.4988 
G01 X66.9275 Y40.4328 
G01 X67.0967 Y40.3991 
G01 X67.3147 Y40.3991 
G01 X67.3794 Y40.3521 
G01 X67.5307 Y40.2750 
G01 X67.6923 Y40.2225 
G01 X67.8601 Y40.1959 
G01 X68.0299 Y40.1959 
G01 X68.1977 Y40.2225 
G01 X68.3592 Y40.2750 
G01 X68.5106 Y40.3521 
G01 X68.5753 Y40.3991 
G01 X68.7933 Y40.3991 
G01 X68.9625 Y40.4328 
G01 X69.1219 Y40.4988 
G01 X69.2654 Y40.5946 
G01 X69.3874 Y40.7166 
G01 X69.4832 Y40.8601 
G01 X69.5492 Y41.0195 
G01 X69.5829 Y41.1887 
G01 X69.5829 Y41.3613 
G01 X69.5492 Y41.5305 
G01 X69.4832 Y41.6899 
G01 X69.3874 Y41.8334 
G01 X69.2654 Y41.9554 
G01 X69.1219 Y42.0512 
G01 X69.0241 Y42.0917 
G01 X69.0241 Y42.1201 
G01 X69.0891 Y42.0931 
G01 X69.1317 Y42.0715 
G01 X69.1808 Y42.0431 
G01 X69.2073 Y42.0329 
G01 X69.2326 Y42.0201 
G01 X69.2864 Y42.0026 
G01 X69.3394 Y41.9822 
G01 X69.3671 Y41.9763 
G01 X69.3941 Y41.9676 
G01 X69.4501 Y41.9587 
G01 X69.5055 Y41.9469 
G01 X69.5338 Y41.9454 
G01 X69.5619 Y41.9410 
G01 X69.6185 Y41.9410 
G01 X69.6751 Y41.9380 
G01 X69.7033 Y41.9410 
G01 X69.7317 Y41.9410 
G01 X69.7877 Y41.9499 
G01 X69.8440 Y41.9558 
G01 X69.8715 Y41.9631 
G01 X69.8995 Y41.9676 
G01 X69.9534 Y41.9851 
G01 X70.0081 Y41.9997 
G01 X70.0340 Y42.0113 
G01 X70.0610 Y42.0201 
G01 X70.1115 Y42.0458 
G01 X70.1633 Y42.0688 
G01 X70.1871 Y42.0843 
G01 X70.2124 Y42.0972 
G01 X70.2582 Y42.1305 
G01 X70.3057 Y42.1613 
G01 X70.3268 Y42.1803 
G01 X70.3498 Y42.1970 
G01 X70.3898 Y42.2371 
G01 X70.4320 Y42.2750 
G01 X70.4498 Y42.2970 
G01 X70.4699 Y42.3171 
G01 X70.5032 Y42.3629 
G01 X70.5389 Y42.4070 
G01 X70.5531 Y42.4316 
G01 X70.5697 Y42.4545 
G01 X70.5954 Y42.5050 
G01 X70.6238 Y42.5541 
G01 X70.6340 Y42.5806 
G01 X70.6468 Y42.6059 
G01 X70.6643 Y42.6597 
G01 X70.6847 Y42.7126 
G01 X70.6906 Y42.7404 
G01 X70.6993 Y42.7674 
G01 X70.7082 Y42.8234 
G01 X70.7200 Y42.8788 
G01 X70.7215 Y42.9071 
G01 X70.7259 Y42.9352 
G01 X70.7259 Y42.9918 
G01 X70.7289 Y43.0484 
G01 X70.7259 Y43.0766 
G01 X70.7259 Y53.2217 
G01 X70.6993 Y53.3895 
G01 X70.6468 Y53.5510 
G01 X70.5697 Y53.7024 
G01 X70.4699 Y53.8398 
G01 X70.3498 Y53.9599 
G01 X70.2124 Y54.0597 
G01 X70.0610 Y54.1368 
G01 X69.8995 Y54.1893 
G01 X69.7317 Y54.2159 
G01 X43.2221 Y54.2159 
G01 X43.0543 Y54.1893 
G01 X42.8928 Y54.1368 
G01 X42.7414 Y54.0597 
G01 X42.6040 Y53.9599 
G01 X42.4839 Y53.8398 
G01 X42.3841 Y53.7024 
G01 X42.3070 Y53.5510 
G01 X42.2545 Y53.3895 
G01 X42.2279 Y53.2217 
G01 X42.2279 Y51.7535 
G01 X42.0828 Y51.4032 
G01 X41.8148 Y51.1352 
G01 X41.4645 Y50.9901 
G01 X41.0855 Y50.9901 
G01 X40.7352 Y51.1352 
G01 X40.7080 Y51.1624 
G01 X40.5706 Y51.2622 
G01 X40.4192 Y51.3394 
G01 X40.2577 Y51.3918 
G01 X40.1981 Y51.4013 
G01 X40.0899 Y51.4184 
G01 X39.9201 Y51.4184 
G01 X39.7891 Y51.3977 
G01 X39.7523 Y51.3918 
G01 X39.6776 Y51.3676 
G01 X39.5908 Y51.3394 
G01 X39.5882 Y51.3381 
G01 X39.4394 Y51.2623 
G01 X39.3020 Y51.1624 
G01 X39.2748 Y51.1352 
G01 X38.9245 Y50.9901 
G01 X38.5455 Y50.9901 
G01 X38.1952 Y51.1352 
G01 X38.1680 Y51.1624 
G01 X38.0306 Y51.2622 
G01 X37.8792 Y51.3394 
G01 X37.7177 Y51.3918 
G01 X37.6581 Y51.4013 
G01 X37.5499 Y51.4184 
G01 X37.3801 Y51.4184 
G01 X37.2491 Y51.3977 
G01 X37.2123 Y51.3918 
G01 X37.1376 Y51.3676 
G01 X37.0508 Y51.3394 
G01 X37.0482 Y51.3381 
G01 X36.8994 Y51.2623 
G01 X36.7620 Y51.1624 
G01 X36.7348 Y51.1352 
G01 X36.3845 Y50.9901 
G01 X36.0055 Y50.9901 
G01 X35.6552 Y51.1352 
G01 X35.6280 Y51.1624 
G01 X35.4906 Y51.2622 
G01 X35.3392 Y51.3394 
G01 X35.1777 Y51.3918 
G01 X35.1181 Y51.4013 
G01 X35.0099 Y51.4184 
G01 X34.8401 Y51.4184 
G01 X34.7091 Y51.3977 
G01 X34.6723 Y51.3918 
G01 X34.5976 Y51.3676 
G01 X34.5108 Y51.3394 
G01 X34.5082 Y51.3381 
G01 X34.3594 Y51.2623 
G01 X34.2220 Y51.1624 
G01 X34.1948 Y51.1352 
G01 X33.8445 Y50.9901 
G01 X33.4655 Y50.9901 
G01 X33.1174 Y51.1343 
G01 X33.0922 Y51.1582 
G01 X33.0422 Y51.2082 
G01 X33.0307 Y51.2165 
G01 X33.0204 Y51.2263 
G01 X32.9620 Y51.2665 
G01 X32.9048 Y51.3080 
G01 X32.8921 Y51.3145 
G01 X32.8804 Y51.3225 
G01 X32.8165 Y51.3530 
G01 X32.7534 Y51.3852 
G01 X32.7399 Y51.3895 
G01 X32.7271 Y51.3957 
G01 X32.6592 Y51.4158 
G01 X32.5919 Y51.4376 
G01 X32.5779 Y51.4399 
G01 X32.5642 Y51.4439 
G01 X32.4940 Y51.4531 
G01 X32.4241 Y51.4642 
G01 X32.4099 Y51.4642 
G01 X32.3958 Y51.4661 
G01 X32.3251 Y51.4642 
G01 X32.2543 Y51.4642 
G01 X32.2402 Y51.4620 
G01 X32.2260 Y51.4616 
G01 X32.1941 Y51.4557 
G01 X32.1941 Y52.7899 
G01 X32.1675 Y52.9577 
G01 X32.1150 Y53.1192 
G01 X32.0379 Y53.2705 
G01 X31.9909 Y53.3353 
G01 X31.9909 Y53.5533 
G01 X31.9572 Y53.7225 
G01 X31.8912 Y53.8819 
G01 X31.7954 Y54.0254 
G01 X31.6734 Y54.1474 
G01 X31.5299 Y54.2432 
G01 X31.3705 Y54.3092 
G01 X31.2013 Y54.3429 
G01 X31.0287 Y54.3429 
G01 X30.8595 Y54.3092 
G01 X30.7001 Y54.2432 
G01 X30.5566 Y54.1474 
G01 X30.4346 Y54.0254 
G01 X30.3388 Y53.8819 
G01 X30.2728 Y53.7225 
G01 X30.2391 Y53.5533 
G01 X30.2391 Y53.3353 
G01 X30.1921 Y53.2705 
G01 X30.1149 Y53.1192 
G01 X30.0625 Y52.9577 
G01 X30.0359 Y52.7899 
G01 X30.0359 Y51.4557 
G01 X30.0039 Y51.4616 
G01 X29.9897 Y51.4620 
G01 X29.9757 Y51.4642 
G01 X29.9049 Y51.4642 
G01 X29.8341 Y51.4661 
G01 X29.8201 Y51.4642 
G01 X29.8059 Y51.4642 
G01 X29.7359 Y51.4531 
G01 X29.6657 Y51.4439 
G01 X29.6521 Y51.4399 
G01 X29.6381 Y51.4376 
G01 X29.5708 Y51.4158 
G01 X29.5029 Y51.3957 
G01 X29.4901 Y51.3895 
G01 X29.4766 Y51.3852 
G01 X29.4135 Y51.3530 
G01 X29.3496 Y51.3225 
G01 X29.3379 Y51.3145 
G01 X29.3252 Y51.3080 
G01 X29.2679 Y51.2664 
G01 X29.2096 Y51.2263 
G01 X29.1993 Y51.2165 
G01 X29.1878 Y51.2082 
G01 X29.1377 Y51.1581 
G01 X29.1126 Y51.1343 
G01 X28.7645 Y50.9901 
G01 X28.3855 Y50.9901 
G01 X28.0352 Y51.1352 
G01 X28.0080 Y51.1624 
G01 X27.8706 Y51.2622 
G01 X27.7192 Y51.3394 
G01 X27.5577 Y51.3918 
G01 X27.4981 Y51.4013 
G01 X27.3899 Y51.4184 
G01 X27.2201 Y51.4184 
G01 X27.0891 Y51.3977 
G01 X27.0523 Y51.3918 
G01 X26.9776 Y51.3676 
G01 X26.8908 Y51.3394 
G01 X26.8882 Y51.3381 
G01 X26.7394 Y51.2623 
G01 X26.6020 Y51.1624 
G01 X26.5748 Y51.1352 
G01 X26.2245 Y50.9901 
G01 X25.8455 Y50.9901 
G01 X25.4952 Y51.1352 
G01 X25.2272 Y51.4032 
G01 X25.0821 Y51.7535 
G01 X25.0821 Y53.2217 
G01 X25.0555 Y53.3895 
G01 X25.0030 Y53.5510 
G01 X24.9259 Y53.7024 
G01 X24.8261 Y53.8398 
G01 X24.7060 Y53.9599 
G01 X24.5686 Y54.0597 
G01 X24.4172 Y54.1368 
G01 X24.2557 Y54.1893 
G01 X24.0879 Y54.2159 
G01 X22.9021 Y54.2159 
G01 X22.7343 Y54.1893 
G01 X22.5728 Y54.1368 
G01 X22.4214 Y54.0597 
G01 X22.2840 Y53.9599 
G01 X22.1639 Y53.8398 
G01 X22.0641 Y53.7024 
G01 X21.9870 Y53.5510 
G01 X21.9345 Y53.3895 
G01 X21.9079 Y53.2217 
G01 X21.9079 Y51.7535 
G01 X21.7628 Y51.4032 
G01 X21.4948 Y51.1352 
G01 X21.1445 Y50.9901 
G01 X20.7655 Y50.9901 
G01 X20.4152 Y51.1352 
G01 X20.3880 Y51.1624 
G01 X20.2506 Y51.2622 
G01 X20.0992 Y51.3394 
G01 X19.9377 Y51.3918 
G01 X19.8781 Y51.4013 
G01 X19.7699 Y51.4184 
G01 X19.6001 Y51.4184 
G01 X19.4691 Y51.3977 
G01 X19.4323 Y51.3918 
G01 X19.3576 Y51.3676 
G01 X19.2708 Y51.3394 
G01 X19.2682 Y51.3381 
G01 X19.1194 Y51.2623 
G01 X18.9820 Y51.1624 
G01 X18.9548 Y51.1352 
G01 X18.6045 Y50.9901 
G01 X18.2255 Y50.9901 
G01 X17.8752 Y51.1352 
G01 X17.8480 Y51.1624 
G01 X17.7106 Y51.2622 
G01 X17.5592 Y51.3394 
G01 X17.3977 Y51.3918 
G01 X17.3381 Y51.4013 
G01 X17.2299 Y51.4184 
G01 X17.0601 Y51.4184 
G01 X16.9291 Y51.3977 
G01 X16.8923 Y51.3918 
G01 X16.8176 Y51.3676 
G01 X16.7308 Y51.3394 
G01 X16.7282 Y51.3381 
G01 X16.5794 Y51.2623 
G01 X16.4420 Y51.1624 
G01 X16.4148 Y51.1352 
G01 X16.0645 Y50.9901 
G01 X15.6855 Y50.9901 
G01 X15.3352 Y51.1352 
G01 X15.3080 Y51.1624 
G01 X15.1706 Y51.2622 
G01 X15.0192 Y51.3394 
G01 X14.8577 Y51.3918 
G01 X14.7981 Y51.4013 
G01 X14.6899 Y51.4184 
G01 X14.5201 Y51.4184 
G01 X14.3891 Y51.3977 
G01 X14.3523 Y51.3918 
G01 X14.2776 Y51.3676 
G01 X14.1908 Y51.3394 
G01 X14.1882 Y51.3381 
G01 X14.0394 Y51.2623 
G01 X13.9020 Y51.1624 
G01 X13.8748 Y51.1352 
G01 X13.5245 Y50.9901 
G01 X13.1455 Y50.9901 
G01 X12.7952 Y51.1352 
G01 X12.7680 Y51.1624 
G01 X12.6306 Y51.2622 
G01 X12.4792 Y51.3394 
G01 X12.3177 Y51.3918 
G01 X12.2581 Y51.4013 
G01 X12.1499 Y51.4184 
G01 X11.9801 Y51.4184 
G01 X11.8491 Y51.3977 
G01 X11.8123 Y51.3918 
G01 X11.7376 Y51.3676 
G01 X11.6508 Y51.3394 
G01 X11.6482 Y51.3381 
G01 X11.4994 Y51.2623 
G01 X11.3620 Y51.1624 
G01 X11.3348 Y51.1352 
G01 X11.2700 Y51.1083 
G01 X11.2091 Y51.0831 
G01 X11.1589 Y51.0523 
G01 X11.0643 Y50.9944 
G01 X10.9351 Y50.8841 
G01 X10.9182 Y50.8642 
G01 X10.8248 Y50.7549 
G01 X10.7903 Y50.6985 
G01 X10.7361 Y50.6101 
G01 X10.6711 Y50.4532 
G01 X10.6445 Y50.3426 
G01 X10.6314 Y50.2880 
G01 X10.6181 Y50.1187 
G01 X10.6200 Y50.0939 
G01 X10.6314 Y49.9493 
G01 X10.6525 Y49.8616 
G01 X10.6711 Y49.7842 
G01 X10.6811 Y49.7600 
G01 X10.6811 Y48.4869 
G01 X10.6778 Y48.4483 
G01 X10.6811 Y48.4022 
G01 X10.6811 Y48.3558 
G01 X10.6872 Y48.3175 
G01 X10.6899 Y48.2789 
G01 X10.7004 Y48.2338 
G01 X10.7077 Y48.1881 
G01 X10.7196 Y48.1512 
G01 X10.7284 Y48.1135 
G01 X10.7459 Y48.0706 
G01 X10.7602 Y48.0265 
G01 X10.7777 Y47.9920 
G01 X10.7923 Y47.9561 
G01 X10.8163 Y47.9164 
G01 X10.8373 Y47.8752 
G01 X10.8600 Y47.8439 
G01 X10.8801 Y47.8106 
G01 X10.9099 Y47.7752 
G01 X10.9371 Y47.7378 
G01 X10.9645 Y47.7104 
G01 X30.0346 Y25.0646 
G01 X30.0618 Y25.0272 
G01 X30.0892 Y24.9998 
G01 X30.1142 Y24.9701 
G01 X30.1492 Y24.9398 
G01 X30.1819 Y24.9071 
G01 X30.2133 Y24.8843 
G01 X30.2426 Y24.8589 
G01 X30.2819 Y24.8345 
G01 X30.3193 Y24.8073 
G01 X30.3538 Y24.7897 
G01 X30.3868 Y24.7692 
G01 X30.4294 Y24.7512 
G01 X30.4707 Y24.7302 
G01 X30.5075 Y24.7182 
G01 X30.5432 Y24.7031 
G01 X30.5882 Y24.6920 
G01 X30.6322 Y24.6777 
G01 X30.6705 Y24.6716 
G01 X30.7081 Y24.6623 
G01 X30.7543 Y24.6583 
G01 X30.8000 Y24.6511 
G01 X30.8387 Y24.6511 
G01 X30.8773 Y24.6478 
G01 X30.9235 Y24.6511 
G01 X44.0450 Y24.6511 
G01 X44.4699 Y24.4751 
G01 X44.7951 Y24.1499 
G01 X45.0116 Y23.6271 
G01 X45.0248 Y23.5867 
G01 X45.0441 Y23.5488 
G01 X45.0603 Y23.5095 
G01 X45.0692 Y23.4950 
G01 X45.0603 Y23.4805 
G01 X45.0441 Y23.4412 
G01 X45.0248 Y23.4033 
G01 X45.0116 Y23.3629 
G01 X44.7951 Y22.8401 
G01 X44.4699 Y22.5149 
G01 X44.0450 Y22.3389 
G01 X30.1949 Y22.3389 
G01 X30.1136 Y22.3395 
G01 X30.1099 Y22.3389 
G01 X30.1061 Y22.3389 
G01 X30.0261 Y22.3262 
G01 X29.9962 Y22.3217 
G01 X29.8800 Y22.3317 
G01 X29.8343 Y22.3389 
G01 X29.7955 Y22.3389 
G01 X29.7569 Y22.3422 
G01 X29.7108 Y22.3389 
G01 X29.5942 Y22.3389 
G01 X29.5647 Y22.3460 
G01 X29.5357 Y22.3532 
G01 X29.4322 Y22.4068 
G01 X29.3927 Y22.4310 
G01 X29.3569 Y22.4458 
G01 X29.3225 Y22.4637 
G01 X29.2785 Y22.4783 
G01 X29.1708 Y22.5229 
G01 X29.1466 Y22.5405 
G01 X29.1223 Y22.5584 
G01 X29.0471 Y22.6476 
G01 X29.0200 Y22.6851 
G01 X28.9926 Y22.7125 
G01 X28.9676 Y22.7421 
G01 X28.9326 Y22.7724 
G01 X28.8501 Y22.8549 
G01 X28.8346 Y22.8803 
G01 X28.7925 Y22.9501 
G01 X28.7901 Y22.9529 
G01 X28.7881 Y22.9561 
G01 X28.7355 Y23.0177 
G01 X11.0229 Y44.0515 
G01 X11.0209 Y44.0547 
G01 X10.9681 Y44.1165 
G01 X10.9159 Y44.1785 
G01 X10.9130 Y44.1810 
G01 X10.9106 Y44.1839 
G01 X10.8488 Y44.2367 
G01 X10.7875 Y44.2897 
G01 X10.7843 Y44.2917 
G01 X10.7814 Y44.2942 
G01 X10.7122 Y44.3366 
G01 X10.6433 Y44.3795 
G01 X10.6398 Y44.3809 
G01 X10.6366 Y44.3829 
G01 X10.5616 Y44.4140 
G01 X10.4868 Y44.4456 
G01 X10.4832 Y44.4465 
G01 X10.4797 Y44.4479 
G01 X10.4007 Y44.4669 
G01 X10.3219 Y44.4864 
G01 X10.3182 Y44.4867 
G01 X10.3145 Y44.4876 
G01 X10.2335 Y44.4939 
G01 X10.1527 Y44.5009 
G01 X10.1489 Y44.5006 
G01 X10.1452 Y44.5009 
G01 X10.0640 Y44.4945 
G01 X9.9833 Y44.4887 
G01 X9.9796 Y44.4879 
G01 X9.9758 Y44.4876 
G01 X9.8968 Y44.4686 
G01 X9.8179 Y44.4502 
G01 X9.8144 Y44.4488 
G01 X9.8107 Y44.4479 
G01 X9.7357 Y44.4168 
G01 X9.6605 Y44.3863 
G01 X9.6572 Y44.3844 
G01 X9.6538 Y44.3829 
G01 X9.5846 Y44.3405 
G01 X9.5150 Y44.2986 
G01 X9.5122 Y44.2961 
G01 X9.5089 Y44.2942 
G01 X9.4472 Y44.2415 
G01 X9.3851 Y44.1892 
G01 X9.3826 Y44.1863 
G01 X9.3798 Y44.1839 
G01 X9.3270 Y44.1220 
G01 X9.2739 Y44.0608 
G01 X9.2719 Y44.0576 
G01 X9.2695 Y44.0547 
G01 X9.2271 Y43.9855 
G01 X9.1842 Y43.9166 
G01 X9.1827 Y43.9131 
G01 X9.1807 Y43.9099 
G01 X9.1497 Y43.8349 
G01 X9.1312 Y43.7912 
G01 X9.0781 Y43.7382 
G01 X9.0080 Y43.7091 
G01 X8.9692 Y43.7091 
G01 X8.9272 Y43.7024 
G01 X8.8848 Y43.6991 
G01 X8.8435 Y43.6892 
G01 X8.8014 Y43.6825 
G01 X8.7610 Y43.6694 
G01 X8.7196 Y43.6595 
G01 X8.6803 Y43.6432 
G01 X8.6399 Y43.6300 
G01 X8.6282 Y43.6241 
G01 X8.3117 Y43.6241 
G01 X8.3001 Y43.6300 
G01 X8.2596 Y43.6432 
G01 X8.2203 Y43.6595 
G01 X8.1790 Y43.6694 
G01 X8.1386 Y43.6825 
G01 X8.0965 Y43.6892 
G01 X8.0552 Y43.6991 
G01 X8.0128 Y43.7024 
G01 X7.9708 Y43.7091 
G01 X7.9394 Y43.7091 
G01 X7.9052 Y43.7202 
G01 X7.8660 Y43.7365 
G01 X7.8246 Y43.7464 
G01 X7.8167 Y43.7490 
G01 X7.8137 Y43.7584 
G01 X7.8077 Y43.7865 
G01 X7.7874 Y43.8390 
G01 X7.7701 Y43.8926 
G01 X7.7570 Y43.9182 
G01 X7.7467 Y43.9451 
G01 X7.7184 Y43.9939 
G01 X7.6929 Y44.0440 
G01 X7.6760 Y44.0672 
G01 X7.6616 Y44.0921 
G01 X7.6262 Y44.1359 
G01 X7.5931 Y44.1814 
G01 X7.5728 Y44.2017 
G01 X7.5547 Y44.2240 
G01 X7.5189 Y44.2562 
G01 X7.5189 Y44.5238 
G01 X7.4901 Y44.6684 
G01 X7.4337 Y44.8047 
G01 X7.3919 Y44.8672 
G01 X7.3919 Y47.0358 
G01 X7.4166 Y47.0605 
G01 X7.4339 Y47.1023 
G01 X7.4339 Y48.1477 
G01 X7.4166 Y48.1895 
G01 X7.3845 Y48.2216 
G01 X7.3427 Y48.2389 
G01 X6.8715 Y48.2389 
G01 X6.8312 Y48.2469 
G01 X6.7087 Y48.2469 
G01 X6.6685 Y48.2389 
G01 X6.1973 Y48.2389 
G01 X6.1555 Y48.2216 
G01 X6.1234 Y48.1895 
G01 X6.1061 Y48.1477 
G01 X6.1061 Y47.1023 
G01 X6.1234 Y47.0605 
G01 X6.1481 Y47.0358 
G01 X6.1481 Y44.8672 
G01 X6.1063 Y44.8047 
G01 X6.0499 Y44.6684 
G01 X6.0211 Y44.5238 
G01 X6.0211 Y44.2595 
G01 X5.9867 Y44.2212 
G01 X5.9469 Y44.1814 
G01 X5.9300 Y44.1582 
G01 X5.9108 Y44.1368 
G01 X5.8801 Y44.0895 
G01 X5.8776 Y44.0860 
G01 X5.8488 Y44.1069 
G01 X5.8257 Y44.1187 
G01 X5.6975 Y44.1840 
G01 X5.6761 Y44.1910 
G01 X5.5359 Y44.2365 
G01 X5.4390 Y44.2519 
G01 X5.3682 Y44.2631 
G01 X5.2842 Y44.2631 
G01 X5.1983 Y44.2631 
G01 X5.1169 Y44.2502 
G01 X5.0305 Y44.2365 
G01 X4.9689 Y44.2165 
G01 X4.8690 Y44.1840 
G01 X4.8333 Y44.1658 
G01 X4.7177 Y44.1069 
G01 X4.6976 Y44.0924 
G01 X4.5802 Y44.0071 
G01 X4.5408 Y43.9677 
G01 X4.4601 Y43.8870 
G01 X4.4419 Y43.8619 
G01 X4.3603 Y43.7496 
G01 X4.3485 Y43.7265 
G01 X4.2832 Y43.5983 
G01 X4.2762 Y43.5769 
G01 X4.2307 Y43.4367 
G01 X4.2153 Y43.3398 
G01 X4.2041 Y43.2690 
G01 X4.2041 Y43.1850 
G01 X4.2041 Y43.0991 
G01 X4.2041 Y17.9333 
G01 X4.2307 Y17.7655 
G01 X4.2832 Y17.6040 
G01 X4.3603 Y17.4527 
G01 X4.4601 Y17.3153 
G01 X4.5802 Y17.1952 
G01 X6.2062 Y15.5692 
G01 X6.5874 Y15.1879 
G01 X6.7441 Y14.8097 
G01 X6.7441 Y7.2699 
G01 X6.7408 Y7.2275 
G01 X6.7441 Y7.1851 
G01 X6.7441 Y7.1426 
G01 X6.7508 Y7.1006 
G01 X6.7541 Y7.0582 
G01 X6.7640 Y7.0168 
G01 X6.7707 Y6.9749 
G01 X6.7838 Y6.9344 
G01 X6.7938 Y6.8930 
G01 X6.8100 Y6.8538 
G01 X6.8232 Y6.8133 
G01 X6.8425 Y6.7754 
G01 X6.8588 Y6.7361 
G01 X6.8810 Y6.6999 
G01 X6.9003 Y6.6620 
G01 X6.9253 Y6.6276 
G01 X6.9475 Y6.5913 
G01 X6.9751 Y6.5589 
G01 X7.0001 Y6.5246 
G01 X7.0302 Y6.4945 
G01 X7.0578 Y6.4621 
G01 X7.0902 Y6.4345 
G01 X7.1202 Y6.4045 
G01 X7.1546 Y6.3795 
G01 X7.1870 Y6.3518 
G01 X7.2233 Y6.3296 
G01 X7.2576 Y6.3046 
G01 X7.2955 Y6.2853 
G01 X7.3318 Y6.2631 
G01 X7.3711 Y6.2468 
G01 X7.4090 Y6.2275 
G01 X7.4494 Y6.2144 
G01 X7.4887 Y6.1981 
G01 X7.5301 Y6.1882 
G01 X7.5705 Y6.1750 
G01 X7.6125 Y6.1684 
G01 X7.6539 Y6.1584 
G01 X7.6963 Y6.1551 
G01 X7.7383 Y6.1485 
G01 X7.7808 Y6.1485 
G01 X7.8232 Y6.1451 
G01 X7.8656 Y6.1485 
G01 X7.9081 Y6.1485 
G01 X7.9501 Y6.1551 
G01 X7.9926 Y6.1585 
G01 X7.9986 Y6.1599 
G01 X8.4445 Y6.1599 
G01 X8.7948 Y6.0148 
G01 X8.8220 Y5.9876 
G01 X8.9594 Y5.8878 
G01 X9.1107 Y5.8106 
G01 X9.2723 Y5.7582 
G01 X9.3319 Y5.7487 
G01 X9.4401 Y5.7316 
G01 X9.6099 Y5.7316 
G01 X9.7409 Y5.7523 
G01 X9.7777 Y5.7581 
G01 X9.8524 Y5.7824 
G01 X9.9392 Y5.8106 
G01 X9.9418 Y5.8119 
G01 X10.0906 Y5.8877 
G01 X10.2280 Y5.9876 
G01 X10.2552 Y6.0148 
G01 X10.6055 Y6.1599 
G01 X11.1847 Y6.1599 
G01 X11.3525 Y6.1865 
G01 X11.5140 Y6.2390 
G01 X11.6654 Y6.3161 
G01 X11.8028 Y6.4159 
G01 X11.9229 Y6.5360 
G01 X12.0227 Y6.6734 
G01 X12.0998 Y6.8248 
G01 X12.1523 Y6.9863 
G01 X12.1789 Y7.1541 
G01 X12.1789 Y7.2150 
G01 X12.3549 Y7.6399 
G01 X14.1682 Y9.4532 
G01 X14.5851 Y9.8701 
G01 X15.0100 Y10.0461 
G01 X44.8791 Y10.0461 
G01 X45.0468 Y10.0727 
G01 X45.2084 Y10.1252 
G01 X45.3597 Y10.2023 
G01 X45.4971 Y10.3021 
G00 Z2.0000  F3000
G00 X47.6134 Y17.4305  F3000
G01 Z-0.2000 F200.00 
G01 X47.6455 Y17.3984 F500.00 
G01 X47.6873 Y17.3811 
G01 X47.8308 Y17.3811 
G01 X47.9053 Y17.3313 
G01 X48.0416 Y17.2749 
G01 X48.1862 Y17.2461 
G01 X48.3338 Y17.2461 
G01 X48.4784 Y17.2749 
G01 X48.6147 Y17.3313 
G01 X48.6892 Y17.3811 
G01 X48.8327 Y17.3811 
G01 X48.8745 Y17.3984 
G01 X48.9066 Y17.4305 
G01 X48.9239 Y17.4723 
G01 X48.9239 Y17.6408 
G01 X48.9801 Y17.7766 
G01 X49.0089 Y17.9212 
G01 X49.0089 Y18.2728 
G01 X49.0831 Y18.3470 
G01 X49.1829 Y18.4844 
G01 X49.2600 Y18.6358 
G01 X49.3125 Y18.7973 
G01 X49.3391 Y18.9651 
G01 X49.3391 Y26.1199 
G01 X49.3125 Y26.2877 
G01 X49.2600 Y26.4492 
G01 X49.1829 Y26.6006 
G01 X49.0831 Y26.7380 
G01 X39.1791 Y36.6420 
G01 X39.1791 Y45.2759 
G01 X47.0749 Y45.2759 
G01 X47.2427 Y45.3025 
G01 X47.4042 Y45.3550 
G01 X47.5556 Y45.4321 
G01 X47.6203 Y45.4791 
G01 X47.8383 Y45.4791 
G01 X48.0075 Y45.5128 
G01 X48.1669 Y45.5788 
G01 X48.3104 Y45.6746 
G01 X48.4324 Y45.7966 
G01 X48.5282 Y45.9401 
G01 X48.5942 Y46.0995 
G01 X48.6279 Y46.2687 
G01 X48.6279 Y46.4413 
G01 X48.5942 Y46.6105 
G01 X48.5282 Y46.7699 
G01 X48.4324 Y46.9134 
G01 X48.3104 Y47.0354 
G01 X48.1669 Y47.1312 
G01 X48.0075 Y47.1972 
G01 X47.8383 Y47.2309 
G01 X47.6203 Y47.2309 
G01 X47.5556 Y47.2779 
G01 X47.4042 Y47.3550 
G01 X47.2427 Y47.4075 
G01 X47.0749 Y47.4341 
G01 X38.0151 Y47.4341 
G01 X37.8473 Y47.4075 
G01 X37.6858 Y47.3550 
G01 X37.5344 Y47.2779 
G01 X37.3970 Y47.1781 
G01 X37.2769 Y47.0580 
G01 X37.1771 Y46.9206 
G01 X37.1000 Y46.7692 
G01 X37.0475 Y46.6077 
G01 X37.0209 Y46.4399 
G01 X37.0209 Y36.1101 
G01 X37.0475 Y35.9423 
G01 X37.1000 Y35.7808 
G01 X37.1771 Y35.6294 
G01 X37.2769 Y35.4920 
G01 X47.1809 Y25.5880 
G01 X47.1809 Y18.9651 
G01 X47.2075 Y18.7973 
G01 X47.2600 Y18.6358 
G01 X47.3371 Y18.4844 
G01 X47.4369 Y18.3470 
G01 X47.5111 Y18.2728 
G01 X47.5111 Y17.9212 
G01 X47.5399 Y17.7766 
G01 X47.5961 Y17.6408 
G01 X47.5961 Y17.4723 
G01 X47.6134 Y17.4305 
G00 Z2.0000  F3000
G00 X50.3794 Y22.5935  F3000
G01 Z-0.2000 F200.00 
G01 X50.5335 Y22.4394 F500.00 
G01 X50.7097 Y22.3114 
G01 X50.9038 Y22.2125 
G01 X51.1109 Y22.1452 
G01 X51.3261 Y22.1111 
G01 X64.2439 Y22.1111 
G01 X64.4591 Y22.1452 
G01 X64.6662 Y22.2125 
G01 X64.8603 Y22.3114 
G01 X65.0365 Y22.4394 
G01 X65.1906 Y22.5935 
G01 X65.3186 Y22.7697 
G01 X65.4175 Y22.9638 
G01 X65.4848 Y23.1709 
G01 X65.5189 Y23.3861 
G01 X65.5189 Y26.5561 
G01 X68.0539 Y26.5561 
G01 X68.2691 Y26.5902 
G01 X68.4762 Y26.6575 
G01 X68.6703 Y26.7564 
G01 X68.8465 Y26.8844 
G01 X69.0006 Y27.0385 
G01 X69.1286 Y27.2147 
G01 X69.2275 Y27.4088 
G01 X69.2948 Y27.6159 
G01 X69.3289 Y27.8311 
G01 X69.3289 Y28.0489 
G01 X69.2948 Y28.2641 
G01 X69.2275 Y28.4712 
G01 X69.1286 Y28.6653 
G01 X69.0006 Y28.8415 
G01 X68.8465 Y28.9956 
G01 X68.6703 Y29.1236 
G01 X68.4762 Y29.2225 
G01 X68.2691 Y29.2898 
G01 X68.0539 Y29.3239 
G01 X65.9782 Y29.3239 
G01 X65.5189 Y29.7832 
G01 X65.5189 Y34.3189 
G01 X65.4848 Y34.5341 
G01 X65.4175 Y34.7412 
G01 X65.3186 Y34.9353 
G01 X65.1906 Y35.1115 
G01 X62.6726 Y37.6295 
G01 X63.2055 Y38.1625 
G01 X63.4375 Y38.3945 
G01 X63.6457 Y38.6481 
G01 X63.8280 Y38.9210 
G01 X63.9827 Y39.2104 
G01 X64.1083 Y39.5135 
G01 X64.2035 Y39.8275 
G01 X64.2675 Y40.1494 
G01 X64.2997 Y40.4759 
G01 X64.2997 Y46.5191 
G01 X64.2675 Y46.8456 
G01 X64.2035 Y47.1675 
G01 X64.1083 Y47.4815 
G01 X63.9827 Y47.7846 
G01 X63.8280 Y48.0740 
G01 X63.6457 Y48.3469 
G01 X63.4375 Y48.6005 
G01 X62.5705 Y49.4675 
G01 X62.3169 Y49.6757 
G01 X62.0440 Y49.8580 
G01 X61.7546 Y50.0127 
G01 X61.4515 Y50.1383 
G01 X61.1375 Y50.2335 
G01 X60.8156 Y50.2975 
G01 X60.4891 Y50.3297 
G01 X60.1609 Y50.3297 
G01 X59.8344 Y50.2975 
G01 X59.5125 Y50.2335 
G01 X59.1985 Y50.1383 
G01 X58.8954 Y50.0127 
G01 X58.6060 Y49.8580 
G01 X58.3331 Y49.6757 
G01 X58.0795 Y49.4675 
G01 X57.8475 Y49.2355 
G01 X57.6393 Y48.9819 
G01 X57.4570 Y48.7090 
G01 X57.3023 Y48.4196 
G01 X57.1767 Y48.1165 
G01 X57.0815 Y47.8025 
G01 X57.0175 Y47.4806 
G01 X56.9853 Y47.1541 
G01 X56.9853 Y46.8259 
G01 X57.0175 Y46.4994 
G01 X57.0815 Y46.1775 
G01 X57.1767 Y45.8635 
G01 X57.3023 Y45.5604 
G01 X57.4570 Y45.2710 
G01 X57.6203 Y45.0266 
G01 X57.6203 Y42.3100 
G01 X57.3360 Y42.1580 
G01 X57.0631 Y41.9757 
G01 X56.8095 Y41.7675 
G01 X56.5775 Y41.5355 
G01 X56.3693 Y41.2819 
G01 X56.1870 Y41.0090 
G01 X56.0323 Y40.7196 
G01 X55.9067 Y40.4165 
G01 X55.8115 Y40.1025 
G01 X55.7475 Y39.7806 
G01 X55.7153 Y39.4541 
G01 X55.7153 Y39.1259 
G01 X55.7475 Y38.7994 
G01 X55.8115 Y38.4775 
G01 X55.9067 Y38.1635 
G01 X56.0323 Y37.8604 
G01 X56.1870 Y37.5710 
G01 X56.3693 Y37.2981 
G01 X56.5775 Y37.0445 
G01 X56.8095 Y36.8125 
G01 X57.0631 Y36.6043 
G01 X57.3360 Y36.4220 
G01 X57.6254 Y36.2673 
G01 X57.9285 Y36.1417 
G01 X58.2425 Y36.0465 
G01 X58.5644 Y35.9825 
G01 X58.8909 Y35.9503 
G01 X59.7741 Y35.9503 
G01 X60.1006 Y35.9825 
G01 X60.3548 Y36.0330 
G01 X62.7511 Y33.6368 
G01 X62.7511 Y24.8789 
G01 X52.1839 Y24.8789 
G01 X52.1839 Y27.1638 
G01 X52.1551 Y27.3084 
G01 X52.0989 Y27.4442 
G01 X52.0989 Y27.6127 
G01 X52.0816 Y27.6545 
G01 X52.0495 Y27.6866 
G01 X52.0077 Y27.7039 
G01 X51.8642 Y27.7039 
G01 X51.7897 Y27.7537 
G01 X51.6534 Y27.8101 
G01 X51.5088 Y27.8389 
G01 X51.3612 Y27.8389 
G01 X51.2166 Y27.8101 
G01 X51.0803 Y27.7537 
G01 X51.0058 Y27.7039 
G01 X50.8623 Y27.7039 
G01 X50.8205 Y27.6866 
G01 X50.7884 Y27.6545 
G01 X50.7711 Y27.6127 
G01 X50.7711 Y27.4442 
G01 X50.7149 Y27.3084 
G01 X50.6861 Y27.1638 
G01 X50.6861 Y24.6615 
G01 X50.5335 Y24.5506 
G01 X50.3794 Y24.3965 
G01 X50.2514 Y24.2203 
G01 X50.1525 Y24.0262 
G01 X50.0852 Y23.8191 
G01 X50.0511 Y23.6039 
G01 X50.0511 Y23.3861 
G01 X50.0852 Y23.1709 
G01 X50.1525 Y22.9638 
G01 X50.2514 Y22.7697 
G01 X50.3794 Y22.5935 
G00 Z2.0000  F3000
G00 X50.3804 Y27.0772  F3000
G01 Z-0.2000 F200.00 
G01 X50.3988 Y27.0988 F500.00 
G01 X50.4381 Y27.1381 
G01 X50.4707 Y27.1830 
G01 X50.4907 Y27.2064 
G01 X50.5068 Y27.2326 
G01 X50.5379 Y27.2755 
G01 X50.5620 Y27.3227 
G01 X50.5795 Y27.3512 
G01 X50.5923 Y27.3821 
G01 X50.6150 Y27.4268 
G01 X50.6305 Y27.4745 
G01 X50.6676 Y27.5639 
G01 X50.6848 Y27.6055 
G01 X50.7037 Y27.6843 
G01 X50.7244 Y27.7707 
G01 X50.7279 Y27.8147 
G01 X50.7378 Y27.9400 
G01 X50.7328 Y28.0032 
G01 X50.7244 Y28.1093 
G01 X50.7185 Y28.1340 
G01 X50.6956 Y28.2296 
G01 X50.6941 Y28.2483 
G01 X50.6941 Y28.2908 
G01 X50.6874 Y28.3328 
G01 X50.6841 Y28.3752 
G01 X50.6742 Y28.4165 
G01 X50.6675 Y28.4586 
G01 X50.6544 Y28.4990 
G01 X50.6445 Y28.5404 
G01 X50.6282 Y28.5796 
G01 X50.6150 Y28.6201 
G01 X50.6104 Y28.6292 
G01 X50.6091 Y28.6456 
G01 X50.6091 Y28.6881 
G01 X50.6024 Y28.7301 
G01 X50.5991 Y28.7725 
G01 X50.5892 Y28.8139 
G01 X50.5825 Y28.8559 
G01 X50.5694 Y28.8963 
G01 X50.5595 Y28.9377 
G01 X50.5432 Y28.9770 
G01 X50.5300 Y29.0174 
G01 X50.5107 Y29.0553 
G01 X50.2789 Y29.6150 
G01 X50.2789 Y29.6391 
G01 X50.2523 Y29.8068 
G01 X50.1998 Y29.9684 
G01 X50.1227 Y30.1197 
G01 X50.0229 Y30.2571 
G01 X49.9028 Y30.3772 
G01 X49.1849 Y31.0951 
G01 X49.0089 Y31.5200 
G01 X49.0089 Y31.9800 
G01 X49.2426 Y32.5442 
G01 X49.2740 Y32.6058 
G01 X49.2954 Y32.6716 
G01 X49.2995 Y32.6816 
G01 X49.3021 Y32.6923 
G01 X49.3265 Y32.7673 
G01 X49.3388 Y32.8453 
G01 X49.3393 Y32.8484 
G01 X49.3399 Y32.8520 
G01 X49.3530 Y32.9351 
G01 X49.3530 Y33.0204 
G01 X49.3530 Y33.1049 
G01 X49.3394 Y33.1913 
G01 X49.3388 Y33.1947 
G01 X49.3265 Y33.2727 
G01 X49.3021 Y33.3478 
G01 X49.2995 Y33.3584 
G01 X49.2954 Y33.3684 
G01 X49.2740 Y33.4342 
G01 X49.2425 Y33.4960 
G01 X49.0089 Y34.0600 
G01 X49.0089 Y35.1550 
G01 X49.1849 Y35.5799 
G01 X50.6579 Y37.0529 
G01 X50.7577 Y37.1903 
G01 X50.8348 Y37.3416 
G01 X50.8873 Y37.5032 
G01 X50.9139 Y37.6709 
G01 X50.9139 Y40.7301 
G01 X50.9169 Y40.7583 
G01 X50.9139 Y40.8149 
G01 X50.9139 Y40.8716 
G01 X50.9095 Y40.8996 
G01 X50.9080 Y40.9279 
G01 X50.8962 Y40.9833 
G01 X50.8873 Y41.0393 
G01 X50.8786 Y41.0663 
G01 X50.8727 Y41.0941 
G01 X50.8523 Y41.1470 
G01 X50.8348 Y41.2009 
G01 X50.8220 Y41.2261 
G01 X50.8118 Y41.2526 
G01 X50.7834 Y41.3017 
G01 X50.7577 Y41.3522 
G01 X50.7411 Y41.3751 
G01 X50.7269 Y41.3997 
G01 X50.6912 Y41.4438 
G01 X50.6579 Y41.4896 
G01 X50.6378 Y41.5097 
G01 X50.6200 Y41.5317 
G01 X50.5779 Y41.5696 
G01 X50.5378 Y41.6097 
G01 X50.5148 Y41.6264 
G01 X50.4937 Y41.6454 
G01 X50.4462 Y41.6763 
G01 X50.4004 Y41.7096 
G01 X50.3751 Y41.7224 
G01 X50.3513 Y41.7379 
G01 X50.2995 Y41.7610 
G01 X50.2490 Y41.7867 
G01 X50.2221 Y41.7954 
G01 X50.1961 Y41.8070 
G01 X50.1414 Y41.8216 
G01 X50.0875 Y41.8391 
G01 X50.0595 Y41.8436 
G01 X49.8804 Y41.8916 
G01 X49.7114 Y41.9093 
G01 X49.5418 Y41.9004 
G01 X49.3978 Y41.8698 
G01 X49.3757 Y41.8651 
G01 X49.2171 Y41.8043 
G01 X49.1431 Y41.7615 
G01 X49.0700 Y41.7193 
G01 X48.9380 Y41.6124 
G01 X48.9057 Y41.5766 
G01 X48.8244 Y41.4862 
G01 X48.8189 Y41.4777 
G01 X48.7319 Y41.3438 
G01 X48.7175 Y41.3116 
G01 X48.6628 Y41.1886 
G01 X48.6188 Y41.0245 
G01 X48.6081 Y40.9844 
G01 X48.5628 Y40.8751 
G01 X48.5037 Y40.7728 
G01 X48.4317 Y40.6789 
G01 X48.3481 Y40.5953 
G01 X48.2542 Y40.5233 
G01 X48.1518 Y40.4642 
G01 X48.0691 Y40.4299 
G01 X48.0691 Y40.4583 
G01 X48.1669 Y40.4988 
G01 X48.3104 Y40.5946 
G01 X48.4324 Y40.7166 
G01 X48.5282 Y40.8601 
G01 X48.5942 Y41.0195 
G01 X48.6279 Y41.1887 
G01 X48.6279 Y41.3613 
G01 X48.5942 Y41.5305 
G01 X48.5282 Y41.6899 
G01 X48.4324 Y41.8334 
G01 X48.3104 Y41.9554 
G01 X48.1669 Y42.0512 
G01 X48.0075 Y42.1172 
G01 X47.8383 Y42.1509 
G01 X47.6203 Y42.1509 
G01 X47.5556 Y42.1979 
G01 X47.4042 Y42.2750 
G01 X47.2427 Y42.3275 
G01 X47.0749 Y42.3541 
G01 X46.5697 Y42.3541 
G01 X46.5409 Y42.3541 
G01 X46.5124 Y42.3571 
G01 X46.4561 Y42.3541 
G01 X45.7407 Y42.3541 
G01 X45.7466 Y42.3860 
G01 X45.7470 Y42.4002 
G01 X45.7492 Y42.4143 
G01 X45.7492 Y42.4851 
G01 X45.7511 Y42.5558 
G01 X45.7492 Y42.5699 
G01 X45.7492 Y42.5841 
G01 X45.7381 Y42.6540 
G01 X45.7289 Y42.7242 
G01 X45.7249 Y42.7379 
G01 X45.7226 Y42.7519 
G01 X45.7008 Y42.8192 
G01 X45.6807 Y42.8871 
G01 X45.6745 Y42.8999 
G01 X45.6702 Y42.9134 
G01 X45.6380 Y42.9765 
G01 X45.6075 Y43.0404 
G01 X45.5995 Y43.0521 
G01 X45.5930 Y43.0648 
G01 X45.5515 Y43.1220 
G01 X45.5113 Y43.1804 
G01 X45.5015 Y43.1907 
G01 X45.4932 Y43.2022 
G01 X45.4432 Y43.2522 
G01 X45.4193 Y43.2774 
G01 X45.2751 Y43.6255 
G01 X45.2751 Y44.2047 
G01 X45.2485 Y44.3725 
G01 X45.1960 Y44.5340 
G01 X45.1189 Y44.6854 
G01 X45.0191 Y44.8228 
G01 X44.8990 Y44.9429 
G01 X44.7616 Y45.0427 
G01 X44.6102 Y45.1198 
G01 X44.4487 Y45.1723 
G01 X44.2809 Y45.1989 
G01 X40.2503 Y45.1989 
G01 X40.0825 Y45.1723 
G01 X39.9210 Y45.1198 
G01 X39.7696 Y45.0427 
G01 X39.6322 Y44.9429 
G01 X39.5121 Y44.8228 
G01 X39.4123 Y44.6854 
G01 X39.3352 Y44.5340 
G01 X39.2827 Y44.3725 
G01 X39.2561 Y44.2047 
G01 X39.2561 Y37.0359 
G01 X39.2827 Y36.8682 
G01 X39.3352 Y36.7066 
G01 X39.4123 Y36.5553 
G01 X39.5121 Y36.4179 
G01 X48.8312 Y27.0988 
G01 X48.8496 Y27.0772 
G01 X48.8712 Y27.0588 
G01 X48.9120 Y27.0180 
G01 X48.9588 Y26.9840 
G01 X48.9788 Y26.9669 
G01 X49.0012 Y26.9532 
G01 X49.0494 Y26.9181 
G01 X49.1025 Y26.8911 
G01 X49.1236 Y26.8782 
G01 X49.1464 Y26.8687 
G01 X49.2008 Y26.8410 
G01 X49.2588 Y26.8221 
G01 X49.2805 Y26.8132 
G01 X49.3033 Y26.8077 
G01 X49.3623 Y26.7885 
G01 X49.4236 Y26.7788 
G01 X49.4457 Y26.7735 
G01 X49.4683 Y26.7717 
G01 X49.5301 Y26.7619 
G01 X49.5926 Y26.7619 
G01 X49.6150 Y26.7602 
G01 X49.6374 Y26.7619 
G01 X49.6999 Y26.7619 
G01 X49.7118 Y26.7638 
G01 X49.7617 Y26.7717 
G01 X49.7843 Y26.7735 
G01 X49.8064 Y26.7788 
G01 X49.8677 Y26.7885 
G01 X49.9267 Y26.8077 
G01 X49.9495 Y26.8132 
G01 X49.9712 Y26.8221 
G01 X50.0234 Y26.8391 
G01 X50.0292 Y26.8410 
G01 X50.0836 Y26.8687 
G01 X50.1064 Y26.8782 
G01 X50.1274 Y26.8910 
G01 X50.1806 Y26.9181 
G01 X50.2288 Y26.9532 
G01 X50.2512 Y26.9669 
G01 X50.2712 Y26.9840 
G01 X50.3180 Y27.0179 
G01 X50.3588 Y27.0588 
G01 X50.3804 Y27.0772 
G00 Z2.0000  F3000
G00 X50.7884 Y28.2255  F3000
G01 Z-0.2000 F200.00 
G01 X50.8205 Y28.1934 F500.00 
G01 X50.8623 Y28.1761 
G01 X51.0058 Y28.1761 
G01 X51.0803 Y28.1263 
G01 X51.2166 Y28.0699 
G01 X51.3612 Y28.0411 
G01 X51.5088 Y28.0411 
G01 X51.6534 Y28.0699 
G01 X51.7897 Y28.1263 
G01 X51.8642 Y28.1761 
G01 X52.0077 Y28.1761 
G01 X52.0495 Y28.1934 
G01 X52.0816 Y28.2255 
G01 X52.0989 Y28.2673 
G01 X52.0989 Y28.4358 
G01 X52.1551 Y28.5716 
G01 X52.1839 Y28.7162 
G01 X52.1839 Y29.0678 
G01 X52.2581 Y29.1420 
G01 X52.3579 Y29.2794 
G01 X52.4350 Y29.4308 
G01 X52.4875 Y29.5923 
G01 X52.5141 Y29.7601 
G01 X52.5141 Y30.5649 
G01 X52.4875 Y30.7327 
G01 X52.4350 Y30.8942 
G01 X52.3579 Y31.0456 
G01 X52.2581 Y31.1830 
G01 X50.8680 Y32.5731 
G01 X50.7306 Y32.6729 
G01 X50.5792 Y32.7500 
G01 X50.4177 Y32.8025 
G01 X50.2499 Y32.8291 
G01 X50.0801 Y32.8291 
G01 X49.9123 Y32.8025 
G01 X49.7508 Y32.7500 
G01 X49.5994 Y32.6729 
G01 X49.4620 Y32.5731 
G01 X49.3419 Y32.4530 
G01 X49.2421 Y32.3156 
G01 X49.1650 Y32.1642 
G01 X49.1125 Y32.0027 
G01 X49.0859 Y31.8349 
G01 X49.0859 Y31.6651 
G01 X49.1125 Y31.4973 
G01 X49.1650 Y31.3358 
G01 X49.2421 Y31.1844 
G01 X49.3419 Y31.0470 
G01 X50.3559 Y30.0330 
G01 X50.3559 Y29.7601 
G01 X50.3825 Y29.5923 
G01 X50.4350 Y29.4308 
G01 X50.5121 Y29.2794 
G01 X50.6119 Y29.1420 
G01 X50.6861 Y29.0678 
G01 X50.6861 Y28.7162 
G01 X50.7149 Y28.5716 
G01 X50.7711 Y28.4358 
G01 X50.7711 Y28.2673 
G01 X50.7884 Y28.2255 
G00 Z2.0000  F3000
G00 X50.7306 Y33.3671  F3000
G01 Z-0.2000 F200.00 
G01 X50.8680 Y33.4669 F500.00 
G01 X50.9881 Y33.5870 
G01 X51.0879 Y33.7244 
G01 X51.1650 Y33.8758 
G01 X51.2175 Y34.0373 
G01 X51.2441 Y34.2051 
G01 X51.2441 Y34.4780 
G01 X52.7730 Y36.0069 
G01 X52.8931 Y36.1270 
G01 X52.9929 Y36.2644 
G01 X53.0700 Y36.4158 
G01 X53.1225 Y36.5773 
G01 X53.1491 Y36.7451 
G01 X53.1491 Y42.6339 
G01 X55.5361 Y45.0210 
G01 X55.6973 Y45.2309 
G01 X55.8296 Y45.4601 
G01 X55.9309 Y45.7047 
G01 X55.9994 Y45.9603 
G01 X56.0339 Y46.2227 
G01 X56.0339 Y46.4873 
G01 X55.9994 Y46.7497 
G01 X55.9309 Y47.0053 
G01 X55.8296 Y47.2499 
G01 X55.6973 Y47.4790 
G01 X55.5361 Y47.6890 
G01 X55.3490 Y47.8761 
G01 X55.1390 Y48.0373 
G01 X54.9098 Y48.1696 
G01 X54.6653 Y48.2709 
G01 X54.4097 Y48.3394 
G01 X54.1473 Y48.3739 
G01 X53.8827 Y48.3739 
G01 X53.6203 Y48.3394 
G01 X53.3646 Y48.2709 
G01 X53.1201 Y48.1696 
G01 X52.8909 Y48.0373 
G01 X52.6810 Y47.8761 
G01 X50.6344 Y45.8295 
G01 X50.4053 Y45.7994 
G01 X50.1497 Y45.7309 
G01 X49.9051 Y45.6296 
G01 X49.6760 Y45.4973 
G01 X49.4660 Y45.3361 
G01 X49.3287 Y45.1989 
G01 X46.8811 Y45.1989 
G01 X46.6659 Y45.1648 
G01 X46.4588 Y45.0975 
G01 X46.2647 Y44.9986 
G01 X46.0885 Y44.8706 
G01 X45.9344 Y44.7165 
G01 X45.8564 Y44.6091 
G01 X45.8131 Y44.5912 
G01 X45.6696 Y44.4954 
G01 X45.5476 Y44.3734 
G01 X45.4518 Y44.2299 
G01 X45.3858 Y44.0705 
G01 X45.3521 Y43.9013 
G01 X45.3521 Y43.7287 
G01 X45.3858 Y43.5595 
G01 X45.4518 Y43.4001 
G01 X45.5476 Y43.2566 
G01 X45.6696 Y43.1346 
G01 X45.8131 Y43.0388 
G01 X45.8564 Y43.0209 
G01 X45.9344 Y42.9134 
G01 X46.0885 Y42.7594 
G01 X46.2647 Y42.6314 
G01 X46.4588 Y42.5325 
G01 X46.6659 Y42.4652 
G01 X46.8811 Y42.4311 
G01 X49.3287 Y42.4311 
G01 X49.4660 Y42.2939 
G01 X49.6760 Y42.1327 
G01 X49.9051 Y42.0004 
G01 X50.1497 Y41.8991 
G01 X50.4053 Y41.8306 
G01 X50.6677 Y41.7961 
G01 X50.9909 Y41.7961 
G01 X50.9909 Y37.2770 
G01 X49.3419 Y35.6280 
G01 X49.2421 Y35.4906 
G01 X49.1650 Y35.3392 
G01 X49.1125 Y35.1777 
G01 X49.0859 Y35.0099 
G01 X49.0859 Y34.2051 
G01 X49.1125 Y34.0373 
G01 X49.1650 Y33.8758 
G01 X49.2421 Y33.7244 
G01 X49.3419 Y33.5870 
G01 X49.4620 Y33.4669 
G01 X49.5994 Y33.3671 
G01 X49.7508 Y33.2900 
G01 X49.9123 Y33.2375 
G01 X50.0801 Y33.2109 
G01 X50.2499 Y33.2109 
G01 X50.4177 Y33.2375 
G01 X50.5792 Y33.2900 
G01 X50.7306 Y33.3671 
G00 Z2.0000  F3000
G00 X44.6381 Y24.1980  F3000
G01 Z-0.2000 F200.00 
G01 X44.5180 Y24.3181 F500.00 
G01 X44.3806 Y24.4179 
G01 X44.2292 Y24.4950 
G01 X44.0677 Y24.5475 
G01 X43.8999 Y24.5741 
G01 X30.3470 Y24.5741 
G01 X10.6041 Y48.0188 
G01 X10.6041 Y49.6149 
G01 X10.5775 Y49.7827 
G01 X10.5250 Y49.9442 
G01 X10.4479 Y50.0956 
G01 X10.3481 Y50.2330 
G01 X10.2280 Y50.3531 
G01 X9.3341 Y51.2470 
G01 X9.3341 Y52.7899 
G01 X9.3075 Y52.9577 
G01 X9.2550 Y53.1192 
G01 X9.1779 Y53.2706 
G01 X9.1309 Y53.3353 
G01 X9.1309 Y53.5533 
G01 X9.0972 Y53.7225 
G01 X9.0312 Y53.8819 
G01 X8.9354 Y54.0254 
G01 X8.8134 Y54.1474 
G01 X8.6699 Y54.2432 
G01 X8.5105 Y54.3092 
G01 X8.3413 Y54.3429 
G01 X8.1687 Y54.3429 
G01 X7.9995 Y54.3092 
G01 X7.8401 Y54.2432 
G01 X7.6966 Y54.1474 
G01 X7.5746 Y54.0254 
G01 X7.4788 Y53.8819 
G01 X7.4128 Y53.7225 
G01 X7.3791 Y53.5533 
G01 X7.3791 Y53.3353 
G01 X7.3321 Y53.2706 
G01 X7.2550 Y53.1192 
G01 X7.2025 Y52.9577 
G01 X7.1759 Y52.7899 
G01 X7.1759 Y50.7151 
G01 X7.2025 Y50.5473 
G01 X7.2550 Y50.3858 
G01 X7.3321 Y50.2344 
G01 X7.4319 Y50.0970 
G01 X8.4459 Y49.0830 
G01 X8.4459 Y48.3739 
G01 X8.3962 Y48.3739 
G01 X8.2516 Y48.3451 
G01 X8.1153 Y48.2887 
G01 X8.0408 Y48.2389 
G01 X7.8973 Y48.2389 
G01 X7.8555 Y48.2216 
G01 X7.8234 Y48.1895 
G01 X7.8061 Y48.1477 
G01 X7.8061 Y47.9792 
G01 X7.7499 Y47.8434 
G01 X7.7211 Y47.6988 
G01 X7.7211 Y44.3762 
G01 X7.7499 Y44.2316 
G01 X7.8063 Y44.0953 
G01 X7.8561 Y44.0208 
G01 X7.8561 Y43.8773 
G01 X7.8734 Y43.8355 
G01 X7.9055 Y43.8034 
G01 X7.9473 Y43.7861 
G01 X8.1158 Y43.7861 
G01 X8.2516 Y43.7299 
G01 X8.3962 Y43.7011 
G01 X8.5438 Y43.7011 
G01 X8.6884 Y43.7299 
G01 X8.8242 Y43.7861 
G01 X8.9927 Y43.7861 
G01 X9.0345 Y43.8034 
G01 X9.0666 Y43.8355 
G01 X9.0839 Y43.8773 
G01 X9.0839 Y44.0208 
G01 X9.1337 Y44.0953 
G01 X9.1901 Y44.2316 
G01 X9.2189 Y44.3762 
G01 X9.2189 Y46.3132 
G01 X28.9947 Y22.8294 
G01 X29.0219 Y22.7920 
G01 X29.0493 Y22.7646 
G01 X29.0743 Y22.7350 
G01 X29.1093 Y22.7046 
G01 X29.1420 Y22.6719 
G01 X29.1734 Y22.6491 
G01 X29.2027 Y22.6237 
G01 X29.2420 Y22.5993 
G01 X29.2794 Y22.5721 
G01 X29.3139 Y22.5545 
G01 X29.3469 Y22.5340 
G01 X29.3895 Y22.5160 
G01 X29.4308 Y22.4950 
G01 X29.4676 Y22.4830 
G01 X29.5033 Y22.4679 
G01 X29.5483 Y22.4568 
G01 X29.5923 Y22.4425 
G01 X29.6306 Y22.4364 
G01 X29.6682 Y22.4271 
G01 X29.7144 Y22.4231 
G01 X29.7601 Y22.4159 
G01 X29.7988 Y22.4159 
G01 X29.8375 Y22.4126 
G01 X29.8836 Y22.4159 
G01 X43.8999 Y22.4159 
G01 X44.0677 Y22.4425 
G01 X44.2292 Y22.4950 
G01 X44.3806 Y22.5721 
G01 X44.5180 Y22.6719 
G01 X44.6381 Y22.7920 
G01 X44.7379 Y22.9294 
G01 X44.8150 Y23.0808 
G01 X44.8675 Y23.2423 
G01 X44.8941 Y23.4101 
G01 X44.8941 Y23.5799 
G01 X44.8675 Y23.7477 
G01 X44.8150 Y23.9092 
G01 X44.7379 Y24.0606 
G01 X44.6381 Y24.1980 
G00 Z2.0000  F3000
G00 X56.8095 Y19.0675  F3000
G01 Z-0.2000 F200.00 
G01 X56.5775 Y18.8355 F500.00 
G01 X56.3693 Y18.5819 
G01 X56.1870 Y18.3090 
G01 X56.0323 Y18.0196 
G01 X55.9067 Y17.7165 
G01 X55.8115 Y17.4025 
G01 X55.7475 Y17.0806 
G01 X55.7153 Y16.7541 
G01 X55.7153 Y16.4259 
G01 X55.7475 Y16.0994 
G01 X55.8115 Y15.7775 
G01 X55.9067 Y15.4635 
G01 X56.0323 Y15.1604 
G01 X56.1870 Y14.8710 
G01 X56.3693 Y14.5981 
G01 X56.5775 Y14.3445 
G01 X56.8095 Y14.1125 
G01 X57.0631 Y13.9043 
G01 X57.3360 Y13.7220 
G01 X57.6203 Y13.5700 
G01 X57.6203 Y12.1234 
G01 X57.4570 Y11.8790 
G01 X57.3023 Y11.5896 
G01 X57.1767 Y11.2865 
G01 X57.0815 Y10.9725 
G01 X57.0175 Y10.6506 
G01 X56.9853 Y10.3241 
G01 X56.9853 Y9.9959 
G01 X57.0175 Y9.6694 
G01 X57.0815 Y9.3475 
G01 X57.1767 Y9.0335 
G01 X57.3023 Y8.7304 
G01 X57.4570 Y8.4410 
G01 X57.6393 Y8.1681 
G01 X57.8475 Y7.9145 
G01 X58.0795 Y7.6825 
G01 X58.3331 Y7.4743 
G01 X58.6060 Y7.2920 
G01 X58.8954 Y7.1373 
G01 X59.1985 Y7.0117 
G01 X59.5125 Y6.9165 
G01 X59.8344 Y6.8525 
G01 X60.1609 Y6.8203 
G01 X60.4891 Y6.8203 
G01 X60.8156 Y6.8525 
G01 X61.1375 Y6.9165 
G01 X61.4515 Y7.0117 
G01 X61.7546 Y7.1373 
G01 X62.0440 Y7.2920 
G01 X62.3169 Y7.4743 
G01 X62.5705 Y7.6825 
G01 X63.4375 Y8.5495 
G01 X63.6457 Y8.8031 
G01 X63.8280 Y9.0760 
G01 X63.9827 Y9.3654 
G01 X64.1083 Y9.6685 
G01 X64.2035 Y9.9825 
G01 X64.2675 Y10.3044 
G01 X64.2997 Y10.6309 
G01 X64.2997 Y10.9591 
G01 X64.2997 Y15.4041 
G01 X64.2675 Y15.7306 
G01 X64.2035 Y16.0525 
G01 X64.1083 Y16.3665 
G01 X63.9827 Y16.6696 
G01 X63.8280 Y16.9590 
G01 X63.6457 Y17.2319 
G01 X63.4375 Y17.4855 
G01 X63.2055 Y17.7175 
G01 X61.8555 Y19.0675 
G01 X61.6019 Y19.2757 
G01 X61.3290 Y19.4580 
G01 X61.0396 Y19.6127 
G01 X60.7365 Y19.7383 
G01 X60.4225 Y19.8335 
G01 X60.1006 Y19.8975 
G01 X59.7741 Y19.9297 
G01 X58.8909 Y19.9297 
G01 X58.5644 Y19.8975 
G01 X58.2425 Y19.8335 
G01 X57.9285 Y19.7383 
G01 X57.6254 Y19.6127 
G01 X57.3360 Y19.4580 
G01 X57.0631 Y19.2757 
G01 X56.8095 Y19.0675 
G00 Z2.0000  F3000
G00 X66.8894 Y34.6585  F3000
G01 Z-0.2000 F200.00 
G01 X67.0435 Y34.5044 F500.00 
G01 X67.2197 Y34.3764 
G01 X67.4138 Y34.2775 
G01 X67.6209 Y34.2102 
G01 X67.8361 Y34.1761 
G01 X68.0539 Y34.1761 
G01 X68.2691 Y34.2102 
G01 X68.4762 Y34.2775 
G01 X68.6703 Y34.3764 
G01 X68.8465 Y34.5044 
G01 X69.0006 Y34.6585 
G01 X69.1286 Y34.8347 
G01 X69.2275 Y35.0288 
G01 X69.2948 Y35.2359 
G01 X69.3289 Y35.4511 
G01 X69.3289 Y38.1182 
G01 X69.3874 Y38.1766 
G01 X69.4832 Y38.3201 
G01 X69.5492 Y38.4795 
G01 X69.5829 Y38.6487 
G01 X69.5829 Y38.8213 
G01 X69.5492 Y38.9905 
G01 X69.4832 Y39.1499 
G01 X69.3874 Y39.2934 
G01 X69.2654 Y39.4154 
G01 X69.1219 Y39.5112 
G01 X69.0786 Y39.5291 
G01 X69.0006 Y39.6365 
G01 X68.8465 Y39.7906 
G01 X68.6703 Y39.9186 
G01 X68.4762 Y40.0175 
G01 X68.2691 Y40.0848 
G01 X68.0539 Y40.1189 
G01 X67.8361 Y40.1189 
G01 X67.6209 Y40.0848 
G01 X67.4138 Y40.0175 
G01 X67.2197 Y39.9186 
G01 X67.0435 Y39.7906 
G01 X66.8894 Y39.6365 
G01 X66.8114 Y39.5291 
G01 X66.7681 Y39.5112 
G01 X66.6246 Y39.4154 
G01 X66.5026 Y39.2934 
G01 X66.4068 Y39.1499 
G01 X66.3408 Y38.9905 
G01 X66.3071 Y38.8213 
G01 X66.3071 Y38.6487 
G01 X66.3408 Y38.4795 
G01 X66.4068 Y38.3201 
G01 X66.5026 Y38.1766 
G01 X66.5611 Y38.1182 
G01 X66.5611 Y35.4511 
G01 X66.5952 Y35.2359 
G01 X66.6625 Y35.0288 
G01 X66.7614 Y34.8347 
G01 X66.8894 Y34.6585 
G00 Z2.0000  F3000
G00 X41.8334 Y51.2626  F3000
G01 Z-0.2000 F200.00 
G01 X41.9554 Y51.3846 F500.00 
G01 X42.0512 Y51.5281 
G01 X42.1172 Y51.6875 
G01 X42.1509 Y51.8567 
G01 X42.1509 Y53.5533 
G01 X42.1172 Y53.7225 
G01 X42.0512 Y53.8819 
G01 X41.9554 Y54.0254 
G01 X41.8334 Y54.1474 
G01 X41.6899 Y54.2432 
G01 X41.5305 Y54.3092 
G01 X41.3613 Y54.3429 
G01 X41.1887 Y54.3429 
G01 X41.0195 Y54.3092 
G01 X40.8601 Y54.2432 
G01 X40.7166 Y54.1474 
G01 X40.5946 Y54.0254 
G01 X40.4988 Y53.8819 
G01 X40.4328 Y53.7225 
G01 X40.3991 Y53.5533 
G01 X40.3991 Y51.8567 
G01 X40.4328 Y51.6875 
G01 X40.4988 Y51.5281 
G01 X40.5946 Y51.3846 
G01 X40.7166 Y51.2626 
G01 X40.8601 Y51.1668 
G01 X41.0195 Y51.1008 
G01 X41.1887 Y51.0671 
G01 X41.3613 Y51.0671 
G01 X41.5305 Y51.1008 
G01 X41.6899 Y51.1668 
G01 X41.8334 Y51.2626 
G00 Z2.0000  F3000
G00 X39.2934 Y51.2626  F3000
G01 Z-0.2000 F200.00 
G01 X39.4154 Y51.3846 F500.00 
G01 X39.5112 Y51.5281 
G01 X39.5772 Y51.6875 
G01 X39.6109 Y51.8567 
G01 X39.6109 Y53.5533 
G01 X39.5772 Y53.7225 
G01 X39.5112 Y53.8819 
G01 X39.4154 Y54.0254 
G01 X39.2934 Y54.1474 
G01 X39.1499 Y54.2432 
G01 X38.9905 Y54.3092 
G01 X38.8213 Y54.3429 
G01 X38.6487 Y54.3429 
G01 X38.4795 Y54.3092 
G01 X38.3201 Y54.2432 
G01 X38.1766 Y54.1474 
G01 X38.0546 Y54.0254 
G01 X37.9588 Y53.8819 
G01 X37.8928 Y53.7225 
G01 X37.8591 Y53.5533 
G01 X37.8591 Y51.8567 
G01 X37.8928 Y51.6875 
G01 X37.9588 Y51.5281 
G01 X38.0546 Y51.3846 
G01 X38.1766 Y51.2626 
G01 X38.3201 Y51.1668 
G01 X38.4795 Y51.1008 
G01 X38.6487 Y51.0671 
G01 X38.8213 Y51.0671 
G01 X38.9905 Y51.1008 
G01 X39.1499 Y51.1668 
G01 X39.2934 Y51.2626 
G00 Z2.0000  F3000
G00 X36.7534 Y51.2626  F3000
G01 Z-0.2000 F200.00 
G01 X36.8754 Y51.3846 F500.00 
G01 X36.9712 Y51.5281 
G01 X37.0372 Y51.6875 
G01 X37.0709 Y51.8567 
G01 X37.0709 Y53.5533 
G01 X37.0372 Y53.7225 
G01 X36.9712 Y53.8819 
G01 X36.8754 Y54.0254 
G01 X36.7534 Y54.1474 
G01 X36.6099 Y54.2432 
G01 X36.4505 Y54.3092 
G01 X36.2813 Y54.3429 
G01 X36.1087 Y54.3429 
G01 X35.9395 Y54.3092 
G01 X35.7801 Y54.2432 
G01 X35.6366 Y54.1474 
G01 X35.5146 Y54.0254 
G01 X35.4188 Y53.8819 
G01 X35.3528 Y53.7225 
G01 X35.3191 Y53.5533 
G01 X35.3191 Y51.8567 
G01 X35.3528 Y51.6875 
G01 X35.4188 Y51.5281 
G01 X35.5146 Y51.3846 
G01 X35.6366 Y51.2626 
G01 X35.7801 Y51.1668 
G01 X35.9395 Y51.1008 
G01 X36.1087 Y51.0671 
G01 X36.2813 Y51.0671 
G01 X36.4505 Y51.1008 
G01 X36.6099 Y51.1668 
G01 X36.7534 Y51.2626 
G00 Z2.0000  F3000
G00 X34.2134 Y51.2626  F3000
G01 Z-0.2000 F200.00 
G01 X34.3354 Y51.3846 F500.00 
G01 X34.4312 Y51.5281 
G01 X34.4972 Y51.6875 
G01 X34.5309 Y51.8567 
G01 X34.5309 Y53.5533 
G01 X34.4972 Y53.7225 
G01 X34.4312 Y53.8819 
G01 X34.3354 Y54.0254 
G01 X34.2134 Y54.1474 
G01 X34.0699 Y54.2432 
G01 X33.9105 Y54.3092 
G01 X33.7413 Y54.3429 
G01 X33.5687 Y54.3429 
G01 X33.3995 Y54.3092 
G01 X33.2401 Y54.2432 
G01 X33.0966 Y54.1474 
G01 X32.9746 Y54.0254 
G01 X32.8788 Y53.8819 
G01 X32.8128 Y53.7225 
G01 X32.7791 Y53.5533 
G01 X32.7791 Y51.8567 
G01 X32.8128 Y51.6875 
G01 X32.8788 Y51.5281 
G01 X32.9746 Y51.3846 
G01 X33.0966 Y51.2626 
G01 X33.2401 Y51.1668 
G01 X33.3995 Y51.1008 
G01 X33.5687 Y51.0671 
G01 X33.7413 Y51.0671 
G01 X33.9105 Y51.1008 
G01 X34.0699 Y51.1668 
G01 X34.2134 Y51.2626 
G00 Z2.0000  F3000
G00 X29.1334 Y51.2626  F3000
G01 Z-0.2000 F200.00 
G01 X29.2554 Y51.3846 F500.00 
G01 X29.3512 Y51.5281 
G01 X29.4172 Y51.6875 
G01 X29.4509 Y51.8567 
G01 X29.4509 Y53.5533 
G01 X29.4172 Y53.7225 
G01 X29.3512 Y53.8819 
G01 X29.2554 Y54.0254 
G01 X29.1334 Y54.1474 
G01 X28.9899 Y54.2432 
G01 X28.8305 Y54.3092 
G01 X28.6613 Y54.3429 
G01 X28.4887 Y54.3429 
G01 X28.3195 Y54.3092 
G01 X28.1601 Y54.2432 
G01 X28.0166 Y54.1474 
G01 X27.8946 Y54.0254 
G01 X27.7988 Y53.8819 
G01 X27.7328 Y53.7225 
G01 X27.6991 Y53.5533 
G01 X27.6991 Y51.8567 
G01 X27.7328 Y51.6875 
G01 X27.7988 Y51.5281 
G01 X27.8946 Y51.3846 
G01 X28.0166 Y51.2626 
G01 X28.1601 Y51.1668 
G01 X28.3195 Y51.1008 
G01 X28.4887 Y51.0671 
G01 X28.6613 Y51.0671 
G01 X28.8305 Y51.1008 
G01 X28.9899 Y51.1668 
G01 X29.1334 Y51.2626 
G00 Z2.0000  F3000
G00 X26.5934 Y51.2626  F3000
G01 Z-0.2000 F200.00 
G01 X26.7154 Y51.3846 F500.00 
G01 X26.8112 Y51.5281 
G01 X26.8772 Y51.6875 
G01 X26.9109 Y51.8567 
G01 X26.9109 Y53.5533 
G01 X26.8772 Y53.7225 
G01 X26.8112 Y53.8819 
G01 X26.7154 Y54.0254 
G01 X26.5934 Y54.1474 
G01 X26.4499 Y54.2432 
G01 X26.2905 Y54.3092 
G01 X26.1213 Y54.3429 
G01 X25.9487 Y54.3429 
G01 X25.7795 Y54.3092 
G01 X25.6201 Y54.2432 
G01 X25.4766 Y54.1474 
G01 X25.3546 Y54.0254 
G01 X25.2588 Y53.8819 
G01 X25.1928 Y53.7225 
G01 X25.1591 Y53.5533 
G01 X25.1591 Y51.8567 
G01 X25.1928 Y51.6875 
G01 X25.2588 Y51.5281 
G01 X25.3546 Y51.3846 
G01 X25.4766 Y51.2626 
G01 X25.6201 Y51.1668 
G01 X25.7795 Y51.1008 
G01 X25.9487 Y51.0671 
G01 X26.1213 Y51.0671 
G01 X26.2905 Y51.1008 
G01 X26.4499 Y51.1668 
G01 X26.5934 Y51.2626 
G00 Z2.0000  F3000
G00 X21.5134 Y51.2626  F3000
G01 Z-0.2000 F200.00 
G01 X21.6354 Y51.3846 F500.00 
G01 X21.7312 Y51.5281 
G01 X21.7972 Y51.6875 
G01 X21.8309 Y51.8567 
G01 X21.8309 Y53.5533 
G01 X21.7972 Y53.7225 
G01 X21.7312 Y53.8819 
G01 X21.6354 Y54.0254 
G01 X21.5134 Y54.1474 
G01 X21.3699 Y54.2432 
G01 X21.2105 Y54.3092 
G01 X21.0413 Y54.3429 
G01 X20.8687 Y54.3429 
G01 X20.6995 Y54.3092 
G01 X20.5401 Y54.2432 
G01 X20.3966 Y54.1474 
G01 X20.2746 Y54.0254 
G01 X20.1788 Y53.8819 
G01 X20.1128 Y53.7225 
G01 X20.0791 Y53.5533 
G01 X20.0791 Y51.8567 
G01 X20.1128 Y51.6875 
G01 X20.1788 Y51.5281 
G01 X20.2746 Y51.3846 
G01 X20.3966 Y51.2626 
G01 X20.5401 Y51.1668 
G01 X20.6995 Y51.1008 
G01 X20.8687 Y51.0671 
G01 X21.0413 Y51.0671 
G01 X21.2105 Y51.1008 
G01 X21.3699 Y51.1668 
G01 X21.5134 Y51.2626 
G00 Z2.0000  F3000
G00 X18.9734 Y51.2626  F3000
G01 Z-0.2000 F200.00 
G01 X19.0954 Y51.3846 F500.00 
G01 X19.1912 Y51.5281 
G01 X19.2572 Y51.6875 
G01 X19.2909 Y51.8567 
G01 X19.2909 Y53.5533 
G01 X19.2572 Y53.7225 
G01 X19.1912 Y53.8819 
G01 X19.0954 Y54.0254 
G01 X18.9734 Y54.1474 
G01 X18.8299 Y54.2432 
G01 X18.6705 Y54.3092 
G01 X18.5013 Y54.3429 
G01 X18.3287 Y54.3429 
G01 X18.1595 Y54.3092 
G01 X18.0001 Y54.2432 
G01 X17.8566 Y54.1474 
G01 X17.7346 Y54.0254 
G01 X17.6388 Y53.8819 
G01 X17.5728 Y53.7225 
G01 X17.5391 Y53.5533 
G01 X17.5391 Y51.8567 
G01 X17.5728 Y51.6875 
G01 X17.6388 Y51.5281 
G01 X17.7346 Y51.3846 
G01 X17.8566 Y51.2626 
G01 X18.0001 Y51.1668 
G01 X18.1595 Y51.1008 
G01 X18.3287 Y51.0671 
G01 X18.5013 Y51.0671 
G01 X18.6705 Y51.1008 
G01 X18.8299 Y51.1668 
G01 X18.9734 Y51.2626 
G00 Z2.0000  F3000
G00 X16.4334 Y51.2626  F3000
G01 Z-0.2000 F200.00 
G01 X16.5554 Y51.3846 F500.00 
G01 X16.6512 Y51.5281 
G01 X16.7172 Y51.6875 
G01 X16.7509 Y51.8567 
G01 X16.7509 Y53.5533 
G01 X16.7172 Y53.7225 
G01 X16.6512 Y53.8819 
G01 X16.5554 Y54.0254 
G01 X16.4334 Y54.1474 
G01 X16.2899 Y54.2432 
G01 X16.1305 Y54.3092 
G01 X15.9613 Y54.3429 
G01 X15.7887 Y54.3429 
G01 X15.6195 Y54.3092 
G01 X15.4601 Y54.2432 
G01 X15.3166 Y54.1474 
G01 X15.1946 Y54.0254 
G01 X15.0988 Y53.8819 
G01 X15.0328 Y53.7225 
G01 X14.9991 Y53.5533 
G01 X14.9991 Y51.8567 
G01 X15.0328 Y51.6875 
G01 X15.0988 Y51.5281 
G01 X15.1946 Y51.3846 
G01 X15.3166 Y51.2626 
G01 X15.4601 Y51.1668 
G01 X15.6195 Y51.1008 
G01 X15.7887 Y51.0671 
G01 X15.9613 Y51.0671 
G01 X16.1305 Y51.1008 
G01 X16.2899 Y51.1668 
G01 X16.4334 Y51.2626 
G00 Z2.0000  F3000
G00 X13.8934 Y51.2626  F3000
G01 Z-0.2000 F200.00 
G01 X14.0154 Y51.3846 F500.00 
G01 X14.1112 Y51.5281 
G01 X14.1772 Y51.6875 
G01 X14.2109 Y51.8567 
G01 X14.2109 Y53.5533 
G01 X14.1772 Y53.7225 
G01 X14.1112 Y53.8819 
G01 X14.0154 Y54.0254 
G01 X13.8934 Y54.1474 
G01 X13.7499 Y54.2432 
G01 X13.5905 Y54.3092 
G01 X13.4213 Y54.3429 
G01 X13.2487 Y54.3429 
G01 X13.0795 Y54.3092 
G01 X12.9201 Y54.2432 
G01 X12.7766 Y54.1474 
G01 X12.6546 Y54.0254 
G01 X12.5588 Y53.8819 
G01 X12.4928 Y53.7225 
G01 X12.4591 Y53.5533 
G01 X12.4591 Y51.8567 
G01 X12.4928 Y51.6875 
G01 X12.5588 Y51.5281 
G01 X12.6546 Y51.3846 
G01 X12.7766 Y51.2626 
G01 X12.9201 Y51.1668 
G01 X13.0795 Y51.1008 
G01 X13.2487 Y51.0671 
G01 X13.4213 Y51.0671 
G01 X13.5905 Y51.1008 
G01 X13.7499 Y51.1668 
G01 X13.8934 Y51.2626 
G00 Z2.0000  F3000
G00 X11.3534 Y51.2626  F3000
G01 Z-0.2000 F200.00 
G01 X11.4754 Y51.3846 F500.00 
G01 X11.5712 Y51.5281 
G01 X11.6372 Y51.6875 
G01 X11.6709 Y51.8567 
G01 X11.6709 Y53.5533 
G01 X11.6372 Y53.7225 
G01 X11.5712 Y53.8819 
G01 X11.4754 Y54.0254 
G01 X11.3534 Y54.1474 
G01 X11.2099 Y54.2432 
G01 X11.0505 Y54.3092 
G01 X10.8813 Y54.3429 
G01 X10.7087 Y54.3429 
G01 X10.5395 Y54.3092 
G01 X10.3801 Y54.2432 
G01 X10.2366 Y54.1474 
G01 X10.1146 Y54.0254 
G01 X10.0188 Y53.8819 
G01 X9.9528 Y53.7225 
G01 X9.9191 Y53.5533 
G01 X9.9191 Y51.8567 
G01 X9.9528 Y51.6875 
G01 X10.0188 Y51.5281 
G01 X10.1146 Y51.3846 
G01 X10.2366 Y51.2626 
G01 X10.3801 Y51.1668 
G01 X10.5395 Y51.1008 
G01 X10.7087 Y51.0671 
G01 X10.8813 Y51.0671 
G01 X11.0505 Y51.1008 
G01 X11.2099 Y51.1668 
G01 X11.3534 Y51.2626 
G00 Z2.0000  F3000
G00 X7.5125 Y3.0736  F3000
G01 Z-0.2000 F200.00 
G01 X7.6456 Y2.9405 F500.00 
G01 X7.8022 Y2.8359 
G01 X7.9762 Y2.7638 
G01 X8.1608 Y2.7271 
G01 X8.3491 Y2.7271 
G01 X8.5338 Y2.7638 
G01 X8.7078 Y2.8359 
G01 X8.8643 Y2.9405 
G01 X8.9975 Y3.0736 
G01 X9.1021 Y3.2302 
G01 X9.1742 Y3.4042 
G01 X9.2109 Y3.5888 
G01 X9.2109 Y5.3011 
G01 X9.1742 Y5.4858 
G01 X9.1021 Y5.6598 
G01 X9.0358 Y5.7591 
G01 X9.0800 Y5.7365 
G01 X9.1432 Y5.7160 
G01 X9.2536 Y5.6801 
G01 X9.2890 Y5.6745 
G01 X9.4338 Y5.6516 
G01 X9.6162 Y5.6516 
G01 X9.7569 Y5.6739 
G01 X9.7964 Y5.6801 
G01 X9.8767 Y5.7062 
G01 X9.9699 Y5.7365 
G01 X10.0142 Y5.7591 
G01 X9.9479 Y5.6598 
G01 X9.8758 Y5.4858 
G01 X9.8391 Y5.3011 
G01 X9.8391 Y3.5888 
G01 X9.8758 Y3.4042 
G01 X9.9479 Y3.2302 
G01 X10.0525 Y3.0736 
G01 X10.1856 Y2.9405 
G01 X10.3422 Y2.8359 
G01 X10.5162 Y2.7638 
G01 X10.7009 Y2.7271 
G01 X10.8891 Y2.7271 
G01 X11.0738 Y2.7638 
G01 X11.2478 Y2.8359 
G01 X11.4044 Y2.9405 
G01 X11.5375 Y3.0736 
G01 X11.6421 Y3.2302 
G01 X11.7142 Y3.4042 
G01 X11.7509 Y3.5888 
G01 X11.7509 Y5.3011 
G01 X11.7142 Y5.4858 
G01 X11.6421 Y5.6598 
G01 X11.5375 Y5.8163 
G01 X11.4044 Y5.9495 
G01 X11.2478 Y6.0541 
G01 X11.1855 Y6.0799 
G01 X11.1910 Y6.0799 
G01 X11.3712 Y6.1084 
G01 X11.5447 Y6.1648 
G01 X11.7073 Y6.2476 
G01 X11.8549 Y6.3549 
G01 X11.9839 Y6.4839 
G01 X12.0912 Y6.6315 
G01 X12.1740 Y6.7941 
G01 X12.1759 Y6.8000 
G01 X12.1759 Y4.3538 
G01 X12.2044 Y4.1736 
G01 X12.2608 Y4.0001 
G01 X12.3436 Y3.8375 
G01 X12.3791 Y3.7887 
G01 X12.3791 Y3.5888 
G01 X12.4158 Y3.4042 
G01 X12.4879 Y3.2302 
G01 X12.5925 Y3.0736 
G01 X12.7256 Y2.9405 
G01 X12.8822 Y2.8359 
G01 X13.0562 Y2.7638 
G01 X13.2409 Y2.7271 
G01 X13.4291 Y2.7271 
G01 X13.6138 Y2.7638 
G01 X13.7878 Y2.8359 
G01 X13.9444 Y2.9405 
G01 X14.0775 Y3.0736 
G01 X14.1821 Y3.2302 
G01 X14.2542 Y3.4042 
G01 X14.2909 Y3.5888 
G01 X14.2909 Y3.7887 
G01 X14.3263 Y3.8375 
G01 X14.4092 Y4.0001 
G01 X14.4656 Y4.1736 
G01 X14.4941 Y4.3538 
G01 X14.4941 Y6.5049 
G01 X15.7201 Y7.7309 
G01 X45.8112 Y7.7309 
G01 X45.9914 Y7.7594 
G01 X46.1649 Y7.8158 
G01 X46.2467 Y7.8575 
G01 X46.2387 Y7.8465 
G01 X46.1845 Y7.7401 
G01 X46.1559 Y7.6839 
G01 X46.0995 Y7.5104 
G01 X46.0709 Y7.3302 
G01 X46.0709 Y7.1478 
G01 X46.0995 Y6.9676 
G01 X46.1559 Y6.7941 
G01 X46.2387 Y6.6315 
G01 X46.3459 Y6.4839 
G01 X46.4749 Y6.3549 
G01 X46.4770 Y6.3534 
G01 X46.6225 Y6.2476 
G01 X46.7289 Y6.1935 
G01 X46.7851 Y6.1648 
G01 X46.9586 Y6.1084 
G01 X47.1388 Y6.0799 
G01 X47.2345 Y6.0799 
G01 X47.1722 Y6.0541 
G01 X47.0156 Y5.9495 
G01 X46.8825 Y5.8163 
G01 X46.7779 Y5.6598 
G01 X46.7058 Y5.4858 
G01 X46.6691 Y5.3011 
G01 X46.6691 Y3.5888 
G01 X46.7058 Y3.4042 
G01 X46.7779 Y3.2302 
G01 X46.8825 Y3.0736 
G01 X47.0156 Y2.9405 
G01 X47.1722 Y2.8359 
G01 X47.3462 Y2.7638 
G01 X47.5309 Y2.7271 
G01 X47.7191 Y2.7271 
G01 X47.9038 Y2.7638 
G01 X48.0778 Y2.8359 
G01 X48.2343 Y2.9405 
G01 X48.3675 Y3.0736 
G01 X48.4721 Y3.2302 
G01 X48.5442 Y3.4042 
G01 X48.5791 Y3.5797 
G01 X48.5828 Y3.5683 
G01 X48.6656 Y3.4057 
G01 X48.7729 Y3.2581 
G01 X48.9019 Y3.1291 
G01 X49.0495 Y3.0218 
G01 X49.2121 Y2.9390 
G01 X49.3856 Y2.8826 
G01 X49.5658 Y2.8541 
G01 X69.7380 Y2.8541 
G01 X69.9182 Y2.8826 
G01 X70.0917 Y2.9390 
G01 X70.2543 Y3.0218 
G01 X70.4019 Y3.1291 
G01 X70.5309 Y3.2581 
G01 X70.6381 Y3.4057 
G01 X70.7210 Y3.5683 
G01 X70.7774 Y3.7418 
G01 X70.8059 Y3.9220 
G01 X70.8059 Y26.1409 
G01 X70.7945 Y26.2131 
G01 X70.7774 Y26.3211 
G01 X70.7210 Y26.4946 
G01 X70.6381 Y26.6572 
G01 X70.5780 Y26.7399 
G01 X70.5309 Y26.8048 
G01 X70.4019 Y26.9338 
G01 X70.2942 Y27.0121 
G01 X70.2543 Y27.0410 
G01 X70.0917 Y27.1239 
G01 X70.0330 Y27.1430 
G01 X69.9182 Y27.1803 
G01 X69.7380 Y27.2088 
G01 X69.5556 Y27.2088 
G01 X69.4834 Y27.1974 
G01 X69.3754 Y27.1803 
G01 X69.2019 Y27.1239 
G01 X69.1378 Y27.0912 
G01 X69.1970 Y27.1727 
G01 X69.3016 Y27.3781 
G01 X69.3728 Y27.5972 
G01 X69.4089 Y27.8248 
G01 X69.4089 Y28.0552 
G01 X69.3728 Y28.2828 
G01 X69.3016 Y28.5019 
G01 X69.1970 Y28.7072 
G01 X69.0616 Y28.8937 
G01 X68.8987 Y29.0566 
G01 X68.7122 Y29.1920 
G01 X68.5069 Y29.2966 
G01 X68.2878 Y29.3679 
G01 X68.0602 Y29.4039 
G01 X66.0114 Y29.4039 
G01 X65.5989 Y29.8164 
G01 X65.5989 Y34.3252 
G01 X65.5628 Y34.5528 
G01 X65.4916 Y34.7719 
G01 X65.3870 Y34.9772 
G01 X65.2516 Y35.1637 
G01 X62.7857 Y37.6295 
G01 X63.2593 Y38.1031 
G01 X63.4969 Y38.3407 
G01 X63.7100 Y38.6004 
G01 X63.8967 Y38.8798 
G01 X64.0551 Y39.1761 
G01 X64.1837 Y39.4865 
G01 X64.2812 Y39.8081 
G01 X64.3468 Y40.1376 
G01 X64.3797 Y40.4720 
G01 X64.3797 Y41.8068 
G01 X64.3816 Y41.8009 
G01 X64.4093 Y41.7466 
G01 X64.4340 Y41.6910 
G01 X64.4506 Y41.6655 
G01 X64.4644 Y41.6383 
G01 X64.5002 Y41.5890 
G01 X64.5334 Y41.5380 
G01 X64.5538 Y41.5153 
G01 X64.5717 Y41.4907 
G01 X64.6147 Y41.4477 
G01 X64.6555 Y41.4024 
G01 X64.6792 Y41.3832 
G01 X64.7007 Y41.3617 
G01 X64.7499 Y41.3259 
G01 X64.7973 Y41.2876 
G01 X64.8236 Y41.2724 
G01 X64.8483 Y41.2544 
G01 X64.9026 Y41.2268 
G01 X64.9553 Y41.1964 
G01 X64.9837 Y41.1855 
G01 X65.0109 Y41.1716 
G01 X65.0688 Y41.1528 
G01 X65.1256 Y41.1310 
G01 X65.1554 Y41.1247 
G01 X65.1844 Y41.1152 
G01 X65.2445 Y41.1057 
G01 X65.3041 Y41.0931 
G01 X65.3345 Y41.0915 
G01 X65.3646 Y41.0867 
G01 X65.4255 Y41.0867 
G01 X65.4862 Y41.0835 
G01 X65.5165 Y41.0867 
G01 X65.5470 Y41.0867 
G01 X65.6072 Y41.0962 
G01 X65.6677 Y41.1026 
G01 X65.6971 Y41.1105 
G01 X65.7272 Y41.1152 
G01 X65.7851 Y41.1340 
G01 X65.8439 Y41.1498 
G01 X65.8718 Y41.1622 
G01 X65.9007 Y41.1716 
G01 X65.9550 Y41.1993 
G01 X66.0106 Y41.2240 
G01 X66.0361 Y41.2406 
G01 X66.0633 Y41.2544 
G01 X66.1126 Y41.2902 
G01 X66.1636 Y41.3234 
G01 X66.1863 Y41.3438 
G01 X66.2109 Y41.3617 
G01 X66.2293 Y41.3801 
G01 X66.2271 Y41.3691 
G01 X66.2271 Y41.1808 
G01 X66.2638 Y40.9962 
G01 X66.3359 Y40.8222 
G01 X66.4405 Y40.6656 
G01 X66.5736 Y40.5325 
G01 X66.7302 Y40.4279 
G01 X66.9042 Y40.3558 
G01 X67.0888 Y40.3191 
G01 X67.2887 Y40.3191 
G01 X67.3375 Y40.2837 
G01 X67.5000 Y40.2009 
G01 X67.6121 Y40.1644 
G01 X67.6022 Y40.1628 
G01 X67.3831 Y40.0916 
G01 X67.1777 Y39.9870 
G01 X66.9913 Y39.8516 
G01 X66.8284 Y39.6887 
G01 X66.7599 Y39.5944 
G01 X66.7302 Y39.5821 
G01 X66.5736 Y39.4775 
G01 X66.4405 Y39.3443 
G01 X66.3359 Y39.1878 
G01 X66.2638 Y39.0138 
G01 X66.2271 Y38.8291 
G01 X66.2271 Y38.6409 
G01 X66.2638 Y38.4562 
G01 X66.3359 Y38.2822 
G01 X66.4405 Y38.1256 
G01 X66.4811 Y38.0851 
G01 X66.4811 Y35.4448 
G01 X66.5171 Y35.2172 
G01 X66.5884 Y34.9981 
G01 X66.6930 Y34.7927 
G01 X66.8284 Y34.6063 
G01 X66.9913 Y34.4434 
G01 X67.1777 Y34.3080 
G01 X67.3831 Y34.2034 
G01 X67.6022 Y34.1321 
G01 X67.8298 Y34.0961 
G01 X68.0602 Y34.0961 
G01 X68.2878 Y34.1321 
G01 X68.5069 Y34.2034 
G01 X68.7122 Y34.3080 
G01 X68.8987 Y34.4434 
G01 X69.0616 Y34.6063 
G01 X69.1970 Y34.7927 
G01 X69.3016 Y34.9981 
G01 X69.3728 Y35.2172 
G01 X69.4089 Y35.4448 
G01 X69.4089 Y38.0851 
G01 X69.4495 Y38.1256 
G01 X69.5541 Y38.2822 
G01 X69.6262 Y38.4562 
G01 X69.6629 Y38.6409 
G01 X69.6629 Y38.8291 
G01 X69.6262 Y39.0138 
G01 X69.5541 Y39.1878 
G01 X69.4495 Y39.3443 
G01 X69.3163 Y39.4775 
G01 X69.1598 Y39.5821 
G01 X69.1301 Y39.5944 
G01 X69.0616 Y39.6887 
G01 X68.8987 Y39.8516 
G01 X68.7122 Y39.9870 
G01 X68.5069 Y40.0916 
G01 X68.2878 Y40.1628 
G01 X68.2778 Y40.1644 
G01 X68.3899 Y40.2009 
G01 X68.5525 Y40.2837 
G01 X68.6013 Y40.3191 
G01 X68.8011 Y40.3191 
G01 X68.9858 Y40.3558 
G01 X69.1598 Y40.4279 
G01 X69.3163 Y40.5325 
G01 X69.4495 Y40.6656 
G01 X69.5541 Y40.8222 
G01 X69.6262 Y40.9962 
G01 X69.6629 Y41.1808 
G01 X69.6629 Y41.3691 
G01 X69.6262 Y41.5538 
G01 X69.5541 Y41.7278 
G01 X69.4552 Y41.8758 
G01 X69.4950 Y41.8674 
G01 X69.5255 Y41.8658 
G01 X69.5556 Y41.8610 
G01 X69.6164 Y41.8610 
G01 X69.6772 Y41.8578 
G01 X69.7075 Y41.8610 
G01 X69.7380 Y41.8610 
G01 X69.7981 Y41.8705 
G01 X69.8587 Y41.8769 
G01 X69.8881 Y41.8848 
G01 X69.9182 Y41.8895 
G01 X69.9761 Y41.9083 
G01 X70.0349 Y41.9241 
G01 X70.0627 Y41.9365 
G01 X70.0917 Y41.9459 
G01 X70.1460 Y41.9735 
G01 X70.2016 Y41.9983 
G01 X70.2271 Y42.0149 
G01 X70.2543 Y42.0287 
G01 X70.3036 Y42.0645 
G01 X70.3546 Y42.0977 
G01 X70.3772 Y42.1181 
G01 X70.4019 Y42.1360 
G01 X70.4449 Y42.1790 
G01 X70.4902 Y42.2197 
G01 X70.5094 Y42.2434 
G01 X70.5309 Y42.2650 
G01 X70.5667 Y42.3143 
G01 X70.6050 Y42.3615 
G01 X70.6202 Y42.3879 
G01 X70.6381 Y42.4126 
G01 X70.6658 Y42.4669 
G01 X70.6962 Y42.5195 
G01 X70.7071 Y42.5480 
G01 X70.7210 Y42.5752 
G01 X70.7398 Y42.6331 
G01 X70.7616 Y42.6899 
G01 X70.7679 Y42.7197 
G01 X70.7774 Y42.7487 
G01 X70.7869 Y42.8088 
G01 X70.7995 Y42.8683 
G01 X70.8011 Y42.8988 
G01 X70.8059 Y42.9289 
G01 X70.8059 Y42.9897 
G01 X70.8091 Y43.0505 
G01 X70.8059 Y43.0808 
G01 X70.8059 Y53.2280 
G01 X70.7774 Y53.4082 
G01 X70.7210 Y53.5817 
G01 X70.6381 Y53.7443 
G01 X70.5309 Y53.8919 
G01 X70.4019 Y54.0209 
G01 X70.2543 Y54.1281 
G01 X70.0917 Y54.2110 
G01 X69.9182 Y54.2674 
G01 X69.7380 Y54.2959 
G01 X43.2158 Y54.2959 
G01 X43.0356 Y54.2674 
G01 X42.8621 Y54.2110 
G01 X42.6995 Y54.1281 
G01 X42.5519 Y54.0209 
G01 X42.4229 Y53.8919 
G01 X42.3156 Y53.7443 
G01 X42.2328 Y53.5817 
G01 X42.2291 Y53.5703 
G01 X42.1942 Y53.7458 
G01 X42.1221 Y53.9198 
G01 X42.0175 Y54.0763 
G01 X41.8843 Y54.2095 
G01 X41.7278 Y54.3141 
G01 X41.5538 Y54.3862 
G01 X41.3691 Y54.4229 
G01 X41.1808 Y54.4229 
G01 X40.9962 Y54.3862 
G01 X40.8222 Y54.3141 
G01 X40.6656 Y54.2095 
G01 X40.5325 Y54.0763 
G01 X40.4279 Y53.9198 
G01 X40.3558 Y53.7458 
G01 X40.3191 Y53.5611 
G01 X40.3191 Y51.8488 
G01 X40.3558 Y51.6642 
G01 X40.4279 Y51.4902 
G01 X40.4942 Y51.3909 
G01 X40.4500 Y51.4135 
G01 X40.3868 Y51.4340 
G01 X40.2764 Y51.4699 
G01 X40.2410 Y51.4755 
G01 X40.0962 Y51.4984 
G01 X39.9138 Y51.4984 
G01 X39.7731 Y51.4761 
G01 X39.7336 Y51.4699 
G01 X39.6533 Y51.4438 
G01 X39.5601 Y51.4135 
G01 X39.5158 Y51.3909 
G01 X39.5821 Y51.4902 
G01 X39.6542 Y51.6642 
G01 X39.6909 Y51.8488 
G01 X39.6909 Y53.5611 
G01 X39.6542 Y53.7458 
G01 X39.5821 Y53.9198 
G01 X39.4775 Y54.0763 
G01 X39.3443 Y54.2095 
G01 X39.1878 Y54.3141 
G01 X39.0138 Y54.3862 
G01 X38.8291 Y54.4229 
G01 X38.6409 Y54.4229 
G01 X38.4562 Y54.3862 
G01 X38.2822 Y54.3141 
G01 X38.1256 Y54.2095 
G01 X37.9925 Y54.0763 
G01 X37.8879 Y53.9198 
G01 X37.8158 Y53.7458 
G01 X37.7791 Y53.5611 
G01 X37.7791 Y51.8488 
G01 X37.8158 Y51.6642 
G01 X37.8879 Y51.4902 
G01 X37.9542 Y51.3909 
G01 X37.9100 Y51.4135 
G01 X37.8468 Y51.4340 
G01 X37.7364 Y51.4699 
G01 X37.7010 Y51.4755 
G01 X37.5562 Y51.4984 
G01 X37.3738 Y51.4984 
G01 X37.2331 Y51.4761 
G01 X37.1936 Y51.4699 
G01 X37.1133 Y51.4438 
G01 X37.0201 Y51.4135 
G01 X36.9758 Y51.3909 
G01 X37.0421 Y51.4902 
G01 X37.1142 Y51.6642 
G01 X37.1509 Y51.8488 
G01 X37.1509 Y53.5611 
G01 X37.1142 Y53.7458 
G01 X37.0421 Y53.9198 
G01 X36.9375 Y54.0763 
G01 X36.8043 Y54.2095 
G01 X36.6478 Y54.3141 
G01 X36.4738 Y54.3862 
G01 X36.2891 Y54.4229 
G01 X36.1009 Y54.4229 
G01 X35.9162 Y54.3862 
G01 X35.7422 Y54.3141 
G01 X35.5856 Y54.2095 
G01 X35.4525 Y54.0763 
G01 X35.3479 Y53.9198 
G01 X35.2758 Y53.7458 
G01 X35.2391 Y53.5611 
G01 X35.2391 Y51.8488 
G01 X35.2758 Y51.6642 
G01 X35.3479 Y51.4902 
G01 X35.4142 Y51.3909 
G01 X35.3700 Y51.4135 
G01 X35.3068 Y51.4340 
G01 X35.1964 Y51.4699 
G01 X35.1610 Y51.4755 
G01 X35.0162 Y51.4984 
G01 X34.8338 Y51.4984 
G01 X34.6931 Y51.4761 
G01 X34.6536 Y51.4699 
G01 X34.5733 Y51.4438 
G01 X34.4801 Y51.4135 
G01 X34.4358 Y51.3909 
G01 X34.5021 Y51.4902 
G01 X34.5742 Y51.6642 
G01 X34.6109 Y51.8488 
G01 X34.6109 Y53.5611 
G01 X34.5742 Y53.7458 
G01 X34.5021 Y53.9198 
G01 X34.3975 Y54.0763 
G01 X34.2644 Y54.2095 
G01 X34.1078 Y54.3141 
G01 X33.9338 Y54.3862 
G01 X33.7491 Y54.4229 
G01 X33.5609 Y54.4229 
G01 X33.3762 Y54.3862 
G01 X33.2022 Y54.3141 
G01 X33.0456 Y54.2095 
G01 X32.9125 Y54.0763 
G01 X32.8079 Y53.9198 
G01 X32.7358 Y53.7458 
G01 X32.6991 Y53.5611 
G01 X32.6991 Y51.8488 
G01 X32.7358 Y51.6642 
G01 X32.8079 Y51.4902 
G01 X32.8515 Y51.4250 
G01 X32.7841 Y51.4593 
G01 X32.7696 Y51.4640 
G01 X32.7559 Y51.4706 
G01 X32.6829 Y51.4922 
G01 X32.6106 Y51.5157 
G01 X32.5956 Y51.5181 
G01 X32.5809 Y51.5224 
G01 X32.5055 Y51.5323 
G01 X32.4304 Y51.5442 
G01 X32.4152 Y51.5442 
G01 X32.4000 Y51.5462 
G01 X32.3241 Y51.5442 
G01 X32.2741 Y51.5442 
G01 X32.2741 Y52.7962 
G01 X32.2456 Y52.9764 
G01 X32.1892 Y53.1499 
G01 X32.1064 Y53.3125 
G01 X32.0709 Y53.3613 
G01 X32.0709 Y53.5611 
G01 X32.0342 Y53.7458 
G01 X31.9621 Y53.9198 
G01 X31.8575 Y54.0763 
G01 X31.7244 Y54.2095 
G01 X31.5678 Y54.3141 
G01 X31.3938 Y54.3862 
G01 X31.2091 Y54.4229 
G01 X31.0208 Y54.4229 
G01 X30.8362 Y54.3862 
G01 X30.6622 Y54.3141 
G01 X30.5056 Y54.2095 
G01 X30.3725 Y54.0763 
G01 X30.2679 Y53.9198 
G01 X30.1958 Y53.7458 
G01 X30.1591 Y53.5611 
G01 X30.1591 Y53.3613 
G01 X30.1236 Y53.3125 
G01 X30.0408 Y53.1499 
G01 X29.9844 Y52.9764 
G01 X29.9559 Y52.7962 
G01 X29.9559 Y51.5442 
G01 X29.9060 Y51.5442 
G01 X29.8299 Y51.5462 
G01 X29.8148 Y51.5442 
G01 X29.7996 Y51.5442 
G01 X29.7245 Y51.5323 
G01 X29.6491 Y51.5224 
G01 X29.6344 Y51.5181 
G01 X29.6194 Y51.5157 
G01 X29.5471 Y51.4922 
G01 X29.4741 Y51.4706 
G01 X29.4604 Y51.4640 
G01 X29.4458 Y51.4593 
G01 X29.3785 Y51.4250 
G01 X29.4221 Y51.4902 
G01 X29.4942 Y51.6642 
G01 X29.5309 Y51.8488 
G01 X29.5309 Y53.5611 
G01 X29.4942 Y53.7458 
G01 X29.4221 Y53.9198 
G01 X29.3175 Y54.0763 
G01 X29.1843 Y54.2095 
G01 X29.0278 Y54.3141 
G01 X28.8538 Y54.3862 
G01 X28.6691 Y54.4229 
G01 X28.4809 Y54.4229 
G01 X28.2962 Y54.3862 
G01 X28.1222 Y54.3141 
G01 X27.9656 Y54.2095 
G01 X27.8325 Y54.0763 
G01 X27.7279 Y53.9198 
G01 X27.6558 Y53.7458 
G01 X27.6191 Y53.5611 
G01 X27.6191 Y51.8488 
G01 X27.6558 Y51.6642 
G01 X27.7279 Y51.4902 
G01 X27.7942 Y51.3909 
G01 X27.7500 Y51.4135 
G01 X27.6868 Y51.4340 
G01 X27.5764 Y51.4699 
G01 X27.5410 Y51.4755 
G01 X27.3962 Y51.4984 
G01 X27.2138 Y51.4984 
G01 X27.0731 Y51.4761 
G01 X27.0336 Y51.4699 
G01 X26.9533 Y51.4438 
G01 X26.8601 Y51.4135 
G01 X26.8158 Y51.3909 
G01 X26.8821 Y51.4902 
G01 X26.9542 Y51.6642 
G01 X26.9909 Y51.8488 
G01 X26.9909 Y53.5611 
G01 X26.9542 Y53.7458 
G01 X26.8821 Y53.9198 
G01 X26.7775 Y54.0763 
G01 X26.6443 Y54.2095 
G01 X26.4878 Y54.3141 
G01 X26.3138 Y54.3862 
G01 X26.1291 Y54.4229 
G01 X25.9409 Y54.4229 
G01 X25.7562 Y54.3862 
G01 X25.5822 Y54.3141 
G01 X25.4256 Y54.2095 
G01 X25.2925 Y54.0763 
G01 X25.1879 Y53.9198 
G01 X25.1158 Y53.7458 
G01 X25.0809 Y53.5702 
G01 X25.0772 Y53.5817 
G01 X24.9944 Y53.7443 
G01 X24.8871 Y53.8919 
G01 X24.7581 Y54.0209 
G01 X24.6105 Y54.1281 
G01 X24.4479 Y54.2110 
G01 X24.2744 Y54.2674 
G01 X24.0942 Y54.2959 
G01 X22.8958 Y54.2959 
G01 X22.7156 Y54.2674 
G01 X22.5421 Y54.2110 
G01 X22.3795 Y54.1281 
G01 X22.2319 Y54.0209 
G01 X22.1029 Y53.8919 
G01 X21.9956 Y53.7443 
G01 X21.9128 Y53.5817 
G01 X21.9091 Y53.5703 
G01 X21.8742 Y53.7458 
G01 X21.8021 Y53.9198 
G01 X21.6975 Y54.0763 
G01 X21.5644 Y54.2095 
G01 X21.4078 Y54.3141 
G01 X21.2338 Y54.3862 
G01 X21.0491 Y54.4229 
G01 X20.8608 Y54.4229 
G01 X20.6762 Y54.3862 
G01 X20.5022 Y54.3141 
G01 X20.3456 Y54.2095 
G01 X20.2125 Y54.0763 
G01 X20.1079 Y53.9198 
G01 X20.0358 Y53.7458 
G01 X19.9991 Y53.5611 
G01 X19.9991 Y51.8488 
G01 X20.0358 Y51.6642 
G01 X20.1079 Y51.4902 
G01 X20.1742 Y51.3909 
G01 X20.1300 Y51.4135 
G01 X20.0668 Y51.4340 
G01 X19.9564 Y51.4699 
G01 X19.9210 Y51.4755 
G01 X19.7762 Y51.4984 
G01 X19.5938 Y51.4984 
G01 X19.4531 Y51.4761 
G01 X19.4136 Y51.4699 
G01 X19.3333 Y51.4438 
G01 X19.2401 Y51.4135 
G01 X19.1958 Y51.3909 
G01 X19.2621 Y51.4902 
G01 X19.3342 Y51.6642 
G01 X19.3709 Y51.8488 
G01 X19.3709 Y53.5611 
G01 X19.3342 Y53.7458 
G01 X19.2621 Y53.9198 
G01 X19.1575 Y54.0763 
G01 X19.0243 Y54.2095 
G01 X18.8678 Y54.3141 
G01 X18.6938 Y54.3862 
G01 X18.5091 Y54.4229 
G01 X18.3209 Y54.4229 
G01 X18.1362 Y54.3862 
G01 X17.9622 Y54.3141 
G01 X17.8056 Y54.2095 
G01 X17.6725 Y54.0763 
G01 X17.5679 Y53.9198 
G01 X17.4958 Y53.7458 
G01 X17.4591 Y53.5611 
G01 X17.4591 Y51.8488 
G01 X17.4958 Y51.6642 
G01 X17.5679 Y51.4902 
G01 X17.6342 Y51.3909 
G01 X17.5900 Y51.4135 
G01 X17.5268 Y51.4340 
G01 X17.4164 Y51.4699 
G01 X17.3810 Y51.4755 
G01 X17.2362 Y51.4984 
G01 X17.0538 Y51.4984 
G01 X16.9131 Y51.4761 
G01 X16.8736 Y51.4699 
G01 X16.7933 Y51.4438 
G01 X16.7001 Y51.4135 
G01 X16.6558 Y51.3909 
G01 X16.7221 Y51.4902 
G01 X16.7942 Y51.6642 
G01 X16.8309 Y51.8488 
G01 X16.8309 Y53.5611 
G01 X16.7942 Y53.7458 
G01 X16.7221 Y53.9198 
G01 X16.6175 Y54.0763 
G01 X16.4843 Y54.2095 
G01 X16.3278 Y54.3141 
G01 X16.1538 Y54.3862 
G01 X15.9691 Y54.4229 
G01 X15.7808 Y54.4229 
G01 X15.5962 Y54.3862 
G01 X15.4222 Y54.3141 
G01 X15.2656 Y54.2095 
G01 X15.1325 Y54.0763 
G01 X15.0279 Y53.9198 
G01 X14.9558 Y53.7458 
G01 X14.9191 Y53.5611 
G01 X14.9191 Y51.8488 
G01 X14.9558 Y51.6642 
G01 X15.0279 Y51.4902 
G01 X15.0942 Y51.3909 
G01 X15.0500 Y51.4135 
G01 X14.9868 Y51.4340 
G01 X14.8764 Y51.4699 
G01 X14.8410 Y51.4755 
G01 X14.6962 Y51.4984 
G01 X14.5138 Y51.4984 
G01 X14.3731 Y51.4761 
G01 X14.3336 Y51.4699 
G01 X14.2533 Y51.4438 
G01 X14.1601 Y51.4135 
G01 X14.1158 Y51.3909 
G01 X14.1821 Y51.4902 
G01 X14.2542 Y51.6642 
G01 X14.2909 Y51.8488 
G01 X14.2909 Y53.5611 
G01 X14.2542 Y53.7458 
G01 X14.1821 Y53.9198 
G01 X14.0775 Y54.0763 
G01 X13.9444 Y54.2095 
G01 X13.7878 Y54.3141 
G01 X13.6138 Y54.3862 
G01 X13.4291 Y54.4229 
G01 X13.2409 Y54.4229 
G01 X13.0562 Y54.3862 
G01 X12.8822 Y54.3141 
G01 X12.7256 Y54.2095 
G01 X12.5925 Y54.0763 
G01 X12.4879 Y53.9198 
G01 X12.4158 Y53.7458 
G01 X12.3791 Y53.5611 
G01 X12.3791 Y51.8488 
G01 X12.4158 Y51.6642 
G01 X12.4879 Y51.4902 
G01 X12.5542 Y51.3909 
