;(.../Electronics/Eagle/pcb-gcode/pcb-gcode.ulp)
;(Copyright 2005 - 2012 by John Johnson)
;(See readme.txt for licensing terms.)
;(This file generated from the board:)
;(.../Pond/Electronics/pump-shield.brd)
;(Current profile is .../pcb-gcode/profiles/generic.pp  )
;(This file generated 15/12/2018 16:41)
;(Settings from pcb-machine.h)
;(spindle on time = 1000.0000)
;(spindle speed = 20000.0000)
;(tool change at 0.0000 0.0000 5.0000 )
;(feed rate xy = F0.00  )
;(feed rate z  = F200.00 )
;(Z Axis Settings)
;(  High     Up        Down     Drill)
;(5.0000 	2.0000 	-0.2000 	-2.0000 )
;(Settings from pcb-defaults.h)
;(isolate min = 0.0250)
;(isolate max = 0.5000)
;(isolate step = 0.0800)
;(Generated bottom outlines, bottom drill, )
;(Unit of measure: mm)
;( Tool|       Size       |  Min Sub |  Max Sub |   Count )
;( T01  0.800mm 0.0315in 0.0000in 0.0000in )
;( T02  0.813mm 0.0320in 0.0000in 0.0000in )
;( T03  1.016mm 0.0400in 0.0000in 0.0000in )
;( T04  1.194mm 0.0470in 0.0000in 0.0000in )
;(Metric Mode)
G21
;(Absolute Coordinates)
G90
;S20000
G00 Z5.0000  F3000
G00 X0.0000 Y0.0000  F3000
;M03 S1
G04 P1000.000000
;M03 S0
;M06 T01  ; 0.8000 
G01 Z0.0000 F200.00 
;M06 
G00 Z2.0000  F3000
;M03 S1
G04 P1000.000000
G00 X-15.8750 Y11.5100  F3000
G01 Z-2.0000 F200.00 
G00 Z2.0000  F3000
G00 X-15.8750 Y34.2100  F3000
G01 Z-2.0000 F200.00 
G00 Z2.0000  F3000
;M03 S0
G00 Z5.0000  F3000
G00 X0.0000 Y0.0000  F3000
;M06 T02  ; 0.8128 
G01 Z0.0000 F200.00 
;M06 
G00 Z2.0000  F3000
;M03 S1
G04 P1000.000000
G00 X-7.6200 Y24.7650  F3000
G01 Z-2.0000 F200.00 
G00 Z2.0000  F3000
G00 X-7.6200 Y27.3050  F3000
G01 Z-2.0000 F200.00 
G00 Z2.0000  F3000
G00 X-27.3050 Y20.3200  F3000
G01 Z-2.0000 F200.00 
G00 Z2.0000  F3000
G00 X-27.3050 Y12.7000  F3000
G01 Z-2.0000 F200.00 
G00 Z2.0000  F3000
;M03 S0
G00 Z5.0000  F3000
G00 X0.0000 Y0.0000  F3000
;M06 T03  ; 1.0160 
G01 Z0.0000 F200.00 
;M06 
G00 Z2.0000  F3000
;M03 S1
G04 P1000.000000
G00 X-4.4450 Y32.3850  F3000
G01 Z-2.0000 F200.00 
G00 Z2.0000  F3000
G00 X-4.4450 Y34.9250  F3000
G01 Z-2.0000 F200.00 
G00 Z2.0000  F3000
G00 X-4.4450 Y37.4650  F3000
G01 Z-2.0000 F200.00 
G00 Z2.0000  F3000
G00 X-27.3050 Y35.5600  F3000
G01 Z-2.0000 F200.00 
G00 Z2.0000  F3000
G00 X-27.3050 Y33.0200  F3000
G01 Z-2.0000 F200.00 
G00 Z2.0000  F3000
G00 X-27.3050 Y30.4800  F3000
G01 Z-2.0000 F200.00 
G00 Z2.0000  F3000
G00 X-27.3050 Y9.5250  F3000
G01 Z-2.0000 F200.00 
G00 Z2.0000  F3000
G00 X-27.3050 Y6.9850  F3000
G01 Z-2.0000 F200.00 
G00 Z2.0000  F3000
;M03 S0
G00 Z5.0000  F3000
G00 X0.0000 Y0.0000  F3000
;M06 T04  ; 1.1938 
G01 Z0.0000 F200.00 
;M06 
G00 Z2.0000  F3000
;M03 S1
G04 P1000.000000
G00 X-10.8350 Y5.0800  F3000
G01 Z-2.0000 F200.00 
G00 Z2.0000  F3000
G00 X-15.8350 Y5.0800  F3000
G01 Z-2.0000 F200.00 
G00 Z2.0000  F3000
G00 X-15.8350 Y41.2750  F3000
G01 Z-2.0000 F200.00 
G00 Z2.0000  F3000
G00 X-10.8350 Y41.2750  F3000
G01 Z-2.0000 F200.00 
G00 Z2.0000  F3000
;T01 
G00 Z5.0000  F3000
;M03 S0
M0
