;(.../Electronics/Eagle/pcb-gcode/pcb-gcode.ulp)
;(Copyright 2005 - 2012 by John Johnson)
;(See readme.txt for licensing terms.)
;(This file generated from the board:)
;(.../Pond/Electronics/pump-shield.brd)
;(Current profile is .../pcb-gcode/profiles/generic.pp  )
;(This file generated 15/12/2018 16:40)
;(Settings from pcb-machine.h)
;(spindle on time = 1000.0000)
;(  Tool Size)
;(0.1778 )
;(spindle speed = 30000.0000)
;(tool change at 0.0000 0.0000 5.0000 )
;(feed rate xy = F500.00 )
;(feed rate z  = F200.00 )
;(Z Axis Settings)
;(  High     Up        Down     Drill)
;(5.0000 	2.0000 	-0.2000 	-2.0000 )
;(Settings from pcb-defaults.h)
;(isolate min = 0.0250)
;(isolate max = 0.5000)
;(isolate step = 0.0800)
;(Generated bottom outlines, bottom drill, )
;(Unit of measure: mm)
;(Metric Mode)
G21
;(Absolute Coordinates)
G90
;S30000
G00 Z5.0000  F3000
G00 X0.0000 Y0.0000  F3000
;M03 S1
G04 P1000.000000
G00 Z2.0000  F3000
G00 X-1.0925 Y1.1515  F3000
G01 Z-0.2000 F200.00 
G01 X-1.0507 Y1.2238 F500.00 
G01 X-1.0291 Y1.3044 
G01 X-1.0291 Y44.4155 
G01 X-1.0507 Y44.4962 
G01 X-1.0925 Y44.5685 
G01 X-1.1515 Y44.6275 
G01 X-1.2238 Y44.6693 
G01 X-1.3044 Y44.6909 
G01 X-3.8965 Y44.6909 
G01 X-3.9287 Y44.6928 
G01 X-3.9381 Y44.6909 
G01 X-3.9477 Y44.6909 
G01 X-3.9789 Y44.6826 
G01 X-4.0105 Y44.6761 
G01 X-4.0191 Y44.6718 
G01 X-4.0284 Y44.6693 
G01 X-4.0563 Y44.6532 
G01 X-4.0851 Y44.6388 
G01 X-4.0923 Y44.6324 
G01 X-4.1007 Y44.6275 
G01 X-4.1235 Y44.6047 
G01 X-4.1476 Y44.5834 
G01 X-4.1529 Y44.5753 
G01 X-4.1597 Y44.5685 
G01 X-4.1758 Y44.5406 
G01 X-4.1936 Y44.5137 
G01 X-4.1966 Y44.5045 
G01 X-4.2015 Y44.4962 
G01 X-4.2098 Y44.4650 
G01 X-4.2200 Y44.4345 
G01 X-4.2206 Y44.4249 
G01 X-4.2231 Y44.4155 
G01 X-4.2231 Y44.3833 
G01 X-4.2250 Y44.3511 
G01 X-4.2231 Y44.3417 
G01 X-4.2231 Y44.3321 
G01 X-4.2147 Y44.3009 
G01 X-4.2083 Y44.2693 
G01 X-4.2040 Y44.2607 
G01 X-4.2015 Y44.2514 
G01 X-4.1854 Y44.2235 
G01 X-3.9080 Y43.6687 
G01 X-3.9055 Y43.6594 
G01 X-3.8894 Y43.6315 
G01 X-3.8749 Y43.6027 
G01 X-3.8685 Y43.5955 
G01 X-3.8637 Y43.5871 
G01 X-3.8525 Y43.5759 
G01 X-3.8247 Y43.5088 
G01 X-3.8224 Y43.4976 
G01 X-3.8088 Y43.4704 
G01 X-3.7971 Y43.4422 
G01 X-3.7902 Y43.4332 
G01 X-3.7577 Y43.3682 
G01 X-3.7566 Y43.3524 
G01 X-3.7534 Y43.3433 
G01 X-3.7522 Y43.3337 
G01 X-3.7461 Y43.3190 
G01 X-3.7461 Y43.2464 
G01 X-3.7483 Y43.2352 
G01 X-3.7461 Y43.2048 
G01 X-3.7461 Y43.1743 
G01 X-3.7431 Y43.1633 
G01 X-3.7380 Y43.0909 
G01 X-3.7430 Y43.0758 
G01 X-3.7436 Y43.0662 
G01 X-3.7461 Y43.0569 
G01 X-3.7461 Y43.0246 
G01 X-3.7480 Y42.9925 
G01 X-3.7461 Y42.9830 
G01 X-3.7461 Y38.7552 
G01 X-3.7488 Y38.7344 
G01 X-3.7461 Y38.7136 
G01 X-3.7461 Y38.6927 
G01 X-3.7407 Y38.6724 
G01 X-3.7379 Y38.6516 
G01 X-3.7299 Y38.6323 
G01 X-3.7245 Y38.6120 
G01 X-3.7140 Y38.5939 
G01 X-3.7060 Y38.5745 
G01 X-3.6932 Y38.5579 
G01 X-3.6827 Y38.5397 
G01 X-3.6679 Y38.5249 
G01 X-3.6552 Y38.5083 
G01 X-3.6385 Y38.4955 
G01 X-3.6237 Y38.4807 
G01 X-3.6055 Y38.4702 
G01 X-3.5889 Y38.4574 
G01 X-3.5695 Y38.4494 
G01 X-3.5514 Y38.4389 
G01 X-3.5311 Y38.4335 
G01 X-3.1432 Y38.2728 
G01 X-2.8752 Y38.0048 
G01 X-2.7301 Y37.6545 
G01 X-2.7301 Y37.2755 
G01 X-2.8752 Y36.9252 
G01 X-3.1432 Y36.6572 
G01 X-3.4935 Y36.5121 
G01 X-3.6224 Y36.5121 
G01 X-3.6250 Y36.5128 
G01 X-3.6640 Y36.5121 
G01 X-3.7032 Y36.5121 
G01 X-3.7058 Y36.5114 
G01 X-3.7085 Y36.5114 
G01 X-3.7461 Y36.5006 
G01 X-3.7838 Y36.4905 
G01 X-3.7861 Y36.4891 
G01 X-3.7888 Y36.4884 
G01 X-3.8223 Y36.4683 
G01 X-3.8561 Y36.4487 
G01 X-3.8603 Y36.4454 
G01 X-3.8875 Y36.4173 
G01 X-3.9151 Y36.3897 
G01 X-3.9165 Y36.3873 
G01 X-3.9373 Y36.3513 
G01 X-3.9569 Y36.3174 
G01 X-3.9576 Y36.3148 
G01 X-3.9589 Y36.3124 
G01 X-3.9684 Y36.2746 
G01 X-3.9785 Y36.2367 
G01 X-3.9785 Y36.2340 
G01 X-3.9792 Y36.2314 
G01 X-3.9785 Y36.1924 
G01 X-3.9785 Y36.1532 
G01 X-3.9778 Y36.1506 
G01 X-3.9778 Y36.1479 
G01 X-3.9670 Y36.1103 
G01 X-3.9569 Y36.0726 
G01 X-3.9555 Y36.0703 
G01 X-3.9548 Y36.0677 
G01 X-3.9347 Y36.0341 
G01 X-3.9151 Y36.0003 
G01 X-3.9118 Y35.9961 
G01 X-3.8838 Y35.9689 
G01 X-3.8561 Y35.9413 
G01 X-3.8538 Y35.9399 
G01 X-3.8177 Y35.9191 
G01 X-3.7838 Y35.8995 
G01 X-3.7812 Y35.8988 
G01 X-3.7788 Y35.8975 
G01 X-3.7410 Y35.8880 
G01 X-3.7032 Y35.8779 
G01 X-3.7004 Y35.8779 
G01 X-3.6978 Y35.8772 
G01 X-3.6588 Y35.8779 
G01 X-3.4935 Y35.8779 
G01 X-3.1432 Y35.7328 
G01 X-2.8752 Y35.4648 
G01 X-2.7301 Y35.1145 
G01 X-2.7301 Y34.7355 
G01 X-2.8752 Y34.3852 
G01 X-3.1432 Y34.1172 
G01 X-3.4935 Y33.9721 
G01 X-3.6406 Y33.9721 
G01 X-3.6614 Y33.9748 
G01 X-3.6822 Y33.9721 
G01 X-3.7031 Y33.9721 
G01 X-3.7234 Y33.9667 
G01 X-3.7442 Y33.9639 
G01 X-3.7635 Y33.9559 
G01 X-3.7838 Y33.9505 
G01 X-3.8020 Y33.9400 
G01 X-3.8862 Y33.9051 
G01 X-3.9064 Y33.8997 
G01 X-3.9246 Y33.8892 
G01 X-3.9440 Y33.8812 
G01 X-3.9606 Y33.8684 
G01 X-3.9787 Y33.8579 
G01 X-3.9936 Y33.8431 
G01 X-4.0102 Y33.8304 
G01 X-4.0230 Y33.8137 
G01 X-4.0378 Y33.7989 
G01 X-4.0483 Y33.7807 
G01 X-4.0610 Y33.7641 
G01 X-4.0690 Y33.7448 
G01 X-4.0795 Y33.7266 
G01 X-4.0850 Y33.7063 
G01 X-4.0930 Y33.6870 
G01 X-4.0957 Y33.6662 
G01 X-4.1011 Y33.6459 
G01 X-4.1011 Y33.6250 
G01 X-4.1039 Y33.6042 
G01 X-4.1011 Y33.5834 
G01 X-4.1011 Y33.5624 
G01 X-4.0957 Y33.5422 
G01 X-4.0930 Y33.5214 
G01 X-4.0850 Y33.5021 
G01 X-4.0795 Y33.4818 
G01 X-4.0690 Y33.4636 
G01 X-4.0610 Y33.4443 
G01 X-4.0483 Y33.4277 
G01 X-4.0378 Y33.4095 
G01 X-4.0230 Y33.3947 
G01 X-4.0102 Y33.3780 
G01 X-3.9936 Y33.3653 
G01 X-3.9787 Y33.3505 
G01 X-3.9606 Y33.3400 
G01 X-3.9440 Y33.3272 
G01 X-3.9246 Y33.3192 
G01 X-3.9064 Y33.3087 
G01 X-3.8862 Y33.3033 
G01 X-3.8668 Y33.2953 
G01 X-3.8460 Y33.2925 
G01 X-3.8258 Y33.2871 
G01 X-3.8048 Y33.2871 
G01 X-3.7841 Y33.2844 
G01 X-3.7633 Y33.2871 
G01 X-3.6120 Y33.2871 
G01 X-3.4717 Y33.2649 
G01 X-3.3367 Y33.2210 
G01 X-3.2102 Y33.1565 
G01 X-3.0953 Y33.0731 
G01 X-2.9949 Y32.9727 
G01 X-2.9114 Y32.8578 
G01 X-2.8580 Y32.7529 
G01 X-2.8873 Y32.7529 
G01 X-2.9068 Y32.7999 
G01 X-3.0026 Y32.9434 
G01 X-3.1246 Y33.0654 
G01 X-3.2681 Y33.1612 
G01 X-3.4275 Y33.2272 
G01 X-3.5967 Y33.2609 
G01 X-5.2933 Y33.2609 
G01 X-5.4625 Y33.2272 
G01 X-5.6219 Y33.1612 
G01 X-5.7654 Y33.0654 
G01 X-5.8874 Y32.9434 
G01 X-5.9832 Y32.7999 
G01 X-6.0027 Y32.7529 
G01 X-6.0320 Y32.7529 
G01 X-5.9785 Y32.8578 
G01 X-5.8951 Y32.9727 
G01 X-5.7947 Y33.0731 
G01 X-5.6823 Y33.1547 
G01 X-5.6764 Y33.1563 
G01 X-5.6474 Y33.1730 
G01 X-5.6176 Y33.1882 
G01 X-5.6114 Y33.1938 
G01 X-5.6041 Y33.1981 
G01 X-5.5804 Y33.2217 
G01 X-5.5556 Y33.2441 
G01 X-5.5510 Y33.2511 
G01 X-5.5450 Y33.2571 
G01 X-5.5283 Y33.2861 
G01 X-5.5101 Y33.3141 
G01 X-5.5075 Y33.3221 
G01 X-5.5033 Y33.3294 
G01 X-5.4946 Y33.3617 
G01 X-5.4843 Y33.3935 
G01 X-5.4839 Y33.4019 
G01 X-5.4817 Y33.4100 
G01 X-5.4817 Y33.4435 
G01 X-5.4799 Y33.4769 
G01 X-5.4817 Y33.4851 
G01 X-5.4817 Y33.4935 
G01 X-5.4903 Y33.5258 
G01 X-5.4973 Y33.5585 
G01 X-5.5011 Y33.5661 
G01 X-5.5033 Y33.5742 
G01 X-5.5200 Y33.6032 
G01 X-5.5352 Y33.6329 
G01 X-5.5408 Y33.6392 
G01 X-5.5450 Y33.6465 
G01 X-5.5687 Y33.6702 
G01 X-5.5911 Y33.6950 
G01 X-5.5981 Y33.6996 
G01 X-5.6041 Y33.7055 
G01 X-5.6331 Y33.7223 
G01 X-5.6611 Y33.7405 
G01 X-5.6691 Y33.7431 
G01 X-5.6764 Y33.7473 
G01 X-5.7087 Y33.7559 
G01 X-5.7405 Y33.7663 
G01 X-5.7489 Y33.7667 
G01 X-5.7570 Y33.7689 
G01 X-5.7905 Y33.7689 
G01 X-5.8239 Y33.7706 
G01 X-5.8321 Y33.7689 
G01 X-6.9924 Y33.7689 
G01 X-7.0731 Y33.7473 
G01 X-7.1454 Y33.7055 
G01 X-7.7028 Y33.1482 
G01 X-7.9761 Y33.0349 
G01 X-7.9964 Y33.0295 
G01 X-8.0145 Y33.0190 
G01 X-8.0339 Y33.0110 
G01 X-8.0505 Y32.9982 
G01 X-8.0687 Y32.9878 
G01 X-8.0835 Y32.9729 
G01 X-8.1002 Y32.9602 
G01 X-8.1129 Y32.9436 
G01 X-8.1277 Y32.9287 
G01 X-8.1382 Y32.9106 
G01 X-8.1510 Y32.8939 
G01 X-8.1590 Y32.8746 
G01 X-8.1695 Y32.8564 
G01 X-8.1749 Y32.8362 
G01 X-8.1829 Y32.8168 
G01 X-8.1857 Y32.7960 
G01 X-8.1911 Y32.7758 
G01 X-8.1911 Y32.7548 
G01 X-8.1938 Y32.7340 
G01 X-8.1911 Y32.7132 
G01 X-8.1911 Y29.5891 
G01 X-8.1704 Y29.5119 
G01 X-8.1695 Y29.5084 
G01 X-8.1277 Y29.4361 
G01 X-8.0687 Y29.3771 
G01 X-7.9138 Y29.2222 
G01 X-7.9011 Y29.2056 
G01 X-7.8845 Y29.1928 
G01 X-7.8696 Y29.1780 
G01 X-7.8515 Y29.1675 
G01 X-7.8348 Y29.1548 
G01 X-7.8155 Y29.1468 
G01 X-7.7973 Y29.1363 
G01 X-7.7771 Y29.1308 
G01 X-7.5282 Y29.0278 
G01 X-6.5322 Y28.0318 
G01 X-6.3369 Y27.5602 
G01 X-6.3369 Y27.0498 
G01 X-6.5322 Y26.5782 
G01 X-6.8217 Y26.2887 
G01 X-6.8807 Y26.2297 
G01 X-6.9225 Y26.1574 
G01 X-6.9432 Y26.0802 
G01 X-6.9441 Y26.0767 
G01 X-6.9441 Y25.9932 
G01 X-6.9225 Y25.9126 
G01 X-6.8807 Y25.8403 
G01 X-6.5322 Y25.4918 
G01 X-6.3369 Y25.0202 
G01 X-6.3369 Y24.5098 
G01 X-6.5322 Y24.0382 
G01 X-6.8932 Y23.6772 
G01 X-7.3648 Y23.4819 
G01 X-8.5102 Y23.4819 
G01 X-8.9818 Y23.6772 
G01 X-9.2483 Y23.9437 
G01 X-9.3073 Y24.0027 
G01 X-9.3796 Y24.0445 
G01 X-9.4603 Y24.0661 
G01 X-10.5140 Y24.0661 
G01 X-10.7709 Y24.1725 
G01 X-10.9701 Y24.3717 
G01 X-11.0291 Y24.4307 
G01 X-11.1014 Y24.4725 
G01 X-11.1821 Y24.4941 
G01 X-11.4241 Y24.4941 
G01 X-11.5359 Y24.6059 
G01 X-11.5359 Y25.7641 
G01 X-11.5187 Y25.7813 
G01 X-11.4597 Y25.8403 
G01 X-11.4179 Y25.9126 
G01 X-11.4019 Y25.9726 
G01 X-11.3963 Y25.9932 
G01 X-11.3963 Y26.0767 
G01 X-11.4179 Y26.1574 
G01 X-11.4426 Y26.2001 
G01 X-11.4597 Y26.2297 
G01 X-11.5359 Y26.3059 
G01 X-11.5359 Y27.4797 
G01 X-11.5155 Y27.5150 
G01 X-11.5054 Y27.5529 
G01 X-11.4939 Y27.5957 
G01 X-11.4939 Y30.7359 
G01 X-11.5155 Y30.8165 
G01 X-11.5573 Y30.8889 
G01 X-13.6209 Y32.9525 
G01 X-13.6800 Y33.0116 
G01 X-13.7507 Y33.0524 
G01 X-13.8329 Y33.0749 
G01 X-13.9164 Y33.0749 
G01 X-13.9971 Y33.0533 
G01 X-14.0694 Y33.0116 
G01 X-14.0745 Y33.0065 
G01 X-14.1284 Y32.9525 
G01 X-14.6478 Y32.4332 
G01 X-15.4181 Y32.1141 
G01 X-16.0667 Y32.1141 
G01 X-16.1474 Y32.0925 
G01 X-16.2197 Y32.0507 
G01 X-25.8995 Y22.3709 
G01 X-25.9585 Y22.3119 
G01 X-26.0003 Y22.2396 
G01 X-26.0219 Y22.1589 
G01 X-26.0219 Y20.0648 
G01 X-26.2172 Y19.5932 
G01 X-26.5782 Y19.2322 
G01 X-27.0498 Y19.0369 
G01 X-27.5602 Y19.0369 
G01 X-28.0318 Y19.2322 
G01 X-28.3928 Y19.5932 
G01 X-28.5881 Y20.0648 
G01 X-28.5881 Y23.0352 
G01 X-28.3928 Y23.5068 
G01 X-18.0933 Y33.8063 
G01 X-18.0343 Y33.8653 
G01 X-17.9925 Y33.9376 
G01 X-17.9709 Y34.0183 
G01 X-17.9709 Y34.6269 
G01 X-17.9630 Y34.6460 
G01 X-17.9525 Y34.6641 
G01 X-17.9471 Y34.6844 
G01 X-17.9391 Y34.7038 
G01 X-17.9363 Y34.7245 
G01 X-17.9309 Y34.7448 
G01 X-17.9309 Y34.7658 
G01 X-17.9282 Y34.7865 
G01 X-17.9309 Y34.8073 
G01 X-17.9309 Y40.9357 
G01 X-17.9525 Y41.0164 
G01 X-17.9943 Y41.0887 
G01 X-18.0533 Y41.1477 
G01 X-18.1256 Y41.1895 
G01 X-18.2062 Y41.2111 
G01 X-22.4787 Y41.2111 
G01 X-22.5594 Y41.1895 
G01 X-22.6317 Y41.1477 
G01 X-22.6907 Y41.0887 
G01 X-22.7325 Y41.0164 
G01 X-22.7541 Y40.9357 
G01 X-22.7541 Y40.2759 
G01 X-22.7713 Y40.2587 
G01 X-22.8303 Y40.1997 
G01 X-22.8485 Y40.1682 
G01 X-22.8721 Y40.1274 
G01 X-22.8937 Y40.0467 
G01 X-22.8937 Y39.9632 
G01 X-22.8876 Y39.9407 
G01 X-22.8721 Y39.8826 
G01 X-22.8303 Y39.8103 
G01 X-22.8272 Y39.8072 
G01 X-22.7713 Y39.7513 
G01 X-22.7541 Y39.7341 
G01 X-22.7541 Y38.5603 
G01 X-22.7745 Y38.5250 
G01 X-22.7846 Y38.4871 
G01 X-22.7961 Y38.4443 
G01 X-22.7961 Y38.0192 
G01 X-22.7745 Y37.9386 
G01 X-22.7327 Y37.8663 
G01 X-22.6737 Y37.8073 
G01 X-22.6014 Y37.7655 
G01 X-22.5207 Y37.7439 
G01 X-21.6657 Y37.7439 
G01 X-21.5850 Y37.7655 
G01 X-21.5497 Y37.7859 
G01 X-20.3759 Y37.7859 
G01 X-20.2641 Y37.6741 
G01 X-20.2641 Y37.2872 
G01 X-20.2668 Y37.2664 
G01 X-20.2641 Y37.2456 
G01 X-20.2641 Y37.2247 
G01 X-20.2587 Y37.2044 
G01 X-20.2561 Y37.1849 
G01 X-20.2561 Y36.9051 
G01 X-20.2587 Y36.8856 
G01 X-20.2641 Y36.8653 
G01 X-20.2641 Y36.8444 
G01 X-20.2668 Y36.8236 
G01 X-20.2641 Y36.8028 
G01 X-20.2641 Y36.4159 
G01 X-20.2717 Y36.4084 
G01 X-20.3307 Y36.3493 
G01 X-20.3665 Y36.2873 
G01 X-20.3724 Y36.2770 
G01 X-20.3827 Y36.2387 
G01 X-20.3941 Y36.1964 
G01 X-20.3941 Y36.1129 
G01 X-20.3779 Y36.0526 
G01 X-20.3725 Y36.0322 
G01 X-20.3535 Y35.9994 
G01 X-20.3307 Y35.9599 
G01 X-20.3244 Y35.9491 
G01 X-20.3149 Y35.9134 
G01 X-20.3149 Y35.7089 
G01 X-20.3411 Y35.7089 
G01 X-20.3411 Y35.9177 
G01 X-20.3584 Y35.9595 
G01 X-20.3905 Y35.9916 
G01 X-20.4323 Y36.0089 
G01 X-21.4777 Y36.0089 
G01 X-21.5195 Y35.9916 
G01 X-21.5516 Y35.9595 
G01 X-21.5689 Y35.9177 
G01 X-21.5689 Y35.7089 
G01 X-21.5951 Y35.7089 
G01 X-21.5951 Y35.9134 
G01 X-21.5836 Y35.9562 
G01 X-21.5753 Y35.9872 
G01 X-21.5753 Y36.0707 
G01 X-21.5969 Y36.1514 
G01 X-21.6216 Y36.1941 
G01 X-21.6387 Y36.2237 
G01 X-21.6977 Y36.2827 
G01 X-21.7700 Y36.3245 
G01 X-21.8300 Y36.3406 
G01 X-21.8507 Y36.3461 
G01 X-22.4816 Y36.3461 
G01 X-22.5235 Y36.3461 
G01 X-22.5651 Y36.3461 
G01 X-22.6068 Y36.3349 
G01 X-22.6457 Y36.3245 
G01 X-22.6819 Y36.3036 
G01 X-22.7180 Y36.2827 
G01 X-22.7454 Y36.2553 
G01 X-22.7770 Y36.2237 
G01 X-22.7981 Y36.1872 
G01 X-22.8188 Y36.1514 
G01 X-22.8296 Y36.1110 
G01 X-22.8404 Y36.0707 
G01 X-22.8404 Y36.0288 
G01 X-22.8404 Y35.9873 
G01 X-22.8292 Y35.9455 
G01 X-22.8188 Y35.9066 
G01 X-22.8144 Y35.8990 
G01 X-22.8049 Y35.8634 
G01 X-22.8049 Y35.7089 
G01 X-22.8311 Y35.7089 
G01 X-22.8311 Y35.8677 
G01 X-22.8484 Y35.9095 
G01 X-22.8805 Y35.9416 
G01 X-22.9223 Y35.9589 
G01 X-24.0677 Y35.9589 
G01 X-24.1095 Y35.9416 
G01 X-24.1416 Y35.9095 
G01 X-24.1589 Y35.8677 
G01 X-24.1589 Y35.7089 
G01 X-24.1851 Y35.7089 
G01 X-24.1851 Y35.8634 
G01 X-24.1756 Y35.8991 
G01 X-24.1571 Y35.9310 
G01 X-24.1237 Y35.9644 
G01 X-24.0962 Y36.0121 
G01 X-24.0820 Y36.0367 
G01 X-24.0706 Y36.0794 
G01 X-24.0604 Y36.1173 
G01 X-24.0604 Y36.1595 
G01 X-24.0604 Y36.2008 
G01 X-24.0709 Y36.2402 
G01 X-24.0820 Y36.2815 
G01 X-24.0966 Y36.3067 
G01 X-24.1237 Y36.3538 
G01 X-24.1828 Y36.4128 
G01 X-24.2359 Y36.4659 
G01 X-24.2359 Y37.1257 
G01 X-24.2575 Y37.2064 
G01 X-24.2993 Y37.2787 
G01 X-24.3583 Y37.3377 
G01 X-24.4306 Y37.3795 
G01 X-24.5112 Y37.4011 
G01 X-26.3307 Y37.4011 
G01 X-26.4114 Y37.3795 
G01 X-26.4837 Y37.3377 
G01 X-26.5427 Y37.2787 
G01 X-26.5845 Y37.2064 
G01 X-26.6061 Y37.1257 
G01 X-26.6061 Y36.8502 
G01 X-26.6088 Y36.8294 
G01 X-26.6061 Y36.8086 
G01 X-26.6061 Y36.7877 
G01 X-26.6007 Y36.7674 
G01 X-26.5979 Y36.7466 
G01 X-26.5899 Y36.7273 
G01 X-26.5845 Y36.7070 
G01 X-26.5740 Y36.6889 
G01 X-26.5660 Y36.6695 
G01 X-26.5532 Y36.6529 
G01 X-26.5427 Y36.6347 
G01 X-26.5279 Y36.6199 
G01 X-26.5152 Y36.6033 
G01 X-26.4985 Y36.5905 
G01 X-26.4837 Y36.5757 
G01 X-26.4655 Y36.5652 
G01 X-26.4489 Y36.5524 
G01 X-26.4295 Y36.5444 
G01 X-26.4114 Y36.5339 
G01 X-26.3911 Y36.5285 
G01 X-26.0032 Y36.3678 
G01 X-25.7352 Y36.0998 
G01 X-25.5901 Y35.7495 
G01 X-25.5901 Y35.3705 
G01 X-25.7352 Y35.0202 
G01 X-26.0032 Y34.7522 
G01 X-26.3535 Y34.6071 
G01 X-28.2565 Y34.6071 
G01 X-28.6068 Y34.7522 
G01 X-28.8748 Y35.0202 
G01 X-29.0199 Y35.3705 
G01 X-29.0199 Y35.7495 
G01 X-28.8748 Y36.0998 
G01 X-28.6068 Y36.3678 
G01 X-28.2188 Y36.5285 
G01 X-28.1986 Y36.5339 
G01 X-28.1805 Y36.5444 
G01 X-28.1611 Y36.5524 
G01 X-28.1444 Y36.5652 
G01 X-28.1263 Y36.5757 
G01 X-28.1115 Y36.5905 
G01 X-28.0948 Y36.6033 
G01 X-28.0821 Y36.6199 
G01 X-28.0673 Y36.6347 
G01 X-28.0568 Y36.6529 
G01 X-28.0440 Y36.6695 
G01 X-28.0360 Y36.6889 
G01 X-28.0255 Y36.7070 
G01 X-28.0201 Y36.7273 
G01 X-28.0121 Y36.7466 
G01 X-28.0093 Y36.7674 
G01 X-28.0039 Y36.7877 
G01 X-28.0039 Y36.8086 
G01 X-28.0012 Y36.8294 
G01 X-28.0039 Y36.8502 
G01 X-28.0039 Y38.2390 
G01 X-27.8975 Y38.4959 
G01 X-27.7009 Y38.6925 
G01 X-27.4440 Y38.7989 
G01 X-24.5112 Y38.7989 
G01 X-24.4306 Y38.8205 
G01 X-24.3583 Y38.8623 
G01 X-24.2993 Y38.9213 
G01 X-24.2575 Y38.9936 
G01 X-24.2359 Y39.0742 
G01 X-24.2359 Y39.7341 
G01 X-24.2187 Y39.7513 
G01 X-24.1597 Y39.8103 
G01 X-24.1179 Y39.8826 
G01 X-24.1019 Y39.9426 
G01 X-24.0963 Y39.9632 
G01 X-24.0963 Y40.0467 
G01 X-24.1179 Y40.1274 
G01 X-24.1426 Y40.1701 
G01 X-24.1597 Y40.1997 
G01 X-24.2359 Y40.2759 
G01 X-24.2359 Y41.4497 
G01 X-24.2155 Y41.4850 
G01 X-24.2054 Y41.5229 
G01 X-24.1939 Y41.5657 
G01 X-24.1939 Y42.0490 
G01 X-24.0875 Y42.3059 
G01 X-23.8909 Y42.5025 
G01 X-23.6340 Y42.6089 
G01 X-17.5547 Y42.6089 
G01 X-17.4741 Y42.6305 
G01 X-17.4018 Y42.6723 
G01 X-17.0222 Y43.0518 
G01 X-16.8260 Y43.1331 
G01 X-16.8058 Y43.1385 
G01 X-16.7876 Y43.1490 
G01 X-16.7683 Y43.1570 
G01 X-16.7516 Y43.1698 
G01 X-16.7335 Y43.1803 
G01 X-16.7186 Y43.1951 
G01 X-16.7020 Y43.2078 
G01 X-16.6893 Y43.2245 
G01 X-16.6744 Y43.2393 
G01 X-16.6639 Y43.2575 
G01 X-16.6512 Y43.2741 
G01 X-16.6432 Y43.2934 
G01 X-16.6327 Y43.3116 
G01 X-16.6273 Y43.3319 
G01 X-16.6192 Y43.3512 
G01 X-16.6165 Y43.3720 
G01 X-16.6111 Y43.3922 
G01 X-16.6111 Y43.4132 
G01 X-16.6083 Y43.4340 
G01 X-16.6111 Y43.4548 
G01 X-16.6111 Y43.4757 
G01 X-16.6165 Y43.4960 
G01 X-16.6192 Y43.5168 
G01 X-16.6273 Y43.5361 
G01 X-16.6327 Y43.5564 
G01 X-16.6432 Y43.5745 
G01 X-16.6512 Y43.5939 
G01 X-16.6639 Y43.6105 
G01 X-16.6744 Y43.6287 
G01 X-16.6893 Y43.6435 
G01 X-16.7020 Y43.6602 
G01 X-16.7186 Y43.6729 
G01 X-16.7335 Y43.6877 
G01 X-16.7516 Y43.6982 
G01 X-16.7683 Y43.7110 
G01 X-16.7876 Y43.7190 
G01 X-16.8058 Y43.7295 
G01 X-16.8260 Y43.7349 
G01 X-16.8454 Y43.7429 
G01 X-16.8662 Y43.7457 
G01 X-16.8864 Y43.7511 
G01 X-16.9074 Y43.7511 
G01 X-16.9282 Y43.7538 
G01 X-16.9490 Y43.7511 
G01 X-26.0100 Y43.7511 
G01 X-26.0194 Y43.7530 
G01 X-26.0516 Y43.7511 
G01 X-26.0838 Y43.7511 
G01 X-26.0931 Y43.7486 
G01 X-26.1028 Y43.7480 
G01 X-26.1333 Y43.7378 
G01 X-26.1645 Y43.7295 
G01 X-26.1728 Y43.7247 
G01 X-26.1820 Y43.7216 
G01 X-26.2088 Y43.7039 
G01 X-26.2368 Y43.6877 
G01 X-26.2436 Y43.6809 
G01 X-26.2516 Y43.6756 
G01 X-26.2730 Y43.6515 
G01 X-26.2958 Y43.6287 
G01 X-26.3006 Y43.6204 
G01 X-26.3070 Y43.6131 
G01 X-26.3214 Y43.5843 
G01 X-26.3376 Y43.5564 
G01 X-26.3401 Y43.5471 
G01 X-26.6502 Y42.9268 
G01 X-26.6571 Y42.9178 
G01 X-26.6688 Y42.8897 
G01 X-26.6824 Y42.8624 
G01 X-26.6847 Y42.8512 
G01 X-26.7125 Y42.7841 
G01 X-26.7237 Y42.7729 
G01 X-26.7286 Y42.7645 
G01 X-26.7349 Y42.7573 
G01 X-26.7420 Y42.7431 
G01 X-26.7969 Y42.6955 
G01 X-26.8068 Y42.6898 
G01 X-26.8283 Y42.6683 
G01 X-26.8514 Y42.6483 
G01 X-26.8577 Y42.6389 
G01 X-26.9091 Y42.5875 
G01 X-26.9238 Y42.5814 
G01 X-26.9314 Y42.5755 
G01 X-26.9401 Y42.5713 
G01 X-26.9521 Y42.5609 
G01 X-27.0210 Y42.5380 
G01 X-27.0323 Y42.5365 
G01 X-27.0604 Y42.5248 
G01 X-27.0894 Y42.5152 
G01 X-27.0989 Y42.5089 
G01 X-27.1660 Y42.4811 
G01 X-27.1819 Y42.4811 
G01 X-27.1912 Y42.4786 
G01 X-27.2008 Y42.4780 
G01 X-27.2159 Y42.4730 
G01 X-27.2883 Y42.4781 
G01 X-27.2993 Y42.4811 
G01 X-27.3298 Y42.4811 
G01 X-27.3602 Y42.4833 
G01 X-27.3714 Y42.4811 
G01 X-28.2843 Y42.4811 
G01 X-28.3650 Y42.4595 
G01 X-28.4003 Y42.4391 
G01 X-29.5741 Y42.4391 
G01 X-29.5913 Y42.4563 
G01 X-29.6503 Y42.5153 
G01 X-29.7226 Y42.5571 
G01 X-29.7826 Y42.5731 
G01 X-29.8032 Y42.5787 
G01 X-29.8867 Y42.5787 
G01 X-29.9674 Y42.5571 
G01 X-30.0101 Y42.5324 
G01 X-30.0397 Y42.5153 
G01 X-30.1159 Y42.4391 
G01 X-30.1407 Y42.4391 
G01 X-30.2214 Y42.4175 
G01 X-30.2937 Y42.3757 
G01 X-30.3527 Y42.3167 
G01 X-30.3945 Y42.2444 
G01 X-30.4161 Y42.1637 
G01 X-30.4161 Y33.9942 
G01 X-30.3945 Y33.9136 
G01 X-30.3527 Y33.8413 
G01 X-30.2937 Y33.7823 
G01 X-30.2214 Y33.7405 
G01 X-30.1407 Y33.7189 
G01 X-28.8053 Y33.7189 
G01 X-28.7395 Y33.7365 
G01 X-28.7247 Y33.7405 
G01 X-28.6905 Y33.7602 
G01 X-28.6523 Y33.7823 
G01 X-28.6068 Y33.8278 
G01 X-28.2565 Y33.9729 
G01 X-26.3535 Y33.9729 
G01 X-26.0032 Y33.8278 
G01 X-25.7352 Y33.5598 
G01 X-25.5901 Y33.2095 
G01 X-25.5901 Y32.8305 
G01 X-25.7352 Y32.4802 
G01 X-26.0032 Y32.2122 
G01 X-26.3535 Y32.0671 
G01 X-28.2565 Y32.0671 
G01 X-28.6068 Y32.2122 
G01 X-28.6523 Y32.2577 
G01 X-28.6917 Y32.2804 
G01 X-28.7246 Y32.2995 
G01 X-28.7414 Y32.3040 
G01 X-28.8053 Y32.3211 
G01 X-31.2540 Y32.3211 
G01 X-31.5332 Y32.4368 
G01 X-31.5514 Y32.4472 
G01 X-31.5717 Y32.4527 
G01 X-31.5910 Y32.4607 
G01 X-31.6118 Y32.4634 
G01 X-31.6320 Y32.4689 
G01 X-31.6530 Y32.4689 
G01 X-31.6738 Y32.4716 
G01 X-31.6946 Y32.4689 
G01 X-31.7155 Y32.4689 
G01 X-31.7358 Y32.4634 
G01 X-31.7566 Y32.4607 
G01 X-31.7759 Y32.4527 
G01 X-31.7962 Y32.4472 
G01 X-31.8143 Y32.4368 
G01 X-31.8337 Y32.4287 
G01 X-31.8503 Y32.4160 
G01 X-31.8685 Y32.4055 
G01 X-31.8833 Y32.3907 
G01 X-31.9000 Y32.3779 
G01 X-31.9127 Y32.3613 
G01 X-31.9275 Y32.3465 
G01 X-31.9380 Y32.3283 
G01 X-31.9508 Y32.3117 
G01 X-31.9588 Y32.2923 
G01 X-31.9693 Y32.2741 
G01 X-31.9747 Y32.2539 
G01 X-31.9827 Y32.2345 
G01 X-31.9855 Y32.2137 
G01 X-31.9909 Y32.1935 
G01 X-31.9909 Y32.1725 
G01 X-31.9936 Y32.1518 
G01 X-31.9909 Y32.1310 
G01 X-31.9909 Y1.3044 
G01 X-31.9693 Y1.2238 
G01 X-31.9275 Y1.1515 
G01 X-31.8685 Y1.0925 
G01 X-31.7962 Y1.0507 
G01 X-31.7155 Y1.0291 
G01 X-1.3044 Y1.0291 
G01 X-1.2238 Y1.0507 
G01 X-1.1515 Y1.0925 
G01 X-1.0925 Y1.1515 
G00 Z2.0000  F3000
G00 X-10.0452 Y3.5101  F3000
G01 Z-0.2000 F200.00 
G01 X-10.1604 Y3.3948 F500.00 
G01 X-10.2923 Y3.2990 
G01 X-10.4226 Y3.2326 
G01 X-10.4226 Y3.2630 
G01 X-10.3569 Y3.2903 
G01 X-10.1916 Y3.4007 
G01 X-10.0511 Y3.5413 
G01 X-9.9406 Y3.7066 
G01 X-9.8645 Y3.8903 
G01 X-9.8257 Y4.0852 
G01 X-9.8257 Y4.6676 
G01 X-9.7995 Y4.6676 
G01 X-9.7995 Y4.1032 
G01 X-9.8250 Y3.9422 
G01 X-9.8754 Y3.7872 
G01 X-9.9494 Y3.6419 
G01 X-10.0452 Y3.5101 
G00 Z2.0000  F3000
G00 X-11.2473 Y3.2630  F3000
G01 Z-0.2000 F200.00 
G01 X-11.2473 Y3.2326 F500.00 
G01 X-11.3777 Y3.2990 
G01 X-11.5095 Y3.3948 
G01 X-11.6248 Y3.5101 
G01 X-11.7206 Y3.6419 
G01 X-11.7946 Y3.7872 
G01 X-11.8450 Y3.9422 
G01 X-11.8704 Y4.1032 
G01 X-11.8704 Y4.6676 
G01 X-11.8442 Y4.6676 
G01 X-11.8442 Y4.0852 
G01 X-11.8055 Y3.8903 
G01 X-11.7294 Y3.7066 
G01 X-11.6189 Y3.5413 
G01 X-11.4784 Y3.4007 
G01 X-11.3131 Y3.2903 
G01 X-11.2473 Y3.2630 
G00 Z2.0000  F3000
G00 X-11.8442 Y5.4923  F3000
G01 Z-0.2000 F200.00 
G01 X-11.8704 Y5.4923 F500.00 
G01 X-11.8704 Y6.0568 
G01 X-11.8450 Y6.2178 
G01 X-11.7946 Y6.3728 
G01 X-11.7206 Y6.5180 
G01 X-11.6248 Y6.6499 
G01 X-11.5095 Y6.7651 
G01 X-11.3777 Y6.8609 
G01 X-11.2473 Y6.9274 
G01 X-11.2473 Y6.8970 
G01 X-11.3131 Y6.8697 
G01 X-11.4784 Y6.7593 
G01 X-11.6189 Y6.6187 
G01 X-11.7294 Y6.4534 
G01 X-11.8055 Y6.2697 
G01 X-11.8442 Y6.0748 
G01 X-11.8442 Y5.4923 
G00 Z2.0000  F3000
G00 X-13.7391 Y5.4969  F3000
G01 Z-0.2000 F200.00 
G01 X-13.7391 Y4.6631 F500.00 
G01 X-14.0582 Y3.8928 
G01 X-14.6478 Y3.3032 
G01 X-15.4181 Y2.9841 
G01 X-16.2919 Y2.9841 
G01 X-17.0622 Y3.3032 
G01 X-17.6518 Y3.8928 
G01 X-17.9709 Y4.6631 
G01 X-17.9709 Y11.9269 
G01 X-17.6518 Y12.6972 
G01 X-17.0622 Y13.2868 
G01 X-16.2919 Y13.6059 
G01 X-15.4581 Y13.6059 
G01 X-14.6878 Y13.2868 
G01 X-14.0982 Y12.6972 
G01 X-13.7791 Y11.9269 
G01 X-13.7791 Y5.6773 
G01 X-13.7818 Y5.6565 
G01 X-13.7791 Y5.6357 
G01 X-13.7791 Y5.6148 
G01 X-13.7737 Y5.5945 
G01 X-13.7709 Y5.5738 
G01 X-13.7629 Y5.5544 
G01 X-13.7575 Y5.5341 
G01 X-13.7470 Y5.5160 
G01 X-13.7391 Y5.4969 
G00 Z2.0000  F3000
G00 X-13.8561 Y5.4951  F3000
G01 Z-0.2000 F200.00 
G01 X-13.8561 Y11.6423 F500.00 
G01 X-13.8906 Y11.9047 
G01 X-13.9591 Y12.1603 
G01 X-14.0604 Y12.4048 
G01 X-14.1927 Y12.6340 
G01 X-14.3539 Y12.8440 
G01 X-14.5410 Y13.0311 
G01 X-14.7509 Y13.1923 
G01 X-14.9801 Y13.3246 
G01 X-15.2247 Y13.4259 
G01 X-15.4803 Y13.4944 
G01 X-15.7427 Y13.5289 
G01 X-16.0073 Y13.5289 
G01 X-16.2697 Y13.4944 
G01 X-16.5253 Y13.4259 
G01 X-16.7699 Y13.3246 
G01 X-16.9990 Y13.1923 
G01 X-17.2090 Y13.0311 
G01 X-17.3961 Y12.8440 
G01 X-17.5573 Y12.6340 
G01 X-17.6896 Y12.4048 
G01 X-17.7909 Y12.1603 
G01 X-17.8594 Y11.9047 
G01 X-17.8939 Y11.6423 
G01 X-17.8939 Y4.9477 
G01 X-17.8594 Y4.6853 
G01 X-17.7909 Y4.4296 
G01 X-17.6896 Y4.1851 
G01 X-17.5573 Y3.9560 
G01 X-17.3961 Y3.7460 
G01 X-17.2090 Y3.5589 
G01 X-16.9990 Y3.3977 
G01 X-16.7699 Y3.2654 
G01 X-16.5253 Y3.1641 
G01 X-16.2697 Y3.0956 
G01 X-16.0073 Y3.0611 
G01 X-15.7027 Y3.0611 
G01 X-15.4403 Y3.0956 
G01 X-15.1846 Y3.1641 
G01 X-14.9401 Y3.2654 
G01 X-14.7110 Y3.3977 
G01 X-14.5010 Y3.5589 
G01 X-14.3139 Y3.7460 
G01 X-14.1527 Y3.9560 
G01 X-14.0204 Y4.1851 
G01 X-13.9191 Y4.4296 
G01 X-13.8506 Y4.6853 
G01 X-13.8161 Y4.9477 
G01 X-13.8161 Y5.2123 
G01 X-13.8506 Y5.4747 
G01 X-13.8561 Y5.4951 
G00 Z2.0000  F3000
G00 X-9.8257 Y5.4923  F3000
G01 Z-0.2000 F200.00 
G01 X-9.8257 Y6.0748 F500.00 
G01 X-9.8645 Y6.2697 
G01 X-9.9406 Y6.4534 
G01 X-10.0511 Y6.6187 
G01 X-10.1916 Y6.7593 
G01 X-10.3569 Y6.8697 
G01 X-10.4226 Y6.8969 
G01 X-10.4226 Y6.9274 
G01 X-10.2923 Y6.8609 
G01 X-10.1605 Y6.7651 
G01 X-10.0452 Y6.6499 
G01 X-9.9494 Y6.5180 
G01 X-9.8754 Y6.3728 
G01 X-9.8250 Y6.2178 
G01 X-9.7995 Y6.0568 
G01 X-9.7995 Y5.4923 
G01 X-9.8257 Y5.4923 
G00 Z2.0000  F3000
G00 X-25.9553 Y6.2969  F3000
G01 Z-0.2000 F200.00 
G01 X-26.0702 Y6.2134 F500.00 
G01 X-26.1967 Y6.1490 
G01 X-26.3317 Y6.1051 
G01 X-26.4720 Y6.0829 
G01 X-26.9371 Y6.0829 
G01 X-26.9371 Y6.1091 
G01 X-26.4567 Y6.1091 
G01 X-26.2875 Y6.1428 
G01 X-26.1281 Y6.2088 
G01 X-25.9846 Y6.3046 
G01 X-25.8626 Y6.4266 
G01 X-25.7668 Y6.5701 
G01 X-25.7473 Y6.6171 
G01 X-25.7180 Y6.6171 
G01 X-25.7715 Y6.5122 
G01 X-25.8549 Y6.3973 
G01 X-25.9553 Y6.2969 
G00 Z2.0000  F3000
G00 X-25.7473 Y7.3529  F3000
G01 Z-0.2000 F200.00 
G01 X-25.7668 Y7.3999 F500.00 
G01 X-25.8626 Y7.5434 
G01 X-25.9846 Y7.6654 
G01 X-26.1281 Y7.7612 
G01 X-26.2875 Y7.8272 
G01 X-26.4567 Y7.8609 
G01 X-26.9371 Y7.8609 
G01 X-26.9371 Y7.8871 
G01 X-26.4720 Y7.8871 
G01 X-26.3317 Y7.8649 
G01 X-26.1967 Y7.8210 
G01 X-26.0702 Y7.7565 
G01 X-25.9553 Y7.6731 
G01 X-25.8549 Y7.5727 
G01 X-25.7715 Y7.4578 
G01 X-25.7180 Y7.3529 
G01 X-25.7473 Y7.3529 
G00 Z2.0000  F3000
G00 X-26.0032 Y8.7172  F3000
G01 Z-0.2000 F200.00 
G01 X-26.3535 Y8.5721 F500.00 
G01 X-28.2565 Y8.5721 
G01 X-28.6068 Y8.7172 
G01 X-28.8748 Y8.9852 
G01 X-29.0199 Y9.3355 
G01 X-29.0199 Y9.7145 
G01 X-28.8748 Y10.0648 
G01 X-28.6068 Y10.3328 
G01 X-28.5475 Y10.3574 
G01 X-28.4813 Y10.4082 
G01 X-28.4305 Y10.4744 
G01 X-28.3985 Y10.5516 
G01 X-28.3876 Y10.6343 
G01 X-28.3976 Y10.7101 
G01 X-28.3985 Y10.7171 
G01 X-28.5881 Y11.1748 
G01 X-28.5881 Y12.9552 
G01 X-28.3928 Y13.4268 
G01 X-28.0318 Y13.7878 
G01 X-27.5602 Y13.9831 
G01 X-27.0498 Y13.9831 
G01 X-26.5782 Y13.7878 
G01 X-26.2172 Y13.4268 
G01 X-26.0219 Y12.9552 
G01 X-26.0219 Y11.1748 
G01 X-26.2107 Y10.7189 
G01 X-26.2224 Y10.6343 
G01 X-26.2124 Y10.5585 
G01 X-26.2115 Y10.5516 
G01 X-26.1795 Y10.4744 
G01 X-26.1287 Y10.4082 
G01 X-26.0624 Y10.3574 
G01 X-26.0032 Y10.3328 
G01 X-25.7352 Y10.0648 
G01 X-25.5901 Y9.7145 
G01 X-25.5901 Y9.3355 
G01 X-25.7352 Y8.9852 
G01 X-26.0032 Y8.7172 
G00 Z2.0000  F3000
G00 X-25.9846 Y8.8446  F3000
G01 Z-0.2000 F200.00 
G01 X-25.8626 Y8.9666 F500.00 
G01 X-25.7668 Y9.1101 
G01 X-25.7008 Y9.2695 
G01 X-25.6671 Y9.4387 
G01 X-25.6671 Y9.6113 
G01 X-25.7008 Y9.7805 
G01 X-25.7668 Y9.9399 
G01 X-25.8626 Y10.0834 
G01 X-25.9846 Y10.2054 
G01 X-26.1281 Y10.3012 
G01 X-26.2875 Y10.3672 
G01 X-26.4567 Y10.4009 
G01 X-26.5561 Y10.4009 
G01 X-26.5561 Y10.4833 
G01 X-26.5193 Y10.5100 
G01 X-26.3850 Y10.6443 
G01 X-26.2735 Y10.7979 
G01 X-26.1873 Y10.9670 
G01 X-26.1286 Y11.1476 
G01 X-26.0989 Y11.3351 
G01 X-26.0989 Y12.7949 
G01 X-26.1286 Y12.9824 
G01 X-26.1873 Y13.1630 
G01 X-26.2735 Y13.3321 
G01 X-26.3850 Y13.4857 
G01 X-26.5193 Y13.6200 
G01 X-26.6729 Y13.7315 
G01 X-26.8420 Y13.8177 
G01 X-27.0226 Y13.8764 
G01 X-27.2101 Y13.9061 
G01 X-27.3999 Y13.9061 
G01 X-27.5874 Y13.8764 
G01 X-27.7680 Y13.8177 
G01 X-27.9371 Y13.7315 
G01 X-28.0907 Y13.6200 
G01 X-28.2250 Y13.4857 
G01 X-28.3365 Y13.3321 
G01 X-28.4227 Y13.1630 
G01 X-28.4814 Y12.9824 
G01 X-28.5111 Y12.7949 
G01 X-28.5111 Y11.3351 
G01 X-28.4814 Y11.1476 
G01 X-28.4227 Y10.9670 
G01 X-28.3365 Y10.7979 
G01 X-28.2250 Y10.6443 
G01 X-28.0907 Y10.5100 
G01 X-28.0539 Y10.4833 
G01 X-28.0539 Y10.4009 
G01 X-28.1533 Y10.4009 
G01 X-28.3225 Y10.3672 
G01 X-28.4819 Y10.3012 
G01 X-28.6254 Y10.2054 
G01 X-28.7474 Y10.0834 
G01 X-28.8432 Y9.9399 
G01 X-28.9092 Y9.7805 
G01 X-28.9429 Y9.6113 
G01 X-28.9429 Y9.4387 
G01 X-28.9092 Y9.2695 
G01 X-28.8432 Y9.1101 
G01 X-28.7474 Y8.9666 
G01 X-28.6254 Y8.8446 
G01 X-28.4819 Y8.7488 
G01 X-28.3225 Y8.6828 
G01 X-28.1533 Y8.6491 
G01 X-26.4567 Y8.6491 
G01 X-26.2875 Y8.6828 
G01 X-26.1281 Y8.7488 
G01 X-25.9846 Y8.8446 
G00 Z2.0000  F3000
G00 X-27.6729 Y7.8871  F3000
G01 Z-0.2000 F200.00 
G01 X-27.6729 Y7.8609 F500.00 
G01 X-28.1533 Y7.8609 
G01 X-28.3225 Y7.8272 
G01 X-28.4819 Y7.7612 
G01 X-28.6254 Y7.6654 
G01 X-28.7474 Y7.5434 
G01 X-28.8432 Y7.3999 
G01 X-28.8627 Y7.3529 
G01 X-28.8920 Y7.3529 
G01 X-28.8385 Y7.4578 
G01 X-28.7551 Y7.5727 
G01 X-28.6547 Y7.6731 
G01 X-28.5398 Y7.7565 
G01 X-28.4133 Y7.8210 
G01 X-28.2783 Y7.8649 
G01 X-28.1380 Y7.8871 
G01 X-27.6729 Y7.8871 
G00 Z2.0000  F3000
G00 X-27.6729 Y6.1091  F3000
G01 Z-0.2000 F200.00 
G01 X-27.6729 Y6.0829 F500.00 
G01 X-28.1380 Y6.0829 
G01 X-28.2783 Y6.1051 
G01 X-28.4133 Y6.1490 
G01 X-28.5398 Y6.2134 
G01 X-28.6547 Y6.2969 
G01 X-28.7551 Y6.3973 
G01 X-28.8385 Y6.5122 
G01 X-28.8920 Y6.6171 
G01 X-28.8627 Y6.6171 
G01 X-28.8432 Y6.5701 
G01 X-28.7474 Y6.4266 
G01 X-28.6254 Y6.3046 
G01 X-28.4819 Y6.2088 
G01 X-28.3225 Y6.1428 
G01 X-28.1533 Y6.1091 
G01 X-27.6729 Y6.1091 
G00 Z2.0000  F3000
G00 X-27.5874 Y19.1436  F3000
G01 Z-0.2000 F200.00 
G01 X-27.3999 Y19.1139 F500.00 
G01 X-27.2101 Y19.1139 
G01 X-27.0226 Y19.1436 
G01 X-26.8420 Y19.2023 
G01 X-26.6729 Y19.2885 
G01 X-26.5193 Y19.4000 
G01 X-26.3850 Y19.5343 
G01 X-26.2735 Y19.6879 
G01 X-26.1873 Y19.8570 
G01 X-26.1286 Y20.0376 
G01 X-26.0989 Y20.2251 
G01 X-26.0989 Y22.2804 
G01 X-16.1672 Y32.2121 
G01 X-16.0073 Y32.1911 
G01 X-15.7027 Y32.1911 
G01 X-15.4403 Y32.2256 
G01 X-15.1846 Y32.2941 
G01 X-14.9401 Y32.3954 
G01 X-14.7110 Y32.5277 
G01 X-14.5010 Y32.6889 
G01 X-14.3139 Y32.8760 
G01 X-14.1527 Y33.0859 
G01 X-14.0204 Y33.3151 
G01 X-13.9777 Y33.4182 
G01 X-11.4169 Y30.8574 
G01 X-11.4169 Y27.4742 
G01 X-11.4416 Y27.4495 
G01 X-11.4589 Y27.4077 
G01 X-11.4589 Y26.3623 
G01 X-11.4416 Y26.3205 
G01 X-11.4095 Y26.2884 
G01 X-11.3677 Y26.2711 
G01 X-10.8965 Y26.2711 
G01 X-10.8562 Y26.2631 
G01 X-10.7337 Y26.2631 
G01 X-10.6935 Y26.2711 
G01 X-10.2223 Y26.2711 
G01 X-10.1805 Y26.2884 
G01 X-10.1484 Y26.3205 
G01 X-10.1311 Y26.3623 
G01 X-10.1311 Y27.4077 
G01 X-10.1484 Y27.4495 
G01 X-10.1731 Y27.4742 
G01 X-10.1731 Y31.1762 
G01 X-10.1970 Y31.2964 
G01 X-10.2439 Y31.4096 
G01 X-10.3119 Y31.5114 
G01 X-13.4869 Y34.6864 
G01 X-13.5736 Y34.7731 
G01 X-13.6754 Y34.8411 
G01 X-13.7886 Y34.8880 
G01 X-13.8161 Y34.8935 
G01 X-13.8161 Y41.4073 
G01 X-13.8506 Y41.6697 
G01 X-13.9191 Y41.9253 
G01 X-14.0204 Y42.1698 
G01 X-14.1527 Y42.3990 
G01 X-14.3139 Y42.6090 
G01 X-14.5010 Y42.7961 
G01 X-14.7110 Y42.9573 
G01 X-14.9401 Y43.0896 
G01 X-15.1846 Y43.1909 
G01 X-15.4403 Y43.2594 
G01 X-15.7027 Y43.2939 
G01 X-15.9673 Y43.2939 
G01 X-16.2297 Y43.2594 
G01 X-16.4853 Y43.1909 
G01 X-16.7298 Y43.0896 
G01 X-16.9590 Y42.9573 
G01 X-17.1690 Y42.7961 
G01 X-17.3561 Y42.6090 
G01 X-17.4153 Y42.5319 
G01 X-23.5562 Y42.5319 
G01 X-23.6764 Y42.5080 
G01 X-23.7896 Y42.4611 
G01 X-23.8914 Y42.3931 
G01 X-23.9781 Y42.3064 
G01 X-24.0461 Y42.2046 
G01 X-24.0930 Y42.0914 
G01 X-24.1169 Y41.9712 
G01 X-24.1169 Y41.4442 
G01 X-24.1416 Y41.4195 
G01 X-24.1589 Y41.3777 
G01 X-24.1589 Y40.3323 
G01 X-24.1416 Y40.2905 
G01 X-24.1095 Y40.2584 
G01 X-24.0677 Y40.2411 
G01 X-23.5965 Y40.2411 
G01 X-23.5562 Y40.2331 
G01 X-23.4337 Y40.2331 
G01 X-23.3935 Y40.2411 
G01 X-22.9223 Y40.2411 
G01 X-22.8805 Y40.2584 
G01 X-22.8484 Y40.2905 
G01 X-22.8311 Y40.3323 
G01 X-22.8311 Y41.2881 
G01 X-17.8539 Y41.2881 
G01 X-17.8539 Y34.6251 
G01 X-17.8594 Y34.6047 
G01 X-17.8939 Y34.3423 
G01 X-17.8939 Y34.0777 
G01 X-17.8729 Y33.9178 
G01 X-28.2250 Y23.5657 
G01 X-28.3365 Y23.4121 
G01 X-28.4227 Y23.2430 
G01 X-28.4814 Y23.0624 
G01 X-28.5111 Y22.8749 
G01 X-28.5111 Y20.2251 
G01 X-28.4814 Y20.0376 
G01 X-28.4227 Y19.8570 
G01 X-28.3365 Y19.6879 
G01 X-28.2250 Y19.5343 
G01 X-28.0907 Y19.4000 
G01 X-27.9371 Y19.2885 
G01 X-27.7680 Y19.2023 
G01 X-27.5874 Y19.1436 
G00 Z2.0000  F3000
G00 X-27.6729 Y29.5779  F3000
G01 Z-0.2000 F200.00 
G01 X-28.1380 Y29.5779 F500.00 
G01 X-28.2783 Y29.6001 
G01 X-28.4133 Y29.6440 
G01 X-28.5398 Y29.7084 
G01 X-28.6547 Y29.7919 
G01 X-28.7551 Y29.8923 
G01 X-28.8385 Y30.0072 
G01 X-28.8920 Y30.1121 
G01 X-28.8627 Y30.1121 
G01 X-28.8432 Y30.0651 
G01 X-28.7474 Y29.9216 
G01 X-28.6254 Y29.7996 
G01 X-28.4819 Y29.7038 
G01 X-28.3225 Y29.6378 
G01 X-28.1533 Y29.6041 
G01 X-27.6729 Y29.6041 
G01 X-27.6729 Y29.5779 
G00 Z2.0000  F3000
G00 X-26.9371 Y29.5779  F3000
G01 Z-0.2000 F200.00 
G01 X-26.9371 Y29.6041 F500.00 
G01 X-26.4567 Y29.6041 
G01 X-26.2875 Y29.6378 
G01 X-26.1281 Y29.7038 
G01 X-25.9846 Y29.7996 
G01 X-25.8626 Y29.9216 
G01 X-25.7668 Y30.0651 
G01 X-25.7473 Y30.1121 
G01 X-25.7180 Y30.1121 
G01 X-25.7715 Y30.0072 
G01 X-25.8549 Y29.8923 
G01 X-25.9553 Y29.7919 
G01 X-26.0702 Y29.7084 
G01 X-26.1967 Y29.6440 
G01 X-26.3317 Y29.6001 
G01 X-26.4720 Y29.5779 
G01 X-26.9371 Y29.5779 
G00 Z2.0000  F3000
G00 X-26.9371 Y31.3559  F3000
G01 Z-0.2000 F200.00 
G01 X-26.9371 Y31.3821 F500.00 
G01 X-26.4720 Y31.3821 
G01 X-26.3317 Y31.3599 
G01 X-26.1967 Y31.3160 
G01 X-26.0702 Y31.2515 
G01 X-25.9553 Y31.1681 
G01 X-25.8549 Y31.0677 
G01 X-25.7715 Y30.9528 
G01 X-25.7180 Y30.8479 
G01 X-25.7473 Y30.8479 
G01 X-25.7668 Y30.8949 
G01 X-25.8626 Y31.0384 
G01 X-25.9846 Y31.1604 
G01 X-26.1281 Y31.2562 
G01 X-26.2875 Y31.3222 
G01 X-26.4567 Y31.3559 
G01 X-26.9371 Y31.3559 
G00 Z2.0000  F3000
G00 X-27.6729 Y31.3559  F3000
G01 Z-0.2000 F200.00 
G01 X-28.1533 Y31.3559 F500.00 
G01 X-28.3225 Y31.3222 
G01 X-28.4819 Y31.2562 
G01 X-28.6254 Y31.1604 
G01 X-28.7474 Y31.0384 
G01 X-28.8432 Y30.8949 
G01 X-28.8627 Y30.8479 
G01 X-28.8920 Y30.8479 
G01 X-28.8385 Y30.9528 
G01 X-28.7551 Y31.0677 
G01 X-28.6547 Y31.1681 
G01 X-28.5398 Y31.2515 
G01 X-28.4133 Y31.3160 
G01 X-28.2783 Y31.3599 
G01 X-28.1380 Y31.3821 
G01 X-27.6729 Y31.3821 
G01 X-27.6729 Y31.3559 
G00 Z2.0000  F3000
G00 X-28.1533 Y32.1441  F3000
G01 Z-0.2000 F200.00 
G01 X-26.4567 Y32.1441 F500.00 
G01 X-26.2875 Y32.1778 
G01 X-26.1281 Y32.2438 
G01 X-25.9846 Y32.3396 
G01 X-25.8626 Y32.4616 
G01 X-25.7668 Y32.6051 
G01 X-25.7008 Y32.7645 
G01 X-25.6671 Y32.9337 
G01 X-25.6671 Y33.1063 
G01 X-25.7008 Y33.2755 
G01 X-25.7668 Y33.4349 
G01 X-25.8626 Y33.5784 
G01 X-25.9846 Y33.7004 
G01 X-26.1281 Y33.7962 
G01 X-26.2875 Y33.8622 
G01 X-26.4567 Y33.8959 
G01 X-28.1533 Y33.8959 
G01 X-28.3225 Y33.8622 
G01 X-28.4819 Y33.7962 
G01 X-28.6254 Y33.7004 
G01 X-28.6838 Y33.6419 
G01 X-30.4931 Y33.6419 
G01 X-30.4931 Y42.5024 
G01 X-30.4794 Y42.5161 
G01 X-30.1723 Y42.5161 
G01 X-30.1305 Y42.5334 
G01 X-30.0984 Y42.5655 
G01 X-30.0811 Y42.6073 
G01 X-30.0811 Y43.0785 
G01 X-30.0731 Y43.1187 
G01 X-30.0731 Y43.2413 
G01 X-30.0811 Y43.2815 
G01 X-30.0811 Y43.7527 
G01 X-30.0984 Y43.7945 
G01 X-30.1305 Y43.8266 
G01 X-30.1723 Y43.8439 
G01 X-31.2177 Y43.8439 
G01 X-31.2595 Y43.8266 
G01 X-31.2916 Y43.7945 
G01 X-31.3089 Y43.7527 
G01 X-31.3089 Y43.4456 
G01 X-31.5981 Y43.1564 
G01 X-31.6661 Y43.0546 
G01 X-31.7130 Y42.9414 
G01 X-31.7369 Y42.8212 
G01 X-31.7369 Y32.9587 
G01 X-31.7130 Y32.8386 
G01 X-31.6661 Y32.7254 
G01 X-31.5981 Y32.6236 
G01 X-31.5114 Y32.5369 
G01 X-31.4096 Y32.4689 
G01 X-31.2964 Y32.4220 
G01 X-31.1762 Y32.3981 
G01 X-28.6838 Y32.3981 
G01 X-28.6254 Y32.3396 
G01 X-28.4819 Y32.2438 
G01 X-28.3225 Y32.1778 
G01 X-28.1533 Y32.1441 
G00 Z2.0000  F3000
G00 X-28.1533 Y34.6841  F3000
G01 Z-0.2000 F200.00 
G01 X-26.4567 Y34.6841 F500.00 
G01 X-26.2875 Y34.7178 
G01 X-26.1281 Y34.7838 
G01 X-25.9846 Y34.8796 
G01 X-25.8626 Y35.0016 
G01 X-25.7668 Y35.1451 
G01 X-25.7008 Y35.3045 
G01 X-25.6671 Y35.4737 
G01 X-25.6671 Y35.6463 
G01 X-25.7008 Y35.8155 
G01 X-25.7668 Y35.9749 
G01 X-25.8626 Y36.1184 
G01 X-25.9846 Y36.2404 
G01 X-26.1281 Y36.3362 
G01 X-26.2875 Y36.4022 
G01 X-26.4567 Y36.4359 
G01 X-26.6831 Y36.4359 
G01 X-26.6831 Y37.4781 
G01 X-24.1589 Y37.4781 
G01 X-24.1589 Y36.5223 
G01 X-24.1416 Y36.4805 
G01 X-24.1095 Y36.4484 
G01 X-24.0677 Y36.4311 
G01 X-23.5965 Y36.4311 
G01 X-23.5562 Y36.4231 
G01 X-21.5442 Y36.4231 
G01 X-21.5195 Y36.3984 
G01 X-21.4777 Y36.3811 
G01 X-20.4323 Y36.3811 
G01 X-20.3905 Y36.3984 
G01 X-20.3584 Y36.4305 
G01 X-20.3411 Y36.4723 
G01 X-20.3411 Y36.9435 
G01 X-20.3331 Y36.9837 
G01 X-20.3331 Y37.1063 
G01 X-20.3411 Y37.1465 
G01 X-20.3411 Y37.6177 
G01 X-20.3584 Y37.6595 
G01 X-20.3905 Y37.6916 
G01 X-20.4323 Y37.7089 
G01 X-21.4777 Y37.7089 
G01 X-21.5195 Y37.6916 
G01 X-21.5442 Y37.6669 
G01 X-22.8731 Y37.6669 
G01 X-22.8731 Y38.5658 
G01 X-22.8484 Y38.5905 
G01 X-22.8311 Y38.6323 
G01 X-22.8311 Y39.6777 
G01 X-22.8484 Y39.7195 
G01 X-22.8805 Y39.7516 
G01 X-22.9223 Y39.7689 
G01 X-23.3935 Y39.7689 
G01 X-23.4337 Y39.7769 
G01 X-23.5562 Y39.7769 
G01 X-23.5965 Y39.7689 
G01 X-24.0677 Y39.7689 
G01 X-24.1095 Y39.7516 
G01 X-24.1416 Y39.7195 
G01 X-24.1589 Y39.6777 
G01 X-24.1589 Y38.7219 
G01 X-27.3663 Y38.7219 
G01 X-27.4864 Y38.6980 
G01 X-27.5996 Y38.6511 
G01 X-27.7014 Y38.5831 
G01 X-27.7881 Y38.4964 
G01 X-27.8561 Y38.3946 
G01 X-27.9030 Y38.2814 
G01 X-27.9269 Y38.1613 
G01 X-27.9269 Y36.4359 
G01 X-28.1533 Y36.4359 
G01 X-28.3225 Y36.4022 
G01 X-28.4819 Y36.3362 
G01 X-28.6254 Y36.2404 
G01 X-28.7474 Y36.1184 
G01 X-28.8432 Y35.9749 
G01 X-28.9092 Y35.8155 
G01 X-28.9429 Y35.6463 
G01 X-28.9429 Y35.4737 
G01 X-28.9092 Y35.3045 
G01 X-28.8432 Y35.1451 
G01 X-28.7474 Y35.0016 
G01 X-28.6254 Y34.8796 
G01 X-28.4819 Y34.7838 
G01 X-28.3225 Y34.7178 
G01 X-28.1533 Y34.6841 
G00 Z2.0000  F3000
G00 X-24.1571 Y34.7590  F3000
G01 Z-0.2000 F200.00 
G01 X-24.1756 Y34.7909 F500.00 
G01 X-24.1851 Y34.8265 
G01 X-24.1851 Y34.9811 
G01 X-24.1589 Y34.9811 
G01 X-24.1589 Y34.8223 
G01 X-24.1416 Y34.7805 
G01 X-24.1095 Y34.7484 
G01 X-24.0677 Y34.7311 
G01 X-23.8589 Y34.7311 
G01 X-23.8589 Y34.7049 
G01 X-24.0634 Y34.7049 
G01 X-24.0991 Y34.7144 
G01 X-24.1310 Y34.7329 
G01 X-24.1571 Y34.7590 
G00 Z2.0000  F3000
G00 X-23.1311 Y34.7311  F3000
G01 Z-0.2000 F200.00 
G01 X-22.9223 Y34.7311 F500.00 
G01 X-22.8805 Y34.7484 
G01 X-22.8484 Y34.7805 
G01 X-22.8311 Y34.8223 
G01 X-22.8311 Y34.9811 
G01 X-22.8049 Y34.9811 
G01 X-22.8049 Y34.8265 
G01 X-22.8144 Y34.7909 
G01 X-22.8329 Y34.7590 
G01 X-22.8590 Y34.7329 
G01 X-22.8909 Y34.7144 
G01 X-22.9265 Y34.7049 
G01 X-23.1311 Y34.7049 
G01 X-23.1311 Y34.7311 
G00 Z2.0000  F3000
G00 X-21.5856 Y34.7409  F3000
G01 Z-0.2000 F200.00 
G01 X-21.5951 Y34.7765 F500.00 
G01 X-21.5951 Y34.9811 
G01 X-21.5689 Y34.9811 
G01 X-21.5689 Y34.7723 
G01 X-21.5516 Y34.7305 
G01 X-21.5195 Y34.6984 
G01 X-21.4777 Y34.6811 
G01 X-21.3189 Y34.6811 
G01 X-21.3189 Y34.6549 
G01 X-21.4734 Y34.6549 
G01 X-21.5091 Y34.6644 
G01 X-21.5410 Y34.6829 
G01 X-21.5671 Y34.7090 
G01 X-21.5856 Y34.7409 
G00 Z2.0000  F3000
G00 X-20.5911 Y34.6811  F3000
G01 Z-0.2000 F200.00 
G01 X-20.4323 Y34.6811 F500.00 
G01 X-20.3905 Y34.6984 
G01 X-20.3584 Y34.7305 
G01 X-20.3411 Y34.7723 
G01 X-20.3411 Y34.9811 
G01 X-20.3149 Y34.9811 
G01 X-20.3149 Y34.7765 
G01 X-20.3244 Y34.7409 
G01 X-20.3429 Y34.7090 
G01 X-20.3690 Y34.6829 
G01 X-20.4009 Y34.6644 
G01 X-20.4365 Y34.6549 
G01 X-20.5911 Y34.6549 
G01 X-20.5911 Y34.6811 
G00 Z2.0000  F3000
G00 X-12.3561 Y35.5360  F3000
G01 Z-0.2000 F200.00 
G01 X-11.0461 Y34.2260 F500.00 
G01 X-10.2240 Y33.4039 
G01 X-10.0140 Y33.2427 
G01 X-9.7849 Y33.1104 
G01 X-9.5403 Y33.0091 
G01 X-9.5119 Y33.0015 
G01 X-9.5119 Y29.1487 
G01 X-9.4880 Y29.0286 
G01 X-9.4411 Y28.9154 
G01 X-9.3731 Y28.8136 
G01 X-9.2864 Y28.7269 
G01 X-9.2214 Y28.6619 
G01 X-9.2865 Y28.5721 
G01 X-9.3727 Y28.4030 
G01 X-9.4314 Y28.2224 
G01 X-9.4611 Y28.0349 
G01 X-9.4611 Y27.8451 
G01 X-9.4314 Y27.6576 
G01 X-9.3727 Y27.4770 
G01 X-9.2865 Y27.3079 
G01 X-9.1750 Y27.1543 
G01 X-8.4057 Y26.3850 
G01 X-8.2521 Y26.2735 
G01 X-8.0830 Y26.1873 
G01 X-7.9024 Y26.1286 
G01 X-7.7149 Y26.0989 
G01 X-7.5251 Y26.0989 
G01 X-7.3376 Y26.1286 
G01 X-7.1570 Y26.1873 
G01 X-6.9879 Y26.2735 
G01 X-6.8343 Y26.3850 
G01 X-6.7000 Y26.5193 
G01 X-6.5884 Y26.6729 
G01 X-6.5023 Y26.8420 
G01 X-6.4436 Y27.0226 
G01 X-6.4139 Y27.2101 
G01 X-6.4139 Y27.3999 
G01 X-6.4436 Y27.5874 
G01 X-6.5023 Y27.7680 
G01 X-6.5884 Y27.9371 
G01 X-6.7000 Y28.0907 
G01 X-7.4693 Y28.8600 
G01 X-7.6229 Y28.9715 
G01 X-7.7920 Y29.0577 
G01 X-7.8901 Y29.0896 
G01 X-8.2681 Y29.4676 
G01 X-8.2681 Y33.0015 
G01 X-8.2396 Y33.0091 
G01 X-7.9951 Y33.1104 
G01 X-7.7660 Y33.2427 
G01 X-7.5560 Y33.4039 
G01 X-7.3689 Y33.5910 
G01 X-7.2077 Y33.8010 
G01 X-7.1818 Y33.8459 
G01 X-4.3601 Y33.8459 
G01 X-4.1923 Y33.8725 
G01 X-4.0308 Y33.9250 
G01 X-3.8794 Y34.0021 
G01 X-3.8147 Y34.0491 
G01 X-3.5967 Y34.0491 
G01 X-3.4275 Y34.0828 
G01 X-3.2681 Y34.1488 
G01 X-3.1246 Y34.2446 
G01 X-3.0026 Y34.3666 
G01 X-2.9068 Y34.5101 
G01 X-2.8408 Y34.6695 
G01 X-2.8071 Y34.8387 
G01 X-2.8071 Y35.0113 
G01 X-2.8408 Y35.1805 
G01 X-2.9068 Y35.3399 
G01 X-3.0026 Y35.4834 
G01 X-3.1246 Y35.6054 
G01 X-3.2681 Y35.7012 
G01 X-3.4275 Y35.7672 
G01 X-3.5967 Y35.8009 
G01 X-3.8147 Y35.8009 
G01 X-3.8794 Y35.8479 
G01 X-4.0308 Y35.9250 
G01 X-4.1923 Y35.9775 
G01 X-4.3601 Y36.0041 
G01 X-7.1818 Y36.0041 
G01 X-7.2077 Y36.0490 
G01 X-7.3689 Y36.2590 
G01 X-8.1910 Y37.0811 
G01 X-8.8161 Y37.7063 
G01 X-8.8161 Y41.4073 
G01 X-8.8506 Y41.6697 
G01 X-8.9191 Y41.9253 
G01 X-9.0204 Y42.1698 
G01 X-9.1527 Y42.3990 
G01 X-9.3139 Y42.6090 
G01 X-9.5010 Y42.7961 
G01 X-9.7110 Y42.9573 
G01 X-9.9401 Y43.0896 
G01 X-10.1846 Y43.1909 
G01 X-10.4403 Y43.2594 
G01 X-10.7027 Y43.2939 
G01 X-10.9673 Y43.2939 
G01 X-11.2297 Y43.2594 
G01 X-11.4853 Y43.1909 
G01 X-11.7299 Y43.0896 
G01 X-11.9590 Y42.9573 
G01 X-12.1690 Y42.7961 
G01 X-12.3561 Y42.6090 
G01 X-12.5173 Y42.3990 
G01 X-12.6496 Y42.1698 
G01 X-12.7509 Y41.9253 
G01 X-12.8194 Y41.6697 
G01 X-12.8539 Y41.4073 
G01 X-12.8539 Y36.7377 
G01 X-12.8194 Y36.4753 
G01 X-12.7509 Y36.2197 
G01 X-12.6496 Y35.9751 
G01 X-12.5173 Y35.7460 
G01 X-12.3561 Y35.5360 
G00 Z2.0000  F3000
G00 X-5.7654 Y36.7846  F3000
G01 Z-0.2000 F200.00 
G01 X-5.6219 Y36.6888 F500.00 
G01 X-5.4625 Y36.6228 
G01 X-5.2933 Y36.5891 
G01 X-3.5967 Y36.5891 
G01 X-3.4275 Y36.6228 
G01 X-3.2681 Y36.6888 
G01 X-3.1246 Y36.7846 
G01 X-3.0026 Y36.9066 
G01 X-2.9068 Y37.0501 
G01 X-2.8408 Y37.2095 
G01 X-2.8071 Y37.3787 
G01 X-2.8071 Y37.5513 
G01 X-2.8408 Y37.7205 
G01 X-2.9068 Y37.8799 
G01 X-3.0026 Y38.0234 
G01 X-3.1246 Y38.1454 
G01 X-3.2681 Y38.2412 
G01 X-3.4275 Y38.3072 
G01 X-3.5967 Y38.3409 
G01 X-3.8231 Y38.3409 
G01 X-3.8231 Y43.1409 
G01 X-3.8203 Y43.1630 
G01 X-3.8231 Y43.2021 
G01 X-3.8231 Y43.2413 
G01 X-3.8274 Y43.2630 
G01 X-3.8290 Y43.2852 
G01 X-3.8394 Y43.3230 
G01 X-3.8470 Y43.3614 
G01 X-3.8555 Y43.3819 
G01 X-3.8614 Y43.4033 
G01 X-3.8789 Y43.4384 
G01 X-3.8939 Y43.4746 
G01 X-3.9062 Y43.4930 
G01 X-4.5139 Y44.7084 
G01 X-4.5289 Y44.7446 
G01 X-4.5412 Y44.7630 
G01 X-4.5511 Y44.7829 
G01 X-4.5752 Y44.8139 
G01 X-4.5969 Y44.8464 
G01 X-4.6127 Y44.8621 
G01 X-4.6263 Y44.8797 
G01 X-4.6558 Y44.9053 
G01 X-4.6836 Y44.9331 
G01 X-4.7020 Y44.9454 
G01 X-4.7188 Y44.9599 
G01 X-4.7528 Y44.9793 
G01 X-4.7854 Y45.0011 
G01 X-4.8059 Y45.0096 
G01 X-4.8252 Y45.0206 
G01 X-4.8624 Y45.0330 
G01 X-4.8986 Y45.0480 
G01 X-4.9204 Y45.0523 
G01 X-4.9414 Y45.0594 
G01 X-4.9803 Y45.0643 
G01 X-5.0187 Y45.0719 
G01 X-5.0409 Y45.0719 
G01 X-5.0630 Y45.0747 
G01 X-5.1021 Y45.0719 
G01 X-26.6479 Y45.0719 
G01 X-26.6870 Y45.0747 
G01 X-26.7090 Y45.0719 
G01 X-26.7312 Y45.0719 
G01 X-26.7697 Y45.0643 
G01 X-26.8086 Y45.0594 
G01 X-26.8296 Y45.0523 
G01 X-26.8514 Y45.0480 
G01 X-26.8876 Y45.0330 
G01 X-26.9248 Y45.0206 
G01 X-26.9441 Y45.0096 
G01 X-26.9646 Y45.0011 
G01 X-26.9972 Y44.9793 
G01 X-27.0312 Y44.9599 
G01 X-27.0480 Y44.9454 
G01 X-27.0664 Y44.9331 
G01 X-27.0942 Y44.9053 
G01 X-27.1237 Y44.8797 
G01 X-27.1373 Y44.8621 
G01 X-27.1531 Y44.8464 
G01 X-27.1748 Y44.8139 
G01 X-27.1989 Y44.7829 
G01 X-27.2088 Y44.7630 
G01 X-27.2211 Y44.7446 
G01 X-27.2361 Y44.7084 
G01 X-27.6894 Y43.8019 
G01 X-28.4058 Y43.8019 
G01 X-28.4305 Y43.8266 
G01 X-28.4723 Y43.8439 
G01 X-29.5177 Y43.8439 
G01 X-29.5595 Y43.8266 
G01 X-29.5916 Y43.7945 
G01 X-29.6089 Y43.7527 
G01 X-29.6089 Y43.2815 
G01 X-29.6169 Y43.2413 
G01 X-29.6169 Y43.1187 
G01 X-29.6089 Y43.0785 
G01 X-29.6089 Y42.6073 
G01 X-29.5916 Y42.5655 
G01 X-29.5595 Y42.5334 
G01 X-29.5177 Y42.5161 
G01 X-28.4723 Y42.5161 
G01 X-28.4305 Y42.5334 
G01 X-28.4058 Y42.5581 
G01 X-27.3271 Y42.5581 
G01 X-27.2880 Y42.5553 
G01 X-27.2659 Y42.5581 
G01 X-27.2437 Y42.5581 
G01 X-27.2053 Y42.5657 
G01 X-27.1664 Y42.5706 
G01 X-27.1454 Y42.5777 
G01 X-27.1236 Y42.5820 
G01 X-27.0874 Y42.5970 
G01 X-27.0502 Y42.6094 
G01 X-27.0309 Y42.6204 
G01 X-27.0104 Y42.6289 
G01 X-26.9778 Y42.6507 
G01 X-26.9438 Y42.6701 
G01 X-26.9270 Y42.6846 
G01 X-26.9086 Y42.6969 
G01 X-26.8808 Y42.7247 
G01 X-26.8513 Y42.7503 
G01 X-26.8377 Y42.7679 
G01 X-26.8219 Y42.7836 
G01 X-26.8002 Y42.8161 
G01 X-26.7761 Y42.8471 
G01 X-26.7662 Y42.8670 
G01 X-26.7539 Y42.8854 
G01 X-26.7389 Y42.9216 
G01 X-26.2856 Y43.8281 
G01 X-5.4644 Y43.8281 
G01 X-5.0669 Y43.0332 
G01 X-5.0669 Y38.3409 
G01 X-5.2933 Y38.3409 
G01 X-5.4625 Y38.3072 
G01 X-5.6219 Y38.2412 
G01 X-5.7654 Y38.1454 
G01 X-5.8874 Y38.0234 
G01 X-5.9832 Y37.8799 
G01 X-6.0492 Y37.7205 
G01 X-6.0829 Y37.5513 
G01 X-6.0829 Y37.3787 
G01 X-6.0492 Y37.2095 
G01 X-5.9832 Y37.0501 
G01 X-5.8874 Y36.9066 
G01 X-5.7654 Y36.7846 
G00 Z2.0000  F3000
G00 X-6.0027 Y32.0171  F3000
G01 Z-0.2000 F200.00 
G01 X-5.9832 Y31.9701 F500.00 
G01 X-5.8874 Y31.8266 
G01 X-5.7654 Y31.7046 
G01 X-5.6219 Y31.6088 
G01 X-5.4625 Y31.5428 
G01 X-5.2933 Y31.5091 
G01 X-4.8129 Y31.5091 
G01 X-4.8129 Y31.4829 
G01 X-5.2780 Y31.4829 
G01 X-5.4183 Y31.5051 
G01 X-5.5533 Y31.5490 
G01 X-5.6798 Y31.6135 
G01 X-5.7947 Y31.6969 
G01 X-5.8951 Y31.7973 
G01 X-5.9785 Y31.9122 
G01 X-6.0320 Y32.0171 
G01 X-6.0027 Y32.0171 
G00 Z2.0000  F3000
G00 X-4.0771 Y31.5091  F3000
G01 Z-0.2000 F200.00 
G01 X-3.5967 Y31.5091 F500.00 
G01 X-3.4275 Y31.5428 
G01 X-3.2681 Y31.6088 
G01 X-3.1246 Y31.7046 
G01 X-3.0026 Y31.8266 
G01 X-2.9068 Y31.9701 
G01 X-2.8873 Y32.0171 
G01 X-2.8580 Y32.0171 
G01 X-2.9114 Y31.9122 
G01 X-2.9949 Y31.7973 
G01 X-3.0953 Y31.6969 
G01 X-3.2102 Y31.6135 
G01 X-3.3367 Y31.5490 
G01 X-3.4717 Y31.5051 
G01 X-3.6120 Y31.4829 
G01 X-4.0771 Y31.4829 
G01 X-4.0771 Y31.5091 
G00 Z2.0000  F3000
G00 X-6.8343 Y25.6850  F3000
G01 Z-0.2000 F200.00 
G01 X-6.9879 Y25.7965 F500.00 
G01 X-7.1570 Y25.8827 
G01 X-7.3376 Y25.9414 
G01 X-7.5251 Y25.9711 
G01 X-8.3499 Y25.9711 
G01 X-8.5374 Y25.9414 
G01 X-8.7180 Y25.8827 
G01 X-8.8871 Y25.7965 
G01 X-9.0407 Y25.6850 
G01 X-9.1750 Y25.5507 
G01 X-9.2865 Y25.3971 
G01 X-9.2918 Y25.3869 
G01 X-10.1174 Y25.3869 
G01 X-10.1311 Y25.4006 
G01 X-10.1311 Y25.7077 
G01 X-10.1484 Y25.7495 
G01 X-10.1805 Y25.7816 
G01 X-10.2223 Y25.7989 
G01 X-10.6935 Y25.7989 
G01 X-10.7337 Y25.8069 
G01 X-10.8562 Y25.8069 
G01 X-10.8965 Y25.7989 
G01 X-11.3677 Y25.7989 
G01 X-11.4095 Y25.7816 
G01 X-11.4416 Y25.7495 
G01 X-11.4589 Y25.7077 
G01 X-11.4589 Y24.6623 
G01 X-11.4416 Y24.6205 
G01 X-11.4095 Y24.5884 
G01 X-11.3677 Y24.5711 
G01 X-11.0606 Y24.5711 
G01 X-10.7714 Y24.2819 
G01 X-10.6696 Y24.2139 
G01 X-10.5564 Y24.1670 
G01 X-10.4362 Y24.1431 
G01 X-9.2918 Y24.1431 
G01 X-9.2865 Y24.1329 
G01 X-9.1750 Y23.9793 
G01 X-9.0407 Y23.8450 
G01 X-8.8871 Y23.7335 
G01 X-8.7180 Y23.6473 
G01 X-8.5374 Y23.5886 
G01 X-8.3499 Y23.5589 
G01 X-7.5251 Y23.5589 
G01 X-7.3376 Y23.5886 
G01 X-7.1570 Y23.6473 
G01 X-6.9879 Y23.7335 
G01 X-6.8343 Y23.8450 
G01 X-6.7000 Y23.9793 
G01 X-6.5884 Y24.1329 
G01 X-6.5023 Y24.3020 
G01 X-6.4436 Y24.4826 
G01 X-6.4139 Y24.6701 
G01 X-6.4139 Y24.8599 
G01 X-6.4436 Y25.0474 
G01 X-6.5023 Y25.2280 
G01 X-6.5884 Y25.3971 
G01 X-6.7000 Y25.5507 
G01 X-6.8343 Y25.6850 
G00 Z2.0000  F3000
G00 X-1.0284 Y1.1024  F3000
G01 Z-0.2000 F200.00 
G01 X-0.9762 Y1.1929 F500.00 
G01 X-0.9491 Y1.2939 
G01 X-0.9491 Y44.4261 
G01 X-0.9762 Y44.5271 
G01 X-1.0284 Y44.6176 
G01 X-1.1024 Y44.6916 
G01 X-1.1929 Y44.7438 
G01 X-1.2939 Y44.7709 
G01 X-3.8941 Y44.7709 
G01 X-3.9344 Y44.7733 
G01 X-3.9462 Y44.7709 
G01 X-3.9583 Y44.7709 
G01 X-3.9973 Y44.7604 
G01 X-4.0368 Y44.7524 
G01 X-4.0476 Y44.7470 
G01 X-4.0593 Y44.7438 
G01 X-4.0942 Y44.7236 
G01 X-4.1303 Y44.7056 
G01 X-4.1394 Y44.6976 
G01 X-4.1498 Y44.6916 
G01 X-4.1783 Y44.6630 
G01 X-4.2086 Y44.6362 
G01 X-4.2152 Y44.6262 
G01 X-4.2237 Y44.6176 
G01 X-4.2439 Y44.5827 
G01 X-4.2662 Y44.5490 
G01 X-4.2700 Y44.5375 
G01 X-4.2760 Y44.5271 
G01 X-4.2865 Y44.4881 
G01 X-4.2976 Y44.4547 
G01 X-4.4411 Y44.7416 
G01 X-4.4580 Y44.7825 
G01 X-4.4719 Y44.8033 
G01 X-4.4831 Y44.8257 
G01 X-4.5102 Y44.8607 
G01 X-4.5348 Y44.8974 
G01 X-4.5525 Y44.9152 
G01 X-4.5679 Y44.9350 
G01 X-4.6013 Y44.9639 
G01 X-4.6326 Y44.9952 
G01 X-4.6534 Y45.0091 
G01 X-4.6723 Y45.0255 
G01 X-4.7108 Y45.0475 
G01 X-4.7475 Y45.0720 
G01 X-4.7707 Y45.0816 
G01 X-4.7925 Y45.0940 
G01 X-4.8344 Y45.1080 
G01 X-4.8753 Y45.1249 
G01 X-4.8998 Y45.1298 
G01 X-4.9236 Y45.1377 
G01 X-4.9675 Y45.1433 
G01 X-5.0109 Y45.1519 
G01 X-5.0359 Y45.1519 
G01 X-5.0608 Y45.1550 
G01 X-5.1049 Y45.1519 
G01 X-26.6451 Y45.1519 
G01 X-26.6892 Y45.1550 
G01 X-26.7141 Y45.1519 
G01 X-26.7391 Y45.1519 
G01 X-26.7825 Y45.1433 
G01 X-26.8264 Y45.1377 
G01 X-26.8501 Y45.1298 
G01 X-26.8747 Y45.1249 
G01 X-26.9156 Y45.1080 
G01 X-26.9575 Y45.0940 
G01 X-26.9793 Y45.0816 
G01 X-27.0025 Y45.0720 
G01 X-27.0392 Y45.0474 
G01 X-27.0777 Y45.0255 
G01 X-27.0966 Y45.0091 
G01 X-27.1174 Y44.9952 
G01 X-27.1487 Y44.9639 
G01 X-27.1821 Y44.9350 
G01 X-27.1975 Y44.9152 
G01 X-27.2152 Y44.8974 
G01 X-27.2398 Y44.8606 
G01 X-27.2669 Y44.8257 
G01 X-27.2781 Y44.8033 
G01 X-27.2920 Y44.7825 
G01 X-27.3089 Y44.7416 
G01 X-27.7388 Y43.8819 
G01 X-28.3727 Y43.8819 
G01 X-28.3852 Y43.8944 
G01 X-28.4564 Y43.9239 
G01 X-29.5336 Y43.9239 
G01 X-29.6048 Y43.8944 
G01 X-29.6594 Y43.8398 
G01 X-29.6889 Y43.7686 
G01 X-29.6889 Y43.2893 
G01 X-29.6969 Y43.2491 
G01 X-29.6969 Y43.1109 
G01 X-29.6889 Y43.0707 
G01 X-29.6889 Y42.6300 
G01 X-29.6917 Y42.6316 
G01 X-29.7927 Y42.6587 
G01 X-29.8973 Y42.6587 
G01 X-29.9358 Y42.6484 
G01 X-29.9983 Y42.6316 
G01 X-30.0011 Y42.6300 
G01 X-30.0011 Y43.0707 
G01 X-29.9931 Y43.1109 
G01 X-29.9931 Y43.2491 
G01 X-30.0011 Y43.2893 
G01 X-30.0011 Y43.7686 
G01 X-30.0306 Y43.8398 
G01 X-30.0852 Y43.8944 
G01 X-30.1564 Y43.9239 
G01 X-31.2336 Y43.9239 
G01 X-31.3048 Y43.8944 
G01 X-31.3594 Y43.8398 
G01 X-31.3889 Y43.7686 
G01 X-31.3889 Y43.4787 
G01 X-31.6602 Y43.2074 
G01 X-31.7370 Y43.0925 
G01 X-31.7899 Y42.9647 
G01 X-31.8169 Y42.8291 
G01 X-31.8169 Y32.9509 
G01 X-31.7899 Y32.8153 
G01 X-31.7370 Y32.6875 
G01 X-31.6602 Y32.5726 
G01 X-31.6365 Y32.5489 
G01 X-31.6478 Y32.5489 
G01 X-31.6738 Y32.5523 
G01 X-31.6998 Y32.5489 
G01 X-31.7261 Y32.5489 
G01 X-31.7514 Y32.5421 
G01 X-31.7775 Y32.5386 
G01 X-31.8017 Y32.5286 
G01 X-31.8271 Y32.5218 
G01 X-31.8498 Y32.5087 
G01 X-31.8741 Y32.4986 
G01 X-31.8949 Y32.4826 
G01 X-31.9176 Y32.4695 
G01 X-31.9362 Y32.4509 
G01 X-31.9570 Y32.4350 
G01 X-31.9730 Y32.4141 
G01 X-31.9916 Y32.3956 
G01 X-32.0047 Y32.3728 
G01 X-32.0207 Y32.3520 
G01 X-32.0307 Y32.3278 
G01 X-32.0438 Y32.3050 
G01 X-32.0506 Y32.2797 
G01 X-32.0607 Y32.2554 
G01 X-32.0641 Y32.2294 
G01 X-32.0709 Y32.2040 
G01 X-32.0709 Y32.1778 
G01 X-32.0743 Y32.1518 
G01 X-32.0709 Y32.1257 
G01 X-32.0709 Y1.2939 
G01 X-32.0438 Y1.1929 
G01 X-31.9916 Y1.1024 
G01 X-31.9176 Y1.0284 
G01 X-31.8271 Y0.9762 
G01 X-31.7261 Y0.9491 
G01 X-1.2939 Y0.9491 
G01 X-1.1929 Y0.9762 
G01 X-1.1024 Y1.0284 
G01 X-1.0284 Y1.1024 
G00 Z2.0000  F3000
G00 X-6.9999 Y25.8925  F3000
G01 Z-0.2000 F200.00 
G01 X-7.1263 Y25.9569 F500.00 
G01 X-7.3188 Y26.0194 
G01 X-7.4171 Y26.0350 
G01 X-7.3188 Y26.0506 
G01 X-7.1263 Y26.1131 
G01 X-6.9999 Y26.1775 
G01 X-7.0241 Y26.0873 
G01 X-7.0241 Y25.9827 
G01 X-6.9999 Y25.8925 
G00 Z2.0000  F3000
G00 X-7.9228 Y26.0511  F3000
G01 Z-0.2000 F200.00 
G01 X-8.3562 Y26.0511 F500.00 
G01 X-8.5562 Y26.0194 
G01 X-8.7487 Y25.9569 
G01 X-8.9291 Y25.8650 
G01 X-9.0928 Y25.7460 
G01 X-9.2360 Y25.6028 
G01 X-9.3347 Y25.4669 
G01 X-10.0511 Y25.4669 
G01 X-10.0511 Y25.7236 
G01 X-10.0806 Y25.7948 
G01 X-10.1352 Y25.8494 
G01 X-10.2064 Y25.8789 
G01 X-10.6857 Y25.8789 
G01 X-10.7259 Y25.8869 
G01 X-10.8641 Y25.8869 
G01 X-10.9043 Y25.8789 
G01 X-11.3450 Y25.8789 
G01 X-11.3434 Y25.8817 
G01 X-11.3163 Y25.9827 
G01 X-11.3163 Y26.0873 
G01 X-11.3266 Y26.1258 
G01 X-11.3434 Y26.1883 
G01 X-11.3450 Y26.1911 
G01 X-10.9043 Y26.1911 
G01 X-10.8641 Y26.1831 
G01 X-10.7259 Y26.1831 
G01 X-10.6857 Y26.1911 
G01 X-10.2064 Y26.1911 
G01 X-10.1352 Y26.2206 
G01 X-10.0806 Y26.2752 
G01 X-10.0511 Y26.3464 
G01 X-10.0511 Y27.4236 
G01 X-10.0806 Y27.4948 
G01 X-10.0931 Y27.5073 
G01 X-10.0931 Y31.1841 
G01 X-10.1201 Y31.3197 
G01 X-10.1730 Y31.4475 
G01 X-10.2498 Y31.5624 
G01 X-13.4248 Y34.7374 
G01 X-13.5226 Y34.8352 
G01 X-13.6375 Y34.9120 
G01 X-13.7361 Y34.9528 
G01 X-13.7361 Y41.4126 
G01 X-13.7720 Y41.6854 
G01 X-13.8432 Y41.9511 
G01 X-13.9485 Y42.2053 
G01 X-14.0861 Y42.4436 
G01 X-14.2536 Y42.6619 
G01 X-14.4481 Y42.8564 
G01 X-14.6664 Y43.0239 
G01 X-14.9047 Y43.1615 
G01 X-15.1589 Y43.2668 
G01 X-15.4246 Y43.3380 
G01 X-15.6974 Y43.3739 
G01 X-15.9726 Y43.3739 
G01 X-16.2454 Y43.3380 
G01 X-16.5111 Y43.2668 
G01 X-16.5793 Y43.2385 
G01 X-16.5713 Y43.2580 
G01 X-16.5581 Y43.2807 
G01 X-16.5513 Y43.3061 
G01 X-16.5413 Y43.3303 
G01 X-16.5379 Y43.3564 
G01 X-16.5311 Y43.3817 
G01 X-16.5311 Y43.4080 
G01 X-16.5277 Y43.4340 
G01 X-16.5311 Y43.4600 
G01 X-16.5311 Y43.4863 
G01 X-16.5379 Y43.5116 
G01 X-16.5413 Y43.5377 
G01 X-16.5513 Y43.5619 
G01 X-16.5581 Y43.5873 
G01 X-16.5713 Y43.6100 
G01 X-16.5813 Y43.6343 
G01 X-16.5973 Y43.6551 
G01 X-16.6104 Y43.6778 
G01 X-16.6290 Y43.6964 
G01 X-16.6450 Y43.7172 
G01 X-16.6658 Y43.7332 
G01 X-16.6807 Y43.7481 
G01 X-5.5138 Y43.7481 
G01 X-5.1469 Y43.0143 
G01 X-5.1469 Y38.4209 
G01 X-5.3011 Y38.4209 
G01 X-5.4858 Y38.3842 
G01 X-5.6598 Y38.3121 
G01 X-5.8163 Y38.2075 
G01 X-5.9495 Y38.0744 
G01 X-6.0541 Y37.9178 
G01 X-6.1262 Y37.7438 
G01 X-6.1629 Y37.5591 
G01 X-6.1629 Y37.3708 
G01 X-6.1262 Y37.1862 
G01 X-6.0541 Y37.0122 
G01 X-5.9495 Y36.8556 
G01 X-5.8163 Y36.7225 
G01 X-5.6598 Y36.6179 
G01 X-5.4858 Y36.5458 
G01 X-5.3011 Y36.5091 
G01 X-3.9097 Y36.5091 
G01 X-3.9446 Y36.4734 
G01 X-3.9792 Y36.4388 
G01 X-3.9809 Y36.4359 
G01 X-3.9832 Y36.4334 
G01 X-4.0070 Y36.3906 
G01 X-4.0314 Y36.3483 
G01 X-4.0323 Y36.3450 
G01 X-4.0340 Y36.3420 
G01 X-4.0458 Y36.2945 
G01 X-4.0585 Y36.2473 
G01 X-4.0585 Y36.2439 
G01 X-4.0593 Y36.2406 
G01 X-4.0585 Y36.1917 
G01 X-4.0585 Y36.1427 
G01 X-4.0576 Y36.1394 
G01 X-4.0576 Y36.1360 
G01 X-4.0441 Y36.0889 
G01 X-4.0314 Y36.0417 
G01 X-4.0297 Y36.0388 
G01 X-4.0288 Y36.0355 
G01 X-4.0087 Y36.0020 
G01 X-4.1736 Y36.0556 
G01 X-4.3538 Y36.0841 
G01 X-7.1356 Y36.0841 
G01 X-7.1411 Y36.0936 
G01 X-7.3086 Y36.3119 
G01 X-8.1381 Y37.1414 
G01 X-8.7361 Y37.7394 
G01 X-8.7361 Y41.4126 
G01 X-8.7720 Y41.6854 
G01 X-8.8432 Y41.9511 
G01 X-8.9485 Y42.2053 
G01 X-9.0861 Y42.4436 
G01 X-9.2536 Y42.6619 
G01 X-9.4481 Y42.8564 
G01 X-9.6664 Y43.0239 
G01 X-9.9047 Y43.1615 
G01 X-10.1589 Y43.2668 
G01 X-10.4246 Y43.3380 
G01 X-10.6974 Y43.3739 
G01 X-10.9726 Y43.3739 
G01 X-11.2454 Y43.3380 
G01 X-11.5111 Y43.2668 
G01 X-11.7653 Y43.1615 
G01 X-12.0036 Y43.0239 
G01 X-12.2219 Y42.8564 
G01 X-12.4164 Y42.6619 
G01 X-12.5839 Y42.4436 
G01 X-12.7215 Y42.2053 
G01 X-12.8268 Y41.9511 
G01 X-12.8980 Y41.6854 
G01 X-12.9339 Y41.4126 
G01 X-12.9339 Y36.7324 
G01 X-12.8980 Y36.4596 
G01 X-12.8268 Y36.1939 
G01 X-12.7215 Y35.9397 
G01 X-12.5839 Y35.7014 
G01 X-12.4164 Y35.4831 
G01 X-11.1064 Y34.1731 
G01 X-10.2769 Y33.3436 
G01 X-10.0586 Y33.1761 
G01 X-9.8203 Y33.0385 
G01 X-9.5919 Y32.9439 
G01 X-9.5919 Y29.1409 
G01 X-9.5649 Y29.0053 
G01 X-9.5120 Y28.8775 
G01 X-9.4352 Y28.7626 
G01 X-9.3374 Y28.6648 
G01 X-9.3262 Y28.6536 
G01 X-9.3550 Y28.6141 
G01 X-9.4469 Y28.4337 
G01 X-9.5094 Y28.2412 
G01 X-9.5411 Y28.0412 
G01 X-9.5411 Y27.8388 
G01 X-9.5094 Y27.6388 
G01 X-9.4469 Y27.4463 
G01 X-9.3550 Y27.2659 
G01 X-9.2360 Y27.1022 
G01 X-8.4578 Y26.3240 
G01 X-8.2941 Y26.2050 
G01 X-8.1137 Y26.1131 
G01 X-7.9228 Y26.0511 
G00 Z2.0000  F3000
G00 X-5.4239 Y33.3165  F3000
G01 Z-0.2000 F200.00 
G01 X-5.4179 Y33.3390 F500.00 
G01 X-5.4050 Y33.3788 
G01 X-5.4044 Y33.3893 
G01 X-5.4017 Y33.3995 
G01 X-5.4017 Y33.4414 
G01 X-5.3995 Y33.4832 
G01 X-5.4017 Y33.4935 
G01 X-5.4017 Y33.5041 
G01 X-5.4125 Y33.5445 
G01 X-5.4212 Y33.5855 
G01 X-5.4260 Y33.5949 
G01 X-5.4288 Y33.6051 
G01 X-5.4497 Y33.6413 
G01 X-5.4687 Y33.6786 
G01 X-5.4758 Y33.6865 
G01 X-5.4810 Y33.6956 
G01 X-5.5106 Y33.7252 
G01 X-5.5387 Y33.7563 
G01 X-5.5475 Y33.7621 
G01 X-5.5513 Y33.7659 
G01 X-4.3538 Y33.7659 
G01 X-4.1736 Y33.7944 
G01 X-4.1270 Y33.8096 
G01 X-4.1309 Y33.8045 
G01 X-4.1410 Y33.7802 
G01 X-4.1541 Y33.7575 
G01 X-4.1609 Y33.7321 
G01 X-4.1709 Y33.7079 
G01 X-4.1743 Y33.6818 
G01 X-4.1811 Y33.6565 
G01 X-4.1811 Y33.6302 
G01 X-4.1846 Y33.6042 
G01 X-4.1811 Y33.5782 
G01 X-4.1811 Y33.5519 
G01 X-4.1743 Y33.5266 
G01 X-4.1709 Y33.5005 
G01 X-4.1609 Y33.4763 
G01 X-4.1541 Y33.4509 
G01 X-4.1410 Y33.4282 
G01 X-4.1309 Y33.4039 
G01 X-4.1149 Y33.3831 
G01 X-4.1018 Y33.3604 
G01 X-4.0832 Y33.3418 
G01 X-5.3011 Y33.3409 
G01 X-5.4239 Y33.3165 
G00 Z2.0000  F3000
G00 X-3.7431 Y38.4209  F3000
G01 Z-0.2000 F200.00 
G01 X-3.7431 Y38.4869 F500.00 
G01 X-3.7282 Y38.4720 
G01 X-3.7122 Y38.4512 
G01 X-3.6914 Y38.4352 
G01 X-3.6770 Y38.4209 
G01 X-3.7431 Y38.4209 
G00 Z2.0000  F3000
G00 X-13.8276 Y33.1549  F3000
G01 Z-0.2000 F200.00 
G01 X-13.9270 Y33.1549 F500.00 
G01 X-14.0279 Y33.1279 
G01 X-14.0403 Y33.1207 
G01 X-13.9499 Y33.2773 
G01 X-13.8276 Y33.1549 
G00 Z2.0000  F3000
G00 X-20.4705 Y36.0889  F3000
G01 Z-0.2000 F200.00 
G01 X-21.4936 Y36.0889 F500.00 
G01 X-21.4970 Y36.0875 
G01 X-21.5056 Y36.1198 
G01 X-21.5224 Y36.1823 
G01 X-21.5375 Y36.2085 
G01 X-21.5747 Y36.2728 
G01 X-21.6449 Y36.3431 
G01 X-21.5773 Y36.3431 
G01 X-21.5648 Y36.3306 
G01 X-21.4936 Y36.3011 
G01 X-20.4488 Y36.3011 
G01 X-20.4526 Y36.2869 
G01 X-20.4741 Y36.2069 
G01 X-20.4741 Y36.1023 
G01 X-20.4705 Y36.0889 
G00 Z2.0000  F3000
G00 X-22.9204 Y36.0813  F3000
G01 Z-0.2000 F200.00 
G01 X-22.9204 Y36.0812 F500.00 
G01 X-22.9204 Y36.0389 
G01 X-23.9986 Y36.0389 
G01 X-23.9907 Y36.0683 
G01 X-23.9804 Y36.1068 
G01 X-23.9804 Y36.1596 
G01 X-23.9804 Y36.2113 
G01 X-23.9924 Y36.2561 
G01 X-24.0074 Y36.3123 
G01 X-24.0249 Y36.3426 
G01 X-24.0298 Y36.3511 
G01 X-23.6043 Y36.3511 
G01 X-23.5641 Y36.3431 
G01 X-22.7708 Y36.3431 
G01 X-22.8064 Y36.3074 
G01 X-22.8411 Y36.2728 
G01 X-22.8680 Y36.2261 
G01 X-22.8933 Y36.1823 
G01 X-22.9071 Y36.1309 
G01 X-22.9204 Y36.0813 
G00 Z2.0000  F3000
G00 X-22.7931 Y37.7469  F3000
G01 Z-0.2000 F200.00 
G01 X-22.7931 Y37.8135 F500.00 
G01 X-22.7265 Y37.7469 
G01 X-22.7931 Y37.7469 
G00 Z2.0000  F3000
G00 X-24.2389 Y37.3981  F3000
G01 Z-0.2000 F200.00 
G01 X-24.2389 Y37.3315 F500.00 
G01 X-24.3055 Y37.3981 
G01 X-24.2389 Y37.3981 
G00 Z2.0000  F3000
G00 X-24.2389 Y38.8019  F3000
G01 Z-0.2000 F200.00 
G01 X-24.3055 Y38.8019 F500.00 
G01 X-24.2389 Y38.8685 
G01 X-24.2389 Y38.8019 
G00 Z2.0000  F3000
G00 X-24.0450 Y39.8489  F3000
G01 Z-0.2000 F200.00 
G01 X-24.0434 Y39.8517 F500.00 
G01 X-24.0163 Y39.9527 
G01 X-24.0163 Y40.0573 
G01 X-24.0266 Y40.0958 
G01 X-24.0434 Y40.1583 
G01 X-24.0450 Y40.1611 
G01 X-23.6043 Y40.1611 
G01 X-23.5641 Y40.1531 
G01 X-23.4259 Y40.1531 
G01 X-23.3856 Y40.1611 
G01 X-22.9450 Y40.1611 
G01 X-22.9466 Y40.1583 
G01 X-22.9642 Y40.0927 
G01 X-22.9737 Y40.0573 
G01 X-22.9737 Y39.9527 
G01 X-22.9466 Y39.8517 
G01 X-22.9450 Y39.8489 
G01 X-23.3857 Y39.8489 
G01 X-23.4259 Y39.8569 
G01 X-23.5641 Y39.8569 
G01 X-23.6043 Y39.8489 
G01 X-24.0450 Y39.8489 
G00 Z2.0000  F3000
G00 X-22.7511 Y41.1415  F3000
G01 Z-0.2000 F200.00 
G01 X-22.7511 Y41.2081 F500.00 
G01 X-22.6845 Y41.2081 
G01 X-22.7511 Y41.1415 
G00 Z2.0000  F3000
G00 X-17.9339 Y41.1415  F3000
G01 Z-0.2000 F200.00 
G01 X-18.0005 Y41.2081 F500.00 
G01 X-17.9339 Y41.2081 
G01 X-17.9339 Y41.1415 
G00 Z2.0000  F3000
G00 X-26.5365 Y37.3981  F3000
G01 Z-0.2000 F200.00 
G01 X-26.6031 Y37.3315 F500.00 
G01 X-26.6031 Y37.3981 
G01 X-26.5365 Y37.3981 
G00 Z2.0000  F3000
G00 X-26.5371 Y36.5159  F3000
G01 Z-0.2000 F200.00 
G01 X-26.6031 Y36.5159 F500.00 
G01 X-26.6031 Y36.5819 
G01 X-26.5882 Y36.5670 
G01 X-26.5722 Y36.5462 
G01 X-26.5514 Y36.5302 
G01 X-26.5371 Y36.5159 
G00 Z2.0000  F3000
G00 X-28.0069 Y36.5159  F3000
G01 Z-0.2000 F200.00 
G01 X-28.0729 Y36.5159 F500.00 
G01 X-28.0586 Y36.5302 
G01 X-28.0378 Y36.5462 
G01 X-28.0218 Y36.5670 
G01 X-28.0069 Y36.5819 
G01 X-28.0069 Y36.5159 
G00 Z2.0000  F3000
G00 X-30.3465 Y33.7219  F3000
G01 Z-0.2000 F200.00 
G01 X-30.4131 Y33.7219 F500.00 
G01 X-30.4131 Y33.7885 
G01 X-30.3465 Y33.7219 
G00 Z2.0000  F3000
G00 X-30.4131 Y42.3695  F3000
G01 Z-0.2000 F200.00 
G01 X-30.4131 Y42.4361 F500.00 
G01 X-30.3465 Y42.4361 
G01 X-30.4131 Y42.3695 
G00 Z2.0000  F3000
G00 X-28.3084 Y10.6231  F3000
G01 Z-0.2000 F200.00 
G01 X-28.2860 Y10.5922 F500.00 
G01 X-28.1725 Y10.4786 
G01 X-28.3458 Y10.4442 
G01 X-28.3586 Y10.4389 
G01 X-28.3206 Y10.5307 
G01 X-28.3089 Y10.6195 
G01 X-28.3084 Y10.6231 
G00 Z2.0000  F3000
G00 X-26.3016 Y10.6231  F3000
G01 Z-0.2000 F200.00 
G01 X-26.3014 Y10.6219 F500.00 
G01 X-26.2894 Y10.5307 
G01 X-26.2514 Y10.4389 
G01 X-26.2642 Y10.4442 
G01 X-26.4375 Y10.4786 
G01 X-26.3240 Y10.5922 
G01 X-26.3016 Y10.6231 
G00 Z2.0000  F3000
G00 X-0.9644 Y1.0533  F3000
G01 Z-0.2000 F200.00 
G01 X-0.9016 Y1.1620 F500.00 
G01 X-0.8691 Y1.2834 
G01 X-0.8691 Y44.4366 
G01 X-0.9016 Y44.5580 
G01 X-0.9644 Y44.6667 
G01 X-1.0533 Y44.7556 
G01 X-1.1620 Y44.8184 
G01 X-1.2834 Y44.8509 
G01 X-3.8917 Y44.8509 
G01 X-3.9401 Y44.8538 
G01 X-3.9543 Y44.8509 
G01 X-3.9688 Y44.8509 
G01 X-4.0156 Y44.8383 
G01 X-4.0632 Y44.8286 
G01 X-4.0761 Y44.8221 
G01 X-4.0901 Y44.8184 
G01 X-4.1322 Y44.7941 
G01 X-4.1755 Y44.7724 
G01 X-4.1864 Y44.7628 
G01 X-4.1989 Y44.7556 
G01 X-4.2332 Y44.7213 
G01 X-4.2695 Y44.6891 
G01 X-4.2775 Y44.6770 
G01 X-4.2878 Y44.6667 
G01 X-4.3019 Y44.6422 
G01 X-4.3682 Y44.7748 
G01 X-4.3871 Y44.8204 
G01 X-4.4026 Y44.8436 
G01 X-4.4151 Y44.8686 
G01 X-4.4453 Y44.9075 
G01 X-4.4727 Y44.9484 
G01 X-4.4924 Y44.9682 
G01 X-4.5095 Y44.9902 
G01 X-4.5467 Y45.0225 
G01 X-4.5816 Y45.0573 
G01 X-4.6048 Y45.0729 
G01 X-4.6259 Y45.0911 
G01 X-4.6687 Y45.1155 
G01 X-4.7096 Y45.1429 
G01 X-4.7354 Y45.1536 
G01 X-4.7597 Y45.1674 
G01 X-4.8064 Y45.1830 
G01 X-4.8519 Y45.2019 
G01 X-4.8793 Y45.2073 
G01 X-4.9058 Y45.2161 
G01 X-4.9547 Y45.2223 
G01 X-5.0030 Y45.2319 
G01 X-5.0309 Y45.2319 
G01 X-5.0586 Y45.2354 
G01 X-5.1077 Y45.2319 
G01 X-26.6423 Y45.2319 
G01 X-26.6914 Y45.2354 
G01 X-26.7191 Y45.2319 
G01 X-26.7470 Y45.2319 
G01 X-26.7953 Y45.2223 
G01 X-26.8442 Y45.2161 
G01 X-26.8707 Y45.2073 
G01 X-26.8981 Y45.2019 
G01 X-26.9436 Y45.1830 
G01 X-26.9903 Y45.1674 
G01 X-27.0146 Y45.1536 
G01 X-27.0404 Y45.1429 
G01 X-27.0813 Y45.1155 
G01 X-27.1241 Y45.0911 
G01 X-27.1452 Y45.0729 
G01 X-27.1684 Y45.0573 
G01 X-27.2033 Y45.0225 
G01 X-27.2405 Y44.9902 
G01 X-27.2576 Y44.9682 
G01 X-27.2773 Y44.9484 
G01 X-27.3047 Y44.9075 
G01 X-27.3349 Y44.8686 
G01 X-27.3474 Y44.8436 
G01 X-27.3629 Y44.8204 
G01 X-27.3818 Y44.7748 
G01 X-27.7882 Y43.9619 
G01 X-28.3489 Y43.9619 
G01 X-28.3893 Y43.9852 
G01 X-28.4589 Y44.0039 
G01 X-29.5311 Y44.0039 
G01 X-29.6007 Y43.9852 
G01 X-29.6632 Y43.9492 
G01 X-29.7142 Y43.8982 
G01 X-29.7502 Y43.8357 
G01 X-29.7689 Y43.7661 
G01 X-29.7689 Y43.2972 
G01 X-29.7769 Y43.2570 
G01 X-29.7769 Y43.1030 
G01 X-29.7689 Y43.0628 
G01 X-29.7689 Y42.7351 
G01 X-29.7822 Y42.7387 
G01 X-29.9078 Y42.7387 
G01 X-29.9211 Y42.7351 
G01 X-29.9211 Y43.0628 
G01 X-29.9131 Y43.1030 
G01 X-29.9131 Y43.2570 
G01 X-29.9211 Y43.2972 
G01 X-29.9211 Y43.7661 
G01 X-29.9398 Y43.8357 
G01 X-29.9758 Y43.8982 
G01 X-30.0268 Y43.9492 
G01 X-30.0893 Y43.9852 
G01 X-30.1589 Y44.0039 
G01 X-31.2311 Y44.0039 
G01 X-31.3007 Y43.9852 
G01 X-31.3632 Y43.9492 
G01 X-31.4142 Y43.8982 
G01 X-31.4502 Y43.8357 
G01 X-31.4689 Y43.7661 
G01 X-31.4689 Y43.5119 
G01 X-31.7223 Y43.2584 
G01 X-31.8079 Y43.1304 
G01 X-31.8668 Y42.9881 
G01 X-31.8969 Y42.8370 
G01 X-31.8969 Y32.9430 
G01 X-31.8668 Y32.7919 
G01 X-31.8079 Y32.6496 
G01 X-31.7868 Y32.6181 
G01 X-31.7983 Y32.6166 
G01 X-31.8275 Y32.6045 
G01 X-31.8580 Y32.5963 
G01 X-31.8853 Y32.5806 
G01 X-31.9144 Y32.5685 
G01 X-31.9394 Y32.5493 
G01 X-31.9667 Y32.5335 
G01 X-31.9890 Y32.5112 
G01 X-32.0141 Y32.4920 
G01 X-32.0333 Y32.4670 
G01 X-32.0556 Y32.4447 
G01 X-32.0713 Y32.4174 
G01 X-32.0905 Y32.3924 
G01 X-32.1026 Y32.3632 
G01 X-32.1184 Y32.3359 
G01 X-32.1266 Y32.3054 
G01 X-32.1386 Y32.2763 
G01 X-32.1427 Y32.2450 
G01 X-32.1509 Y32.2146 
G01 X-32.1509 Y32.1830 
G01 X-32.1550 Y32.1518 
G01 X-32.1509 Y32.1205 
G01 X-32.1509 Y1.2834 
G01 X-32.1184 Y1.1620 
G01 X-32.0556 Y1.0533 
G01 X-31.9667 Y0.9644 
G01 X-31.8580 Y0.9016 
G01 X-31.7366 Y0.8691 
G01 X-1.2834 Y0.8691 
G01 X-1.1620 Y0.9016 
G01 X-1.0533 Y0.9644 
G01 X-0.9644 Y1.0533 
G00 Z2.0000  F3000
G00 X-7.1041 Y26.0338  F3000
G01 Z-0.2000 F200.00 
G01 X-7.1079 Y26.0350 F500.00 
G01 X-7.1041 Y26.0362 
G01 X-7.1041 Y26.0338 
G00 Z2.0000  F3000
G00 X-8.3252 Y26.1311  F3000
G01 Z-0.2000 F200.00 
G01 X-8.3625 Y26.1311 F500.00 
G01 X-8.5749 Y26.0975 
G01 X-8.7794 Y26.0310 
G01 X-8.9710 Y25.9334 
G01 X-9.1450 Y25.8070 
G01 X-9.2970 Y25.6550 
G01 X-9.3755 Y25.5469 
G01 X-9.9711 Y25.5469 
G01 X-9.9711 Y25.7211 
G01 X-9.9898 Y25.7907 
G01 X-10.0258 Y25.8532 
G01 X-10.0768 Y25.9042 
G01 X-10.1393 Y25.9402 
G01 X-10.2089 Y25.9589 
G01 X-10.6778 Y25.9589 
G01 X-10.7180 Y25.9669 
G01 X-10.8720 Y25.9669 
G01 X-10.9122 Y25.9589 
G01 X-11.2399 Y25.9589 
G01 X-11.2363 Y25.9722 
G01 X-11.2363 Y26.0978 
G01 X-11.2399 Y26.1111 
G01 X-10.9122 Y26.1111 
G01 X-10.8720 Y26.1031 
G01 X-10.7180 Y26.1031 
G01 X-10.6778 Y26.1111 
G01 X-10.2089 Y26.1111 
G01 X-10.1393 Y26.1298 
G01 X-10.0768 Y26.1658 
G01 X-10.0258 Y26.2168 
G01 X-9.9898 Y26.2793 
G01 X-9.9711 Y26.3489 
G01 X-9.9711 Y27.4211 
G01 X-9.9898 Y27.4907 
G01 X-10.0131 Y27.5311 
G01 X-10.0131 Y31.1920 
G01 X-10.0431 Y31.3431 
G01 X-10.1021 Y31.4854 
G01 X-10.1877 Y31.6134 
G01 X-13.3627 Y34.7884 
G01 X-13.4716 Y34.8973 
G01 X-13.5996 Y34.9829 
G01 X-13.6561 Y35.0063 
G01 X-13.6561 Y41.4178 
G01 X-13.6934 Y41.7010 
G01 X-13.7673 Y41.9769 
G01 X-13.8766 Y42.2408 
G01 X-14.0194 Y42.4881 
G01 X-14.1933 Y42.7147 
G01 X-14.3953 Y42.9167 
G01 X-14.6219 Y43.0906 
G01 X-14.8692 Y43.2334 
G01 X-15.1331 Y43.3427 
G01 X-15.4090 Y43.4166 
G01 X-15.6922 Y43.4539 
G01 X-15.9778 Y43.4539 
G01 X-16.2610 Y43.4166 
G01 X-16.4527 Y43.3653 
G01 X-16.4511 Y43.3712 
G01 X-16.4511 Y43.4027 
G01 X-16.4470 Y43.4340 
G01 X-16.4511 Y43.4653 
G01 X-16.4511 Y43.4968 
G01 X-16.4592 Y43.5273 
G01 X-16.4634 Y43.5585 
G01 X-16.4754 Y43.5877 
G01 X-16.4836 Y43.6182 
G01 X-16.4994 Y43.6455 
G01 X-16.5087 Y43.6681 
G01 X-5.5632 Y43.6681 
G01 X-5.2269 Y42.9954 
G01 X-5.2269 Y38.5009 
G01 X-5.2885 Y38.5009 
G01 X-5.4496 Y38.4754 
G01 X-5.6046 Y38.4250 
G01 X-5.7499 Y38.3510 
G01 X-5.8818 Y38.2551 
G01 X-5.9971 Y38.1398 
G01 X-6.0930 Y38.0079 
G01 X-6.1670 Y37.8626 
G01 X-6.2174 Y37.7076 
G01 X-6.2429 Y37.5465 
G01 X-6.2429 Y37.3835 
G01 X-6.2174 Y37.2224 
G01 X-6.1670 Y37.0673 
G01 X-6.0930 Y36.9221 
G01 X-5.9971 Y36.7902 
G01 X-5.8818 Y36.6749 
G01 X-5.7499 Y36.5790 
G01 X-5.6046 Y36.5050 
G01 X-5.4496 Y36.4546 
G01 X-5.2885 Y36.4291 
G01 X-4.0771 Y36.4291 
G01 X-4.1060 Y36.3792 
G01 X-4.1070 Y36.3752 
G01 X-4.1090 Y36.3717 
G01 X-4.1233 Y36.3146 
G01 X-4.1385 Y36.2578 
G01 X-4.1385 Y36.2537 
G01 X-4.1395 Y36.2498 
G01 X-4.1385 Y36.1911 
G01 X-4.1385 Y36.1322 
G01 X-4.1374 Y36.1282 
G01 X-4.1548 Y36.1336 
G01 X-4.3475 Y36.1641 
G01 X-7.0944 Y36.1641 
G01 X-7.2483 Y36.3647 
G01 X-8.0853 Y37.2017 
G01 X-8.6561 Y37.7725 
G01 X-8.6561 Y41.4178 
G01 X-8.6934 Y41.7010 
G01 X-8.7673 Y41.9769 
G01 X-8.8766 Y42.2408 
G01 X-9.0194 Y42.4881 
G01 X-9.1933 Y42.7147 
G01 X-9.3953 Y42.9167 
G01 X-9.6219 Y43.0906 
G01 X-9.8692 Y43.2334 
G01 X-10.1331 Y43.3427 
G01 X-10.4090 Y43.4166 
G01 X-10.6922 Y43.4539 
G01 X-10.9778 Y43.4539 
G01 X-11.2610 Y43.4166 
G01 X-11.5369 Y43.3427 
G01 X-11.8008 Y43.2334 
G01 X-12.0481 Y43.0906 
G01 X-12.2747 Y42.9167 
G01 X-12.4767 Y42.7147 
G01 X-12.6506 Y42.4881 
G01 X-12.7934 Y42.2408 
G01 X-12.9027 Y41.9769 
G01 X-12.9766 Y41.7010 
G01 X-13.0139 Y41.4178 
G01 X-13.0139 Y36.7272 
G01 X-12.9766 Y36.4440 
G01 X-12.9027 Y36.1681 
G01 X-12.7934 Y35.9042 
G01 X-12.6506 Y35.6569 
G01 X-12.4767 Y35.4303 
G01 X-11.1667 Y34.1203 
G01 X-10.3297 Y33.2833 
G01 X-10.1031 Y33.1094 
G01 X-9.8558 Y32.9666 
G01 X-9.6719 Y32.8905 
G01 X-9.6719 Y29.1330 
G01 X-9.6418 Y28.9819 
G01 X-9.5829 Y28.8396 
G01 X-9.4973 Y28.7116 
G01 X-9.4296 Y28.6438 
G01 X-9.5210 Y28.4644 
G01 X-9.5875 Y28.2599 
G01 X-9.6211 Y28.0475 
G01 X-9.6211 Y27.8325 
G01 X-9.5875 Y27.6201 
G01 X-9.5210 Y27.4156 
G01 X-9.4234 Y27.2240 
G01 X-9.2970 Y27.0500 
G01 X-8.5100 Y26.2630 
G01 X-8.3360 Y26.1366 
G01 X-8.3252 Y26.1311 
G00 Z2.0000  F3000
G00 X-5.3217 Y33.4156  F3000
G01 Z-0.2000 F200.00 
G01 X-5.3217 Y33.4393 F500.00 
G01 X-5.3191 Y33.4895 
G01 X-5.3217 Y33.5019 
G01 X-5.3217 Y33.5146 
G01 X-5.3347 Y33.5632 
G01 X-5.3452 Y33.6124 
G01 X-5.3509 Y33.6237 
G01 X-5.3542 Y33.6360 
G01 X-5.3794 Y33.6795 
G01 X-5.3826 Y33.6859 
G01 X-4.3475 Y33.6859 
G01 X-4.2525 Y33.7009 
G01 X-4.2530 Y33.6975 
G01 X-4.2611 Y33.6670 
G01 X-4.2611 Y33.6355 
G01 X-4.2653 Y33.6042 
G01 X-4.2611 Y33.5729 
G01 X-4.2611 Y33.5414 
G01 X-4.2530 Y33.5109 
G01 X-4.2489 Y33.4796 
G01 X-4.2368 Y33.4505 
G01 X-4.2289 Y33.4209 
G01 X-5.2885 Y33.4209 
G01 X-5.3217 Y33.4156 
G00 Z2.0000  F3000
G00 X-20.5541 Y36.1689  F3000
G01 Z-0.2000 F200.00 
G01 X-21.4360 Y36.1689 F500.00 
G01 X-21.4478 Y36.2132 
G01 X-21.4524 Y36.2211 
G01 X-20.5531 Y36.2211 
G01 X-20.5541 Y36.2174 
G01 X-20.5541 Y36.1689 
G00 Z2.0000  F3000
G00 X-22.9832 Y36.1560  F3000
G01 Z-0.2000 F200.00 
G01 X-22.9931 Y36.1189 F500.00 
G01 X-23.9004 Y36.1189 
G01 X-23.9004 Y36.1597 
G01 X-23.9004 Y36.2219 
G01 X-23.9136 Y36.2711 
G01 X-23.6122 Y36.2711 
G01 X-23.5720 Y36.2631 
G01 X-22.9391 Y36.2631 
G01 X-22.9679 Y36.2132 
G01 X-22.9832 Y36.1560 
G00 Z2.0000  F3000
G00 X-23.0501 Y39.9289  F3000
G01 Z-0.2000 F200.00 
G01 X-23.3778 Y39.9289 F500.00 
G01 X-23.4180 Y39.9369 
G01 X-23.5720 Y39.9369 
G01 X-23.6122 Y39.9289 
G01 X-23.9399 Y39.9289 
G01 X-23.9363 Y39.9422 
G01 X-23.9363 Y40.0678 
G01 X-23.9399 Y40.0811 
G01 X-23.6122 Y40.0811 
G01 X-23.5720 Y40.0731 
G01 X-23.4180 Y40.0731 
G01 X-23.3778 Y40.0811 
G01 X-23.0501 Y40.0811 
G01 X-23.0537 Y40.0678 
G01 X-23.0537 Y39.9422 
G01 X-23.0501 Y39.9289 
G00 Z2.0000  F3000
G00 X-0.9004 Y1.0041  F3000
G01 Z-0.2000 F200.00 
G01 X-0.8271 Y1.1312 F500.00 
G01 X-0.7891 Y1.2729 
G01 X-0.7891 Y44.4471 
G01 X-0.8271 Y44.5888 
G01 X-0.9004 Y44.7159 
G01 X-1.0041 Y44.8196 
G01 X-1.1312 Y44.8929 
G01 X-1.2729 Y44.9309 
G01 X-3.8893 Y44.9309 
G01 X-3.9458 Y44.9343 
G01 X-3.9624 Y44.9309 
G01 X-3.9793 Y44.9309 
G01 X-4.0340 Y44.9162 
G01 X-4.0895 Y44.9049 
G01 X-4.1047 Y44.8973 
G01 X-4.1210 Y44.8929 
G01 X-4.1701 Y44.8646 
G01 X-4.2207 Y44.8393 
G01 X-4.2334 Y44.8280 
G01 X-4.2480 Y44.8196 
G01 X-4.2835 Y44.7842 
G01 X-4.2954 Y44.8081 
G01 X-4.3162 Y44.8583 
G01 X-4.3333 Y44.8839 
G01 X-4.3471 Y44.9114 
G01 X-4.3803 Y44.9543 
G01 X-4.4105 Y44.9994 
G01 X-4.4323 Y45.0212 
G01 X-4.4512 Y45.0455 
G01 X-4.4922 Y45.0811 
G01 X-4.5306 Y45.1195 
G01 X-4.5562 Y45.1366 
G01 X-4.5794 Y45.1567 
G01 X-4.6266 Y45.1836 
G01 X-4.6717 Y45.2138 
G01 X-4.7002 Y45.2256 
G01 X-4.7269 Y45.2408 
G01 X-4.7784 Y45.2580 
G01 X-4.8286 Y45.2788 
G01 X-4.8588 Y45.2848 
G01 X-4.8880 Y45.2945 
G01 X-4.9419 Y45.3013 
G01 X-4.9951 Y45.3119 
G01 X-5.0259 Y45.3119 
G01 X-5.0564 Y45.3157 
G01 X-5.1106 Y45.3119 
G01 X-26.6394 Y45.3119 
G01 X-26.6936 Y45.3157 
G01 X-26.7241 Y45.3119 
G01 X-26.7549 Y45.3119 
G01 X-26.8081 Y45.3013 
G01 X-26.8620 Y45.2945 
G01 X-26.8912 Y45.2848 
G01 X-26.9214 Y45.2788 
G01 X-26.9716 Y45.2580 
G01 X-27.0231 Y45.2408 
G01 X-27.0498 Y45.2256 
G01 X-27.0783 Y45.2138 
G01 X-27.1234 Y45.1836 
G01 X-27.1706 Y45.1567 
G01 X-27.1938 Y45.1366 
G01 X-27.2194 Y45.1195 
G01 X-27.2578 Y45.0811 
G01 X-27.2988 Y45.0455 
G01 X-27.3177 Y45.0212 
G01 X-27.3395 Y44.9994 
G01 X-27.3697 Y44.9543 
G01 X-27.4029 Y44.9114 
G01 X-27.4167 Y44.8839 
G01 X-27.4338 Y44.8583 
G01 X-27.4546 Y44.8081 
G01 X-27.8377 Y44.0419 
G01 X-28.3274 Y44.0419 
G01 X-28.3584 Y44.0598 
G01 X-28.4484 Y44.0839 
G01 X-29.5416 Y44.0839 
G01 X-29.6316 Y44.0598 
G01 X-29.7123 Y44.0132 
G01 X-29.7782 Y43.9473 
G01 X-29.8248 Y43.8666 
G01 X-29.8450 Y43.7911 
G01 X-29.8652 Y43.8666 
G01 X-29.9118 Y43.9473 
G01 X-29.9777 Y44.0132 
G01 X-30.0584 Y44.0598 
G01 X-30.1484 Y44.0839 
G01 X-31.2416 Y44.0839 
G01 X-31.3316 Y44.0598 
G01 X-31.4123 Y44.0132 
G01 X-31.4782 Y43.9473 
G01 X-31.5248 Y43.8666 
G01 X-31.5489 Y43.7766 
G01 X-31.5489 Y43.5450 
G01 X-31.7845 Y43.3094 
G01 X-31.8788 Y43.1683 
G01 X-31.9438 Y43.0114 
G01 X-31.9769 Y42.8449 
G01 X-31.9769 Y32.9351 
G01 X-31.9438 Y32.7686 
G01 X-31.9005 Y32.6641 
G01 X-31.9207 Y32.6525 
G01 X-31.9548 Y32.6384 
G01 X-31.9840 Y32.6159 
G01 X-32.0159 Y32.5975 
G01 X-32.0419 Y32.5715 
G01 X-32.0711 Y32.5491 
G01 X-32.0935 Y32.5199 
G01 X-32.1196 Y32.4938 
G01 X-32.1380 Y32.4619 
G01 X-32.1604 Y32.4327 
G01 X-32.1745 Y32.3987 
G01 X-32.1929 Y32.3668 
G01 X-32.2025 Y32.3312 
G01 X-32.2166 Y32.2972 
G01 X-32.2214 Y32.2607 
G01 X-32.2309 Y32.2251 
G01 X-32.2309 Y32.1883 
G01 X-32.2357 Y32.1518 
G01 X-32.2309 Y32.1152 
G01 X-32.2309 Y1.2729 
G01 X-32.1929 Y1.1312 
G01 X-32.1196 Y1.0041 
G01 X-32.0159 Y0.9004 
G01 X-31.8888 Y0.8271 
G01 X-31.7471 Y0.7891 
G01 X-1.2729 Y0.7891 
G01 X-1.1312 Y0.8271 
G01 X-1.0041 Y0.9004 
G01 X-0.9004 Y1.0041 
G00 Z2.0000  F3000
G00 X-8.5378 Y26.1843  F3000
G01 Z-0.2000 F200.00 
G01 X-8.5936 Y26.1755 F500.00 
G01 X-8.8101 Y26.1051 
G01 X-9.0129 Y26.0018 
G01 X-9.1971 Y25.8680 
G01 X-9.3580 Y25.7071 
G01 X-9.4163 Y25.6269 
G01 X-9.8911 Y25.6269 
G01 X-9.8911 Y25.7316 
G01 X-9.9152 Y25.8216 
G01 X-9.9618 Y25.9023 
G01 X-10.0277 Y25.9682 
G01 X-10.1084 Y26.0148 
G01 X-10.1839 Y26.0350 
G01 X-10.1084 Y26.0552 
G01 X-10.0277 Y26.1018 
G01 X-9.9618 Y26.1677 
G01 X-9.9152 Y26.2484 
G01 X-9.8911 Y26.3384 
G01 X-9.8911 Y27.4316 
G01 X-9.9152 Y27.5216 
G01 X-9.9331 Y27.5526 
G01 X-9.9331 Y31.1999 
G01 X-9.9662 Y31.3664 
G01 X-10.0312 Y31.5233 
G01 X-10.1255 Y31.6644 
G01 X-13.3005 Y34.8394 
G01 X-13.4206 Y34.9595 
G01 X-13.5617 Y35.0538 
G01 X-13.5761 Y35.0598 
G01 X-13.5761 Y41.4231 
G01 X-13.6148 Y41.7166 
G01 X-13.6914 Y42.0027 
G01 X-13.8047 Y42.2762 
G01 X-13.9528 Y42.5327 
G01 X-14.1330 Y42.7676 
G01 X-14.3424 Y42.9770 
G01 X-14.5773 Y43.1572 
G01 X-14.8338 Y43.3053 
G01 X-15.1073 Y43.4186 
G01 X-15.3934 Y43.4952 
G01 X-15.6869 Y43.5339 
G01 X-15.9831 Y43.5339 
G01 X-16.2766 Y43.4952 
G01 X-16.3710 Y43.4700 
G01 X-16.3711 Y43.5073 
G01 X-16.3806 Y43.5429 
G01 X-16.3854 Y43.5794 
G01 X-16.3890 Y43.5881 
G01 X-5.6127 Y43.5881 
G01 X-5.3069 Y42.9765 
G01 X-5.3069 Y38.5790 
G01 X-5.4683 Y38.5534 
G01 X-5.6354 Y38.4991 
G01 X-5.7919 Y38.4194 
G01 X-5.9340 Y38.3162 
G01 X-6.0582 Y38.1920 
G01 X-6.1614 Y38.0499 
G01 X-6.2411 Y37.8934 
G01 X-6.2954 Y37.7263 
G01 X-6.3229 Y37.5528 
G01 X-6.3229 Y37.3772 
G01 X-6.2954 Y37.2037 
G01 X-6.2411 Y37.0366 
G01 X-6.1614 Y36.8801 
G01 X-6.0582 Y36.7380 
G01 X-5.9340 Y36.6138 
G01 X-5.7919 Y36.5106 
G01 X-5.6354 Y36.4309 
G01 X-5.4683 Y36.3766 
G01 X-5.2948 Y36.3491 
G01 X-4.1971 Y36.3491 
G01 X-4.2007 Y36.3346 
G01 X-4.2185 Y36.2683 
G01 X-4.2185 Y36.2636 
G01 X-4.2197 Y36.2590 
G01 X-4.2191 Y36.2248 
G01 X-4.3412 Y36.2441 
G01 X-7.0549 Y36.2441 
G01 X-7.1880 Y36.4176 
G01 X-8.0324 Y37.2620 
G01 X-8.5761 Y37.8057 
G01 X-8.5761 Y41.4231 
G01 X-8.6148 Y41.7166 
G01 X-8.6914 Y42.0027 
G01 X-8.8047 Y42.2762 
G01 X-8.9528 Y42.5327 
G01 X-9.1330 Y42.7676 
G01 X-9.3424 Y42.9770 
G01 X-9.5773 Y43.1572 
G01 X-9.8338 Y43.3053 
G01 X-10.1073 Y43.4186 
G01 X-10.3934 Y43.4952 
G01 X-10.6869 Y43.5339 
G01 X-10.9831 Y43.5339 
G01 X-11.2766 Y43.4952 
G01 X-11.5627 Y43.4186 
G01 X-11.8362 Y43.3053 
G01 X-12.0927 Y43.1572 
G01 X-12.3276 Y42.9770 
G01 X-12.5370 Y42.7676 
G01 X-12.7172 Y42.5327 
G01 X-12.8653 Y42.2762 
G01 X-12.9786 Y42.0027 
G01 X-13.0552 Y41.7166 
G01 X-13.0939 Y41.4231 
G01 X-13.0939 Y36.7219 
G01 X-13.0552 Y36.4284 
G01 X-12.9786 Y36.1423 
G01 X-12.8653 Y35.8688 
G01 X-12.7172 Y35.6123 
G01 X-12.5370 Y35.3774 
G01 X-11.2270 Y34.0674 
G01 X-10.3826 Y33.2230 
G01 X-10.1477 Y33.0428 
G01 X-9.8912 Y32.8947 
G01 X-9.7519 Y32.8370 
G01 X-9.7519 Y29.1251 
G01 X-9.7188 Y28.9586 
G01 X-9.6538 Y28.8017 
G01 X-9.5595 Y28.6606 
G01 X-9.5273 Y28.6284 
G01 X-9.5952 Y28.4951 
G01 X-9.6655 Y28.2786 
G01 X-9.7011 Y28.0538 
G01 X-9.7011 Y27.8262 
G01 X-9.6655 Y27.6014 
G01 X-9.5952 Y27.3849 
G01 X-9.4918 Y27.1821 
G01 X-9.3580 Y26.9979 
G01 X-8.5621 Y26.2020 
G01 X-8.5378 Y26.1843 
G00 Z2.0000  F3000
G00 X-5.2397 Y33.5009  F3000
G01 Z-0.2000 F200.00 
G01 X-5.2417 Y33.5103 F500.00 
G01 X-5.2417 Y33.5251 
G01 X-5.2569 Y33.5819 
G01 X-5.2620 Y33.6059 
G01 X-4.3457 Y33.6059 
G01 X-4.3411 Y33.5677 
G01 X-4.3411 Y33.5309 
G01 X-4.3331 Y33.5009 
G01 X-5.2397 Y33.5009 
G00 Z2.0000  F3000
G00 X-0.8513 Y0.9401  F3000
G01 Z-0.2000 F200.00 
G01 X-0.7816 Y1.0444 F500.00 
G01 X-0.7336 Y1.1604 
G01 X-0.7091 Y1.2834 
G01 X-0.7091 Y44.4365 
G01 X-0.7336 Y44.5596 
G01 X-0.7816 Y44.6756 
G01 X-0.8513 Y44.7799 
G01 X-0.9401 Y44.8687 
G01 X-1.0444 Y44.9384 
G01 X-1.1604 Y44.9864 
G01 X-1.2834 Y45.0109 
G01 X-3.8660 Y45.0109 
G01 X-3.8886 Y45.0137 
G01 X-3.9286 Y45.0109 
G01 X-3.9687 Y45.0109 
G01 X-3.9910 Y45.0065 
G01 X-4.0137 Y45.0048 
G01 X-4.0525 Y44.9942 
G01 X-4.0918 Y44.9864 
G01 X-4.1128 Y44.9777 
G01 X-4.1348 Y44.9717 
G01 X-4.1707 Y44.9537 
G01 X-4.2078 Y44.9384 
G01 X-4.2267 Y44.9258 
G01 X-4.2470 Y44.9156 
G01 X-4.2544 Y44.9098 
G01 X-4.2640 Y44.9241 
G01 X-4.2790 Y44.9542 
G01 X-4.3154 Y45.0011 
G01 X-4.3484 Y45.0504 
G01 X-4.3722 Y45.0742 
G01 X-4.3928 Y45.1008 
G01 X-4.4376 Y45.1397 
G01 X-4.4796 Y45.1816 
G01 X-4.5075 Y45.2003 
G01 X-4.5329 Y45.2223 
G01 X-4.5845 Y45.2517 
G01 X-4.6338 Y45.2847 
G01 X-4.6649 Y45.2976 
G01 X-4.6941 Y45.3142 
G01 X-4.7504 Y45.3330 
G01 X-4.8053 Y45.3557 
G01 X-4.8382 Y45.3623 
G01 X-4.8701 Y45.3729 
G01 X-4.9290 Y45.3803 
G01 X-4.9872 Y45.3919 
G01 X-5.0209 Y45.3919 
G01 X-5.0542 Y45.3961 
G01 X-5.1134 Y45.3919 
G01 X-26.6366 Y45.3919 
G01 X-26.6958 Y45.3961 
G01 X-26.7291 Y45.3919 
G01 X-26.7628 Y45.3919 
G01 X-26.8210 Y45.3803 
G01 X-26.8798 Y45.3729 
G01 X-26.9118 Y45.3623 
G01 X-26.9447 Y45.3557 
G01 X-26.9996 Y45.3330 
G01 X-27.0559 Y45.3142 
G01 X-27.0851 Y45.2976 
G01 X-27.1162 Y45.2847 
G01 X-27.1655 Y45.2517 
G01 X-27.2171 Y45.2223 
G01 X-27.2425 Y45.2003 
G01 X-27.2704 Y45.1816 
G01 X-27.3124 Y45.1397 
G01 X-27.3572 Y45.1008 
G01 X-27.3778 Y45.0742 
G01 X-27.4016 Y45.0504 
G01 X-27.4346 Y45.0011 
G01 X-27.4710 Y44.9542 
G01 X-27.4860 Y44.9241 
G01 X-27.5047 Y44.8962 
G01 X-27.5274 Y44.8413 
G01 X-27.8871 Y44.1219 
G01 X-28.3060 Y44.1219 
G01 X-28.3275 Y44.1343 
G01 X-28.4379 Y44.1639 
G01 X-29.5521 Y44.1639 
G01 X-29.6625 Y44.1343 
G01 X-29.7614 Y44.0772 
G01 X-29.8422 Y43.9964 
G01 X-29.8450 Y43.9916 
G01 X-29.8478 Y43.9964 
G01 X-29.9286 Y44.0772 
G01 X-30.0275 Y44.1343 
G01 X-30.1379 Y44.1639 
G01 X-31.2521 Y44.1639 
G01 X-31.3625 Y44.1343 
G01 X-31.4614 Y44.0772 
G01 X-31.5422 Y43.9964 
G01 X-31.5993 Y43.8975 
G01 X-31.6289 Y43.7871 
G01 X-31.6289 Y43.5781 
G01 X-31.8466 Y43.3604 
G01 X-31.9497 Y43.2062 
G01 X-32.0207 Y43.0347 
G01 X-32.0569 Y42.8528 
G01 X-32.0569 Y32.9272 
G01 X-32.0207 Y32.7453 
G01 X-32.0015 Y32.6990 
G01 X-32.0799 Y32.6466 
G01 X-32.1687 Y32.5579 
G01 X-32.2384 Y32.4535 
G01 X-32.2864 Y32.3376 
G01 X-32.3109 Y32.2145 
G01 X-32.3109 Y1.2834 
G01 X-32.2864 Y1.1604 
G01 X-32.2384 Y1.0444 
G01 X-32.1687 Y0.9401 
G01 X-32.0799 Y0.8513 
G01 X-31.9756 Y0.7816 
G01 X-31.8596 Y0.7336 
G01 X-31.7366 Y0.7091 
G01 X-1.2834 Y0.7091 
G01 X-1.1604 Y0.7336 
G01 X-1.0444 Y0.7816 
G01 X-0.9401 Y0.8513 
G01 X-0.8513 Y0.9401 
G00 Z2.0000  F3000
G00 X-8.6987 Y26.2255  F3000
G01 Z-0.2000 F200.00 
G01 X-8.8408 Y26.1793 F500.00 
G01 X-9.0549 Y26.0702 
G01 X-9.2492 Y25.9290 
G01 X-9.4190 Y25.7592 
G01 X-9.4570 Y25.7069 
G01 X-9.8111 Y25.7069 
G01 X-9.8111 Y25.7421 
G01 X-9.8407 Y25.8525 
G01 X-9.8978 Y25.9514 
G01 X-9.9786 Y26.0322 
G01 X-9.9834 Y26.0350 
G01 X-9.9786 Y26.0378 
G01 X-9.8978 Y26.1186 
G01 X-9.8407 Y26.2175 
G01 X-9.8111 Y26.3279 
G01 X-9.8111 Y27.4421 
G01 X-9.8407 Y27.5525 
G01 X-9.8531 Y27.5740 
G01 X-9.8531 Y31.0222 
G01 X-9.8531 Y31.2078 
G01 X-9.8893 Y31.3897 
G01 X-9.9603 Y31.5612 
G01 X-10.0634 Y31.7154 
G01 X-13.2384 Y34.8904 
G01 X-13.3696 Y35.0216 
G01 X-13.4961 Y35.1062 
G01 X-13.4961 Y41.4064 
G01 X-13.5255 Y41.6674 
G01 X-13.5840 Y41.9235 
G01 X-13.6707 Y42.1715 
G01 X-13.7847 Y42.4081 
G01 X-13.9245 Y42.6306 
G01 X-14.0883 Y42.8360 
G01 X-14.2740 Y43.0217 
G01 X-14.4794 Y43.1855 
G01 X-14.7018 Y43.3253 
G01 X-14.9385 Y43.4393 
G01 X-15.1353 Y43.5081 
G01 X-11.5347 Y43.5081 
G01 X-11.7315 Y43.4393 
G01 X-11.9681 Y43.3253 
G01 X-12.1906 Y43.1855 
G01 X-12.3960 Y43.0217 
G01 X-12.5817 Y42.8360 
G01 X-12.7455 Y42.6306 
G01 X-12.8853 Y42.4081 
G01 X-12.9993 Y42.1715 
G01 X-13.0860 Y41.9235 
G01 X-13.1445 Y41.6674 
G01 X-13.1739 Y41.4064 
G01 X-13.1739 Y36.7386 
G01 X-13.1445 Y36.4776 
G01 X-13.0860 Y36.2215 
G01 X-12.9993 Y35.9735 
G01 X-12.8853 Y35.7368 
G01 X-12.7455 Y35.5144 
G01 X-12.5817 Y35.3090 
G01 X-11.2717 Y33.9990 
G01 X-10.4510 Y33.1783 
G01 X-10.2456 Y33.0145 
G01 X-10.0231 Y32.8747 
G01 X-9.8319 Y32.7826 
G01 X-9.8319 Y29.1172 
G01 X-9.7957 Y28.9353 
G01 X-9.7247 Y28.7638 
G01 X-9.6244 Y28.6138 
G01 X-9.6693 Y28.5258 
G01 X-9.7435 Y28.2974 
G01 X-9.7811 Y28.0601 
G01 X-9.7811 Y27.8199 
G01 X-9.7435 Y27.5826 
G01 X-9.6693 Y27.3542 
G01 X-9.5602 Y27.1401 
G01 X-9.4190 Y26.9458 
G01 X-8.6987 Y26.2255 
G00 Z2.0000  F3000
G00 X-7.0142 Y36.3241  F3000
G01 Z-0.2000 F200.00 
G01 X-7.1433 Y36.4860 F500.00 
G01 X-7.9640 Y37.3067 
G01 X-8.4961 Y37.8388 
G01 X-8.4961 Y41.4064 
G01 X-8.5255 Y41.6674 
G01 X-8.5840 Y41.9235 
G01 X-8.6707 Y42.1715 
G01 X-8.7847 Y42.4081 
G01 X-8.9245 Y42.6306 
G01 X-9.0883 Y42.8360 
G01 X-9.2740 Y43.0217 
G01 X-9.4794 Y43.1855 
G01 X-9.7018 Y43.3253 
G01 X-9.9385 Y43.4393 
G01 X-10.1353 Y43.5081 
G01 X-5.6621 Y43.5081 
G01 X-5.3869 Y42.9576 
G01 X-5.3869 Y38.6473 
G01 X-5.4870 Y38.6315 
G01 X-5.6661 Y38.5733 
G01 X-5.8338 Y38.4878 
G01 X-5.9861 Y38.3772 
G01 X-6.1192 Y38.2441 
G01 X-6.2298 Y38.0918 
G01 X-6.3153 Y37.9241 
G01 X-6.3735 Y37.7450 
G01 X-6.4029 Y37.5591 
G01 X-6.4029 Y37.3709 
G01 X-6.3735 Y37.1850 
G01 X-6.3153 Y37.0059 
G01 X-6.2298 Y36.8382 
G01 X-6.1192 Y36.6859 
G01 X-5.9861 Y36.5528 
G01 X-5.8338 Y36.4422 
G01 X-5.6661 Y36.3567 
G01 X-5.5657 Y36.3241 
G01 X-7.0142 Y36.3241 
G00 Z2.0000  F3000
G00 X-0.7892 Y0.8891  F3000
G01 Z-0.2000 F200.00 
G01 X-0.7107 Y1.0065 F500.00 
G01 X-0.6567 Y1.1370 
G01 X-0.6291 Y1.2756 
G01 X-0.6291 Y44.4444 
G01 X-0.6567 Y44.5830 
G01 X-0.7107 Y44.7135 
G01 X-0.7892 Y44.8309 
G01 X-0.8891 Y44.9308 
G01 X-1.0065 Y45.0093 
G01 X-1.1370 Y45.0633 
G01 X-1.2756 Y45.0909 
G01 X-3.8610 Y45.0909 
G01 X-3.8864 Y45.0941 
G01 X-3.9314 Y45.0909 
G01 X-3.9766 Y45.0909 
G01 X-4.0017 Y45.0859 
G01 X-4.0273 Y45.0841 
G01 X-4.0708 Y45.0722 
G01 X-4.1151 Y45.0633 
G01 X-4.1388 Y45.0535 
G01 X-4.1635 Y45.0468 
G01 X-4.2039 Y45.0266 
G01 X-4.2266 Y45.0172 
G01 X-4.2505 Y45.0479 
G01 X-4.2862 Y45.1014 
G01 X-4.3120 Y45.1272 
G01 X-4.3344 Y45.1561 
G01 X-4.3830 Y45.1982 
G01 X-4.4286 Y45.2438 
G01 X-4.4589 Y45.2640 
G01 X-4.4865 Y45.2879 
G01 X-4.5424 Y45.3198 
G01 X-4.5959 Y45.3556 
G01 X-4.6297 Y45.3696 
G01 X-4.6614 Y45.3876 
G01 X-4.7224 Y45.4080 
G01 X-4.7819 Y45.4326 
G01 X-4.8177 Y45.4397 
G01 X-4.8523 Y45.4513 
G01 X-4.9162 Y45.4593 
G01 X-4.9794 Y45.4719 
G01 X-5.0159 Y45.4719 
G01 X-5.0520 Y45.4765 
G01 X-5.1162 Y45.4719 
G01 X-26.6337 Y45.4719 
G01 X-26.6980 Y45.4765 
G01 X-26.7341 Y45.4719 
G01 X-26.7706 Y45.4719 
G01 X-26.8338 Y45.4593 
G01 X-26.8977 Y45.4513 
G01 X-26.9323 Y45.4397 
G01 X-26.9681 Y45.4326 
G01 X-27.0276 Y45.4080 
G01 X-27.0886 Y45.3876 
G01 X-27.1203 Y45.3696 
G01 X-27.1541 Y45.3556 
G01 X-27.2076 Y45.3198 
G01 X-27.2635 Y45.2879 
G01 X-27.2911 Y45.2640 
G01 X-27.3214 Y45.2438 
G01 X-27.3670 Y45.1982 
G01 X-27.4156 Y45.1561 
G01 X-27.4380 Y45.1272 
G01 X-27.4638 Y45.1014 
G01 X-27.4995 Y45.0479 
G01 X-27.5390 Y44.9970 
G01 X-27.5553 Y44.9644 
G01 X-27.5756 Y44.9340 
G01 X-27.6002 Y44.8746 
G01 X-27.9366 Y44.2019 
G01 X-28.2846 Y44.2019 
G01 X-28.2966 Y44.2089 
G01 X-28.4273 Y44.2439 
G01 X-29.5627 Y44.2439 
G01 X-29.6934 Y44.2089 
G01 X-29.8105 Y44.1412 
G01 X-29.8450 Y44.1068 
G01 X-29.8795 Y44.1412 
G01 X-29.9966 Y44.2089 
G01 X-30.1273 Y44.2439 
G01 X-31.2627 Y44.2439 
G01 X-31.3934 Y44.2089 
G01 X-31.5105 Y44.1412 
G01 X-31.6062 Y44.0455 
G01 X-31.6739 Y43.9284 
G01 X-31.7089 Y43.7977 
G01 X-31.7089 Y43.6113 
G01 X-31.9088 Y43.4114 
G01 X-32.0206 Y43.2441 
G01 X-32.0976 Y43.0581 
G01 X-32.1369 Y42.8606 
G01 X-32.1369 Y32.9194 
G01 X-32.0992 Y32.7299 
G01 X-32.1309 Y32.7088 
G01 X-32.2308 Y32.6089 
G01 X-32.3093 Y32.4914 
G01 X-32.3633 Y32.3609 
G01 X-32.3909 Y32.2224 
G01 X-32.3909 Y1.2756 
G01 X-32.3633 Y1.1370 
G01 X-32.3093 Y1.0065 
G01 X-32.2308 Y0.8891 
G01 X-32.1309 Y0.7892 
G01 X-32.0135 Y0.7107 
G01 X-31.8830 Y0.6567 
G01 X-31.7444 Y0.6291 
G01 X-1.2756 Y0.6291 
G01 X-1.1370 Y0.6567 
G01 X-1.0065 Y0.7107 
G01 X-0.8891 Y0.7892 
G01 X-0.7892 Y0.8891 
G00 Z2.0000  F3000
G00 X-8.8476 Y26.2612  F3000
G01 Z-0.2000 F200.00 
G01 X-8.8715 Y26.2534 F500.00 
G01 X-9.0968 Y26.1387 
G01 X-9.3013 Y25.9901 
G01 X-9.4801 Y25.8113 
G01 X-9.4978 Y25.7869 
G01 X-9.7403 Y25.7869 
G01 X-9.7661 Y25.8834 
G01 X-9.8338 Y26.0005 
G01 X-9.8682 Y26.0350 
G01 X-9.8338 Y26.0695 
G01 X-9.7661 Y26.1866 
G01 X-9.7311 Y26.3173 
G01 X-9.7311 Y27.2993 
G01 X-9.6287 Y27.0982 
G01 X-9.4801 Y26.8937 
G01 X-8.8476 Y26.2612 
G00 Z2.0000  F3000
G00 X-9.7731 Y28.4652  F3000
G01 Z-0.2000 F200.00 
G01 X-9.7731 Y28.6923 F500.00 
G01 X-9.7170 Y28.6084 
G01 X-9.7434 Y28.5565 
G01 X-9.7731 Y28.4652 
G00 Z2.0000  F3000
G00 X-9.9119 Y31.6327  F3000
G01 Z-0.2000 F200.00 
G01 X-10.0012 Y31.7664 F500.00 
G01 X-13.1762 Y34.9414 
G01 X-13.3186 Y35.0838 
G01 X-13.4161 Y35.1489 
G01 X-13.4161 Y41.4108 
G01 X-13.4465 Y41.6808 
G01 X-13.5070 Y41.9457 
G01 X-13.5967 Y42.2021 
G01 X-13.7146 Y42.4469 
G01 X-13.8591 Y42.6770 
G01 X-14.0285 Y42.8894 
G01 X-14.2206 Y43.0815 
G01 X-14.4330 Y43.2509 
G01 X-14.6631 Y43.3954 
G01 X-14.7310 Y43.4281 
G01 X-11.9390 Y43.4281 
G01 X-12.0069 Y43.3954 
G01 X-12.2370 Y43.2509 
G01 X-12.4494 Y43.0815 
G01 X-12.6415 Y42.8894 
G01 X-12.8109 Y42.6770 
G01 X-12.9554 Y42.4469 
G01 X-13.0733 Y42.2021 
G01 X-13.1630 Y41.9457 
G01 X-13.2235 Y41.6808 
G01 X-13.2539 Y41.4108 
G01 X-13.2539 Y36.7342 
G01 X-13.2235 Y36.4642 
G01 X-13.1630 Y36.1993 
G01 X-13.0733 Y35.9429 
G01 X-12.9554 Y35.6981 
G01 X-12.8109 Y35.4680 
G01 X-12.6415 Y35.2556 
G01 X-11.3315 Y33.9456 
G01 X-10.5044 Y33.1185 
G01 X-10.2920 Y32.9491 
G01 X-10.0619 Y32.8046 
G01 X-9.9119 Y32.7323 
G01 X-9.9119 Y31.6327 
G00 Z2.0000  F3000
G00 X-6.9757 Y36.4041  F3000
G01 Z-0.2000 F200.00 
G01 X-7.0835 Y36.5394 F500.00 
G01 X-7.9106 Y37.3665 
G01 X-8.4161 Y37.8719 
G01 X-8.4161 Y41.4108 
G01 X-8.4465 Y41.6808 
G01 X-8.5070 Y41.9457 
G01 X-8.5967 Y42.2021 
G01 X-8.7146 Y42.4469 
G01 X-8.8591 Y42.6770 
G01 X-9.0285 Y42.8894 
G01 X-9.2206 Y43.0815 
G01 X-9.4330 Y43.2509 
G01 X-9.6631 Y43.3954 
G01 X-9.7310 Y43.4281 
G01 X-5.7116 Y43.4281 
G01 X-5.4669 Y42.9388 
G01 X-5.4669 Y38.7156 
G01 X-5.5058 Y38.7095 
G01 X-5.6968 Y38.6474 
G01 X-5.8757 Y38.5562 
G01 X-6.0382 Y38.4382 
G01 X-6.1802 Y38.2962 
G01 X-6.2982 Y38.1337 
G01 X-6.3894 Y37.9548 
G01 X-6.4515 Y37.7638 
G01 X-6.4829 Y37.5654 
G01 X-6.4829 Y37.3646 
G01 X-6.4515 Y37.1662 
G01 X-6.3894 Y36.9752 
G01 X-6.2982 Y36.7963 
G01 X-6.1802 Y36.6338 
G01 X-6.0382 Y36.4918 
G01 X-5.9175 Y36.4041 
G01 X-6.9757 Y36.4041 
G00 Z2.0000  F3000
G00 X-0.7270 Y0.8381  F3000
G01 Z-0.2000 F200.00 
G01 X-0.6398 Y0.9686 F500.00 
G01 X-0.5797 Y1.1137 
G01 X-0.5491 Y1.2677 
G01 X-0.5491 Y44.4523 
G01 X-0.5797 Y44.6063 
G01 X-0.6398 Y44.7514 
G01 X-0.7270 Y44.8819 
G01 X-0.8381 Y44.9929 
G01 X-0.9686 Y45.0802 
G01 X-1.1137 Y45.1403 
G01 X-1.2677 Y45.1709 
G01 X-3.8559 Y45.1709 
G01 X-3.8842 Y45.1745 
G01 X-3.9343 Y45.1709 
G01 X-3.9845 Y45.1709 
G01 X-4.0124 Y45.1653 
G01 X-4.0408 Y45.1633 
G01 X-4.0892 Y45.1501 
G01 X-4.1385 Y45.1403 
G01 X-4.1648 Y45.1294 
G01 X-4.1922 Y45.1219 
G01 X-4.2022 Y45.1169 
G01 X-4.2341 Y45.1614 
G01 X-4.2370 Y45.1644 
G01 X-4.2395 Y45.1678 
G01 X-4.2979 Y45.2262 
G01 X-4.3558 Y45.2850 
G01 X-4.3592 Y45.2875 
G01 X-4.3622 Y45.2905 
G01 X-4.4291 Y45.3391 
G01 X-4.4953 Y45.3880 
G01 X-4.4991 Y45.3899 
G01 X-4.5025 Y45.3924 
G01 X-4.5761 Y45.4299 
G01 X-4.6493 Y45.4679 
G01 X-4.6533 Y45.4693 
G01 X-4.6570 Y45.4712 
G01 X-4.7356 Y45.4967 
G01 X-4.8138 Y45.5228 
G01 X-4.8180 Y45.5235 
G01 X-4.8220 Y45.5248 
G01 X-4.9036 Y45.5377 
G01 X-4.9849 Y45.5512 
G01 X-4.9891 Y45.5512 
G01 X-4.9933 Y45.5519 
G01 X-5.0757 Y45.5519 
G01 X-5.1584 Y45.5525 
G01 X-5.1625 Y45.5519 
G01 X-26.5875 Y45.5519 
G01 X-26.5916 Y45.5525 
G01 X-26.6743 Y45.5519 
G01 X-26.7567 Y45.5519 
G01 X-26.7609 Y45.5512 
G01 X-26.7651 Y45.5512 
G01 X-26.8464 Y45.5377 
G01 X-26.9280 Y45.5248 
G01 X-26.9320 Y45.5235 
G01 X-26.9362 Y45.5228 
G01 X-27.0144 Y45.4967 
G01 X-27.0930 Y45.4712 
G01 X-27.0967 Y45.4693 
G01 X-27.1007 Y45.4679 
G01 X-27.1739 Y45.4299 
G01 X-27.2475 Y45.3924 
G01 X-27.2509 Y45.3899 
G01 X-27.2547 Y45.3880 
G01 X-27.3209 Y45.3391 
G01 X-27.3878 Y45.2905 
G01 X-27.3908 Y45.2875 
G01 X-27.3942 Y45.2850 
G01 X-27.4521 Y45.2262 
G01 X-27.5105 Y45.1678 
G01 X-27.5130 Y45.1644 
G01 X-27.5159 Y45.1614 
G01 X-27.5640 Y45.0942 
G01 X-27.6124 Y45.0275 
G01 X-27.6143 Y45.0238 
G01 X-27.6168 Y45.0204 
G01 X-27.6537 Y44.9465 
G01 X-27.6912 Y44.8730 
G01 X-27.6925 Y44.8690 
G01 X-27.9860 Y44.2819 
G01 X-28.2755 Y44.2819 
G01 X-28.3218 Y44.3011 
G01 X-28.4365 Y44.3239 
G01 X-29.5535 Y44.3239 
G01 X-29.6682 Y44.3011 
G01 X-29.7763 Y44.2563 
G01 X-29.8450 Y44.2104 
G01 X-29.9137 Y44.2563 
G01 X-30.0218 Y44.3011 
G01 X-30.1365 Y44.3239 
G01 X-31.2535 Y44.3239 
G01 X-31.3682 Y44.3011 
G01 X-31.4763 Y44.2563 
G01 X-31.5736 Y44.1913 
G01 X-31.6563 Y44.1086 
G01 X-31.7213 Y44.0113 
G01 X-31.7661 Y43.9032 
G01 X-31.7889 Y43.7885 
G01 X-31.7889 Y43.6444 
G01 X-31.9555 Y43.4778 
G01 X-32.0574 Y43.3375 
G01 X-32.1362 Y43.1830 
G01 X-32.1898 Y43.0180 
G01 X-32.2169 Y42.8467 
G01 X-32.2169 Y32.9333 
G01 X-32.1899 Y32.7629 
G01 X-32.2929 Y32.6599 
G01 X-32.3231 Y32.6148 
G01 X-32.3802 Y32.5293 
G01 X-32.4403 Y32.3843 
G01 X-32.4709 Y32.2303 
G01 X-32.4709 Y1.2677 
G01 X-32.4403 Y1.1137 
G01 X-32.3802 Y0.9686 
G01 X-32.2929 Y0.8381 
G01 X-32.1819 Y0.7270 
G01 X-32.0514 Y0.6398 
G01 X-31.9063 Y0.5797 
G01 X-31.7523 Y0.5491 
G01 X-1.2677 Y0.5491 
G01 X-1.1137 Y0.5797 
G01 X-0.9686 Y0.6398 
G01 X-0.8381 Y0.7270 
G01 X-0.7270 Y0.8381 
G00 Z2.0000  F3000
G00 X-8.9865 Y26.2870  F3000
G01 Z-0.2000 F200.00 
G01 X-9.0023 Y26.2805 F500.00 
G01 X-9.1938 Y26.1699 
G01 X-9.3691 Y26.0354 
G01 X-9.5254 Y25.8791 
G01 X-9.5348 Y25.8669 
G01 X-9.6775 Y25.8669 
G01 X-9.7187 Y25.9663 
G01 X-9.7646 Y26.0350 
G01 X-9.7187 Y26.1037 
G01 X-9.6739 Y26.2118 
G01 X-9.6511 Y26.3265 
G01 X-9.6511 Y26.9897 
G01 X-9.5254 Y26.8259 
G01 X-8.9865 Y26.2870 
G00 Z2.0000  F3000
G00 X-9.9919 Y31.8702  F3000
G01 Z-0.2000 F200.00 
G01 X-13.1295 Y35.0078 F500.00 
G01 X-13.2522 Y35.1305 
G01 X-13.3361 Y35.1915 
G01 X-13.3361 Y41.4153 
G01 X-13.3675 Y41.6942 
G01 X-13.4300 Y41.9679 
G01 X-13.5227 Y42.2328 
G01 X-13.6445 Y42.4857 
G01 X-13.7938 Y42.7233 
G01 X-13.9688 Y42.9428 
G01 X-14.1672 Y43.1412 
G01 X-14.3867 Y43.3162 
G01 X-14.4374 Y43.3481 
G01 X-12.2326 Y43.3481 
G01 X-12.2833 Y43.3162 
G01 X-12.5028 Y43.1412 
G01 X-12.7012 Y42.9428 
G01 X-12.8762 Y42.7233 
G01 X-13.0255 Y42.4857 
G01 X-13.1473 Y42.2328 
G01 X-13.2400 Y41.9679 
G01 X-13.3025 Y41.6942 
G01 X-13.3339 Y41.4153 
G01 X-13.3339 Y37.0103 
G01 X-13.3339 Y36.7297 
G01 X-13.3025 Y36.4508 
G01 X-13.2400 Y36.1771 
G01 X-13.1473 Y35.9122 
G01 X-13.0255 Y35.6593 
G01 X-12.8762 Y35.4217 
G01 X-12.7012 Y35.2022 
G01 X-11.3912 Y33.8922 
G01 X-10.5578 Y33.0588 
G01 X-10.3383 Y32.8838 
G01 X-10.1007 Y32.7345 
G01 X-9.9919 Y32.6821 
G01 X-9.9919 Y31.8702 
G00 Z2.0000  F3000
G00 X-6.9371 Y36.4841  F3000
G01 Z-0.2000 F200.00 
G01 X-7.0238 Y36.5928 F500.00 
G01 X-7.8572 Y37.4262 
G01 X-8.3361 Y37.9051 
G01 X-8.3361 Y41.4153 
G01 X-8.3675 Y41.6942 
G01 X-8.4300 Y41.9679 
G01 X-8.5227 Y42.2328 
G01 X-8.6445 Y42.4857 
G01 X-8.7938 Y42.7233 
G01 X-8.9688 Y42.9428 
G01 X-9.1672 Y43.1412 
G01 X-9.3867 Y43.3162 
G01 X-9.4374 Y43.3481 
G01 X-5.7610 Y43.3481 
G01 X-5.5469 Y42.9199 
G01 X-5.5469 Y38.7802 
G01 X-5.7275 Y38.7216 
G01 X-5.9176 Y38.6247 
G01 X-6.0903 Y38.4992 
G01 X-6.2412 Y38.3483 
G01 X-6.3667 Y38.1756 
G01 X-6.4636 Y37.9855 
G01 X-6.5295 Y37.7825 
G01 X-6.5629 Y37.5717 
G01 X-6.5629 Y37.3583 
G01 X-6.5295 Y37.1475 
G01 X-6.4636 Y36.9445 
G01 X-6.3667 Y36.7544 
G01 X-6.2412 Y36.5817 
G01 X-6.1436 Y36.4841 
G01 X-6.9371 Y36.4841 
G00 Z2.0000  F3000
G00 Z5.0000  F3000
;M03 S0
M0
