; generated by Slic3r 1.2.9 on 2020-04-11 at 11:08:47

; external perimeters extrusion width = 0.50mm
; perimeters extrusion width = 0.85mm
; infill extrusion width = 0.87mm
; solid infill extrusion width = 0.85mm
; top infill extrusion width = 0.85mm

M107
;G28 ; home all axes
;G1 Z5 F5000 ; lift nozzle
G10 P0 S185
T0
M116

G21 ; set units to millimeters
G90 ; use absolute coordinates
M82 ; use absolute distances for extrusion
G92 E0
G1 Z0.300 F6000.000
G1 E-2.00000 F2400.00000
G92 E0
G1 X33.426 Y65.337 F6000.000
G1 E2.00000 F2400.00000
G1 X35.678 Y64.477 E2.19672 F750.000
G1 X37.117 Y64.333 E2.31484
G1 X156.646 Y64.262 E12.07230
G1 X159.023 Y64.658 E12.26902
G1 X161.143 Y65.806 E12.46574 F750.000
G1 X162.773 Y67.580 E12.66245
G1 X163.739 Y69.788 E12.85917
G1 X163.946 Y71.134 E12.97039
G1 X165.186 Y91.831 E14.66295
G1 X165.682 Y103.238 E15.59504
G1 X165.388 Y105.630 E15.79176
G1 X164.214 Y107.957 E16.00452
G1 X163.023 Y109.493 E16.16311
G1 X161.815 Y110.977 E16.31934
G1 X160.661 Y112.332 E16.46467
G1 X159.581 Y113.548 E16.59741
G1 X158.266 Y114.964 E16.75518
G1 X157.024 Y116.244 E16.90073
G1 X155.740 Y117.510 E17.04799
G1 X154.462 Y118.718 E17.19155
G1 X153.256 Y119.810 E17.32431
G1 X151.794 Y121.079 E17.48242
G1 X150.424 Y122.215 E17.62765
G1 X149.008 Y123.337 E17.77513
G1 X147.668 Y124.354 E17.91249
G1 X146.309 Y125.342 E18.04962
G1 X144.770 Y126.411 E18.20257
G1 X143.206 Y127.445 E18.35563
G1 X141.827 Y128.316 E18.48881
G1 X140.316 Y129.226 E18.63273
G1 X138.636 Y130.188 E18.79076
G1 X137.054 Y131.046 E18.93776
G1 X135.487 Y131.853 E19.08163
G1 X134.028 Y132.567 E19.21425
G1 X132.270 Y133.381 E19.37237
G1 X130.637 Y134.092 E19.51772
G1 X128.972 Y134.774 E19.66463
G1 X127.328 Y135.407 E19.80842
G1 X125.799 Y135.960 E19.94114
G1 X123.963 Y136.578 E20.09927
G1 X122.264 Y137.109 E20.24462
G1 X120.534 Y137.608 E20.39157
G1 X118.830 Y138.060 E20.53547
G1 X117.252 Y138.443 E20.66804
G1 X115.360 Y138.861 E20.82623
G1 X113.612 Y139.205 E20.97168
G1 X111.838 Y139.514 E21.11862
G1 X110.097 Y139.779 E21.26245
G1 X108.487 Y139.990 E21.39494
G1 X106.561 Y140.200 E21.55315
G1 X104.786 Y140.354 E21.69853
G1 X103.037 Y140.467 E21.84163
G1 X101.391 Y140.540 E21.97614
G1 X99.468 Y140.583 E22.13313
G1 X97.725 Y140.583 E22.27543
G1 X95.874 Y140.543 E22.42659
G1 X94.237 Y140.473 E22.56034
G1 X92.507 Y140.362 E22.70183
G1 X90.714 Y140.210 E22.84875
G1 X88.942 Y140.020 E22.99421
G1 X87.020 Y139.771 E23.15240
G1 X85.414 Y139.526 E23.28502
G1 X83.680 Y139.226 E23.42873
G1 X81.913 Y138.881 E23.57569
G1 X80.172 Y138.501 E23.72113
G1 X78.289 Y138.045 E23.87930
G1 X76.719 Y137.629 E24.01192
G1 X75.027 Y137.143 E24.15562
G1 X73.307 Y136.609 E24.30266
G1 X71.618 Y136.043 E24.44804
G1 X69.795 Y135.387 E24.60620
G1 X68.278 Y134.803 E24.73885
G1 X66.649 Y134.138 E24.88252
G1 X64.996 Y133.421 E25.02959
G1 X63.378 Y132.676 E25.17500
G1 X61.637 Y131.827 E25.33310
G1 X60.193 Y131.083 E25.46576
G1 X58.645 Y130.246 E25.60942
G1 X57.078 Y129.354 E25.75656
G1 X55.433 Y128.367 E25.91317
G1 X53.891 Y127.394 E26.06204
G1 X52.489 Y126.467 E26.19919
G1 X51.122 Y125.522 E26.33493
G1 X49.591 Y124.416 E26.48908
G1 X48.198 Y123.360 E26.63174
G1 X46.709 Y122.179 E26.78689
G1 X45.456 Y121.142 E26.91968
G1 X44.126 Y119.992 E27.06321
G1 X42.787 Y118.784 E27.21044
G1 X41.490 Y117.562 E27.35584
G1 X40.113 Y116.204 E27.51379
G1 X38.979 Y115.037 E27.64661
G1 X37.781 Y113.751 E27.79011
G1 X36.579 Y112.405 E27.93738
G1 X35.361 Y110.977 E28.09061
G1 X34.300 Y109.677 E28.22760
G1 X33.022 Y108.035 E28.39743
G1 X31.905 Y105.900 E28.59415
G1 X31.582 Y104.386 E28.72054
G1 X29.352 Y83.051 E30.47167
G1 X29.320 Y81.948 E30.56177
G1 X29.821 Y71.299 E31.43202
G1 X30.330 Y68.943 E31.62873
G1 X31.577 Y66.881 E31.82545
G1 X33.369 Y65.385 E32.01605
G1 X33.792 Y65.934 F6000.000
G1 X34.036 Y65.747 E32.04116 F750.000
G1 X37.118 Y64.988 E32.30029
G1 X156.647 Y64.917 E42.05775
G1 X158.911 Y65.312 E42.24539
G1 X160.906 Y66.455 E42.43303 F750.000
G1 X162.392 Y68.208 E42.62068
G1 X163.293 Y71.173 E42.87368
G1 X164.533 Y91.870 E44.56623
G1 X165.028 Y103.267 E45.49745
G1 X164.729 Y105.546 E45.68509
G1 X163.691 Y107.563 E45.87027
G1 X162.473 Y109.134 E46.03256
G1 X161.304 Y110.567 E46.18352
G1 X160.171 Y111.897 E46.32616
G1 X159.091 Y113.113 E46.45888
G1 X157.796 Y114.509 E46.61438
G1 X156.564 Y115.779 E46.75877
G1 X155.290 Y117.035 E46.90484
G1 X154.022 Y118.233 E47.04727
G1 X152.817 Y119.325 E47.18000
G1 X151.375 Y120.576 E47.33582
G1 X150.002 Y121.714 E47.48143
G1 X148.658 Y122.781 E47.62151
G1 X147.350 Y123.775 E47.75557
G1 X145.855 Y124.862 E47.90648
G1 X144.317 Y125.927 E48.05919
G1 X142.932 Y126.844 E48.19481
G1 X141.518 Y127.737 E48.33134
G1 X139.979 Y128.665 E48.47802
G1 X138.323 Y129.613 E48.63376
G1 X136.751 Y130.466 E48.77974
G1 X135.199 Y131.266 E48.92230
G1 X133.740 Y131.979 E49.05491
G1 X132.007 Y132.781 E49.21074
G1 X130.369 Y133.494 E49.35664
G1 X128.753 Y134.157 E49.49916
G1 X127.238 Y134.742 E49.63181
G1 X125.442 Y135.391 E49.78768
G1 X123.750 Y135.959 E49.93338
G1 X122.082 Y136.480 E50.07606
G1 X120.521 Y136.932 E50.20870
G1 X118.675 Y137.424 E50.36458
G1 X116.959 Y137.840 E50.50878
G1 X115.214 Y138.222 E50.65456
G1 X113.499 Y138.560 E50.79732
G1 X111.900 Y138.841 E50.92982
G1 X110.011 Y139.130 E51.08577
G1 X108.260 Y139.358 E51.22996
G1 X106.484 Y139.550 E51.37577
G1 X104.744 Y139.701 E51.51839
G1 X103.123 Y139.807 E51.65093
G1 X101.287 Y139.889 E51.80096
G1 X99.464 Y139.929 E51.94983
G1 X97.734 Y139.929 E52.09110
G1 X95.902 Y139.889 E52.24067
G1 X94.267 Y139.819 E52.37421
G1 X92.549 Y139.709 E52.51475
G1 X90.770 Y139.558 E52.66051
G1 X89.013 Y139.370 E52.80481
G1 X87.119 Y139.123 E52.96070
G1 X85.513 Y138.879 E53.09331
G1 X83.792 Y138.581 E53.23587
G1 X82.039 Y138.238 E53.38167
G1 X80.312 Y137.861 E53.52595
G1 X78.457 Y137.412 E53.68182
G1 X76.886 Y136.996 E53.81443
G1 X75.208 Y136.514 E53.95698
G1 X73.502 Y135.984 E54.10285
G1 X71.826 Y135.423 E54.24708
G1 X70.030 Y134.776 E54.40293
G1 X68.513 Y134.193 E54.53557
G1 X66.897 Y133.532 E54.67810
G1 X65.258 Y132.821 E54.82400
G1 X63.652 Y132.082 E54.96825
G1 X61.937 Y131.245 E55.12405
G1 X60.492 Y130.501 E55.25670
G1 X58.957 Y129.670 E55.39922
G1 X57.403 Y128.786 E55.54519
G1 X55.781 Y127.812 E55.69963
G1 X54.252 Y126.847 E55.84722
G1 X52.856 Y125.925 E55.98380
G1 X51.497 Y124.986 E56.11866
G1 X49.981 Y123.890 E56.27139
G1 X48.596 Y122.841 E56.41317
G1 X47.127 Y121.675 E56.56629
G1 X45.874 Y120.638 E56.69905
G1 X44.554 Y119.497 E56.84145
G1 X43.226 Y118.299 E56.98750
G1 X41.940 Y117.087 E57.13174
G1 X40.582 Y115.748 E57.28741
G1 X39.449 Y114.581 E57.42020
G1 X38.260 Y113.305 E57.56257
G1 X37.069 Y111.970 E57.70865
G1 X35.865 Y110.559 E57.86003
G1 X34.810 Y109.266 E57.99624
G1 X33.544 Y107.641 E58.16447
G1 X32.495 Y105.595 E58.35211
G1 X32.233 Y104.318 E58.45856
G1 X30.003 Y82.983 E60.20969
G1 X29.974 Y81.978 E60.29172
G1 X30.475 Y71.330 E61.16197
G1 X30.978 Y69.087 E61.34961
G1 X32.214 Y67.149 E61.53725
G1 X33.732 Y65.980 E61.69366
G1 E59.69366 F2400.00000
G92 E0
G1 X34.891 Y68.044 F6000.000
G1 E2.00000 F2400.00000
G1 X43.223 Y68.041 E2.68021 F750.000
G1 X44.674 Y68.721 E2.81101
G1 X46.213 Y70.539 E3.00539
G1 X47.212 Y71.657 E3.12779
G1 X48.227 Y72.743 E3.24916
G1 X49.135 Y73.674 E3.35532
G1 X50.336 Y74.856 E3.49292
G1 X51.430 Y75.881 E3.61530
G1 X52.538 Y76.873 E3.73669
G1 X53.525 Y77.720 E3.84283
G1 X54.827 Y78.791 E3.98046
G1 X56.007 Y79.715 E4.10281
G1 X57.199 Y80.605 E4.22423
G1 X58.256 Y81.361 E4.33034
G1 X59.648 Y82.312 E4.46800
G1 X60.906 Y83.127 E4.59032
G1 X62.172 Y83.909 E4.71177
G1 X63.292 Y84.567 E4.81785
G1 X64.763 Y85.392 E4.95553
G1 X66.088 Y86.092 E5.07784
G1 X67.418 Y86.758 E5.19930
G1 X68.592 Y87.315 E5.30536
G1 X70.136 Y88.007 E5.44347
G1 X71.508 Y88.584 E5.56495
G1 X72.897 Y89.131 E5.68684
G1 X74.298 Y89.648 E5.80872
G1 X75.714 Y90.134 E5.93098
G1 X77.133 Y90.587 E6.05249
G1 X78.569 Y91.010 E6.17474
G1 X80.010 Y91.400 E6.29662
G1 X81.455 Y91.757 E6.41814
G1 X82.722 Y92.042 E6.52415
G1 X84.376 Y92.376 E6.66191
G1 X85.847 Y92.637 E6.78379
G1 X87.322 Y92.865 E6.90568
G1 X88.802 Y93.060 E7.02756
G1 X90.287 Y93.223 E7.14944
G1 X91.774 Y93.352 E7.27133
G1 X93.264 Y93.449 E7.39321
G1 X94.756 Y93.512 E7.51510
G1 X96.252 Y93.542 E7.63728
G1 X97.550 Y93.541 E7.74323
G1 X99.043 Y93.509 E7.86511
G1 X100.729 Y93.433 E8.00291
G1 X102.024 Y93.346 E8.10888
G1 X103.508 Y93.215 E8.23044
G1 X104.996 Y93.051 E8.35264
G1 X106.668 Y92.825 E8.49043
G1 X107.951 Y92.624 E8.59641
G1 X109.417 Y92.362 E8.71795
G1 X110.880 Y92.067 E8.83983
G1 X112.341 Y91.739 E8.96206
G1 X113.978 Y91.329 E9.09982
G1 X115.231 Y90.987 E9.20583
G1 X116.658 Y90.564 E9.32734
G1 X118.084 Y90.108 E9.44960
G1 X119.496 Y89.621 E9.57149
G1 X121.077 Y89.032 E9.70920
G1 X122.285 Y88.553 E9.81525
G1 X123.656 Y87.976 E9.93673
G1 X125.019 Y87.366 E10.05861
G1 X126.372 Y86.723 E10.18090
G1 X127.878 Y85.963 E10.31860
G1 X129.025 Y85.353 E10.42467
G1 X130.324 Y84.627 E10.54612
G1 X131.615 Y83.867 E10.66844
G1 X132.885 Y83.082 E10.79032
G1 X134.297 Y82.160 E10.92799
G1 X135.370 Y81.426 E11.03409
G1 X136.580 Y80.561 E11.15552
G1 X137.775 Y79.666 E11.27739
G1 X138.954 Y78.741 E11.39974
G1 X140.255 Y77.668 E11.53738
G1 X141.241 Y76.821 E11.64351
G1 X142.347 Y75.827 E11.76491
G1 X143.440 Y74.801 E11.88728
G1 X144.640 Y73.617 E12.02489
G1 X145.547 Y72.685 E12.13105
G1 X146.561 Y71.598 E12.25242
G1 X147.559 Y70.478 E12.37482
G1 X149.095 Y68.659 E12.56920
G1 X150.545 Y67.978 E12.70000
G1 X158.878 Y67.970 E13.38021
G1 X160.867 Y71.960 E13.74414
G1 X159.396 Y73.909 E13.94349 F750.000
G1 X158.359 Y75.241 E14.08126
G1 X157.285 Y76.560 E14.22011
G1 X156.180 Y77.860 E14.35937
G1 X156.532 Y78.620 E14.42772
G1 X158.377 Y78.619 E14.57829
G1 X160.366 Y82.609 E14.94223
G1 X158.895 Y84.558 E15.14157
G1 X157.869 Y85.876 E15.27791
G1 X156.784 Y87.209 E15.41819
G1 X156.189 Y87.909 E15.49318
G1 X156.541 Y88.669 E15.56153
G1 X160.117 Y88.667 E15.85345
G1 X162.106 Y92.657 E16.21738
G1 X160.635 Y94.606 E16.41673
G1 X159.584 Y95.956 E16.55638
G1 X158.508 Y97.278 E16.69553
G1 X156.863 Y99.183 E16.90100
G1 X157.211 Y99.956 E16.97017
G1 X160.606 Y99.954 E17.24737
G1 X162.596 Y103.944 E17.61130
G1 X161.125 Y105.893 E17.81065
G1 X160.113 Y107.193 E17.94507
G1 X158.997 Y108.565 E18.08944
G1 X157.899 Y109.855 E18.22777
G1 X156.770 Y111.126 E18.36656
G1 X155.613 Y112.372 E18.50534
G1 X154.429 Y113.594 E18.64423
G1 X153.219 Y114.789 E18.78305
G1 X151.955 Y115.984 E18.92503
G1 X150.723 Y117.099 E19.06071
G1 X149.467 Y118.189 E19.19647
G1 X148.159 Y119.276 E19.33529
G1 X146.808 Y120.350 E19.47615
G1 X145.402 Y121.417 E19.62027
G1 X144.019 Y122.419 E19.75970
G1 X142.676 Y123.349 E19.89303
G1 X141.327 Y124.243 E20.02514
G1 X139.840 Y125.184 E20.16880
G1 X138.388 Y126.057 E20.30710
G1 X136.879 Y126.921 E20.44904
G1 X135.385 Y127.733 E20.58790
G1 X133.839 Y128.530 E20.72985
G1 X132.346 Y129.260 E20.86556
G1 X130.837 Y129.958 E21.00125
G1 X129.243 Y130.654 E21.14320
G1 X127.670 Y131.301 E21.28203
G1 X126.048 Y131.926 E21.42396
G1 X124.484 Y132.490 E21.55972
G1 X122.909 Y133.021 E21.69539
G1 X121.249 Y133.541 E21.83735
G1 X119.615 Y134.014 E21.97619
G1 X117.972 Y134.451 E22.11504
G1 X116.282 Y134.861 E22.25698
G1 X114.658 Y135.218 E22.39270
G1 X113.028 Y135.541 E22.52838
G1 X111.353 Y135.835 E22.66720
G1 X109.672 Y136.093 E22.80604
G1 X107.947 Y136.319 E22.94802
G1 X106.257 Y136.504 E23.08685
G1 X104.562 Y136.651 E23.22568
G1 X102.822 Y136.764 E23.36808
G1 X101.188 Y136.836 E23.50154
G1 X99.556 Y136.872 E23.63480
G1 X97.783 Y136.874 E23.77953
G1 X96.091 Y136.839 E23.91772
G1 X94.394 Y136.767 E24.05637
G1 X92.669 Y136.655 E24.19752
G1 X91.013 Y136.513 E24.33316
G1 X89.360 Y136.335 E24.46888
G1 X87.636 Y136.112 E24.61081
G1 X85.954 Y135.856 E24.74970
G1 X84.278 Y135.565 E24.88851
G1 X82.610 Y135.237 E25.02732
G1 X80.911 Y134.865 E25.16932
G1 X79.258 Y134.465 E25.30815
G1 X77.651 Y134.039 E25.44384
G1 X76.054 Y133.579 E25.57951
G1 X74.393 Y133.062 E25.72149
G1 X72.781 Y132.521 E25.86032
G1 X71.181 Y131.945 E25.99917
G1 X69.557 Y131.321 E26.14113
G1 X67.984 Y130.676 E26.27996
G1 X66.460 Y130.012 E26.41564
G1 X64.950 Y129.317 E26.55132
G1 X63.386 Y128.555 E26.69332
G1 X61.874 Y127.777 E26.83214
G1 X60.379 Y126.966 E26.97098
G1 X58.869 Y126.104 E27.11294
G1 X57.371 Y125.204 E27.25564
G1 X55.991 Y124.335 E27.38873
G1 X54.622 Y123.431 E27.52264
G1 X53.172 Y122.429 E27.66651
G1 X51.791 Y121.429 E27.80569
G1 X50.442 Y120.407 E27.94386
G1 X49.090 Y119.335 E28.08474
G1 X47.781 Y118.250 E28.22357
G1 X46.523 Y117.162 E28.35930
G1 X45.291 Y116.048 E28.49493
G1 X44.025 Y114.854 E28.63697
G1 X42.813 Y113.660 E28.77580
G1 X41.628 Y112.440 E28.91463
G1 X40.444 Y111.167 E29.05655
G1 X39.314 Y109.897 E29.19538
G1 X38.224 Y108.619 E29.33248
G1 X37.173 Y107.331 E29.46818
G1 X36.108 Y105.967 E29.60942
G1 X34.635 Y104.020 E29.80874
G1 X36.620 Y100.028 E30.17267
G1 X39.050 Y100.026 E30.37105
G1 X39.396 Y99.253 E30.44021
G1 X37.750 Y97.350 E30.64566
G1 X36.671 Y96.028 E30.78496
G1 X35.619 Y94.680 E30.92452
G1 X34.146 Y92.733 E31.12384
G1 X36.130 Y88.741 E31.48777
G1 X36.237 Y88.741 E31.49650
G1 X36.588 Y87.980 E31.56485
G1 X35.982 Y87.269 E31.64116
G1 X34.906 Y85.950 E31.78009
G1 X33.878 Y84.632 E31.91651
G1 X32.405 Y82.685 E32.11582
G1 X34.390 Y78.693 E32.47975
G1 X37.249 Y78.691 E32.71316
G1 X37.600 Y77.931 E32.78150
G1 X36.495 Y76.635 E32.92047
G1 X35.419 Y75.315 E33.05948
G1 X34.379 Y73.983 E33.19742
G1 X32.906 Y72.036 E33.39673
G1 X34.857 Y68.111 E33.75454
G1 X35.296 Y68.698 F6000.000
G1 X43.077 Y68.696 E34.38973 F750.000
G1 X44.265 Y69.252 E34.49675
G1 X45.720 Y70.970 E34.68054
G1 X46.729 Y72.099 E34.80413
G1 X47.754 Y73.196 E34.92669
G1 X48.667 Y74.132 E35.03345
G1 X49.889 Y75.334 E35.17333
G1 X50.984 Y76.360 E35.29591
G1 X51.958 Y77.233 E35.40265
G1 X53.252 Y78.347 E35.54206
G1 X54.423 Y79.306 E35.66561
G1 X55.606 Y80.232 E35.78821
G1 X56.654 Y81.016 E35.89506
G1 X58.041 Y82.010 E36.03436
G1 X59.292 Y82.861 E36.15788
G1 X60.552 Y83.678 E36.28051
G1 X61.664 Y84.366 E36.38720
G1 X63.140 Y85.236 E36.52709
G1 X64.452 Y85.968 E36.64973
G1 X65.607 Y86.579 E36.75640
G1 X67.133 Y87.347 E36.89588
G1 X68.501 Y87.994 E37.01936
G1 X69.873 Y88.607 E37.14203
G1 X71.077 Y89.114 E37.24868
G1 X72.666 Y89.743 E37.38818
G1 X74.080 Y90.265 E37.51125
G1 X75.506 Y90.755 E37.63432
G1 X76.942 Y91.213 E37.75740
G1 X78.389 Y91.639 E37.88047
G1 X79.844 Y92.033 E38.00355
G1 X81.308 Y92.395 E38.12662
G1 X82.783 Y92.724 E38.25005
G1 X84.257 Y93.020 E38.37277
G1 X85.746 Y93.284 E38.49619
G1 X87.236 Y93.514 E38.61926
G1 X88.726 Y93.710 E38.74200
G1 X90.024 Y93.854 E38.84857
G1 X91.727 Y94.005 E38.98814
G1 X93.232 Y94.102 E39.11122
G1 X94.738 Y94.166 E39.23429
G1 X96.249 Y94.196 E39.35767
G1 X97.554 Y94.196 E39.46421
G1 X99.058 Y94.164 E39.58698
G1 X100.564 Y94.098 E39.71005
G1 X102.072 Y93.999 E39.83344
G1 X103.570 Y93.867 E39.95619
G1 X105.072 Y93.701 E40.07958
G1 X106.567 Y93.502 E40.20266
G1 X108.057 Y93.270 E40.32573
G1 X109.541 Y93.005 E40.44881
G1 X111.019 Y92.707 E40.57188
G1 X112.490 Y92.376 E40.69496
G1 X113.953 Y92.013 E40.81803
G1 X115.601 Y91.561 E40.95756
G1 X116.853 Y91.189 E41.06418
G1 X118.285 Y90.731 E41.18687
G1 X119.710 Y90.239 E41.30994
G1 X121.128 Y89.714 E41.43340
G1 X122.530 Y89.160 E41.55648
G1 X124.104 Y88.494 E41.69597
G1 X125.296 Y87.958 E41.80263
G1 X126.653 Y87.314 E41.92529
G1 X128.005 Y86.635 E42.04878
G1 X129.513 Y85.832 E42.18824
G1 X130.653 Y85.193 E42.29492
G1 X131.948 Y84.431 E42.41756
G1 X133.234 Y83.635 E42.54107
G1 X134.665 Y82.701 E42.68052
G1 X135.744 Y81.964 E42.78722
G1 X136.970 Y81.087 E42.91030
G1 X138.335 Y80.060 E43.04972
G1 X139.363 Y79.252 E43.15644
G1 X140.528 Y78.295 E43.27952
G1 X141.821 Y77.180 E43.41893
G1 X142.794 Y76.306 E43.52567
G1 X143.888 Y75.278 E43.64825
G1 X145.108 Y74.074 E43.78814
G1 X146.021 Y73.137 E43.89489
G1 X147.044 Y72.039 E44.01745
G1 X148.052 Y70.909 E44.14104
G1 X149.505 Y69.189 E44.32484
G1 X150.692 Y68.632 E44.43185
G1 X158.473 Y68.625 E45.06704
G1 X160.100 Y71.889 E45.36481 F750.000
G1 X158.876 Y73.512 E45.53075
G1 X157.825 Y74.861 E45.67037
