; generated by Slic3r 1.3.0 on 2020-04-03 at 18:36:26

; external perimeters extrusion width = 0.55mm (2.09mm^3/s)
; perimeters extrusion width = 0.70mm (3.89mm^3/s)
; infill extrusion width = 0.62mm (3.44mm^3/s)
; solid infill extrusion width = 0.70mm (3.89mm^3/s)
; top infill extrusion width = 0.70mm (3.11mm^3/s)

M107
;G28 ; home all axes
;G1 Z5 F5000 ; lift nozzle
G10 P0 S185
T0
M116

; Filament gcode

; Filament gcode

G21 ; set units to millimeters
G90 ; use absolute coordinates
M82 ; use absolute distances for extrusion
G92 E0
G1 Z0.300 F6000.000
G1 E-2.00000 F2400.00000
G92 E0
G1 X31.386 Y68.966 F6000.000
G1 E2.00000 F2400.00000
G1 F750
G1 X33.607 Y68.048 E2.19055
G1 X35.231 Y67.863 E2.32014
G1 X154.760 Y67.792 E11.79615
G1 X157.131 Y68.188 E11.98670
G1 X159.243 Y69.335 E12.17724
G1 X160.866 Y71.108 E12.36779
G1 X161.822 Y73.313 E12.55834
G1 X162.007 Y75.710 E12.74889
G1 X161.400 Y78.035 E12.93943
G1 X160.569 Y79.443 E13.06902
G1 X160.404 Y79.660 E13.09063
G1 X159.343 Y81.023 E13.22762
G1 X158.240 Y82.378 E13.36606
G1 X157.017 Y83.815 E13.51566
G1 X155.835 Y85.144 E13.65668
G1 X154.624 Y86.446 E13.79766
G1 X153.383 Y87.725 E13.93895
G1 X152.116 Y88.975 E14.08005
G1 X150.821 Y90.198 E14.22125
G1 X149.502 Y91.392 E14.36229
G1 X148.273 Y92.458 E14.49130
G1 X146.785 Y93.693 E14.64458
G1 X145.418 Y94.778 E14.78292
G1 X144.108 Y95.774 E14.91338
G1 X142.495 Y96.944 E15.07137
G1 X141.124 Y97.894 E15.20360
G1 X139.636 Y98.880 E15.34514
G1 X138.191 Y99.792 E15.48056
G1 X136.682 Y100.702 E15.62028
G1 X135.003 Y101.663 E15.77362
G1 X133.438 Y102.512 E15.91482
G1 X131.994 Y103.258 E16.04364
G1 X130.256 Y104.108 E16.19708
G1 X128.639 Y104.854 E16.33820
G1 X127.150 Y105.504 E16.46700
G1 X125.361 Y106.240 E16.62041
G1 X123.700 Y106.880 E16.76147
G1 X122.171 Y107.432 E16.89037
G1 X120.337 Y108.050 E17.04380
G1 X118.638 Y108.581 E17.18490
G1 X117.077 Y109.033 E17.31373
G1 X115.206 Y109.531 E17.46723
G1 X113.477 Y109.950 E17.60832
G1 X111.890 Y110.300 E17.73710
G1 X109.990 Y110.676 E17.89066
G1 X108.238 Y110.981 E18.03169
G1 X106.632 Y111.228 E18.16046
G1 X104.712 Y111.479 E18.31399
G1 X102.942 Y111.671 E18.45510
G1 X101.325 Y111.812 E18.58382
G1 X99.366 Y111.940 E18.73943
G1 X97.687 Y112.013 E18.87268
G1 X95.934 Y112.053 E19.01170
G1 X94.024 Y112.052 E19.16309
G1 X92.352 Y112.016 E19.29570
G1 X90.624 Y111.943 E19.43284
G1 X88.875 Y111.831 E19.57175
G1 X87.102 Y111.680 E19.71281
G1 X85.176 Y111.472 E19.86639
G1 X83.411 Y111.241 E20.00751
G1 X81.805 Y110.997 E20.13630
G1 X80.052 Y110.693 E20.27737
G1 X78.305 Y110.352 E20.41845
G1 X76.413 Y109.937 E20.57199
G1 X74.835 Y109.555 E20.70076
G1 X73.113 Y109.100 E20.84191
G1 X71.403 Y108.609 E20.98299
G1 X69.722 Y108.087 E21.12252
G1 X67.868 Y107.464 E21.27760
G1 X66.339 Y106.914 E21.40643
G1 X64.677 Y106.276 E21.54754
G1 X63.029 Y105.603 E21.68868
G1 X61.415 Y104.902 E21.82813
G1 X59.639 Y104.083 E21.98320
G1 X58.178 Y103.371 E22.11206
G1 X56.595 Y102.558 E22.25316
G1 X54.894 Y101.635 E22.40657
G1 X53.349 Y100.751 E22.54769
G1 X51.838 Y99.843 E22.68742
G1 X50.391 Y98.931 E22.82306
G1 X48.985 Y98.004 E22.95655
G1 X47.346 Y96.870 E23.11459
G1 X45.993 Y95.889 E23.24700
G1 X44.606 Y94.838 E23.38498
G1 X43.238 Y93.755 E23.52336
G1 X41.866 Y92.621 E23.66449
G1 X40.519 Y91.457 E23.80561
G1 X39.214 Y90.279 E23.94495
G1 X37.791 Y88.937 E24.10003
G1 X36.633 Y87.794 E24.22902
G1 X35.391 Y86.519 E24.37014
G1 X34.178 Y85.216 E24.51128
G1 X32.993 Y83.888 E24.65239
G1 X31.775 Y82.461 E24.80110
G1 X30.714 Y81.161 E24.93413
G1 X29.437 Y79.521 E25.09893
G1 X28.324 Y77.390 E25.28948
G1 X27.966 Y75.014 E25.48003
G1 X28.402 Y72.650 E25.67058
G1 X29.585 Y70.558 E25.86112
G1 X31.330 Y69.016 E26.04572
G1 X32.171 Y69.249 F6000.000
G1 F750
G1 X35.232 Y68.499 E26.29555
G1 X154.761 Y68.428 E35.77155
G1 X157.022 Y68.823 E35.95352
G1 X159.013 Y69.966 E36.13549
G1 X160.495 Y71.718 E36.31745
G1 X161.292 Y73.870 E36.49942
G1 X161.308 Y76.166 E36.68139
G1 X160.061 Y79.060 E36.93121
G1 X158.861 Y80.607 E37.08644
G1 X157.750 Y81.974 E37.22607
G1 X156.634 Y83.287 E37.36270
G1 X155.462 Y84.608 E37.50272
G1 X154.154 Y86.018 E37.65516
G1 X152.936 Y87.273 E37.79386
G1 X151.679 Y88.514 E37.93387
G1 X150.394 Y89.727 E38.07398
G1 X149.189 Y90.819 E38.20288
G1 X147.748 Y92.070 E38.35413
G1 X146.390 Y93.196 E38.49403
G1 X145.031 Y94.274 E38.63153
G1 X143.652 Y95.322 E38.76886
G1 X142.307 Y96.299 E38.90062
G1 X140.768 Y97.368 E39.04922
G1 X139.306 Y98.336 E39.18818
G1 X137.888 Y99.232 E39.32117
G1 X136.233 Y100.228 E39.47432
G1 X134.699 Y101.104 E39.61435
G1 X133.271 Y101.881 E39.74323
G1 X131.576 Y102.757 E39.89451
G1 X129.989 Y103.531 E40.03453
G1 X128.514 Y104.214 E40.16332
G1 X126.766 Y104.977 E40.31456
G1 X125.132 Y105.647 E40.45459
G1 X123.616 Y106.233 E40.58341
G1 X121.821 Y106.881 E40.73473
G1 X120.147 Y107.444 E40.87471
G1 X118.597 Y107.929 E41.00350
G1 X116.764 Y108.460 E41.15478
G1 X115.056 Y108.913 E41.29486
G1 X113.478 Y109.297 E41.42360
G1 X111.614 Y109.708 E41.57492
G1 X109.880 Y110.050 E41.71502
G1 X108.282 Y110.330 E41.84369
G1 X106.394 Y110.619 E41.99509
G1 X104.643 Y110.848 E42.13508
G1 X103.029 Y111.024 E42.26378
G1 X101.127 Y111.190 E42.41513
G1 X99.390 Y111.303 E42.55315
G1 X97.756 Y111.375 E42.68279
G1 X95.899 Y111.417 E42.83007
G1 X94.034 Y111.417 E42.97790
G1 X92.372 Y111.381 E43.10971
G1 X90.653 Y111.308 E43.24609
G1 X88.916 Y111.197 E43.38411
G1 X87.157 Y111.047 E43.52408
G1 X85.258 Y110.842 E43.67548
G1 X83.507 Y110.613 E43.81551
G1 X81.901 Y110.369 E43.94429
G1 X80.021 Y110.041 E44.09557
G1 X78.428 Y109.728 E44.22427
G1 X76.701 Y109.351 E44.36436
G1 X74.984 Y108.937 E44.50439
G1 X73.296 Y108.491 E44.64283
G1 X71.443 Y107.957 E44.79573
G1 X69.892 Y107.474 E44.92449
G1 X68.217 Y106.913 E45.06452
G1 X66.422 Y106.267 E45.21582
G1 X64.905 Y105.683 E45.34463
G1 X63.270 Y105.015 E45.48468
G1 X61.650 Y104.311 E45.62467
G1 X60.064 Y103.582 E45.76308
G1 X58.331 Y102.736 E45.91598
G1 X56.886 Y101.993 E46.04480
G1 X55.332 Y101.152 E46.18485
G1 X53.797 Y100.277 E46.32489
G1 X52.282 Y99.370 E46.46495
G1 X50.647 Y98.340 E46.61812
G1 X49.251 Y97.417 E46.75074
G1 X47.757 Y96.383 E46.89486
G1 X46.372 Y95.379 E47.03049
G1 X44.993 Y94.334 E47.16764
G1 X43.633 Y93.257 E47.30517
G1 X42.271 Y92.131 E47.44521
G1 X40.935 Y90.977 E47.58524
G1 X39.640 Y89.808 E47.72351
G1 X38.237 Y88.484 E47.87641
G1 X37.079 Y87.342 E48.00538
G1 X35.847 Y86.076 E48.14540
G1 X34.643 Y84.783 E48.28545
G1 X33.468 Y83.465 E48.42547
G1 X32.264 Y82.055 E48.57243
G1 X31.209 Y80.762 E48.70472
G1 X29.944 Y79.137 E48.86802
G1 X28.897 Y77.095 E49.04999
G1 X28.608 Y74.818 E49.23195
G1 X29.112 Y72.578 E49.41392
G1 X30.349 Y70.645 E49.59589
G1 X32.112 Y69.294 E49.77191
G1 E47.77191 F2400.00000
G92 E0
G1 X33.347 Y72.088 F6000.000
G1 E2.00000 F2400.00000
G1 F750
G1 X41.214 Y72.085 E2.65418
G1 X42.443 Y72.661 E2.76698
G1 X43.912 Y74.395 E2.95600
G1 X44.917 Y75.520 E3.08145
G1 X45.943 Y76.618 E3.20635
G1 X46.854 Y77.552 E3.31489
G1 X48.070 Y78.748 E3.45669
G1 X49.171 Y79.780 E3.58213
G1 X50.290 Y80.782 E3.70703
G1 X51.280 Y81.632 E3.81556
G1 X52.597 Y82.715 E3.95737
G1 X53.785 Y83.645 E4.08280
G1 X54.989 Y84.544 E4.20772
G1 X56.051 Y85.303 E4.31624
G1 X57.459 Y86.265 E4.45806
G1 X58.725 Y87.086 E4.58347
G1 X60.003 Y87.875 E4.70840
G1 X61.128 Y88.536 E4.81691
G1 X62.616 Y89.370 E4.95874
G1 X63.949 Y90.075 E5.08414
G1 X65.293 Y90.748 E5.20909
G1 X66.472 Y91.307 E5.31758
G1 X68.031 Y92.006 E5.45965
G1 X69.416 Y92.588 E5.58460
G1 X70.817 Y93.140 E5.70977
G1 X72.229 Y93.660 E5.83494
G1 X73.655 Y94.150 E5.96032
G1 X75.087 Y94.607 E6.08529
G1 X76.533 Y95.033 E6.21066
G1 X77.987 Y95.426 E6.33583
G1 X79.446 Y95.787 E6.46080
G1 X80.718 Y96.073 E6.56926
G1 X82.391 Y96.411 E6.71114
G1 X83.873 Y96.674 E6.83632
G1 X85.361 Y96.904 E6.96149
G1 X86.853 Y97.101 E7.08666
G1 X88.350 Y97.264 E7.21183
G1 X89.849 Y97.395 E7.33700
G1 X91.352 Y97.492 E7.46217
G1 X92.858 Y97.556 E7.58751
G1 X94.361 Y97.586 E7.71251
G1 X95.665 Y97.585 E7.82095
G1 X97.172 Y97.553 E7.94628
G1 X98.876 Y97.476 E8.08818
G1 X100.178 Y97.389 E8.19662
G1 X101.675 Y97.257 E8.32162
G1 X103.173 Y97.091 E8.44696
G1 X104.865 Y96.863 E8.58885
G1 X106.153 Y96.661 E8.69731
G1 X107.633 Y96.396 E8.82229
G1 X109.108 Y96.099 E8.94746
G1 X110.579 Y95.768 E9.07282
G1 X112.235 Y95.354 E9.21470
G1 X113.493 Y95.011 E9.32316
G1 X114.934 Y94.584 E9.44813
G1 X116.370 Y94.124 E9.57351
G1 X117.793 Y93.633 E9.69868
G1 X119.392 Y93.038 E9.84054
G1 X120.605 Y92.557 E9.94902
G1 X121.990 Y91.974 E10.07397
G1 X123.364 Y91.359 E10.19914
G1 X124.726 Y90.712 E10.32454
G1 X126.249 Y89.944 E10.46638
G1 X127.401 Y89.331 E10.57488
G1 X128.713 Y88.598 E10.69981
G1 X130.012 Y87.833 E10.82522
G1 X131.293 Y87.041 E10.95039
G1 X132.721 Y86.108 E11.09222
G1 X133.798 Y85.372 E11.20074
G1 X135.020 Y84.498 E11.32566
G1 X136.225 Y83.596 E11.45082
G1 X137.412 Y82.665 E11.57625
G1 X138.728 Y81.580 E11.71806
G1 X139.717 Y80.729 E11.82659
G1 X140.835 Y79.725 E11.95150
G1 X141.935 Y78.692 E12.07694
G1 X143.148 Y77.495 E12.21868
G1 X144.059 Y76.560 E12.32728
G1 X145.083 Y75.461 E12.45217
G1 X146.087 Y74.334 E12.57762
G1 X147.555 Y72.598 E12.76665
G1 X148.783 Y72.021 E12.87945
G1 X156.650 Y72.014 E13.53363
G1 X158.334 Y75.392 E13.84748
G1 X157.071 Y77.066 E14.02183
G1 X156.013 Y78.424 E14.16491
G1 X154.975 Y79.700 E14.30172
G1 X153.891 Y80.975 E14.44090
G1 X152.748 Y82.261 E14.58397
G1 X151.599 Y83.499 E14.72434
G1 X150.446 Y84.689 E14.86214
G1 X149.222 Y85.898 E15.00522
G1 X147.969 Y87.083 E15.14865
G1 X146.744 Y88.193 E15.28605
G1 X145.493 Y89.279 E15.42383
G1 X144.141 Y90.400 E15.56990
G1 X142.855 Y91.421 E15.70640
G1 X141.551 Y92.413 E15.84263
G1 X140.146 Y93.433 E15.98698
G1 X138.713 Y94.426 E16.13197
G1 X137.352 Y95.327 E16.26764
G1 X135.977 Y96.196 E16.40295
G1 X134.463 Y97.107 E16.54984
G1 X132.998 Y97.946 E16.69026
G1 X131.542 Y98.737 E16.82799
G1 X130.013 Y99.527 E16.97112
G1 X128.496 Y100.269 E17.11154
G1 X126.993 Y100.964 E17.24924
G1 X125.416 Y101.653 E17.39236
G1 X123.821 Y102.307 E17.53570
G1 X122.278 Y102.903 E17.67317
G1 X120.720 Y103.466 E17.81092
G1 X119.055 Y104.026 E17.95700
G1 X117.478 Y104.520 E18.09444
G1 X115.887 Y104.980 E18.23216
G1 X114.223 Y105.423 E18.37530
G1 X112.548 Y105.830 E18.51864
G1 X110.933 Y106.185 E18.65613
G1 X109.309 Y106.507 E18.79384
G1 X107.613 Y106.804 E18.93696
G1 X105.976 Y107.055 E19.07467
G1 X104.302 Y107.275 E19.21508
G1 X102.591 Y107.462 E19.35823
G1 X100.908 Y107.609 E19.49864
G1 X99.259 Y107.717 E19.63609
G1 X97.555 Y107.792 E19.77790
G1 X95.798 Y107.830 E19.92405
G1 X94.174 Y107.831 E20.05908
G1 X92.524 Y107.796 E20.19632
G1 X90.780 Y107.722 E20.34142
G1 X89.131 Y107.616 E20.47887
G1 X87.448 Y107.471 E20.61926
G1 X85.737 Y107.286 E20.76243
G1 X84.062 Y107.068 E20.90283
G1 X82.425 Y106.819 E21.04056
G1 X80.729 Y106.524 E21.18368
G1 X79.104 Y106.204 E21.32136
G1 X77.454 Y105.843 E21.46180
G1 X75.781 Y105.438 E21.60493
G1 X74.180 Y105.014 E21.74264
G1 X72.558 Y104.547 E21.88304
G1 X70.915 Y104.034 E22.02618
G1 X69.345 Y103.507 E22.16388
G1 X67.755 Y102.935 E22.30432
G1 X66.149 Y102.317 E22.44743
G1 X64.616 Y101.689 E22.58515
G1 X63.068 Y101.015 E22.72556
G1 X61.505 Y100.295 E22.86869
G1 X60.016 Y99.568 E23.00641
G1 X58.515 Y98.796 E23.14682
G1 X57.002 Y97.975 E23.28994
G1 X55.563 Y97.154 E23.42767
G1 X54.117 Y96.286 E23.56794
G1 X52.675 Y95.379 E23.70957
G1 X51.311 Y94.479 E23.84543
G1 X49.824 Y93.450 E23.99580
G1 X48.505 Y92.494 E24.13126
G1 X47.165 Y91.478 E24.27109
G1 X45.850 Y90.436 E24.41060
G1 X44.549 Y89.359 E24.55102
G1 X43.272 Y88.254 E24.69144
G1 X42.019 Y87.122 E24.83186
G1 X40.791 Y85.963 E24.97228
G1 X39.614 Y84.803 E25.10970
G1 X38.389 Y83.543 E25.25578
G1 X37.261 Y82.330 E25.39354
G1 X36.117 Y81.045 E25.53662
G1 X35.033 Y79.773 E25.67554
G1 X33.964 Y78.463 E25.81616
G1 X32.934 Y77.143 E25.95540
G1 X31.667 Y75.468 E26.13004
G1 X33.313 Y72.155 E26.43765
G1 X33.760 Y72.754 F6000.000
G1 F750
G1 X41.066 Y72.752 E27.04512
G1 X42.026 Y73.201 E27.13325
G1 X43.411 Y74.834 E27.31128
G1 X44.426 Y75.970 E27.43797
G1 X45.461 Y77.079 E27.56410
G1 X46.378 Y78.019 E27.67327
G1 X47.609 Y79.230 E27.81691
G1 X48.721 Y80.272 E27.94358
G1 X49.851 Y81.284 E28.06972
G1 X50.847 Y82.139 E28.17888
G1 X52.182 Y83.236 E28.32254
G1 X53.381 Y84.175 E28.44920
G1 X54.597 Y85.083 E28.57535
G1 X55.665 Y85.846 E28.68449
G1 X57.091 Y86.821 E28.82816
G1 X58.369 Y87.650 E28.95481
G1 X59.660 Y88.447 E29.08098
G1 X60.792 Y89.112 E29.19010
G1 X62.299 Y89.956 E29.33379
G1 X63.646 Y90.668 E29.46043
G1 X65.003 Y91.348 E29.58660
G1 X66.188 Y91.910 E29.69572
G1 X67.767 Y92.618 E29.83963
G1 X69.167 Y93.206 E29.96582
G1 X70.583 Y93.764 E30.09244
G1 X72.010 Y94.290 E30.21885
G1 X73.445 Y94.783 E30.34504
G1 X74.695 Y95.183 E30.45414
G1 X76.352 Y95.675 E30.59786
G1 X77.819 Y96.072 E30.72426
G1 X79.295 Y96.436 E30.85067
G1 X80.779 Y96.768 E30.97708
G1 X82.269 Y97.067 E31.10348
G1 X83.766 Y97.332 E31.22989
G1 X85.269 Y97.564 E31.35629
G1 X86.778 Y97.763 E31.48288
G1 X88.287 Y97.928 E31.60911
G1 X89.803 Y98.060 E31.73569
G1 X91.321 Y98.158 E31.86209
G1 X92.837 Y98.222 E31.98833
G1 X94.149 Y98.250 E32.09738
G1 X95.671 Y98.252 E32.22395
G1 X97.399 Y98.212 E32.36770
G1 X98.709 Y98.153 E32.47676
G1 X100.224 Y98.054 E32.60300
G1 X101.741 Y97.920 E32.72958
G1 X103.252 Y97.753 E32.85598
G1 X104.965 Y97.522 E32.99972
G1 X106.261 Y97.319 E33.10879
G1 X107.755 Y97.052 E33.23501
G1 X109.247 Y96.751 E33.36161
G1 X110.731 Y96.418 E33.48801
G1 X112.408 Y95.998 E33.63174
G1 X113.673 Y95.652 E33.74083
G1 X115.128 Y95.222 E33.86703
G1 X116.579 Y94.757 E33.99364
G1 X118.016 Y94.262 E34.12005
G1 X119.635 Y93.659 E34.26375
G1 X120.855 Y93.175 E34.37286
G1 X122.254 Y92.586 E34.49905
G1 X123.644 Y91.964 E34.62567
G1 X125.017 Y91.312 E34.75208
G1 X126.560 Y90.533 E34.89577
G1 X127.719 Y89.918 E35.00489
G1 X129.043 Y89.177 E35.13106
G1 X130.356 Y88.405 E35.25771
G1 X131.649 Y87.605 E35.38411
G1 X133.095 Y86.660 E35.52779
G1 X134.179 Y85.920 E35.63693
G1 X135.413 Y85.037 E35.76308
G1 X136.630 Y84.126 E35.88948
G1 X137.828 Y83.186 E36.01615
G1 X139.161 Y82.086 E36.15980
G1 X140.157 Y81.230 E36.26896
G1 X141.285 Y80.217 E36.39510
G1 X142.396 Y79.174 E36.52177
G1 X143.626 Y77.961 E36.66542
G1 X144.542 Y77.020 E36.77458
G1 X145.576 Y75.910 E36.90071
G1 X146.589 Y74.773 E37.02740
G1 X147.973 Y73.139 E37.20544
G1 X148.932 Y72.688 E37.29356
G1 X156.238 Y72.681 E37.90104
G1 X157.553 Y75.320 E38.14624
G1 X155.535 Y77.955 E38.42220
G1 X154.462 Y79.274 E38.56355
G1 X153.347 Y80.583 E38.70653
G1 X152.256 Y81.811 E38.84309
G1 X151.135 Y83.020 E38.98021
G1 X149.952 Y84.240 E39.12153
G1 X148.738 Y85.439 E39.26337
G1 X147.545 Y86.568 E39.39998
G1 X146.323 Y87.675 E39.53709
G1 X145.039 Y88.789 E39.67844
G1 X143.751 Y89.858 E39.81762
G1 X142.462 Y90.882 E39.95451
G1 X141.118 Y91.904 E40.09487
G1 X139.709 Y92.926 E40.23963
G1 X138.379 Y93.848 E40.37422
G1 X137.040 Y94.734 E40.50769
G1 X135.581 Y95.657 E40.65120
G1 X134.101 Y96.546 E40.79479
G1 X132.676 Y97.362 E40.93138
G1 X131.227 Y98.150 E41.06850
G1 X129.717 Y98.930 E41.20984
G1 X128.213 Y99.665 E41.34905
G1 X126.716 Y100.358 E41.48615
G1 X125.159 Y101.038 E41.62747
G1 X123.580 Y101.686 E41.76932
G1 X122.048 Y102.277 E41.90590
G1 X120.497 Y102.837 E42.04302
G1 X118.886 Y103.380 E42.18435
G1 X117.258 Y103.889 E42.32619
G1 X115.680 Y104.346 E42.46279
G1 X114.087 Y104.770 E42.59989
G1 X112.435 Y105.172 E42.74123
G1 X110.800 Y105.532 E42.88045
G1 X109.183 Y105.852 E43.01755
G1 X107.509 Y106.146 E43.15888
G1 X105.822 Y106.403 E43.30075
G1 X104.193 Y106.617 E43.43733
G1 X102.554 Y106.796 E43.57441
G1 X100.861 Y106.944 E43.71576
G1 X99.197 Y107.053 E43.85441
G1 X97.569 Y107.124 E43.98993
G1 X95.858 Y107.163 E44.13222
G1 X94.136 Y107.163 E44.27543
G1 X92.505 Y107.129 E44.41104
G1 X90.886 Y107.060 E44.54580
G1 X89.152 Y106.949 E44.69031
G1 X87.509 Y106.807 E44.82738
G1 X85.876 Y106.631 E44.96397
G1 X84.159 Y106.409 E45.10795
G1 X82.529 Y106.161 E45.24506
G1 X80.911 Y105.879 E45.38162
G1 X79.237 Y105.551 E45.52347
G1 X77.576 Y105.187 E45.66483
G1 X75.973 Y104.799 E45.80192
G1 X74.355 Y104.371 E45.94115
