;(.../Engineering/Matt/pcb-gcode/pcb-gcode.ulp)
;(Copyright 2005 - 2012 by John Johnson)
;(See readme.txt for licensing terms.)
;(This file generated from the board:)
;(.../pneumatic-regulator/pneumatic-reg.brd)
;(Current profile is .../pcb-gcode/profiles/generic.pp  )
;(This file generated 06/07/2016 10:59)
;(Settings from pcb-machine.h)
;(spindle on time = 1000.0000)
;(  Tool Size)
;(0.1778 )
;(spindle speed = 30000.0000)
;(tool change at 0.0000 0.0000 5.0000 )
;(feed rate xy = F500.00 )
;(feed rate z  = F200.00 )
;(Z Axis Settings)
;(  High     Up        Down     Drill)
;(5.0000 	2.0000 	-0.2000 	-2.0000 )
;(Settings from pcb-defaults.h)
;(isolate min = 0.0250)
;(isolate max = 0.5000)
;(isolate step = 0.1200)
;(Generated bottom outlines, bottom drill, )
;(Unit of measure: mm)
;(Metric Mode)
G21
;(Absolute Coordinates)
G90
;S30000
G00 Z5.0000  F3000
G00 X0.0000 Y0.0000  F3000
;M03 S1
G04 P1000.000000
G00 Z2.0000  F3000
G00 X-1.9188 Y2.1301  F3000
G01 Z-0.2000 F200.00 
G01 X-1.6301 Y2.4188 F500.00 
G01 X-1.4739 Y2.7959 
G01 X-1.4739 Y16.7041 
G01 X-1.6301 Y17.0812 
G01 X-1.9188 Y17.3699 
G01 X-2.2959 Y17.5261 
G01 X-2.6603 Y17.5261 
G01 X-2.7668 Y17.5546 
G01 X-2.8623 Y17.6098 
G01 X-2.9402 Y17.6877 
G01 X-2.9954 Y17.7832 
G01 X-3.0239 Y17.8897 
G01 X-3.0239 Y20.4753 
G01 X-3.0275 Y20.5027 
G01 X-3.0239 Y20.5302 
G01 X-3.0239 Y20.5578 
G01 X-3.0167 Y20.5846 
G01 X-3.0131 Y20.6120 
G01 X-3.0089 Y20.6222 
G01 X-3.0089 Y22.3778 
G01 X-3.0131 Y22.3880 
G01 X-3.0167 Y22.4154 
G01 X-3.0239 Y22.4422 
G01 X-3.0239 Y22.4698 
G01 X-3.0275 Y22.4973 
G01 X-3.0239 Y22.5247 
G01 X-3.0239 Y25.4753 
G01 X-3.0275 Y25.5027 
G01 X-3.0239 Y25.5302 
G01 X-3.0239 Y25.5578 
G01 X-3.0167 Y25.5846 
G01 X-3.0131 Y25.6120 
G01 X-3.0089 Y25.6222 
G01 X-3.0089 Y26.1007 
G01 X-3.0125 Y26.1281 
G01 X-3.0089 Y26.1556 
G01 X-3.0089 Y26.1832 
G01 X-3.0017 Y26.2100 
G01 X-2.9981 Y26.2374 
G01 X-2.9875 Y26.2630 
G01 X-2.9804 Y26.2897 
G01 X-2.9739 Y26.3009 
G01 X-2.9739 Y40.7041 
G01 X-3.1301 Y41.0812 
G01 X-3.4188 Y41.3699 
G01 X-3.7959 Y41.5261 
G01 X-7.7547 Y41.5261 
G01 X-7.8612 Y41.5546 
G01 X-7.9567 Y41.6098 
G01 X-8.0346 Y41.6877 
G01 X-8.0785 Y41.7316 
G01 X-8.1256 Y41.7511 
G01 X-10.0744 Y41.7511 
G01 X-10.1215 Y41.7316 
G01 X-10.2316 Y41.6215 
G01 X-10.2448 Y41.5896 
G01 X-10.2519 Y41.5629 
G01 X-10.2658 Y41.5389 
G01 X-10.2764 Y41.5133 
G01 X-10.2932 Y41.4914 
G01 X-10.3071 Y41.4674 
G01 X-10.3266 Y41.4478 
G01 X-10.3435 Y41.4259 
G01 X-10.3654 Y41.4090 
G01 X-10.3850 Y41.3895 
G01 X-10.4090 Y41.3756 
G01 X-10.4309 Y41.3588 
G01 X-10.4565 Y41.3482 
G01 X-10.4805 Y41.3343 
G01 X-10.5072 Y41.3272 
G01 X-10.5328 Y41.3166 
G01 X-10.5602 Y41.3130 
G01 X-10.5870 Y41.3058 
G01 X-10.6147 Y41.3058 
G01 X-10.6421 Y41.3022 
G01 X-10.6695 Y41.3058 
G01 X-10.6972 Y41.3058 
G01 X-10.7240 Y41.3130 
G01 X-10.7514 Y41.3166 
G01 X-10.7770 Y41.3272 
G01 X-10.8037 Y41.3343 
G01 X-10.8277 Y41.3482 
G01 X-10.8533 Y41.3588 
G01 X-10.8752 Y41.3756 
G01 X-10.8992 Y41.3895 
G01 X-10.9188 Y41.4090 
G01 X-10.9407 Y41.4259 
G01 X-10.9576 Y41.4478 
G01 X-10.9771 Y41.4674 
G01 X-10.9879 Y41.4860 
G01 X-11.0140 Y41.5121 
G01 X-11.0459 Y41.5305 
G01 X-11.0816 Y41.5401 
G01 X-11.2086 Y41.5401 
G01 X-11.2511 Y41.5225 
G01 X-11.2511 Y41.5139 
G01 X-11.0773 Y41.5139 
G01 X-11.0355 Y41.4966 
G01 X-11.0034 Y41.4645 
G01 X-10.9861 Y41.4227 
G01 X-10.9861 Y39.5773 
G01 X-11.0034 Y39.5355 
G01 X-11.0355 Y39.5034 
G01 X-11.0773 Y39.4861 
G01 X-11.3861 Y39.4861 
G01 X-11.3861 Y39.4599 
G01 X-11.0816 Y39.4599 
G01 X-11.0459 Y39.4694 
G01 X-11.0140 Y39.4879 
G01 X-10.9879 Y39.5140 
G01 X-10.9771 Y39.5326 
G01 X-10.9576 Y39.5521 
G01 X-10.9407 Y39.5741 
G01 X-10.9188 Y39.5910 
G01 X-10.8992 Y39.6105 
G01 X-10.8752 Y39.6244 
G01 X-10.8533 Y39.6412 
G01 X-10.8277 Y39.6518 
G01 X-10.8037 Y39.6657 
G01 X-10.7770 Y39.6728 
G01 X-10.7514 Y39.6834 
G01 X-10.7240 Y39.6870 
G01 X-10.6972 Y39.6942 
G01 X-10.6695 Y39.6942 
G01 X-10.6421 Y39.6978 
G01 X-10.6147 Y39.6942 
G01 X-10.5870 Y39.6942 
G01 X-10.5602 Y39.6870 
G01 X-10.5328 Y39.6834 
G01 X-10.5072 Y39.6728 
G01 X-10.4805 Y39.6657 
G01 X-10.4565 Y39.6518 
G01 X-10.4309 Y39.6412 
G01 X-10.4090 Y39.6244 
G01 X-10.3850 Y39.6105 
G01 X-10.3654 Y39.5910 
G01 X-10.3435 Y39.5741 
G01 X-10.3266 Y39.5521 
G01 X-10.3071 Y39.5326 
G01 X-10.2932 Y39.5086 
G01 X-10.2764 Y39.4866 
G01 X-10.2658 Y39.4611 
G01 X-10.2519 Y39.4371 
G01 X-10.2448 Y39.4104 
G01 X-10.2316 Y39.3785 
G01 X-10.1215 Y39.2684 
G01 X-9.9778 Y39.2089 
G01 X-8.2222 Y39.2089 
G01 X-8.0785 Y39.2684 
G01 X-7.9567 Y39.3902 
G01 X-7.8612 Y39.4454 
G01 X-7.7547 Y39.4739 
G01 X-5.3897 Y39.4739 
G01 X-5.2832 Y39.4454 
G01 X-5.1877 Y39.3902 
G01 X-5.1098 Y39.3123 
G01 X-5.0546 Y39.2168 
G01 X-5.0261 Y39.1103 
G01 X-5.0261 Y37.0595 
G01 X-5.0546 Y36.9530 
G01 X-5.1098 Y36.8575 
G01 X-5.1877 Y36.7796 
G01 X-5.2832 Y36.7244 
G01 X-5.3897 Y36.6959 
G01 X-10.0453 Y36.6959 
G01 X-10.1518 Y36.7244 
G01 X-10.2473 Y36.7796 
G01 X-10.3252 Y36.8575 
G01 X-10.3804 Y36.9530 
G01 X-10.4089 Y37.0595 
G01 X-10.4089 Y37.7828 
G01 X-10.4684 Y37.9265 
G01 X-10.5785 Y38.0366 
G01 X-10.7222 Y38.0961 
G01 X-13.1103 Y38.0961 
G01 X-13.2168 Y38.1246 
G01 X-13.3123 Y38.1798 
G01 X-13.3902 Y38.2577 
G01 X-13.4454 Y38.3532 
G01 X-13.4739 Y38.4597 
G01 X-13.4739 Y39.1098 
G01 X-13.4739 Y39.1647 
G01 X-13.4739 Y39.2201 
G01 X-13.4562 Y39.2861 
G01 X-13.4454 Y39.3266 
G01 X-13.4164 Y39.3766 
G01 X-13.3902 Y39.4220 
G01 X-13.3437 Y39.4686 
G01 X-13.3123 Y39.5000 
G01 X-13.2596 Y39.5304 
G01 X-13.2168 Y39.5551 
G01 X-13.1649 Y39.5690 
G01 X-13.1103 Y39.5836 
G01 X-13.0554 Y39.5836 
G01 X-13.0001 Y39.5836 
G01 X-12.9340 Y39.5659 
G01 X-12.8936 Y39.5551 
G01 X-12.8435 Y39.5262 
G01 X-12.7981 Y39.5000 
G01 X-12.7860 Y39.4879 
G01 X-12.7541 Y39.4694 
G01 X-12.7184 Y39.4599 
G01 X-12.4139 Y39.4599 
G01 X-12.4139 Y39.4861 
G01 X-12.7227 Y39.4861 
G01 X-12.7645 Y39.5034 
G01 X-12.7966 Y39.5355 
G01 X-12.8139 Y39.5773 
G01 X-12.8139 Y41.4227 
G01 X-12.7966 Y41.4645 
G01 X-12.7800 Y41.4811 
G01 X-12.8149 Y41.4811 
G01 X-12.8306 Y41.4541 
G01 X-12.8401 Y41.4184 
G01 X-12.8401 Y40.8063 
G01 X-12.8365 Y40.7789 
G01 X-12.8401 Y40.7514 
G01 X-12.8401 Y40.7238 
G01 X-12.8473 Y40.6970 
G01 X-12.8509 Y40.6696 
G01 X-12.8615 Y40.6440 
G01 X-12.8686 Y40.6173 
G01 X-12.8825 Y40.5933 
G01 X-12.8931 Y40.5677 
G01 X-12.9099 Y40.5458 
G01 X-12.9238 Y40.5218 
G01 X-12.9433 Y40.5022 
G01 X-12.9602 Y40.4803 
G01 X-12.9822 Y40.4634 
G01 X-13.0017 Y40.4439 
G01 X-13.0257 Y40.4300 
G01 X-13.0477 Y40.4132 
G01 X-13.0732 Y40.4026 
G01 X-13.0972 Y40.3887 
G01 X-13.1239 Y40.3816 
G01 X-13.1495 Y40.3710 
G01 X-13.1770 Y40.3674 
G01 X-13.2037 Y40.3602 
G01 X-13.2314 Y40.3602 
G01 X-13.2588 Y40.3566 
G01 X-13.2863 Y40.3602 
G01 X-13.3139 Y40.3602 
G01 X-13.3407 Y40.3674 
G01 X-13.3681 Y40.3710 
G01 X-13.3937 Y40.3816 
G01 X-13.4204 Y40.3887 
G01 X-13.4444 Y40.4026 
G01 X-13.4700 Y40.4132 
G01 X-13.4919 Y40.4300 
G01 X-13.5159 Y40.4439 
G01 X-13.5355 Y40.4634 
G01 X-13.5574 Y40.4803 
G01 X-13.5743 Y40.5023 
G01 X-13.5938 Y40.5218 
G01 X-13.6077 Y40.5458 
G01 X-13.6245 Y40.5678 
G01 X-13.6301 Y40.5813 
G01 X-13.9188 Y40.8699 
G01 X-14.2959 Y41.0261 
G01 X-15.5761 Y41.0261 
G01 X-15.6781 Y41.0534 
G01 X-15.6826 Y41.0546 
G01 X-15.6847 Y41.0558 
G01 X-15.7781 Y41.1098 
G01 X-15.8560 Y41.1877 
G01 X-15.9112 Y41.2832 
G01 X-15.9317 Y41.3599 
G01 X-15.9397 Y41.3897 
G01 X-15.9397 Y41.4811 
G01 X-16.1139 Y41.4811 
G01 X-16.1393 Y41.4557 
G01 X-16.7807 Y41.4557 
G01 X-17.2343 Y41.9093 
G01 X-17.2343 Y42.5507 
G01 X-16.8787 Y42.9063 
G01 X-16.8787 Y42.9434 
G01 X-17.2954 Y42.5266 
G01 X-17.3909 Y42.4715 
G01 X-17.4974 Y42.4430 
G01 X-17.6076 Y42.4430 
G01 X-17.6122 Y42.4442 
G01 X-17.7141 Y42.4715 
G01 X-17.8075 Y42.5254 
G01 X-17.8096 Y42.5266 
G01 X-17.8876 Y42.6046 
G01 X-18.4479 Y43.1650 
G01 X-18.5247 Y43.2417 
G01 X-18.5810 Y43.3384 
G01 X-18.6095 Y43.4449 
G01 X-18.6095 Y43.5551 
G01 X-18.5822 Y43.6571 
G01 X-18.5810 Y43.6616 
G01 X-18.5798 Y43.6637 
G01 X-18.5259 Y43.7571 
G01 X-17.9485 Y44.3344 
G01 X-17.9485 Y45.2055 
G01 X-18.5645 Y45.8215 
G01 X-19.4845 Y45.8215 
G01 X-19.5792 Y45.7961 
G01 X-25.7541 Y45.7961 
G01 X-25.9053 Y45.7335 
G01 X-25.9293 Y45.7196 
G01 X-25.9560 Y45.7125 
G01 X-25.9816 Y45.7019 
G01 X-26.0090 Y45.6983 
G01 X-26.0358 Y45.6911 
G01 X-26.0634 Y45.6911 
G01 X-26.0909 Y45.6875 
G01 X-26.1183 Y45.6911 
G01 X-26.2778 Y45.6911 
G01 X-26.2888 Y45.6865 
G01 X-26.2979 Y45.6828 
G01 X-26.3907 Y45.6443 
G01 X-26.5000 Y45.6299 
G01 X-26.5152 Y45.6319 
G01 X-26.6093 Y45.6443 
G01 X-26.7111 Y45.6865 
G01 X-26.7222 Y45.6911 
G01 X-28.1778 Y45.6911 
G01 X-28.3404 Y45.6237 
G01 X-28.4423 Y45.5815 
G01 X-28.5216 Y45.5711 
G01 X-28.5516 Y45.5671 
G01 X-28.6609 Y45.5815 
G01 X-28.7033 Y45.5991 
G01 X-28.7110 Y45.6023 
G01 X-30.2890 Y45.6023 
G01 X-30.4327 Y45.5428 
G01 X-30.5428 Y45.4327 
G01 X-30.6023 Y45.2890 
G01 X-30.6023 Y43.6197 
G01 X-30.6308 Y43.5132 
G01 X-30.6860 Y43.4177 
G01 X-30.7639 Y43.3398 
G01 X-30.8594 Y43.2846 
G01 X-30.9659 Y43.2561 
G01 X-56.7041 Y43.2561 
G01 X-57.0812 Y43.0999 
G01 X-57.3699 Y42.8112 
G01 X-57.5261 Y42.4341 
G01 X-57.5261 Y36.5837 
G01 X-57.5225 Y36.5562 
G01 X-57.5261 Y36.5288 
G01 X-57.5261 Y36.5011 
G01 X-57.5333 Y36.4744 
G01 X-57.5369 Y36.4469 
G01 X-57.5475 Y36.4214 
G01 X-57.5546 Y36.3946 
G01 X-57.5685 Y36.3707 
G01 X-57.6023 Y36.2890 
G01 X-57.6023 Y34.7110 
G01 X-57.5428 Y34.5673 
G01 X-57.4327 Y34.4572 
G01 X-57.2890 Y34.3977 
G01 X-55.8897 Y34.3977 
G01 X-55.7832 Y34.3692 
G01 X-55.6877 Y34.3140 
G01 X-55.6098 Y34.2361 
G01 X-55.5546 Y34.1406 
G01 X-55.5261 Y34.0341 
G01 X-55.5261 Y27.5837 
G01 X-55.5225 Y27.5562 
G01 X-55.5261 Y27.5288 
G01 X-55.5261 Y27.5011 
G01 X-55.5333 Y27.4744 
G01 X-55.5369 Y27.4469 
G01 X-55.5475 Y27.4214 
G01 X-55.5546 Y27.3946 
G01 X-55.5685 Y27.3707 
G01 X-55.6023 Y27.2890 
G01 X-55.6023 Y25.7110 
G01 X-55.5428 Y25.5673 
G01 X-55.4327 Y25.4572 
G01 X-55.2890 Y25.3977 
G01 X-54.3049 Y25.3977 
G01 X-54.3013 Y25.3986 
G01 X-54.2499 Y25.3977 
G01 X-54.1984 Y25.3977 
G01 X-54.1948 Y25.3967 
G01 X-54.1911 Y25.3967 
G01 X-54.1416 Y25.3825 
G01 X-54.0919 Y25.3692 
G01 X-54.0887 Y25.3673 
G01 X-54.0851 Y25.3663 
G01 X-54.0409 Y25.3397 
G01 X-53.9965 Y25.3140 
G01 X-53.9938 Y25.3114 
G01 X-53.9906 Y25.3095 
G01 X-53.9548 Y25.2724 
G01 X-53.9185 Y25.2361 
G01 X-53.9166 Y25.2329 
G01 X-53.9140 Y25.2302 
G01 X-53.8891 Y25.1851 
G01 X-53.8634 Y25.1406 
G01 X-53.8624 Y25.1370 
G01 X-53.8606 Y25.1337 
G01 X-53.8482 Y25.0838 
G01 X-53.8349 Y25.0341 
G01 X-53.8349 Y25.0304 
G01 X-53.8339 Y25.0268 
G01 X-53.8349 Y24.9754 
G01 X-53.8349 Y24.9239 
G01 X-53.8358 Y24.9203 
G01 X-54.0250 Y14.1543 
G01 X-54.0259 Y14.0984 
G01 X-54.0269 Y14.0446 
G01 X-54.0300 Y13.8951 
G01 X-53.9754 Y13.7564 
G01 X-53.9548 Y13.7042 
G01 X-53.9351 Y13.6543 
G01 X-53.8809 Y13.5151 
G01 X-53.7776 Y13.4081 
G01 X-53.7390 Y13.3681 
G01 X-53.7014 Y13.3292 
G01 X-53.5976 Y13.2210 
G01 X-53.4617 Y13.1619 
G01 X-53.4111 Y13.1399 
G01 X-53.3611 Y13.1181 
G01 X-53.2234 Y13.0577 
G01 X-53.0750 Y13.0551 
G01 X-53.0193 Y13.0541 
G01 X-52.9653 Y13.0531 
G01 X-48.8165 Y12.9700 
G01 X-48.4140 Y13.1274 
G01 X-48.4003 Y13.1349 
G01 X-48.3562 Y13.1604 
G01 X-48.3521 Y13.1615 
G01 X-48.3484 Y13.1635 
G01 X-48.2989 Y13.1757 
G01 X-48.2497 Y13.1889 
G01 X-48.2455 Y13.1889 
G01 X-48.2413 Y13.1899 
G01 X-48.1904 Y13.1889 
G01 X-48.0222 Y13.1889 
G01 X-47.9762 Y13.2080 
G01 X-47.8772 Y13.2490 
G01 X-47.8743 Y13.2502 
G01 X-47.7650 Y13.2645 
G01 X-47.7534 Y13.2630 
G01 X-47.6557 Y13.2502 
G01 X-47.5538 Y13.2080 
G01 X-47.5078 Y13.1889 
G01 X-46.9195 Y13.1889 
G01 X-46.8130 Y13.1604 
G01 X-46.7175 Y13.1052 
G01 X-46.6396 Y13.0273 
G01 X-46.5844 Y12.9318 
G01 X-46.5559 Y12.8253 
G01 X-46.5559 Y11.1902 
G01 X-46.5523 Y11.1628 
G01 X-46.5559 Y11.1353 
G01 X-46.5559 Y11.1076 
G01 X-46.5631 Y11.0809 
G01 X-46.5667 Y11.0535 
G01 X-46.5773 Y11.0279 
G01 X-46.5844 Y11.0012 
G01 X-46.5983 Y10.9772 
G01 X-46.6089 Y10.9516 
G01 X-46.6257 Y10.9297 
G01 X-46.6396 Y10.9057 
G01 X-46.6591 Y10.8861 
G01 X-46.6760 Y10.8642 
G01 X-46.6979 Y10.8473 
G01 X-46.7175 Y10.8277 
G01 X-46.7415 Y10.8139 
G01 X-46.7634 Y10.7970 
G01 X-46.7890 Y10.7865 
G01 X-46.8130 Y10.7726 
G01 X-46.8397 Y10.7654 
G01 X-46.9215 Y10.7316 
G01 X-47.0316 Y10.6215 
G01 X-47.0915 Y10.4768 
G01 X-47.1184 Y10.3764 
G01 X-47.1196 Y10.3718 
G01 X-47.1748 Y10.2764 
G01 X-47.2527 Y10.1984 
G01 X-47.3699 Y10.0812 
G01 X-47.5261 Y9.7041 
G01 X-47.5261 Y-0.2041 
G01 X-47.3699 Y-0.5812 
G01 X-47.0812 Y-0.8699 
G01 X-46.7041 Y-1.0261 
G01 X-24.2959 Y-1.0261 
G01 X-23.9188 Y-0.8699 
G01 X-23.6301 Y-0.5812 
G01 X-23.4739 Y-0.2041 
G01 X-23.4739 Y4.4769 
G01 X-23.4466 Y4.5788 
G01 X-23.4454 Y4.5833 
G01 X-23.4441 Y4.5854 
G01 X-23.3902 Y4.6788 
G01 X-23.3135 Y4.7556 
G01 X-23.2168 Y4.8119 
G01 X-23.1103 Y4.8404 
G01 X-23.0001 Y4.8404 
G01 X-22.9234 Y4.8199 
G01 X-22.8539 Y4.8199 
G01 X-22.8539 Y4.8461 
G01 X-22.9277 Y4.8461 
G01 X-22.9695 Y4.8634 
G01 X-23.0016 Y4.8955 
G01 X-23.0189 Y4.9373 
G01 X-23.0189 Y6.7827 
G01 X-23.0016 Y6.8245 
G01 X-22.9695 Y6.8566 
G01 X-22.9277 Y6.8739 
G01 X-21.2823 Y6.8739 
G01 X-21.2405 Y6.8566 
G01 X-21.2084 Y6.8245 
G01 X-21.1911 Y6.7827 
G01 X-21.1911 Y4.9373 
G01 X-21.2084 Y4.8955 
G01 X-21.2405 Y4.8634 
G01 X-21.2823 Y4.8461 
G01 X-21.3561 Y4.8461 
G01 X-21.3561 Y4.8199 
G01 X-21.2865 Y4.8199 
G01 X-21.2509 Y4.8294 
G01 X-21.2190 Y4.8479 
G01 X-21.1929 Y4.8740 
G01 X-21.1822 Y4.8926 
G01 X-21.1626 Y4.9121 
G01 X-21.1457 Y4.9341 
G01 X-21.1238 Y4.9510 
G01 X-21.1042 Y4.9705 
G01 X-21.0802 Y4.9844 
G01 X-21.0583 Y5.0012 
G01 X-21.0327 Y5.0118 
G01 X-21.0087 Y5.0256 
G01 X-20.9820 Y5.0328 
G01 X-20.9564 Y5.0434 
G01 X-20.9290 Y5.0470 
G01 X-20.9023 Y5.0542 
G01 X-20.8746 Y5.0542 
G01 X-20.8471 Y5.0578 
G01 X-20.8197 Y5.0542 
G01 X-20.7920 Y5.0542 
G01 X-20.7653 Y5.0470 
G01 X-20.7378 Y5.0434 
G01 X-20.7122 Y5.0328 
G01 X-20.6855 Y5.0257 
G01 X-20.6615 Y5.0118 
G01 X-20.6359 Y5.0012 
G01 X-20.6140 Y4.9844 
G01 X-20.5900 Y4.9706 
G01 X-20.5705 Y4.9510 
G01 X-20.5485 Y4.9341 
G01 X-20.5316 Y4.9122 
G01 X-20.5121 Y4.8926 
G01 X-20.4982 Y4.8686 
G01 X-20.4814 Y4.8466 
G01 X-20.4708 Y4.8211 
G01 X-20.4569 Y4.7971 
G01 X-20.4498 Y4.7704 
G01 X-20.4366 Y4.7385 
G01 X-20.3265 Y4.6284 
G01 X-20.1828 Y4.5689 
G01 X-18.4659 Y4.5689 
G01 X-18.3594 Y4.5404 
G01 X-18.2639 Y4.4852 
G01 X-18.1860 Y4.4073 
G01 X-18.1308 Y4.3118 
G01 X-18.1023 Y4.2053 
G01 X-18.1023 Y2.7110 
G01 X-18.0428 Y2.5673 
G01 X-17.9327 Y2.4573 
G01 X-17.9172 Y2.4508 
G01 X-17.8952 Y2.4339 
G01 X-17.8712 Y2.4201 
G01 X-17.8517 Y2.4005 
G01 X-17.8297 Y2.3837 
G01 X-17.8128 Y2.3617 
G01 X-17.5812 Y2.1301 
G01 X-17.2041 Y1.9739 
G01 X-2.2959 Y1.9739 
G01 X-1.9188 Y2.1301 
G00 Z2.0000  F3000
G00 X-2.0226 Y2.4183  F3000
G01 Z-0.2000 F200.00 
G01 X-2.1453 Y2.3363 F500.00 
G01 X-2.2816 Y2.2799 
G01 X-2.4262 Y2.2511 
G01 X-17.0738 Y2.2511 
G01 X-17.2184 Y2.2799 
G01 X-17.3547 Y2.3363 
G01 X-17.4774 Y2.4183 
G01 X-17.5817 Y2.5226 
G01 X-17.6637 Y2.6453 
G01 X-17.6759 Y2.6749 
G01 X-17.7339 Y2.6749 
G01 X-17.7757 Y2.6922 
G01 X-17.8078 Y2.7243 
G01 X-17.8251 Y2.7661 
G01 X-17.8251 Y4.2339 
G01 X-17.8078 Y4.2757 
G01 X-17.7757 Y4.3078 
G01 X-17.7339 Y4.3251 
G01 X-16.2661 Y4.3251 
G01 X-16.2243 Y4.3078 
G01 X-16.1922 Y4.2757 
G01 X-16.1749 Y4.2339 
G01 X-16.1749 Y3.7489 
G01 X-3.2489 Y3.7489 
G01 X-3.2489 Y15.7511 
G01 X-3.2861 Y15.7511 
G01 X-3.2861 Y15.6773 
G01 X-3.3034 Y15.6355 
G01 X-3.3355 Y15.6034 
G01 X-3.3773 Y15.5861 
G01 X-4.7227 Y15.5861 
G01 X-4.7645 Y15.6034 
G01 X-4.7966 Y15.6355 
G01 X-4.8139 Y15.6773 
G01 X-4.8139 Y17.3227 
G01 X-4.7989 Y17.3589 
G01 X-4.7989 Y20.6411 
G01 X-4.8139 Y20.6773 
G01 X-4.8139 Y22.3227 
G01 X-4.7989 Y22.3589 
G01 X-4.7989 Y25.6411 
G01 X-4.8139 Y25.6773 
G01 X-4.8139 Y27.3227 
G01 X-4.7966 Y27.3645 
G01 X-4.7645 Y27.3966 
G01 X-4.7489 Y27.4030 
G01 X-4.7489 Y35.5813 
G01 X-11.9551 Y35.5813 
G01 X-12.0616 Y35.6098 
G01 X-12.1571 Y35.6650 
G01 X-12.2132 Y35.7211 
G01 X-13.0227 Y35.7211 
G01 X-13.0645 Y35.7384 
G01 X-13.0966 Y35.7705 
G01 X-13.1139 Y35.8123 
G01 X-13.1139 Y36.4577 
G01 X-13.0966 Y36.4995 
G01 X-13.0645 Y36.5316 
G01 X-13.0227 Y36.5489 
G01 X-11.9730 Y36.5489 
G01 X-11.9551 Y36.5537 
G01 X-11.8449 Y36.5537 
G01 X-11.8270 Y36.5489 
G01 X-10.7773 Y36.5489 
G01 X-10.7355 Y36.5316 
G01 X-10.7034 Y36.4995 
G01 X-10.6861 Y36.4577 
G01 X-10.6861 Y36.4187 
G01 X-4.7489 Y36.4187 
G01 X-4.7489 Y39.7511 
G01 X-8.1861 Y39.7511 
G01 X-8.1861 Y39.5773 
G01 X-8.2034 Y39.5355 
G01 X-8.2355 Y39.5034 
G01 X-8.2773 Y39.4861 
G01 X-9.9227 Y39.4861 
G01 X-9.9645 Y39.5034 
G01 X-9.9966 Y39.5355 
G01 X-10.0139 Y39.5773 
G01 X-10.0139 Y41.4227 
G01 X-9.9966 Y41.4645 
G01 X-9.9645 Y41.4966 
G01 X-9.9227 Y41.5139 
G01 X-8.2773 Y41.5139 
G01 X-8.2355 Y41.4966 
G01 X-8.2034 Y41.4645 
G01 X-8.1861 Y41.4227 
G01 X-8.1861 Y41.2489 
G01 X-3.9262 Y41.2489 
G01 X-3.7816 Y41.2201 
G01 X-3.6453 Y41.1637 
G01 X-3.5226 Y41.0817 
G01 X-3.4183 Y40.9774 
G01 X-3.3363 Y40.8547 
G01 X-3.2799 Y40.7184 
G01 X-3.2511 Y40.5738 
G01 X-3.2511 Y26.4262 
G01 X-3.2799 Y26.2816 
G01 X-3.2861 Y26.2665 
G01 X-3.2861 Y25.6773 
G01 X-3.3011 Y25.6411 
G01 X-3.3011 Y22.3589 
G01 X-3.2861 Y22.3227 
G01 X-3.2861 Y20.6773 
G01 X-3.3011 Y20.6411 
G01 X-3.3011 Y17.3589 
G01 X-3.2861 Y17.3227 
G01 X-3.2861 Y17.2489 
G01 X-2.4262 Y17.2489 
G01 X-2.2816 Y17.2201 
G01 X-2.1453 Y17.1637 
G01 X-2.0226 Y17.0817 
G01 X-1.9183 Y16.9774 
G01 X-1.8363 Y16.8547 
G01 X-1.7799 Y16.7184 
G01 X-1.7511 Y16.5738 
G01 X-1.7511 Y2.9262 
G01 X-1.7799 Y2.7816 
G01 X-1.8363 Y2.6453 
G01 X-1.9183 Y2.5226 
G01 X-2.0226 Y2.4183 
G00 Z2.0000  F3000
G00 X-3.6098 Y4.1877  F3000
G01 Z-0.2000 F200.00 
G01 X-3.6877 Y4.1098 F500.00 
G01 X-3.7832 Y4.0546 
G01 X-3.8897 Y4.0261 
G01 X-13.4237 Y4.0261 
G01 X-13.4512 Y4.0225 
G01 X-13.4786 Y4.0261 
G01 X-13.5063 Y4.0261 
G01 X-13.5330 Y4.0333 
G01 X-13.5605 Y4.0369 
G01 X-13.5860 Y4.0475 
G01 X-13.6128 Y4.0546 
G01 X-13.6368 Y4.0685 
G01 X-13.6623 Y4.0791 
G01 X-13.6843 Y4.0959 
G01 X-13.7082 Y4.1098 
G01 X-13.7278 Y4.1293 
G01 X-13.7498 Y4.1462 
G01 X-13.7666 Y4.1681 
G01 X-13.7862 Y4.1877 
G01 X-13.8000 Y4.2117 
G01 X-13.8169 Y4.2336 
G01 X-13.8275 Y4.2592 
G01 X-13.8413 Y4.2832 
G01 X-13.8485 Y4.3099 
G01 X-13.8591 Y4.3355 
G01 X-13.8627 Y4.3629 
G01 X-13.8699 Y4.3897 
G01 X-13.8699 Y4.4174 
G01 X-13.8735 Y4.4448 
G01 X-13.8699 Y4.4722 
G01 X-13.8699 Y4.4999 
G01 X-13.8627 Y4.5267 
G01 X-13.8591 Y4.5541 
G01 X-13.8485 Y4.5797 
G01 X-13.8413 Y4.6064 
G01 X-13.8275 Y4.6304 
G01 X-13.8169 Y4.6560 
G01 X-13.8000 Y4.6779 
G01 X-13.7862 Y4.7019 
G01 X-13.7666 Y4.7214 
G01 X-13.7498 Y4.7434 
G01 X-13.7278 Y4.7603 
G01 X-13.7082 Y4.7798 
G01 X-13.6843 Y4.7937 
G01 X-13.6623 Y4.8105 
G01 X-13.6367 Y4.8211 
G01 X-13.6128 Y4.8350 
G01 X-13.5860 Y4.8421 
G01 X-13.2287 Y4.9901 
G01 X-12.9401 Y5.2788 
G01 X-12.7839 Y5.6559 
G01 X-12.7839 Y6.6848 
G01 X-12.7566 Y6.7867 
G01 X-12.7554 Y6.7913 
G01 X-12.7002 Y6.8867 
G01 X-12.6223 Y6.9647 
G01 X-12.5268 Y7.0198 
G01 X-12.4501 Y7.0404 
G01 X-12.4203 Y7.0484 
G01 X-12.3101 Y7.0484 
G01 X-12.2081 Y7.0210 
G01 X-12.2036 Y7.0198 
G01 X-12.1081 Y6.9647 
G01 X-12.0302 Y6.8867 
G01 X-11.9186 Y6.7752 
G01 X-11.4978 Y6.6009 
G01 X-11.0422 Y6.6009 
G01 X-10.6213 Y6.7752 
G01 X-10.3350 Y7.0615 
G01 X-10.2583 Y7.1383 
G01 X-10.1616 Y7.1946 
G01 X-10.0551 Y7.2232 
G01 X-9.9449 Y7.2232 
G01 X-9.8429 Y7.1958 
G01 X-9.8384 Y7.1946 
G01 X-9.8363 Y7.1934 
G01 X-9.7429 Y7.1395 
G01 X-9.3786 Y6.7752 
G01 X-8.9578 Y6.6009 
G01 X-8.5022 Y6.6009 
G01 X-8.0813 Y6.7752 
G01 X-7.7592 Y7.0973 
G01 X-7.7112 Y7.2133 
G01 X-7.6992 Y7.2501 
G01 X-7.6902 Y7.2641 
G01 X-7.6838 Y7.2794 
G01 X-7.6603 Y7.3101 
G01 X-7.6392 Y7.3426 
G01 X-7.6268 Y7.3537 
G01 X-7.6167 Y7.3669 
G01 X-7.5860 Y7.3904 
G01 X-7.5573 Y7.4163 
G01 X-7.5424 Y7.4239 
G01 X-7.5292 Y7.4340 
G01 X-7.4935 Y7.4488 
G01 X-7.4590 Y7.4664 
G01 X-7.4428 Y7.4698 
G01 X-7.4274 Y7.4762 
G01 X-7.3890 Y7.4813 
G01 X-7.3512 Y7.4893 
G01 X-7.3346 Y7.4884 
G01 X-7.3181 Y7.4906 
G01 X-7.2797 Y7.4855 
G01 X-7.2411 Y7.4835 
G01 X-7.2253 Y7.4784 
G01 X-7.2088 Y7.4762 
G01 X-7.1730 Y7.4614 
G01 X-7.1363 Y7.4495 
G01 X-7.1223 Y7.4404 
G01 X-7.1069 Y7.4340 
G01 X-7.0762 Y7.4105 
G01 X-7.0438 Y7.3894 
G01 X-7.0327 Y7.3770 
G01 X-7.0195 Y7.3669 
G01 X-6.9959 Y7.3362 
G01 X-6.9700 Y7.3075 
G01 X-6.9625 Y7.2926 
G01 X-6.9523 Y7.2794 
G01 X-6.9472 Y7.2671 
G01 X-6.8720 Y7.1635 
G01 X-6.7725 Y7.0640 
G01 X-6.6586 Y6.9813 
G01 X-6.6087 Y6.9559 
G01 X-6.6087 Y6.9820 
G01 X-6.7433 Y7.0719 
G01 X-6.8641 Y7.1927 
G01 X-6.9591 Y7.3349 
G01 X-7.0245 Y7.4928 
G01 X-7.0579 Y7.6605 
G01 X-7.0579 Y9.3395 
G01 X-7.0245 Y9.5072 
G01 X-6.9591 Y9.6651 
G01 X-6.8641 Y9.8073 
G01 X-6.7489 Y9.9225 
G01 X-6.7489 Y9.9531 
G01 X-6.7725 Y9.9360 
G01 X-6.8720 Y9.8365 
G01 X-6.9336 Y9.7517 
G01 X-6.9502 Y9.7230 
G01 X-6.9658 Y9.7073 
G01 X-6.9789 Y9.6894 
G01 X-7.0047 Y9.6685 
G01 X-7.0281 Y9.6450 
G01 X-7.0473 Y9.6339 
G01 X-7.0645 Y9.6200 
G01 X-7.0948 Y9.6065 
G01 X-7.1236 Y9.5899 
G01 X-7.1450 Y9.5841 
G01 X-7.1652 Y9.5751 
G01 X-7.1980 Y9.5699 
G01 X-7.2301 Y9.5613 
G01 X-7.2522 Y9.5613 
G01 X-7.2741 Y9.5579 
G01 X-7.3071 Y9.5613 
G01 X-7.3403 Y9.5613 
G01 X-7.3617 Y9.5671 
G01 X-7.3838 Y9.5694 
G01 X-7.4148 Y9.5813 
G01 X-7.4468 Y9.5899 
G01 X-7.4660 Y9.6010 
G01 X-7.4867 Y9.6089 
G01 X-7.5136 Y9.6284 
G01 X-7.5423 Y9.6450 
G01 X-7.5579 Y9.6607 
G01 X-7.5759 Y9.6737 
G01 X-7.5968 Y9.6995 
G01 X-7.6202 Y9.7230 
G01 X-7.6313 Y9.7422 
G01 X-7.6453 Y9.7594 
G01 X-7.6588 Y9.7897 
G01 X-7.6754 Y9.8184 
G01 X-7.6811 Y9.8398 
G01 X-7.6901 Y9.8601 
G01 X-7.6953 Y9.8929 
G01 X-7.7039 Y9.9249 
G01 X-7.7039 Y9.9471 
G01 X-7.7074 Y9.9690 
G01 X-7.7039 Y10.0020 
G01 X-7.7039 Y15.1103 
G01 X-7.6754 Y15.2168 
G01 X-7.6202 Y15.3123 
G01 X-7.5423 Y15.3902 
G01 X-7.4468 Y15.4454 
G01 X-7.3403 Y15.4739 
G01 X-7.0453 Y15.4739 
G01 X-6.9388 Y15.4454 
G01 X-6.8433 Y15.3902 
G01 X-6.8215 Y15.3684 
G01 X-6.6778 Y15.3089 
G01 X-5.2222 Y15.3089 
G01 X-5.2111 Y15.3135 
G01 X-5.1093 Y15.3557 
G01 X-5.0180 Y15.3677 
G01 X-5.0000 Y15.3701 
G01 X-4.8907 Y15.3557 
G01 X-4.8006 Y15.3183 
G01 X-4.7888 Y15.3135 
G01 X-4.7778 Y15.3089 
G01 X-3.8897 Y15.3089 
G01 X-3.7832 Y15.2804 
G01 X-3.6877 Y15.2252 
G01 X-3.6098 Y15.1473 
G01 X-3.5546 Y15.0518 
G01 X-3.5261 Y14.9453 
G01 X-3.5261 Y4.3897 
G01 X-3.5546 Y4.2832 
G01 X-3.6098 Y4.1877 
G00 Z2.0000  F3000
G00 X-5.6075 Y7.0640  F3000
G01 Z-0.2000 F200.00 
G01 X-5.5080 Y7.1635 F500.00 
G01 X-5.4253 Y7.2774 
G01 X-5.3614 Y7.4028 
G01 X-5.3179 Y7.5366 
G01 X-5.2959 Y7.6756 
G01 X-5.2959 Y8.0813 
G01 X-5.3221 Y8.0813 
G01 X-5.3221 Y7.6605 
G01 X-5.3555 Y7.4928 
G01 X-5.4209 Y7.3349 
G01 X-5.5159 Y7.1927 
G01 X-5.6367 Y7.0719 
G01 X-5.7713 Y6.9820 
G01 X-5.7713 Y6.9559 
G01 X-5.7214 Y6.9813 
G01 X-5.6075 Y7.0640 
G00 Z2.0000  F3000
G00 X-8.0559 Y7.1927  F3000
G01 Z-0.2000 F200.00 
G01 X-8.1767 Y7.0719 F500.00 
G01 X-8.3189 Y6.9769 
G01 X-8.4768 Y6.9115 
G01 X-8.6445 Y6.8781 
G01 X-8.8155 Y6.8781 
G01 X-8.9832 Y6.9115 
G01 X-9.1411 Y6.9769 
G01 X-9.2833 Y7.0719 
G01 X-9.4041 Y7.1927 
G01 X-9.4991 Y7.3349 
G01 X-9.5645 Y7.4928 
G01 X-9.5979 Y7.6605 
G01 X-9.5979 Y9.3395 
G01 X-9.5645 Y9.5072 
G01 X-9.4991 Y9.6651 
G01 X-9.4789 Y9.6954 
G01 X-9.4789 Y16.5738 
G01 X-9.4501 Y16.7184 
G01 X-9.3937 Y16.8547 
G01 X-9.3251 Y16.9574 
G01 X-9.3251 Y17.2339 
G01 X-9.3078 Y17.2757 
G01 X-9.2757 Y17.3078 
G01 X-9.2339 Y17.3251 
G01 X-7.7661 Y17.3251 
G01 X-7.7243 Y17.3078 
G01 X-7.6922 Y17.2757 
G01 X-7.6811 Y17.2489 
G01 X-6.7139 Y17.2489 
G01 X-6.7139 Y17.3227 
G01 X-6.6966 Y17.3645 
G01 X-6.6645 Y17.3966 
G01 X-6.6227 Y17.4139 
G01 X-5.2773 Y17.4139 
G01 X-5.2355 Y17.3966 
G01 X-5.2034 Y17.3645 
G01 X-5.1861 Y17.3227 
G01 X-5.1861 Y15.6773 
G01 X-5.2034 Y15.6355 
G01 X-5.2355 Y15.6034 
G01 X-5.2773 Y15.5861 
G01 X-6.6227 Y15.5861 
G01 X-6.6645 Y15.6034 
G01 X-6.6966 Y15.6355 
G01 X-6.7139 Y15.6773 
G01 X-6.7139 Y15.7511 
G01 X-7.6811 Y15.7511 
G01 X-7.6922 Y15.7243 
G01 X-7.7243 Y15.6922 
G01 X-7.7661 Y15.6749 
G01 X-7.9811 Y15.6749 
G01 X-7.9811 Y9.6954 
G01 X-7.9609 Y9.6651 
G01 X-7.8955 Y9.5072 
G01 X-7.8621 Y9.3395 
G01 X-7.8621 Y7.6605 
G01 X-7.8955 Y7.4928 
G01 X-7.9609 Y7.3349 
G01 X-8.0559 Y7.1927 
G00 Z2.0000  F3000
G00 X-10.5959 Y7.1927  F3000
G01 Z-0.2000 F200.00 
G01 X-10.7167 Y7.0719 F500.00 
G01 X-10.8589 Y6.9769 
G01 X-11.0168 Y6.9115 
G01 X-11.1845 Y6.8781 
G01 X-11.3555 Y6.8781 
G01 X-11.5232 Y6.9115 
G01 X-11.6811 Y6.9769 
G01 X-11.8233 Y7.0719 
G01 X-11.9441 Y7.1927 
G01 X-12.0391 Y7.3349 
G01 X-12.1045 Y7.4928 
G01 X-12.1379 Y7.6605 
G01 X-12.1379 Y9.3395 
G01 X-12.1045 Y9.5072 
G01 X-12.0391 Y9.6651 
G01 X-12.0189 Y9.6954 
G01 X-12.0189 Y11.1749 
G01 X-12.2339 Y11.1749 
G01 X-12.2757 Y11.1922 
G01 X-12.3078 Y11.2243 
G01 X-12.3251 Y11.2661 
G01 X-12.3251 Y12.7339 
G01 X-12.3078 Y12.7757 
G01 X-12.2757 Y12.8078 
G01 X-12.2339 Y12.8251 
G01 X-12.0189 Y12.8251 
G01 X-12.0189 Y18.5738 
G01 X-11.9901 Y18.7184 
G01 X-11.9337 Y18.8547 
G01 X-11.8517 Y18.9774 
G01 X-11.7474 Y19.0817 
G01 X-11.6247 Y19.1637 
G01 X-11.4884 Y19.2201 
G01 X-11.3438 Y19.2489 
G01 X-6.7489 Y19.2489 
G01 X-6.7489 Y21.5738 
G01 X-6.7201 Y21.7184 
G01 X-6.7139 Y21.7335 
G01 X-6.7139 Y22.3227 
G01 X-6.6966 Y22.3645 
G01 X-6.6645 Y22.3966 
G01 X-6.6227 Y22.4139 
G01 X-5.2773 Y22.4139 
G01 X-5.2355 Y22.3966 
G01 X-5.2034 Y22.3645 
G01 X-5.1861 Y22.3227 
G01 X-5.1861 Y20.6773 
G01 X-5.2034 Y20.6355 
G01 X-5.2355 Y20.6034 
G01 X-5.2511 Y20.5970 
G01 X-5.2511 Y18.4262 
G01 X-5.2799 Y18.2816 
G01 X-5.3363 Y18.1453 
G01 X-5.4183 Y18.0226 
G01 X-5.5226 Y17.9183 
G01 X-5.6453 Y17.8363 
G01 X-5.7816 Y17.7799 
G01 X-5.9262 Y17.7511 
G01 X-10.5211 Y17.7511 
G01 X-10.5211 Y9.6954 
G01 X-10.5009 Y9.6651 
G01 X-10.4355 Y9.5072 
G01 X-10.4021 Y9.3395 
G01 X-10.4021 Y7.6605 
G01 X-10.4355 Y7.4928 
G01 X-10.5009 Y7.3349 
G01 X-10.5959 Y7.1927 
G00 Z2.0000  F3000
G00 X-13.0611 Y7.3046  F3000
G01 Z-0.2000 F200.00 
G01 X-13.0611 Y5.7862 F500.00 
G01 X-13.0899 Y5.6416 
G01 X-13.1463 Y5.5053 
G01 X-13.2283 Y5.3826 
G01 X-13.3326 Y5.2783 
G01 X-13.4553 Y5.1963 
G01 X-13.5916 Y5.1399 
G01 X-13.7362 Y5.1111 
G01 X-18.3911 Y5.1111 
G01 X-18.3911 Y4.9373 
G01 X-18.4084 Y4.8955 
G01 X-18.4405 Y4.8634 
G01 X-18.4823 Y4.8461 
G01 X-20.1277 Y4.8461 
G01 X-20.1695 Y4.8634 
G01 X-20.2016 Y4.8955 
G01 X-20.2189 Y4.9373 
G01 X-20.2189 Y5.6386 
G01 X-20.2201 Y5.6416 
G01 X-20.2489 Y5.7862 
G01 X-20.2489 Y7.7511 
G01 X-23.7053 Y7.7511 
G01 X-23.7511 Y5.9902 
G01 X-23.7511 Y-0.0738 
G01 X-23.7799 Y-0.2184 
G01 X-23.8363 Y-0.3547 
G01 X-23.9183 Y-0.4774 
G01 X-24.0226 Y-0.5817 
G01 X-24.1453 Y-0.6637 
G01 X-24.2816 Y-0.7201 
G01 X-24.4262 Y-0.7489 
G01 X-46.5738 Y-0.7489 
G01 X-46.7184 Y-0.7201 
G01 X-46.8547 Y-0.6637 
G01 X-46.9774 Y-0.5817 
G01 X-47.0817 Y-0.4774 
G01 X-47.1637 Y-0.3547 
G01 X-47.2201 Y-0.2184 
G01 X-47.2489 Y-0.0738 
G01 X-47.2489 Y9.5738 
G01 X-47.2201 Y9.7184 
G01 X-47.1637 Y9.8547 
G01 X-47.0817 Y9.9774 
G01 X-46.9774 Y10.0817 
G01 X-46.8547 Y10.1637 
G01 X-46.8139 Y10.1806 
G01 X-46.8139 Y10.4227 
G01 X-46.7966 Y10.4645 
G01 X-46.7645 Y10.4966 
G01 X-46.7227 Y10.5139 
G01 X-46.2787 Y10.5139 
G01 X-46.2787 Y13.9613 
G01 X-46.7161 Y13.9613 
G01 X-46.7161 Y13.5573 
G01 X-46.7334 Y13.5155 
G01 X-46.7655 Y13.4834 
G01 X-46.8073 Y13.4661 
G01 X-47.4527 Y13.4661 
G01 X-47.4945 Y13.4834 
G01 X-47.5266 Y13.5155 
G01 X-47.5439 Y13.5573 
G01 X-47.5439 Y14.3070 
G01 X-47.5487 Y14.3249 
G01 X-47.5487 Y14.4351 
G01 X-47.5439 Y14.4530 
G01 X-47.5439 Y15.2027 
G01 X-47.5266 Y15.2445 
G01 X-47.4945 Y15.2766 
G01 X-47.4527 Y15.2939 
G01 X-46.8073 Y15.2939 
G01 X-46.7655 Y15.2766 
G01 X-46.7334 Y15.2445 
G01 X-46.7161 Y15.2027 
G01 X-46.7161 Y14.7987 
G01 X-46.2787 Y14.7987 
G01 X-46.2787 Y19.6351 
G01 X-46.2739 Y19.6530 
G01 X-46.2739 Y20.4027 
G01 X-46.2566 Y20.4445 
G01 X-46.2245 Y20.4766 
G01 X-46.1827 Y20.4939 
G01 X-45.5373 Y20.4939 
G01 X-45.4955 Y20.4766 
G01 X-45.4634 Y20.4445 
G01 X-45.4461 Y20.4027 
G01 X-45.4461 Y19.6530 
G01 X-45.4413 Y19.6351 
G01 X-45.4413 Y10.5139 
G01 X-45.0773 Y10.5139 
G01 X-45.0355 Y10.4966 
G01 X-45.0034 Y10.4645 
G01 X-44.9861 Y10.4227 
G01 X-44.9861 Y8.5773 
G01 X-45.0034 Y8.5355 
G01 X-45.0355 Y8.5034 
G01 X-45.0773 Y8.4861 
G01 X-45.7511 Y8.4861 
G01 X-45.7511 Y0.7489 
G01 X-25.2489 Y0.7489 
G01 X-25.2489 Y5.9360 
G01 X-25.2506 Y5.9457 
G01 X-25.2489 Y6.0098 
G01 X-25.2489 Y6.0738 
G01 X-25.2470 Y6.0834 
G01 X-25.2036 Y7.7511 
G01 X-26.8689 Y7.7511 
G01 X-27.1143 Y7.5057 
G01 X-27.7557 Y7.5057 
G01 X-28.2093 Y7.9593 
G01 X-28.2093 Y8.6007 
G01 X-28.1709 Y8.6391 
G01 X-28.1551 Y8.7184 
G01 X-28.0987 Y8.8547 
G01 X-28.0167 Y8.9774 
G01 X-27.9124 Y9.0817 
G01 X-27.7897 Y9.1637 
G01 X-27.6534 Y9.2201 
G01 X-27.5088 Y9.2489 
G01 X-24.4990 Y9.2489 
G01 X-24.4893 Y9.2506 
G01 X-24.4252 Y9.2489 
G01 X-19.4262 Y9.2489 
G01 X-19.2816 Y9.2201 
G01 X-19.1453 Y9.1637 
G01 X-19.0226 Y9.0817 
G01 X-18.9183 Y8.9774 
G01 X-18.8363 Y8.8547 
G01 X-18.7799 Y8.7184 
G01 X-18.7511 Y8.5738 
G01 X-18.7511 Y6.8739 
G01 X-18.4823 Y6.8739 
G01 X-18.4405 Y6.8566 
G01 X-18.4084 Y6.8245 
G01 X-18.3911 Y6.7827 
G01 X-18.3911 Y6.6089 
G01 X-14.5589 Y6.6089 
G01 X-14.5589 Y7.3046 
G01 X-14.5791 Y7.3349 
G01 X-14.6445 Y7.4928 
G01 X-14.6779 Y7.6605 
G01 X-14.6779 Y9.3395 
G01 X-14.6445 Y9.5072 
G01 X-14.5791 Y9.6651 
G01 X-14.4841 Y9.8073 
G01 X-14.3633 Y9.9281 
G01 X-14.2211 Y10.0231 
G01 X-14.0632 Y10.0885 
G01 X-13.8955 Y10.1219 
G01 X-13.7245 Y10.1219 
G01 X-13.5568 Y10.0885 
G01 X-13.3989 Y10.0231 
G01 X-13.2567 Y9.9281 
G01 X-13.1359 Y9.8073 
G01 X-13.0409 Y9.6651 
G01 X-12.9755 Y9.5072 
G01 X-12.9421 Y9.3395 
G01 X-12.9421 Y7.6605 
G01 X-12.9755 Y7.4928 
G01 X-13.0409 Y7.3349 
G01 X-13.0611 Y7.3046 
G00 Z2.0000  F3000
G00 X-14.8976 Y7.3048  F3000
G01 Z-0.2000 F200.00 
G01 X-14.9012 Y7.2774 F500.00 
G01 X-14.9012 Y7.2497 
G01 X-14.9084 Y7.2229 
G01 X-14.9120 Y7.1955 
G01 X-14.9226 Y7.1699 
G01 X-14.9297 Y7.1432 
G01 X-14.9436 Y7.1192 
G01 X-14.9542 Y7.0936 
G01 X-14.9710 Y7.0717 
G01 X-14.9848 Y7.0477 
G01 X-15.0044 Y7.0282 
G01 X-15.0213 Y7.0062 
G01 X-15.0432 Y6.9893 
G01 X-15.0628 Y6.9698 
G01 X-15.0868 Y6.9559 
G01 X-15.1087 Y6.9391 
G01 X-15.1343 Y6.9285 
G01 X-15.1583 Y6.9146 
G01 X-15.1850 Y6.9075 
G01 X-15.2106 Y6.8969 
G01 X-15.2380 Y6.8933 
G01 X-15.2648 Y6.8861 
G01 X-15.2924 Y6.8861 
G01 X-15.3199 Y6.8825 
G01 X-15.3473 Y6.8861 
G01 X-15.5341 Y6.8861 
G01 X-15.6406 Y6.9146 
G01 X-15.7361 Y6.9698 
G01 X-15.8140 Y7.0477 
G01 X-15.8692 Y7.1432 
G01 X-15.8977 Y7.2497 
G01 X-15.8977 Y8.7890 
G01 X-15.9315 Y8.8707 
G01 X-15.9454 Y8.8946 
G01 X-15.9525 Y8.9214 
G01 X-15.9631 Y8.9469 
G01 X-15.9667 Y8.9744 
G01 X-15.9739 Y9.0011 
G01 X-15.9739 Y9.0288 
G01 X-15.9775 Y9.0562 
G01 X-15.9739 Y9.0837 
G01 X-15.9739 Y10.7034 
G01 X-15.9773 Y10.7237 
G01 X-15.9739 Y10.7583 
G01 X-15.9739 Y10.7931 
G01 X-15.9686 Y10.8130 
G01 X-15.9674 Y10.8253 
G01 X-15.9720 Y10.9624 
G01 X-15.9739 Y10.9694 
G01 X-15.9739 Y11.0174 
G01 X-15.9755 Y11.0654 
G01 X-15.9739 Y11.0724 
G01 X-15.9739 Y11.2096 
G01 X-15.9755 Y11.2219 
G01 X-15.9791 Y11.2338 
G01 X-16.0359 Y11.3587 
G01 X-16.0403 Y11.3644 
G01 X-16.0586 Y11.4087 
G01 X-16.0785 Y11.4524 
G01 X-16.0797 Y11.4596 
G01 X-16.1322 Y11.5863 
G01 X-16.1384 Y11.5971 
G01 X-16.1515 Y11.6129 
G01 X-16.1659 Y11.6446 
G01 X-16.1833 Y11.6747 
G01 X-16.1886 Y11.6946 
G01 X-16.6681 Y12.7494 
G01 X-16.6724 Y12.7551 
G01 X-16.6908 Y12.7995 
G01 X-16.7107 Y12.8432 
G01 X-16.7119 Y12.8503 
G01 X-16.7146 Y12.8570 
G01 X-16.7209 Y12.9046 
G01 X-16.7288 Y12.9520 
G01 X-16.7281 Y12.9591 
G01 X-16.7290 Y12.9663 
G01 X-16.7228 Y13.0139 
G01 X-16.7181 Y13.0617 
G01 X-16.7156 Y13.0684 
G01 X-16.7146 Y13.0756 
G01 X-16.6963 Y13.1199 
G01 X-16.6794 Y13.1649 
G01 X-16.6752 Y13.1708 
G01 X-16.6539 Y13.2222 
G01 X-16.6539 Y15.1778 
G01 X-16.7134 Y15.3215 
G01 X-16.8235 Y15.4316 
G01 X-16.9672 Y15.4911 
G01 X-18.7228 Y15.4911 
G01 X-18.8665 Y15.4316 
G01 X-18.9766 Y15.3215 
G01 X-18.9898 Y15.2896 
G01 X-18.9969 Y15.2629 
G01 X-19.0108 Y15.2389 
G01 X-19.0214 Y15.2133 
G01 X-19.0382 Y15.1914 
G01 X-19.0521 Y15.1674 
G01 X-19.0716 Y15.1478 
G01 X-19.0885 Y15.1259 
G01 X-19.1105 Y15.1090 
G01 X-19.1300 Y15.0894 
G01 X-19.1540 Y15.0756 
G01 X-19.1759 Y15.0588 
G01 X-19.2015 Y15.0482 
G01 X-19.2255 Y15.0343 
G01 X-19.2522 Y15.0272 
G01 X-19.2778 Y15.0166 
G01 X-19.3053 Y15.0130 
G01 X-19.3320 Y15.0058 
G01 X-19.3597 Y15.0058 
G01 X-19.3871 Y15.0022 
G01 X-19.4146 Y15.0058 
G01 X-19.4423 Y15.0058 
G01 X-19.4690 Y15.0130 
G01 X-19.4964 Y15.0166 
G01 X-19.5220 Y15.0272 
G01 X-19.5487 Y15.0343 
G01 X-19.5727 Y15.0482 
G01 X-19.5983 Y15.0588 
G01 X-19.6202 Y15.0756 
G01 X-19.6442 Y15.0895 
G01 X-19.6638 Y15.1090 
G01 X-19.6857 Y15.1259 
G01 X-19.7026 Y15.1479 
G01 X-19.7222 Y15.1674 
G01 X-19.7329 Y15.1860 
G01 X-19.7511 Y15.2042 
G01 X-19.7511 Y15.1672 
G01 X-19.7484 Y15.1645 
G01 X-19.7311 Y15.1227 
G01 X-19.7311 Y13.2773 
G01 X-19.7484 Y13.2355 
G01 X-19.7511 Y13.2328 
G01 X-19.7511 Y13.1958 
G01 X-19.7372 Y13.2097 
G01 X-19.7044 Y13.2448 
G01 X-19.6983 Y13.2486 
G01 X-19.6932 Y13.2537 
G01 X-19.6516 Y13.2777 
G01 X-19.6108 Y13.3031 
G01 X-19.6039 Y13.3052 
G01 X-19.5977 Y13.3088 
G01 X-19.5513 Y13.3212 
G01 X-19.5054 Y13.3352 
G01 X-19.4982 Y13.3355 
G01 X-19.4912 Y13.3374 
G01 X-19.4432 Y13.3374 
G01 X-19.3952 Y13.3390 
G01 X-19.3882 Y13.3374 
G01 X-19.3810 Y13.3374 
G01 X-19.3346 Y13.3249 
G01 X-19.2878 Y13.3141 
G01 X-19.2814 Y13.3107 
G01 X-19.2745 Y13.3088 
G01 X-19.2328 Y13.2848 
G01 X-19.1905 Y13.2622 
G01 X-19.1852 Y13.2573 
G01 X-19.1790 Y13.2537 
G01 X-19.1451 Y13.2198 
G01 X-19.1099 Y13.1870 
G01 X-19.1061 Y13.1808 
G01 X-19.1010 Y13.1758 
G01 X-19.0770 Y13.1342 
G01 X-19.0516 Y13.0934 
G01 X-19.0495 Y13.0865 
G01 X-19.0459 Y13.0803 
G01 X-19.0335 Y13.0339 
G01 X-19.0195 Y12.9879 
G01 X-19.0192 Y12.9808 
G01 X-19.0174 Y12.9738 
G01 X-19.0174 Y12.9586 
G01 X-18.8710 Y12.6365 
G01 X-18.8536 Y12.6064 
G01 X-18.8483 Y12.5866 
G01 X-18.8398 Y12.5679 
G01 X-18.8341 Y12.5335 
G01 X-18.8251 Y12.4999 
G01 X-18.8251 Y12.4794 
G01 X-18.8217 Y12.4591 
G01 X-18.8251 Y12.4245 
G01 X-18.8251 Y12.3897 
G01 X-18.8304 Y12.3698 
G01 X-18.8324 Y12.3494 
G01 X-18.8446 Y12.3168 
G01 X-18.8536 Y12.2832 
G01 X-18.8639 Y12.2654 
G01 X-18.8711 Y12.2462 
G01 X-18.8913 Y12.2178 
G01 X-18.9087 Y12.1877 
G01 X-18.9232 Y12.1732 
G01 X-18.9352 Y12.1565 
G01 X-18.9621 Y12.1344 
G01 X-18.9867 Y12.1098 
G01 X-19.0045 Y12.0995 
G01 X-19.0203 Y12.0864 
G01 X-19.0520 Y12.0720 
G01 X-19.0822 Y12.0546 
G01 X-19.1020 Y12.0493 
G01 X-19.1207 Y12.0408 
G01 X-19.1550 Y12.0351 
G01 X-19.1886 Y12.0261 
G01 X-19.2092 Y12.0261 
G01 X-19.2294 Y12.0227 
G01 X-19.2641 Y12.0261 
G01 X-24.0341 Y12.0261 
G01 X-24.1406 Y12.0546 
G01 X-24.2361 Y12.1098 
G01 X-24.3140 Y12.1877 
G01 X-24.3692 Y12.2832 
G01 X-24.3977 Y12.3897 
G01 X-24.3977 Y13.7890 
G01 X-24.4315 Y13.8707 
G01 X-24.4454 Y13.8946 
G01 X-24.4525 Y13.9214 
G01 X-24.4631 Y13.9469 
G01 X-24.4667 Y13.9744 
G01 X-24.4739 Y14.0011 
G01 X-24.4739 Y14.0288 
G01 X-24.4775 Y14.0562 
G01 X-24.4739 Y14.0837 
G01 X-24.4739 Y21.2041 
G01 X-24.6301 Y21.5812 
G01 X-24.9188 Y21.8699 
G01 X-25.2959 Y22.0261 
G01 X-26.1103 Y22.0261 
G01 X-26.2168 Y22.0546 
G01 X-26.3123 Y22.1098 
G01 X-26.3902 Y22.1877 
G01 X-26.4454 Y22.2832 
G01 X-26.4739 Y22.3897 
G01 X-26.4739 Y23.6441 
G01 X-26.6301 Y24.0212 
G01 X-26.9188 Y24.3099 
G01 X-27.2959 Y24.4661 
G01 X-28.3211 Y24.4661 
G01 X-28.3486 Y24.4625 
G01 X-28.3760 Y24.4661 
G01 X-28.4037 Y24.4661 
G01 X-28.4304 Y24.4733 
G01 X-28.4579 Y24.4769 
G01 X-28.4835 Y24.4875 
G01 X-28.5102 Y24.4946 
G01 X-28.5342 Y24.5085 
G01 X-28.5597 Y24.5191 
G01 X-28.5817 Y24.5359 
G01 X-28.6057 Y24.5498 
G01 X-28.6252 Y24.5693 
G01 X-28.6472 Y24.5862 
G01 X-28.6641 Y24.6082 
G01 X-28.6836 Y24.6277 
G01 X-28.6975 Y24.6517 
G01 X-28.7143 Y24.6737 
G01 X-28.7236 Y24.6960 
G01 X-29.0194 Y24.9918 
G01 X-29.4058 Y25.1519 
G01 X-29.8242 Y25.1519 
G01 X-30.2106 Y24.9918 
G01 X-30.5064 Y24.6960 
G01 X-30.5095 Y24.6885 
G01 X-30.5193 Y24.6650 
G01 X-30.5578 Y24.6147 
G01 X-30.5864 Y24.5775 
G01 X-30.6227 Y24.5496 
G01 X-30.6738 Y24.5104 
G01 X-30.7101 Y24.4954 
G01 X-30.7757 Y24.4682 
G01 X-30.8340 Y24.4606 
G01 X-30.8850 Y24.4538 
G01 X-30.9845 Y24.4670 
G01 X-30.9943 Y24.4682 
G01 X-31.0739 Y24.5012 
G01 X-31.0962 Y24.5104 
G01 X-31.1464 Y24.5490 
G01 X-31.1836 Y24.5775 
G01 X-31.2115 Y24.6139 
G01 X-31.2507 Y24.6650 
G01 X-31.2636 Y24.6960 
G01 X-31.5594 Y24.9918 
G01 X-31.9458 Y25.1519 
G01 X-32.3642 Y25.1519 
G01 X-32.7506 Y24.9918 
G01 X-33.0464 Y24.6960 
G01 X-33.0593 Y24.6650 
G01 X-33.0978 Y24.6148 
G01 X-33.1264 Y24.5775 
G01 X-33.1627 Y24.5497 
G01 X-33.2138 Y24.5104 
G01 X-33.2350 Y24.5016 
G01 X-33.3157 Y24.4682 
G01 X-33.3230 Y24.4673 
G01 X-33.4250 Y24.4538 
G01 X-33.4747 Y24.4604 
G01 X-33.5343 Y24.4682 
G01 X-33.5982 Y24.4947 
G01 X-33.6361 Y24.5104 
G01 X-33.6864 Y24.5490 
G01 X-33.7236 Y24.5775 
G01 X-33.7515 Y24.6139 
G01 X-33.7907 Y24.6650 
G01 X-33.8000 Y24.6874 
G01 X-33.8036 Y24.6960 
G01 X-34.0994 Y24.9918 
G01 X-34.4858 Y25.1519 
G01 X-34.9042 Y25.1519 
G01 X-35.2906 Y24.9918 
G01 X-35.5864 Y24.6960 
G01 X-35.5993 Y24.6650 
G01 X-35.6378 Y24.6148 
G01 X-35.6664 Y24.5775 
G01 X-35.7027 Y24.5497 
G01 X-35.7538 Y24.5104 
G01 X-35.7750 Y24.5016 
G01 X-35.8557 Y24.4682 
G01 X-35.8630 Y24.4673 
G01 X-35.9650 Y24.4538 
G01 X-36.0147 Y24.4604 
G01 X-36.0743 Y24.4682 
G01 X-36.1382 Y24.4947 
G01 X-36.1761 Y24.5104 
G01 X-36.2264 Y24.5490 
G01 X-36.2636 Y24.5775 
G01 X-36.2915 Y24.6139 
G01 X-36.3307 Y24.6650 
G01 X-36.3400 Y24.6874 
G01 X-36.3436 Y24.6960 
G01 X-36.6394 Y24.9918 
G01 X-37.0258 Y25.1519 
G01 X-37.4442 Y25.1519 
G01 X-37.8306 Y24.9918 
G01 X-38.1467 Y24.6758 
G01 X-38.1635 Y24.6538 
G01 X-38.1855 Y24.6369 
G01 X-38.2051 Y24.6174 
G01 X-38.2290 Y24.6035 
G01 X-38.2510 Y24.5867 
G01 X-38.2766 Y24.5761 
G01 X-38.3005 Y24.5622 
G01 X-38.3273 Y24.5551 
G01 X-38.3529 Y24.5445 
G01 X-38.3803 Y24.5409 
G01 X-38.4070 Y24.5337 
G01 X-38.4347 Y24.5337 
G01 X-38.4622 Y24.5301 
G01 X-38.4896 Y24.5337 
G01 X-38.5173 Y24.5337 
G01 X-38.5440 Y24.5409 
G01 X-38.5715 Y24.5445 
G01 X-38.5970 Y24.5551 
G01 X-38.6238 Y24.5622 
G01 X-38.6477 Y24.5761 
G01 X-38.7110 Y24.6023 
G01 X-40.2890 Y24.6023 
G01 X-40.4327 Y24.5428 
G01 X-40.5428 Y24.4327 
G01 X-40.6023 Y24.2890 
G01 X-40.6023 Y22.7110 
G01 X-40.5428 Y22.5673 
G01 X-40.4327 Y22.4572 
G01 X-40.2890 Y22.3977 
G01 X-38.7110 Y22.3977 
G01 X-38.6963 Y22.4038 
G01 X-38.6664 Y22.4199 
G01 X-38.6456 Y22.4248 
G01 X-38.6259 Y22.4330 
G01 X-38.5922 Y22.4374 
G01 X-38.5591 Y22.4452 
G01 X-38.5377 Y22.4446 
G01 X-38.5166 Y22.4474 
G01 X-38.5137 Y22.4473 
G01 X-38.4800 Y22.4428 
G01 X-38.4461 Y22.4418 
G01 X-38.4256 Y22.4357 
G01 X-38.4044 Y22.4329 
G01 X-38.3730 Y22.4199 
G01 X-38.3405 Y22.4101 
G01 X-38.3223 Y22.3989 
G01 X-38.3026 Y22.3907 
G01 X-38.2756 Y22.3700 
G01 X-38.2467 Y22.3521 
G01 X-38.2321 Y22.3366 
G01 X-38.2151 Y22.3236 
G01 X-38.1944 Y22.2966 
G01 X-38.1711 Y22.2719 
G01 X-38.1610 Y22.2531 
G01 X-38.1480 Y22.2361 
G01 X-38.1350 Y22.2047 
G01 X-38.1209 Y22.1784 
G01 X-37.8141 Y21.8717 
G01 X-37.7590 Y21.7762 
G01 X-37.7305 Y21.6697 
G01 X-37.7305 Y21.5595 
G01 X-37.7590 Y21.4530 
G01 X-37.8141 Y21.3575 
G01 X-37.8921 Y21.2796 
G01 X-37.9876 Y21.2244 
G01 X-38.0940 Y21.1959 
G01 X-44.7284 Y21.1959 
G01 X-44.9842 Y21.0900 
G01 X-45.2194 Y20.8548 
G01 X-45.3149 Y20.7996 
G01 X-45.4214 Y20.7711 
G01 X-46.2378 Y20.7711 
G01 X-46.2838 Y20.7520 
G01 X-46.3828 Y20.7110 
G01 X-46.3857 Y20.7098 
G01 X-46.4950 Y20.6954 
G01 X-46.5066 Y20.6970 
G01 X-46.6043 Y20.7098 
G01 X-46.7062 Y20.7520 
G01 X-46.7522 Y20.7711 
G01 X-47.5078 Y20.7711 
G01 X-47.6515 Y20.7116 
G01 X-47.6835 Y20.6796 
G01 X-47.7211 Y20.6420 
G01 X-47.7614 Y20.6016 
G01 X-47.8059 Y20.5760 
G01 X-47.8569 Y20.5465 
G01 X-47.9024 Y20.5343 
G01 X-47.9634 Y20.5180 
G01 X-47.9813 Y20.5180 
G01 X-47.9813 Y19.5901 
G01 X-47.9791 Y19.5459 
G01 X-47.9813 Y19.5356 
G01 X-47.9813 Y19.5249 
G01 X-47.9861 Y19.5069 
G01 X-47.9861 Y18.7573 
G01 X-48.0034 Y18.7155 
G01 X-48.0355 Y18.6834 
G01 X-48.0773 Y18.6661 
G01 X-48.7227 Y18.6661 
G01 X-48.7645 Y18.6834 
G01 X-48.7966 Y18.7155 
G01 X-48.8139 Y18.7573 
G01 X-48.8139 Y19.4993 
G01 X-48.8154 Y19.5040 
G01 X-48.8160 Y19.5146 
G01 X-48.8187 Y19.5249 
G01 X-48.8187 Y19.5698 
G01 X-48.8624 Y20.4429 
G01 X-48.8935 Y20.4249 
G01 X-48.9335 Y20.4142 
G01 X-49.0000 Y20.3964 
G01 X-49.0548 Y20.3964 
G01 X-49.1103 Y20.3964 
G01 X-49.1644 Y20.4109 
G01 X-49.2168 Y20.4249 
G01 X-49.2592 Y20.4493 
G01 X-49.3122 Y20.4800 
G01 X-49.3432 Y20.5109 
G01 X-49.3902 Y20.5579 
G01 X-49.4162 Y20.6030 
G01 X-49.4453 Y20.6534 
G01 X-49.4560 Y20.6933 
G01 X-49.4739 Y20.7599 
G01 X-49.4739 Y20.8147 
G01 X-49.4739 Y20.8701 
G01 X-49.4739 Y26.6103 
G01 X-49.4454 Y26.7168 
G01 X-49.3902 Y26.8123 
G01 X-49.3123 Y26.8902 
G01 X-49.2168 Y26.9454 
G01 X-49.1103 Y26.9739 
G01 X-40.4309 Y26.9739 
G01 X-40.0538 Y27.1301 
G01 X-39.7651 Y27.4188 
G01 X-39.6089 Y27.7959 
G01 X-39.6089 Y31.0548 
G01 X-39.5816 Y31.1567 
G01 X-39.5804 Y31.1613 
G01 X-39.5252 Y31.2567 
G01 X-39.4473 Y31.3347 
G01 X-39.3518 Y31.3898 
G01 X-39.2751 Y31.4104 
G01 X-39.2453 Y31.4184 
G01 X-39.1351 Y31.4184 
G01 X-39.0331 Y31.3910 
G01 X-39.0286 Y31.3898 
G01 X-38.9331 Y31.3347 
G01 X-38.8552 Y31.2567 
G01 X-38.7436 Y31.1452 
G01 X-38.3228 Y30.9709 
G01 X-37.8672 Y30.9709 
G01 X-37.4463 Y31.1452 
G01 X-37.1600 Y31.4315 
G01 X-37.0833 Y31.5083 
G01 X-36.9866 Y31.5646 
G01 X-36.8801 Y31.5932 
G01 X-36.7699 Y31.5932 
G01 X-36.6679 Y31.5658 
G01 X-36.6634 Y31.5646 
G01 X-36.6613 Y31.5634 
G01 X-36.5679 Y31.5095 
G01 X-36.2036 Y31.1452 
G01 X-35.7828 Y30.9709 
G01 X-35.3272 Y30.9709 
G01 X-34.9063 Y31.1452 
G01 X-34.5842 Y31.4673 
G01 X-34.5362 Y31.5833 
G01 X-34.5242 Y31.6201 
G01 X-34.5152 Y31.6341 
G01 X-34.5088 Y31.6494 
G01 X-34.4853 Y31.6801 
G01 X-34.4642 Y31.7126 
G01 X-34.4518 Y31.7237 
G01 X-34.4417 Y31.7369 
G01 X-34.4110 Y31.7604 
G01 X-34.3823 Y31.7863 
G01 X-34.3674 Y31.7939 
G01 X-34.3542 Y31.8040 
G01 X-34.3185 Y31.8188 
G01 X-34.2840 Y31.8364 
G01 X-34.2678 Y31.8398 
G01 X-34.2524 Y31.8462 
G01 X-34.2140 Y31.8513 
G01 X-34.1762 Y31.8593 
G01 X-34.1596 Y31.8584 
G01 X-34.1431 Y31.8606 
G01 X-34.1047 Y31.8556 
G01 X-34.0661 Y31.8535 
G01 X-34.0503 Y31.8484 
G01 X-34.0338 Y31.8462 
G01 X-33.9980 Y31.8314 
G01 X-33.9613 Y31.8195 
G01 X-33.9473 Y31.8104 
G01 X-33.9319 Y31.8040 
G01 X-33.9012 Y31.7805 
G01 X-33.8688 Y31.7594 
G01 X-33.8577 Y31.7470 
G01 X-33.8445 Y31.7369 
G01 X-33.8209 Y31.7062 
G01 X-33.7950 Y31.6775 
G01 X-33.7875 Y31.6626 
G01 X-33.7773 Y31.6494 
G01 X-33.7722 Y31.6371 
G01 X-33.7639 Y31.6256 
G01 X-33.7639 Y31.6746 
G01 X-33.7841 Y31.7049 
G01 X-33.8495 Y31.8628 
G01 X-33.8829 Y32.0305 
G01 X-33.8829 Y33.7095 
G01 X-33.8495 Y33.8772 
G01 X-33.7841 Y34.0351 
G01 X-33.6891 Y34.1773 
G01 X-33.5683 Y34.2981 
G01 X-33.4337 Y34.3880 
G01 X-33.4337 Y34.4141 
G01 X-33.4836 Y34.3887 
G01 X-33.5975 Y34.3060 
G01 X-33.6970 Y34.2065 
G01 X-33.7586 Y34.1217 
G01 X-33.7752 Y34.0930 
G01 X-33.7908 Y34.0773 
G01 X-33.8039 Y34.0594 
G01 X-33.8297 Y34.0385 
G01 X-33.8531 Y34.0150 
G01 X-33.8723 Y34.0039 
G01 X-33.8895 Y33.9900 
G01 X-33.9198 Y33.9765 
G01 X-33.9486 Y33.9599 
G01 X-33.9700 Y33.9541 
G01 X-33.9902 Y33.9451 
G01 X-34.0230 Y33.9399 
G01 X-34.0551 Y33.9313 
G01 X-34.0772 Y33.9313 
G01 X-34.0991 Y33.9279 
G01 X-34.1321 Y33.9313 
G01 X-34.1653 Y33.9313 
G01 X-34.1867 Y33.9371 
G01 X-34.2088 Y33.9394 
G01 X-34.2398 Y33.9513 
G01 X-34.2718 Y33.9599 
G01 X-34.2910 Y33.9710 
G01 X-34.3117 Y33.9789 
G01 X-34.3385 Y33.9984 
G01 X-34.3673 Y34.0150 
G01 X-34.3830 Y34.0307 
G01 X-34.4009 Y34.0437 
G01 X-34.4218 Y34.0695 
G01 X-34.4452 Y34.0930 
G01 X-34.4563 Y34.1122 
G01 X-34.4703 Y34.1294 
G01 X-34.4838 Y34.1597 
G01 X-34.5004 Y34.1884 
G01 X-34.5061 Y34.2098 
G01 X-34.5151 Y34.2301 
G01 X-34.5203 Y34.2629 
G01 X-34.5289 Y34.2949 
G01 X-34.5289 Y34.3171 
G01 X-34.5324 Y34.3390 
G01 X-34.5289 Y34.3720 
G01 X-34.5289 Y36.1103 
G01 X-34.5004 Y36.2168 
G01 X-34.4452 Y36.3123 
G01 X-34.3673 Y36.3902 
G01 X-34.2718 Y36.4454 
G01 X-34.1653 Y36.4739 
G01 X-28.8897 Y36.4739 
G01 X-28.7832 Y36.4454 
G01 X-28.6877 Y36.3902 
G01 X-28.6098 Y36.3123 
G01 X-28.5546 Y36.2168 
G01 X-28.5261 Y36.1103 
G01 X-28.5261 Y27.8459 
G01 X-28.3699 Y27.4688 
G01 X-28.0812 Y27.1801 
G01 X-27.7041 Y27.0239 
G01 X-24.5247 Y27.0239 
G01 X-24.4973 Y27.0275 
G01 X-24.4698 Y27.0239 
G01 X-24.4422 Y27.0239 
G01 X-24.4154 Y27.0167 
G01 X-24.3880 Y27.0131 
G01 X-24.3778 Y27.0089 
G01 X-22.6222 Y27.0089 
G01 X-22.4785 Y27.0684 
G01 X-22.3684 Y27.1785 
G01 X-22.3421 Y27.2420 
G01 X-22.3350 Y27.2687 
G01 X-22.3211 Y27.2927 
G01 X-22.3105 Y27.3183 
G01 X-22.2937 Y27.3402 
G01 X-22.2798 Y27.3642 
G01 X-22.2603 Y27.3838 
G01 X-22.2434 Y27.4057 
G01 X-22.2215 Y27.4226 
G01 X-22.2019 Y27.4422 
G01 X-22.1779 Y27.4560 
G01 X-22.1560 Y27.4728 
G01 X-22.1304 Y27.4834 
G01 X-22.1064 Y27.4973 
G01 X-22.0797 Y27.5044 
G01 X-22.0541 Y27.5150 
G01 X-22.0267 Y27.5187 
G01 X-21.9999 Y27.5258 
G01 X-21.9722 Y27.5258 
G01 X-21.9448 Y27.5294 
G01 X-21.9174 Y27.5258 
G01 X-21.8897 Y27.5258 
G01 X-21.8629 Y27.5187 
G01 X-21.8355 Y27.5150 
G01 X-21.8099 Y27.5044 
G01 X-21.7832 Y27.4973 
G01 X-21.7592 Y27.4834 
G01 X-21.7336 Y27.4729 
G01 X-21.7117 Y27.4560 
G01 X-21.6877 Y27.4422 
G01 X-21.6681 Y27.4226 
G01 X-21.6462 Y27.4057 
G01 X-21.6293 Y27.3838 
G01 X-21.6098 Y27.3642 
G01 X-21.5959 Y27.3402 
G01 X-21.5791 Y27.3183 
G01 X-21.5685 Y27.2927 
G01 X-21.5546 Y27.2687 
G01 X-21.5475 Y27.2420 
G01 X-21.5369 Y27.2164 
G01 X-21.5333 Y27.1890 
G01 X-21.5261 Y27.1622 
G01 X-21.5261 Y27.1346 
G01 X-21.5225 Y27.1071 
G01 X-21.5261 Y27.0797 
G01 X-21.5261 Y26.2959 
G01 X-21.3699 Y25.9188 
G01 X-21.0812 Y25.6301 
G01 X-20.7041 Y25.4739 
G01 X-20.5453 Y25.4739 
G01 X-20.4388 Y25.4454 
G01 X-20.3433 Y25.3902 
G01 X-20.3215 Y25.3684 
G01 X-20.1778 Y25.3089 
G01 X-18.7222 Y25.3089 
G01 X-18.5785 Y25.3684 
G01 X-18.4707 Y25.4762 
G01 X-18.3752 Y25.5314 
G01 X-18.2989 Y25.5518 
G01 X-18.2989 Y25.6411 
G01 X-18.3139 Y25.6773 
G01 X-18.3139 Y27.3227 
G01 X-18.2966 Y27.3645 
G01 X-18.2645 Y27.3966 
G01 X-18.2489 Y27.4030 
G01 X-18.2489 Y27.4401 
G01 X-18.2687 Y27.4401 
G01 X-18.3752 Y27.4686 
G01 X-18.4707 Y27.5238 
G01 X-18.5486 Y27.6017 
G01 X-18.5785 Y27.6316 
G01 X-18.7222 Y27.6911 
G01 X-19.1103 Y27.6911 
G01 X-19.2168 Y27.7196 
G01 X-19.3123 Y27.7748 
G01 X-19.3902 Y27.8527 
G01 X-19.4454 Y27.9482 
G01 X-19.4739 Y28.0547 
G01 X-19.4739 Y33.8055 
G01 X-19.4454 Y33.9120 
G01 X-19.3902 Y34.0075 
G01 X-19.3123 Y34.0854 
G01 X-19.2168 Y34.1406 
G01 X-19.1103 Y34.1691 
G01 X-18.7037 Y34.1691 
G01 X-18.5972 Y34.1406 
G01 X-18.5017 Y34.0854 
G01 X-18.4300 Y34.0137 
G01 X-17.1551 Y34.0137 
G01 X-17.1406 Y34.0137 
G01 X-17.1264 Y34.0165 
G01 X-17.0859 Y34.0137 
G01 X-15.8620 Y34.0137 
G01 X-15.8620 Y34.0315 
G01 X-15.8458 Y34.0921 
G01 X-15.8335 Y34.1380 
G01 X-15.8042 Y34.1888 
G01 X-15.7784 Y34.2335 
G01 X-15.7383 Y34.2736 
G01 X-15.7005 Y34.3115 
G01 X-15.6687 Y34.3432 
G01 X-15.6574 Y34.3780 
G01 X-15.6483 Y34.3920 
G01 X-15.6419 Y34.4075 
G01 X-15.6184 Y34.4381 
G01 X-15.5974 Y34.4705 
G01 X-15.5850 Y34.4817 
G01 X-15.5748 Y34.4950 
G01 X-15.5442 Y34.5185 
G01 X-15.5155 Y34.5443 
G01 X-15.5006 Y34.5519 
G01 X-15.4873 Y34.5621 
G01 X-15.4517 Y34.5768 
G01 X-15.4173 Y34.5944 
G01 X-15.4009 Y34.5979 
G01 X-15.3855 Y34.6043 
G01 X-15.3473 Y34.6093 
G01 X-15.3095 Y34.6173 
G01 X-15.2928 Y34.6165 
G01 X-15.2762 Y34.6187 
G01 X-15.2380 Y34.6136 
G01 X-15.1994 Y34.6116 
G01 X-15.1835 Y34.6065 
G01 X-15.1669 Y34.6043 
G01 X-15.1313 Y34.5895 
G01 X-15.0945 Y34.5776 
G01 X-15.0805 Y34.5685 
G01 X-15.0650 Y34.5621 
G01 X-15.0344 Y34.5386 
G01 X-15.0021 Y34.5176 
G01 X-14.9908 Y34.5052 
G01 X-14.9776 Y34.4950 
G01 X-14.9541 Y34.4644 
G01 X-14.9243 Y34.4313 
G01 X-14.9099 Y34.4197 
G01 X-14.8954 Y34.4113 
G01 X-14.8338 Y34.3850 
G01 X-14.8229 Y34.3830 
G01 X-14.7830 Y34.3640 
G01 X-14.7421 Y34.3470 
G01 X-14.7333 Y34.3403 
G01 X-14.6743 Y34.3122 
G01 X-14.6566 Y34.3070 
G01 X-14.6400 Y34.3048 
G01 X-14.5730 Y34.3041 
G01 X-14.5622 Y34.3064 
G01 X-14.5180 Y34.3041 
G01 X-14.4738 Y34.3041 
G01 X-14.4631 Y34.3012 
G01 X-13.7989 Y34.2668 
G01 X-13.7547 Y34.2668 
G01 X-13.7440 Y34.2639 
G01 X-13.7330 Y34.2633 
G01 X-13.6909 Y34.2497 
G01 X-13.6482 Y34.2382 
G01 X-13.6387 Y34.2327 
G01 X-13.6282 Y34.2293 
G01 X-13.5910 Y34.2052 
G01 X-13.5527 Y34.1831 
G01 X-13.5449 Y34.1753 
G01 X-13.5357 Y34.1693 
G01 X-13.5060 Y34.1364 
G01 X-13.4748 Y34.1051 
G01 X-13.4693 Y34.0956 
G01 X-13.4619 Y34.0874 
G01 X-13.4418 Y34.0480 
G01 X-13.4196 Y34.0097 
G01 X-13.4168 Y33.9990 
G01 X-13.4118 Y33.9892 
G01 X-13.4026 Y33.9459 
G01 X-13.3911 Y33.9032 
G01 X-13.3911 Y33.8922 
G01 X-13.3888 Y33.8814 
G01 X-13.3911 Y33.8372 
G01 X-13.3911 Y33.2172 
G01 X-13.3316 Y33.0735 
G01 X-13.2215 Y32.9634 
G01 X-13.0778 Y32.9039 
G01 X-10.7222 Y32.9039 
G01 X-10.5785 Y32.9634 
G01 X-10.4684 Y33.0735 
G01 X-10.4089 Y33.2172 
G01 X-10.4089 Y33.9405 
G01 X-10.3804 Y34.0470 
G01 X-10.3252 Y34.1425 
G01 X-10.2473 Y34.2204 
G01 X-10.1518 Y34.2756 
G01 X-10.0453 Y34.3041 
G01 X-9.3897 Y34.3041 
G01 X-9.2832 Y34.2756 
G01 X-9.1877 Y34.2204 
G01 X-9.1098 Y34.1425 
G01 X-9.0546 Y34.0470 
G01 X-9.0261 Y33.9405 
G01 X-9.0261 Y31.8897 
G01 X-9.0546 Y31.7832 
G01 X-9.1098 Y31.6877 
G01 X-9.1877 Y31.6098 
G01 X-9.2832 Y31.5546 
G01 X-9.3897 Y31.5261 
G01 X-13.2041 Y31.5261 
G01 X-13.2934 Y31.4891 
G01 X-13.3174 Y31.4753 
G01 X-13.3441 Y31.4681 
G01 X-13.3697 Y31.4575 
G01 X-13.3971 Y31.4539 
G01 X-13.4239 Y31.4467 
G01 X-13.4516 Y31.4467 
G01 X-13.4790 Y31.4431 
G01 X-13.5064 Y31.4467 
G01 X-13.5341 Y31.4467 
G01 X-13.5609 Y31.4539 
G01 X-13.5883 Y31.4575 
G01 X-13.6139 Y31.4681 
G01 X-13.6406 Y31.4753 
G01 X-13.6646 Y31.4891 
G01 X-13.6902 Y31.4997 
G01 X-13.7121 Y31.5165 
G01 X-13.7361 Y31.5304 
G01 X-13.7556 Y31.5499 
G01 X-13.7776 Y31.5668 
G01 X-13.7945 Y31.5888 
G01 X-13.8140 Y31.6083 
G01 X-13.8279 Y31.6323 
G01 X-13.8447 Y31.6543 
G01 X-13.8553 Y31.6798 
G01 X-13.8692 Y31.7038 
G01 X-13.8763 Y31.7306 
G01 X-13.8869 Y31.7561 
G01 X-13.8882 Y31.7662 
G01 X-13.9572 Y31.9327 
G01 X-14.0673 Y32.0428 
G01 X-14.2110 Y32.1023 
G01 X-15.7890 Y32.1023 
G01 X-15.9327 Y32.0428 
G01 X-16.0428 Y31.9327 
G01 X-16.1023 Y31.7890 
G01 X-16.1023 Y30.2110 
G01 X-16.0685 Y30.1293 
G01 X-16.0546 Y30.1054 
G01 X-16.0475 Y30.0786 
G01 X-16.0369 Y30.0531 
G01 X-16.0333 Y30.0256 
G01 X-16.0261 Y29.9989 
G01 X-16.0261 Y29.9712 
G01 X-16.0225 Y29.9438 
G01 X-16.0261 Y29.9163 
G01 X-16.0261 Y27.6843 
G01 X-16.0261 Y27.6294 
G01 X-16.0261 Y27.5740 
G01 X-16.0404 Y27.5206 
G01 X-16.0546 Y27.4675 
G01 X-16.0796 Y27.4243 
G01 X-16.1098 Y27.3721 
G01 X-16.1563 Y27.3255 
G01 X-16.1877 Y27.2941 
G01 X-16.2387 Y27.2647 
G01 X-16.2832 Y27.2390 
G01 X-16.3324 Y27.2258 
G01 X-16.3897 Y27.2105 
G01 X-16.4445 Y27.2105 
G01 X-16.4999 Y27.2105 
G01 X-16.5534 Y27.2248 
G01 X-16.6064 Y27.2390 
G01 X-16.6496 Y27.2640 
G01 X-16.7019 Y27.2941 
G01 X-16.7484 Y27.3407 
G01 X-16.7511 Y27.3433 
G01 X-16.7511 Y26.9389 
G01 X-16.3897 Y26.9389 
G01 X-16.2832 Y26.9104 
G01 X-16.1877 Y26.8552 
G01 X-16.1098 Y26.7773 
G01 X-16.0546 Y26.6818 
G01 X-16.0261 Y26.5753 
G01 X-16.0261 Y26.4247 
G01 X-16.0546 Y26.3182 
G01 X-16.1098 Y26.2227 
G01 X-16.1877 Y26.1447 
G01 X-16.2832 Y26.0896 
G01 X-16.3897 Y26.0611 
G01 X-16.7861 Y26.0611 
G01 X-16.7861 Y25.6773 
G01 X-16.8011 Y25.6411 
G01 X-16.8011 Y25.6008 
G01 X-16.7879 Y25.6140 
G01 X-16.7850 Y25.6190 
G01 X-16.7666 Y25.6509 
G01 X-16.7298 Y25.7145 
G01 X-16.6519 Y25.7925 
G01 X-16.6195 Y25.8112 
G01 X-16.5564 Y25.8476 
G01 X-16.4499 Y25.8761 
G01 X-16.3954 Y25.8761 
G01 X-16.3397 Y25.8761 
G01 X-16.3309 Y25.8738 
G01 X-16.2332 Y25.8476 
G01 X-16.1945 Y25.8253 
G01 X-16.1377 Y25.7925 
G01 X-16.0598 Y25.7145 
G01 X-16.0411 Y25.6822 
G01 X-16.0046 Y25.6191 
G01 X-15.9761 Y25.5126 
G01 X-15.9761 Y25.4581 
G01 X-15.9761 Y25.4023 
G01 X-15.9761 Y22.7959 
G01 X-15.8199 Y22.4188 
G01 X-15.5312 Y22.1301 
G01 X-15.3837 Y22.0690 
G01 X-15.3569 Y22.0618 
G01 X-15.3330 Y22.0480 
G01 X-15.3074 Y22.0374 
G01 X-15.2855 Y22.0206 
G01 X-15.2615 Y22.0067 
G01 X-15.2419 Y21.9871 
G01 X-15.2200 Y21.9703 
G01 X-15.2031 Y21.9483 
G01 X-15.1835 Y21.9287 
G01 X-15.1697 Y21.9048 
G01 X-15.1529 Y21.8828 
G01 X-15.1423 Y21.8573 
G01 X-15.1284 Y21.8333 
G01 X-15.1212 Y21.8065 
G01 X-15.1107 Y21.7810 
G01 X-15.1070 Y21.7535 
G01 X-15.0999 Y21.7268 
G01 X-15.0999 Y21.6991 
G01 X-15.0963 Y21.6717 
G01 X-15.0999 Y21.6442 
G01 X-15.0999 Y21.6165 
G01 X-15.1070 Y21.5898 
G01 X-15.1107 Y21.5624 
G01 X-15.1213 Y21.5368 
G01 X-15.1284 Y21.5100 
G01 X-15.1423 Y21.4861 
G01 X-15.1528 Y21.4605 
G01 X-15.1697 Y21.4385 
G01 X-15.1836 Y21.4146 
G01 X-15.2031 Y21.3950 
G01 X-15.2185 Y21.3750 
G01 X-15.2305 Y21.3541 
G01 X-15.2401 Y21.3184 
G01 X-15.2401 Y21.2489 
G01 X-15.2139 Y21.2489 
G01 X-15.2139 Y21.3227 
G01 X-15.1966 Y21.3645 
G01 X-15.1645 Y21.3966 
G01 X-15.1227 Y21.4139 
G01 X-13.7773 Y21.4139 
G01 X-13.7355 Y21.3966 
G01 X-13.7034 Y21.3645 
G01 X-13.6861 Y21.3227 
G01 X-13.6861 Y19.6773 
G01 X-13.7011 Y19.6411 
G01 X-13.7011 Y19.5518 
G01 X-13.6248 Y19.5314 
G01 X-13.5293 Y19.4762 
G01 X-13.4514 Y19.3983 
G01 X-13.4215 Y19.3684 
G01 X-13.2778 Y19.3089 
G01 X-12.6996 Y19.3089 
G01 X-12.6722 Y19.3125 
G01 X-12.6448 Y19.3089 
G01 X-12.6171 Y19.3089 
G01 X-12.5903 Y19.3017 
G01 X-12.5629 Y19.2981 
G01 X-12.5373 Y19.2875 
G01 X-12.5106 Y19.2804 
G01 X-12.4866 Y19.2665 
G01 X-12.4610 Y19.2559 
G01 X-12.4391 Y19.2391 
G01 X-12.4151 Y19.2252 
G01 X-12.3956 Y19.2057 
G01 X-12.3736 Y19.1888 
G01 X-12.3567 Y19.1668 
G01 X-12.3372 Y19.1473 
G01 X-12.3233 Y19.1233 
G01 X-12.3065 Y19.1014 
G01 X-12.2959 Y19.0758 
G01 X-12.2820 Y19.0518 
G01 X-12.2749 Y19.0251 
G01 X-12.2643 Y18.9995 
G01 X-12.2607 Y18.9720 
G01 X-12.2535 Y18.9453 
G01 X-12.2535 Y18.9176 
G01 X-12.2499 Y18.8902 
G01 X-12.2535 Y18.8628 
G01 X-12.2535 Y18.8351 
G01 X-12.2607 Y18.8083 
G01 X-12.2643 Y18.7809 
G01 X-12.2749 Y18.7553 
G01 X-12.2820 Y18.7286 
G01 X-12.2959 Y18.7046 
G01 X-12.2961 Y13.2977 
G01 X-12.3246 Y13.1912 
G01 X-12.3798 Y13.0957 
G01 X-12.4577 Y13.0178 
G01 X-12.5428 Y12.9327 
G01 X-12.6023 Y12.7890 
G01 X-12.6023 Y11.2110 
G01 X-12.5428 Y11.0673 
G01 X-12.3798 Y10.9043 
G01 X-12.3246 Y10.8088 
G01 X-12.2961 Y10.7023 
G01 X-12.2961 Y10.3152 
G01 X-12.3246 Y10.2087 
G01 X-12.3798 Y10.1132 
G01 X-12.4577 Y10.0353 
G01 X-12.5532 Y9.9802 
G01 X-12.6597 Y9.9516 
G01 X-12.7699 Y9.9516 
G01 X-12.8764 Y9.9802 
G01 X-12.9719 Y10.0353 
G01 X-13.1614 Y10.2248 
G01 X-13.5822 Y10.3991 
G01 X-14.0378 Y10.3991 
G01 X-14.4586 Y10.2248 
G01 X-14.7808 Y9.9026 
G01 X-14.9551 Y9.4818 
G01 X-14.9551 Y7.5182 
G01 X-14.9436 Y7.4904 
G01 X-14.9297 Y7.4664 
G01 X-14.9226 Y7.4397 
G01 X-14.9120 Y7.4141 
G01 X-14.9084 Y7.3867 
G01 X-14.9012 Y7.3599 
G01 X-14.9012 Y7.3322 
G01 X-14.8976 Y7.3048 
G00 Z2.0000  F3000
G00 X-16.1749 Y7.2661  F3000
G01 Z-0.2000 F200.00 
G01 X-16.1922 Y7.2243 F500.00 
G01 X-16.2243 Y7.1922 
G01 X-16.2661 Y7.1749 
G01 X-17.7339 Y7.1749 
G01 X-17.7757 Y7.1922 
G01 X-17.8078 Y7.2243 
G01 X-17.8251 Y7.2661 
G01 X-17.8251 Y8.7339 
G01 X-17.8078 Y8.7757 
G01 X-17.7757 Y8.8078 
G01 X-17.7489 Y8.8189 
G01 X-17.7489 Y10.2511 
G01 X-29.2261 Y10.2511 
G01 X-29.2261 Y8.6261 
G01 X-29.2007 Y8.6007 
G01 X-29.2007 Y7.9593 
G01 X-29.6543 Y7.5057 
G01 X-30.2957 Y7.5057 
G01 X-30.5411 Y7.7511 
G01 X-33.0693 Y7.7511 
G01 X-33.1122 Y7.7476 
G01 X-33.1429 Y7.7511 
G01 X-33.1738 Y7.7511 
G01 X-33.2160 Y7.7595 
G01 X-33.2588 Y7.7644 
G01 X-33.2881 Y7.7739 
G01 X-33.3184 Y7.7799 
G01 X-33.3582 Y7.7964 
G01 X-33.3992 Y7.8095 
G01 X-33.4262 Y7.8245 
G01 X-33.4547 Y7.8363 
G01 X-33.4905 Y7.8603 
G01 X-33.5282 Y7.8812 
G01 X-33.5517 Y7.9011 
G01 X-33.5774 Y7.9183 
G01 X-33.6078 Y7.9487 
G01 X-33.6407 Y7.9766 
G01 X-33.6599 Y8.0008 
G01 X-33.6817 Y8.0226 
G01 X-33.7056 Y8.0584 
G01 X-33.7324 Y8.0921 
G01 X-33.7465 Y8.1196 
G01 X-33.7637 Y8.1453 
G01 X-33.7801 Y8.1850 
G01 X-33.7998 Y8.2233 
G01 X-33.8083 Y8.2530 
G01 X-33.8201 Y8.2816 
G01 X-33.8285 Y8.3238 
G01 X-34.5892 Y10.9861 
G01 X-34.9227 Y10.9861 
G01 X-34.9645 Y11.0034 
G01 X-34.9966 Y11.0355 
G01 X-35.0139 Y11.0773 
G01 X-35.0139 Y12.9227 
G01 X-34.9966 Y12.9645 
G01 X-34.9645 Y12.9966 
G01 X-34.9227 Y13.0139 
G01 X-33.2773 Y13.0139 
G01 X-33.2355 Y12.9966 
G01 X-33.2034 Y12.9645 
G01 X-33.1861 Y12.9227 
G01 X-33.1861 Y11.5274 
G01 X-32.5351 Y9.2489 
G01 X-30.7239 Y9.2489 
G01 X-30.7239 Y11.0738 
G01 X-30.6951 Y11.2184 
G01 X-30.6387 Y11.3547 
G01 X-30.5567 Y11.4774 
G01 X-30.4524 Y11.5817 
G01 X-30.3297 Y11.6637 
G01 X-30.1934 Y11.7201 
G01 X-30.0488 Y11.7489 
G01 X-28.2489 Y11.7489 
G01 X-28.2489 Y22.6911 
G01 X-28.8431 Y22.6911 
G01 X-28.8705 Y22.5537 
G01 X-28.9288 Y22.4128 
G01 X-29.0136 Y22.2860 
G01 X-29.1214 Y22.1782 
G01 X-29.2482 Y22.0934 
G01 X-29.3891 Y22.0351 
G01 X-29.5387 Y22.0053 
G01 X-29.6913 Y22.0053 
G01 X-29.8409 Y22.0351 
G01 X-29.9818 Y22.0934 
G01 X-30.1086 Y22.1782 
G01 X-30.2164 Y22.2860 
G01 X-30.3012 Y22.4128 
G01 X-30.3595 Y22.5537 
G01 X-30.3893 Y22.7033 
G01 X-30.3893 Y24.1767 
G01 X-30.3595 Y24.3263 
G01 X-30.3012 Y24.4672 
G01 X-30.2164 Y24.5940 
G01 X-30.1086 Y24.7018 
G01 X-29.9818 Y24.7866 
G01 X-29.8409 Y24.8449 
G01 X-29.6913 Y24.8747 
G01 X-29.5387 Y24.8747 
G01 X-29.3891 Y24.8449 
G01 X-29.2482 Y24.7866 
G01 X-29.1214 Y24.7018 
G01 X-29.0136 Y24.5940 
G01 X-28.9288 Y24.4672 
G01 X-28.8705 Y24.3263 
G01 X-28.8431 Y24.1889 
G01 X-27.4262 Y24.1889 
G01 X-27.2816 Y24.1601 
G01 X-27.1453 Y24.1037 
G01 X-27.0226 Y24.0217 
G01 X-26.9183 Y23.9174 
G01 X-26.8363 Y23.7947 
G01 X-26.7799 Y23.6584 
G01 X-26.7511 Y23.5138 
G01 X-26.7511 Y21.7489 
G01 X-25.4262 Y21.7489 
G01 X-25.2816 Y21.7201 
G01 X-25.1453 Y21.6637 
G01 X-25.0226 Y21.5817 
G01 X-24.9183 Y21.4774 
G01 X-24.8363 Y21.3547 
G01 X-24.7799 Y21.2184 
G01 X-24.7511 Y21.0738 
G01 X-24.7511 Y13.8189 
G01 X-24.7243 Y13.8078 
G01 X-24.6922 Y13.7757 
G01 X-24.6749 Y13.7339 
G01 X-24.6749 Y12.2661 
G01 X-24.6922 Y12.2243 
G01 X-24.7243 Y12.1922 
G01 X-24.7661 Y12.1749 
G01 X-26.2339 Y12.1749 
G01 X-26.2757 Y12.1922 
G01 X-26.3078 Y12.2243 
G01 X-26.3251 Y12.2661 
G01 X-26.3251 Y13.7339 
G01 X-26.3078 Y13.7757 
G01 X-26.2757 Y13.8078 
G01 X-26.2489 Y13.8189 
G01 X-26.2489 Y20.2511 
G01 X-26.7511 Y20.2511 
G01 X-26.7511 Y11.7489 
G01 X-18.1630 Y11.7489 
G01 X-18.7123 Y12.9573 
G01 X-18.7460 Y13.1009 
G01 X-18.7510 Y13.2483 
G01 X-18.7498 Y13.2554 
G01 X-18.7589 Y13.2773 
G01 X-18.7589 Y15.1227 
G01 X-18.7416 Y15.1645 
G01 X-18.7095 Y15.1966 
G01 X-18.6677 Y15.2139 
G01 X-17.0223 Y15.2139 
G01 X-16.9805 Y15.1966 
G01 X-16.9484 Y15.1645 
G01 X-16.9311 Y15.1227 
G01 X-16.9311 Y13.2773 
G01 X-16.9484 Y13.2355 
G01 X-16.9805 Y13.2034 
G01 X-17.0223 Y13.1861 
G01 X-17.1710 Y13.1861 
G01 X-16.3434 Y11.3654 
G01 X-16.3363 Y11.3547 
G01 X-16.3130 Y11.2984 
G01 X-16.2877 Y11.2427 
G01 X-16.2848 Y11.2303 
G01 X-16.2799 Y11.2184 
G01 X-16.2680 Y11.1585 
G01 X-16.2540 Y11.0991 
G01 X-16.2536 Y11.0863 
G01 X-16.2511 Y11.0738 
G01 X-16.2511 Y11.0127 
G01 X-16.2490 Y10.9517 
G01 X-16.2511 Y10.9390 
G01 X-16.2511 Y8.8189 
G01 X-16.2243 Y8.8078 
G01 X-16.1922 Y8.7757 
G01 X-16.1749 Y8.7339 
G01 X-16.1749 Y7.2661 
G00 Z2.0000  F3000
G00 X-18.1098 Y9.2310  F3000
G01 Z-0.2000 F200.00 
G01 X-18.1877 Y9.1530 F500.00 
G01 X-18.2832 Y9.0979 
G01 X-18.3897 Y9.0694 
G01 X-18.4999 Y9.0694 
G01 X-18.6064 Y9.0979 
G01 X-18.7019 Y9.1530 
G01 X-18.7690 Y9.2202 
G01 X-18.8470 Y9.2981 
G01 X-18.9021 Y9.3936 
G01 X-18.9306 Y9.5001 
G01 X-18.9306 Y9.6103 
G01 X-18.9021 Y9.7168 
G01 X-18.8470 Y9.8123 
G01 X-18.7690 Y9.8902 
G01 X-18.6736 Y9.9454 
G01 X-18.5671 Y9.9739 
G01 X-18.3897 Y9.9739 
G01 X-18.2832 Y9.9454 
G01 X-18.1877 Y9.8902 
G01 X-18.1098 Y9.8123 
G01 X-18.0546 Y9.7168 
G01 X-18.0261 Y9.6103 
G01 X-18.0261 Y9.5001 
G01 X-18.0261 Y9.4329 
G01 X-18.0546 Y9.3264 
G01 X-18.1098 Y9.2310 
G00 Z2.0000  F3000
G00 X-21.5589 Y14.7139  F3000
G01 Z-0.2000 F200.00 
G01 X-21.5589 Y15.1227 F500.00 
G01 X-21.5416 Y15.1645 
G01 X-21.5095 Y15.1966 
G01 X-21.4677 Y15.2139 
G01 X-21.2489 Y15.2139 
G01 X-21.2489 Y15.2401 
G01 X-21.4634 Y15.2401 
G01 X-21.4991 Y15.2305 
G01 X-21.5310 Y15.2121 
G01 X-21.5571 Y15.1860 
G01 X-21.5755 Y15.1541 
G01 X-21.5851 Y15.1184 
G01 X-21.5851 Y14.7139 
G01 X-21.5589 Y14.7139 
G00 Z2.0000  F3000
G00 X-28.9288 Y14.7928  F3000
G01 Z-0.2000 F200.00 
G01 X-29.0136 Y14.6660 F500.00 
G01 X-29.1214 Y14.5582 
G01 X-29.2482 Y14.4734 
G01 X-29.3891 Y14.4151 
G01 X-29.5387 Y14.3853 
G01 X-29.6913 Y14.3853 
G01 X-29.8409 Y14.4151 
G01 X-29.9818 Y14.4734 
G01 X-30.1086 Y14.5582 
G01 X-30.2164 Y14.6660 
G01 X-30.3012 Y14.7928 
G01 X-30.3595 Y14.9337 
G01 X-30.3893 Y15.0833 
G01 X-30.3893 Y16.5567 
G01 X-30.3595 Y16.7063 
G01 X-30.3012 Y16.8472 
G01 X-30.2164 Y16.9740 
G01 X-30.1086 Y17.0818 
G01 X-29.9818 Y17.1666 
G01 X-29.8409 Y17.2249 
G01 X-29.6913 Y17.2547 
G01 X-29.5387 Y17.2547 
G01 X-29.3891 Y17.2249 
G01 X-29.2482 Y17.1666 
G01 X-29.1214 Y17.0818 
G01 X-29.0136 Y16.9740 
G01 X-28.9288 Y16.8472 
G01 X-28.8705 Y16.7063 
G01 X-28.8407 Y16.5567 
G01 X-28.8407 Y15.0833 
G01 X-28.8705 Y14.9337 
G01 X-28.9288 Y14.7928 
G00 Z2.0000  F3000
G00 X-28.9174 Y14.2646  F3000
G01 Z-0.2000 F200.00 
G01 X-28.8897 Y14.2646 F500.00 
G01 X-28.8629 Y14.2574 
G01 X-28.8355 Y14.2538 
G01 X-28.8099 Y14.2432 
G01 X-28.7832 Y14.2360 
G01 X-28.7592 Y14.2222 
G01 X-28.7336 Y14.2116 
G01 X-28.7117 Y14.1948 
G01 X-28.6877 Y14.1809 
G01 X-28.6681 Y14.1613 
G01 X-28.6462 Y14.1445 
G01 X-28.6293 Y14.1225 
G01 X-28.6098 Y14.1030 
G01 X-28.5959 Y14.0790 
G01 X-28.5791 Y14.0570 
G01 X-28.5685 Y14.0314 
G01 X-28.5546 Y14.0075 
G01 X-28.5475 Y13.9808 
G01 X-28.5369 Y13.9552 
G01 X-28.5333 Y13.9277 
G01 X-28.5261 Y13.9010 
G01 X-28.5261 Y13.8733 
G01 X-28.5225 Y13.8459 
G01 X-28.5261 Y13.8184 
G01 X-28.5261 Y12.3897 
G01 X-28.5546 Y12.2832 
G01 X-28.6098 Y12.1877 
G01 X-28.6877 Y12.1098 
G01 X-28.7832 Y12.0546 
G01 X-28.8897 Y12.0261 
G01 X-28.9999 Y12.0261 
G01 X-30.0341 Y12.0261 
G01 X-30.1406 Y12.0546 
G01 X-30.2361 Y12.1098 
G01 X-30.3140 Y12.1877 
G01 X-30.3692 Y12.2832 
G01 X-30.3977 Y12.3897 
G01 X-30.3977 Y13.6916 
G01 X-30.4013 Y13.7191 
G01 X-30.3977 Y13.7465 
G01 X-30.3977 Y13.7742 
G01 X-30.3905 Y13.8009 
G01 X-30.3869 Y13.8284 
G01 X-30.3763 Y13.8539 
G01 X-30.3692 Y13.8807 
G01 X-30.3553 Y13.9046 
G01 X-30.3447 Y13.9302 
G01 X-30.3279 Y13.9522 
G01 X-30.3140 Y13.9761 
G01 X-30.2945 Y13.9957 
G01 X-30.2776 Y14.0177 
G01 X-30.2556 Y14.0345 
G01 X-30.2361 Y14.0541 
G01 X-30.2121 Y14.0679 
G01 X-30.1901 Y14.0848 
G01 X-30.1646 Y14.0954 
G01 X-30.1406 Y14.1092 
G01 X-30.1139 Y14.1164 
G01 X-30.0883 Y14.1270 
G01 X-30.0608 Y14.1306 
G01 X-30.0341 Y14.1377 
G01 X-30.0064 Y14.1377 
G01 X-29.9790 Y14.1414 
G01 X-29.9516 Y14.1377 
G01 X-29.9239 Y14.1377 
G01 X-29.8971 Y14.1306 
G01 X-29.8697 Y14.1270 
G01 X-29.8441 Y14.1164 
G01 X-29.8174 Y14.1092 
G01 X-29.4058 Y14.1081 
G01 X-29.1304 Y14.2222 
G01 X-29.1064 Y14.2360 
G01 X-29.0797 Y14.2432 
G01 X-29.0541 Y14.2538 
G01 X-29.0267 Y14.2574 
G01 X-28.9999 Y14.2646 
G01 X-28.9722 Y14.2646 
G01 X-28.9448 Y14.2682 
G01 X-28.9174 Y14.2646 
G00 Z2.0000  F3000
G00 X-30.7243 Y13.8078  F3000
G01 Z-0.2000 F200.00 
G01 X-30.6922 Y13.7757 F500.00 
G01 X-30.6749 Y13.7339 
G01 X-30.6749 Y12.2661 
G01 X-30.6922 Y12.2243 
G01 X-30.7243 Y12.1922 
G01 X-30.7661 Y12.1749 
G01 X-32.2339 Y12.1749 
G01 X-32.2757 Y12.1922 
G01 X-32.3078 Y12.2243 
G01 X-32.3251 Y12.2661 
G01 X-32.3251 Y13.3639 
G01 X-32.5218 Y14.4735 
G01 X-32.6486 Y14.5582 
G01 X-32.7564 Y14.6660 
G01 X-32.8412 Y14.7928 
G01 X-32.8995 Y14.9337 
G01 X-32.9293 Y15.0833 
G01 X-32.9293 Y16.5567 
G01 X-32.8995 Y16.7063 
G01 X-32.8412 Y16.8472 
G01 X-32.7564 Y16.9740 
G01 X-32.6486 Y17.0818 
G01 X-32.5218 Y17.1666 
G01 X-32.3809 Y17.2249 
G01 X-32.2313 Y17.2547 
G01 X-32.0787 Y17.2547 
G01 X-31.9291 Y17.2249 
G01 X-31.7882 Y17.1666 
G01 X-31.6614 Y17.0818 
G01 X-31.5536 Y16.9740 
G01 X-31.4688 Y16.8472 
G01 X-31.4105 Y16.7063 
G01 X-31.3807 Y16.5567 
G01 X-31.3807 Y16.2417 
G01 X-31.3291 Y16.1608 
G01 X-31.2755 Y16.0234 
G01 X-30.8857 Y13.8251 
G01 X-30.7661 Y13.8251 
G01 X-30.7243 Y13.8078 
G00 Z2.0000  F3000
G00 X-32.6853 Y13.8074  F3000
G01 Z-0.2000 F200.00 
G01 X-32.6816 Y13.7986 F500.00 
G01 X-32.6757 Y13.7532 
G01 X-32.6677 Y13.7082 
G01 X-32.6685 Y13.6987 
G01 X-32.6672 Y13.6893 
G01 X-32.6732 Y13.6440 
G01 X-32.6772 Y13.5983 
G01 X-32.6804 Y13.5894 
G01 X-32.6816 Y13.5800 
G01 X-32.6991 Y13.5378 
G01 X-32.7148 Y13.4947 
G01 X-32.7202 Y13.4869 
G01 X-32.7238 Y13.4782 
G01 X-32.7517 Y13.4419 
G01 X-32.7779 Y13.4043 
G01 X-32.7852 Y13.3982 
G01 X-32.7909 Y13.3907 
G01 X-32.8272 Y13.3629 
G01 X-32.8623 Y13.3334 
G01 X-32.8709 Y13.3294 
G01 X-32.8784 Y13.3236 
G01 X-32.9207 Y13.3061 
G01 X-32.9622 Y13.2867 
G01 X-32.9715 Y13.2850 
G01 X-32.9803 Y13.2814 
G01 X-33.0256 Y13.2754 
G01 X-33.0707 Y13.2675 
G01 X-33.0802 Y13.2683 
G01 X-33.0896 Y13.2670 
G01 X-33.1349 Y13.2730 
G01 X-33.1806 Y13.2770 
G01 X-33.1895 Y13.2802 
G01 X-33.1989 Y13.2814 
G01 X-33.2222 Y13.2911 
G01 X-34.3259 Y13.2911 
G01 X-34.3533 Y13.2875 
G01 X-34.3808 Y13.2911 
G01 X-34.4084 Y13.2911 
G01 X-34.4352 Y13.2983 
G01 X-34.4626 Y13.3019 
G01 X-34.4882 Y13.3125 
G01 X-34.5149 Y13.3196 
G01 X-34.5389 Y13.3335 
G01 X-34.5645 Y13.3441 
G01 X-34.5864 Y13.3609 
G01 X-34.6104 Y13.3748 
G01 X-34.6300 Y13.3943 
G01 X-34.6519 Y13.4112 
G01 X-34.6688 Y13.4331 
G01 X-34.6884 Y13.4527 
G01 X-34.6950 Y13.4642 
G01 X-34.7016 Y13.4527 
G01 X-34.7212 Y13.4331 
G01 X-34.7381 Y13.4112 
G01 X-34.7600 Y13.3943 
G01 X-34.7796 Y13.3748 
G01 X-34.8036 Y13.3609 
G01 X-34.8255 Y13.3441 
G01 X-34.8511 Y13.3335 
G01 X-34.8751 Y13.3196 
G01 X-34.9018 Y13.3125 
G01 X-34.9274 Y13.3019 
G01 X-34.9548 Y13.2983 
G01 X-34.9709 Y13.2940 
G01 X-35.1215 Y13.2316 
G01 X-35.2316 Y13.1215 
G01 X-35.2448 Y13.0896 
G01 X-35.2519 Y13.0629 
G01 X-35.2658 Y13.0389 
G01 X-35.2764 Y13.0133 
G01 X-35.2932 Y12.9914 
G01 X-35.3071 Y12.9674 
G01 X-35.3266 Y12.9478 
G01 X-35.3435 Y12.9259 
G01 X-35.3655 Y12.9090 
G01 X-35.3850 Y12.8895 
G01 X-35.4090 Y12.8756 
G01 X-35.4309 Y12.8588 
G01 X-35.4565 Y12.8482 
G01 X-35.4805 Y12.8343 
G01 X-35.5072 Y12.8272 
G01 X-35.5328 Y12.8166 
G01 X-35.5603 Y12.8130 
G01 X-35.5870 Y12.8058 
G01 X-35.6147 Y12.8058 
G01 X-35.6421 Y12.8022 
G01 X-35.6695 Y12.8058 
G01 X-35.6972 Y12.8058 
G01 X-35.7240 Y12.8130 
G01 X-35.7514 Y12.8166 
G01 X-35.7770 Y12.8272 
G01 X-35.8037 Y12.8343 
G01 X-35.8277 Y12.8482 
G01 X-35.8533 Y12.8588 
G01 X-35.8752 Y12.8756 
G01 X-35.8992 Y12.8895 
G01 X-35.9188 Y12.9090 
G01 X-35.9407 Y12.9259 
G01 X-35.9576 Y12.9478 
G01 X-35.9771 Y12.9674 
G01 X-35.9879 Y12.9860 
G01 X-36.0140 Y13.0121 
G01 X-36.0459 Y13.0306 
G01 X-36.0816 Y13.0401 
G01 X-36.2511 Y13.0401 
G01 X-36.2511 Y13.0139 
G01 X-36.0773 Y13.0139 
G01 X-36.0355 Y12.9966 
G01 X-36.0034 Y12.9645 
G01 X-35.9861 Y12.9227 
G01 X-35.9861 Y11.0773 
G01 X-36.0034 Y11.0355 
G01 X-36.0355 Y11.0034 
G01 X-36.0773 Y10.9861 
G01 X-36.2511 Y10.9861 
G01 X-36.2511 Y10.9599 
G01 X-36.0816 Y10.9599 
G01 X-36.0459 Y10.9694 
G01 X-36.0140 Y10.9879 
G01 X-35.9879 Y11.0140 
G01 X-35.9771 Y11.0326 
G01 X-35.9576 Y11.0521 
G01 X-35.9407 Y11.0741 
G01 X-35.9188 Y11.0910 
G01 X-35.8992 Y11.1105 
G01 X-35.8752 Y11.1244 
G01 X-35.8533 Y11.1412 
G01 X-35.8277 Y11.1518 
G01 X-35.8037 Y11.1657 
G01 X-35.7770 Y11.1728 
G01 X-35.7514 Y11.1834 
G01 X-35.7240 Y11.1870 
G01 X-35.6972 Y11.1942 
G01 X-35.6695 Y11.1942 
G01 X-35.6421 Y11.1978 
G01 X-35.6147 Y11.1942 
G01 X-35.5870 Y11.1942 
G01 X-35.5602 Y11.1870 
G01 X-35.5328 Y11.1834 
G01 X-35.5072 Y11.1728 
G01 X-35.4805 Y11.1657 
G01 X-35.4565 Y11.1518 
G01 X-35.4309 Y11.1412 
G01 X-35.4090 Y11.1244 
G01 X-35.3850 Y11.1105 
G01 X-35.3655 Y11.0910 
G01 X-35.3435 Y11.0741 
G01 X-35.3266 Y11.0521 
G01 X-35.3071 Y11.0326 
G01 X-35.2932 Y11.0086 
G01 X-35.2764 Y10.9866 
G01 X-35.2658 Y10.9611 
G01 X-35.2519 Y10.9371 
G01 X-35.2448 Y10.9104 
G01 X-35.2316 Y10.8785 
G01 X-35.1215 Y10.7684 
G01 X-34.9895 Y10.7138 
G01 X-34.9661 Y10.7079 
G01 X-34.9388 Y10.6928 
G01 X-34.9101 Y10.6808 
G01 X-34.8908 Y10.6661 
G01 X-34.8697 Y10.6543 
G01 X-34.8473 Y10.6327 
G01 X-34.8226 Y10.6137 
G01 X-34.8079 Y10.5945 
G01 X-34.7905 Y10.5777 
G01 X-34.7744 Y10.5510 
G01 X-34.7555 Y10.5263 
G01 X-34.7462 Y10.5039 
G01 X-34.7338 Y10.4831 
G01 X-34.7252 Y10.4532 
G01 X-34.7133 Y10.4244 
G01 X-34.7101 Y10.4004 
G01 X-34.1564 Y8.4623 
G01 X-34.1546 Y8.4593 
G01 X-34.1413 Y8.4094 
G01 X-34.1271 Y8.3597 
G01 X-34.1270 Y8.3562 
G01 X-34.1261 Y8.3528 
G01 X-34.1261 Y8.3011 
G01 X-34.1260 Y8.2957 
G01 X-34.0915 Y8.2123 
G01 X-34.0790 Y8.1916 
G01 X-34.0705 Y8.1616 
G01 X-34.0586 Y8.1328 
G01 X-34.0554 Y8.1088 
G01 X-34.0306 Y8.0221 
G01 X-34.0274 Y8.0178 
G01 X-33.9952 Y7.9773 
G01 X-33.9938 Y7.9741 
G01 X-33.9917 Y7.9713 
G01 X-33.9719 Y7.9237 
G01 X-33.9697 Y7.9186 
G01 X-33.9059 Y7.8548 
G01 X-33.8865 Y7.8404 
G01 X-33.8671 Y7.8160 
G01 X-33.8451 Y7.7939 
G01 X-33.8330 Y7.7730 
G01 X-33.7769 Y7.7023 
G01 X-33.7721 Y7.6996 
G01 X-33.7270 Y7.6745 
G01 X-33.7245 Y7.6721 
G01 X-33.7214 Y7.6703 
G01 X-33.6849 Y7.6338 
G01 X-33.6810 Y7.6300 
G01 X-33.5977 Y7.5955 
G01 X-33.5742 Y7.5896 
G01 X-33.5469 Y7.5745 
G01 X-33.5182 Y7.5626 
G01 X-33.4990 Y7.5478 
G01 X-33.4201 Y7.5040 
G01 X-33.4148 Y7.5033 
G01 X-33.3634 Y7.4974 
G01 X-33.3601 Y7.4961 
G01 X-33.3566 Y7.4957 
G01 X-33.3089 Y7.4759 
G01 X-33.3039 Y7.4739 
G01 X-33.2136 Y7.4739 
G01 X-33.1897 Y7.4775 
G01 X-33.1587 Y7.4739 
G01 X-33.1276 Y7.4739 
G01 X-33.1042 Y7.4676 
G01 X-33.0146 Y7.4573 
G01 X-33.0094 Y7.4587 
G01 X-32.9597 Y7.4729 
G01 X-32.9562 Y7.4730 
G01 X-32.9528 Y7.4739 
G01 X-32.9012 Y7.4739 
G01 X-32.8494 Y7.4748 
G01 X-32.8460 Y7.4739 
G01 X-30.7742 Y7.4739 
G01 X-30.6678 Y7.4454 
G01 X-30.5723 Y7.3902 
G01 X-30.4943 Y7.3123 
G01 X-30.4105 Y7.2285 
G01 X-29.8691 Y7.2285 
G01 X-29.7626 Y7.2000 
G01 X-29.6671 Y7.1448 
G01 X-29.5892 Y7.0669 
G01 X-29.5340 Y6.9714 
G01 X-29.5055 Y6.8649 
G01 X-29.5055 Y6.7937 
G01 X-29.3813 Y6.7937 
G01 X-29.0257 Y7.1493 
G01 X-28.3843 Y7.1493 
G01 X-28.3422 Y7.1072 
G01 X-28.2816 Y7.0951 
G01 X-28.1453 Y7.0387 
G01 X-28.0226 Y6.9567 
G01 X-27.9183 Y6.8524 
G01 X-27.9045 Y6.8317 
G01 X-27.9045 Y6.8649 
G01 X-27.8760 Y6.9714 
G01 X-27.8208 Y7.0669 
G01 X-27.7429 Y7.1448 
G01 X-27.6474 Y7.2000 
G01 X-27.5409 Y7.2285 
G01 X-26.9995 Y7.2285 
G01 X-26.8377 Y7.3902 
G01 X-26.7422 Y7.4454 
G01 X-26.6358 Y7.4739 
G01 X-25.9674 Y7.4739 
G01 X-25.9621 Y7.4752 
G01 X-25.9124 Y7.4739 
G01 X-25.8627 Y7.4739 
G01 X-25.8574 Y7.4725 
G01 X-25.8519 Y7.4723 
G01 X-25.8042 Y7.4582 
G01 X-25.7562 Y7.4454 
G01 X-25.7514 Y7.4426 
G01 X-25.7462 Y7.4410 
G01 X-25.7038 Y7.4151 
G01 X-25.6608 Y7.3902 
G01 X-25.6569 Y7.3863 
G01 X-25.6521 Y7.3834 
G01 X-25.6179 Y7.3474 
G01 X-25.5828 Y7.3123 
G01 X-25.5800 Y7.3075 
G01 X-25.5762 Y7.3035 
G01 X-25.5525 Y7.2598 
G01 X-25.5277 Y7.2168 
G01 X-25.5263 Y7.2115 
G01 X-25.5236 Y7.2066 
G01 X-25.5120 Y7.1583 
G01 X-25.4992 Y7.1103 
G01 X-25.4992 Y7.1048 
G01 X-25.4979 Y7.0994 
G01 X-25.4992 Y7.0498 
G01 X-25.4992 Y7.0001 
G01 X-25.5006 Y6.9947 
G01 X-25.5179 Y6.3274 
G01 X-25.5150 Y6.3053 
G01 X-25.5194 Y6.2725 
G01 X-25.5202 Y6.2394 
G01 X-25.5261 Y6.2195 
G01 X-25.5261 Y6.0684 
G01 X-25.5248 Y6.0630 
G01 X-25.5261 Y6.0134 
G01 X-25.5261 Y5.9637 
G01 X-25.5275 Y5.9583 
G01 X-25.5315 Y5.8072 
G01 X-25.5261 Y5.7872 
G01 X-25.5261 Y5.7541 
G01 X-25.5226 Y5.7211 
G01 X-25.5261 Y5.6992 
G01 X-25.5261 Y1.3897 
G01 X-25.5546 Y1.2832 
G01 X-25.6098 Y1.1877 
G01 X-25.6877 Y1.1098 
G01 X-25.7832 Y1.0546 
G01 X-25.8897 Y1.0261 
G01 X-45.1103 Y1.0261 
G01 X-45.2168 Y1.0546 
G01 X-45.3123 Y1.1098 
G01 X-45.3902 Y1.1877 
G01 X-45.4454 Y1.2832 
G01 X-45.4739 Y1.3897 
G01 X-45.4739 Y7.8453 
G01 X-45.4454 Y7.9518 
G01 X-45.3902 Y8.0473 
G01 X-45.3123 Y8.1252 
G01 X-45.2168 Y8.1804 
G01 X-45.1103 Y8.2089 
G01 X-45.0222 Y8.2089 
G01 X-44.8785 Y8.2684 
G01 X-44.7684 Y8.3785 
G01 X-44.7552 Y8.4104 
G01 X-44.7480 Y8.4372 
G01 X-44.7342 Y8.4611 
G01 X-44.7236 Y8.4867 
G01 X-44.7068 Y8.5086 
G01 X-44.6929 Y8.5326 
G01 X-44.6733 Y8.5522 
G01 X-44.6565 Y8.5741 
G01 X-44.6345 Y8.5910 
G01 X-44.6149 Y8.6106 
G01 X-44.5910 Y8.6244 
G01 X-44.5690 Y8.6412 
G01 X-44.5435 Y8.6518 
G01 X-44.5194 Y8.6657 
G01 X-44.4927 Y8.6728 
G01 X-44.4672 Y8.6834 
G01 X-44.4397 Y8.6870 
G01 X-44.4130 Y8.6942 
G01 X-44.3853 Y8.6942 
G01 X-44.3579 Y8.6978 
G01 X-44.3304 Y8.6942 
G01 X-44.3027 Y8.6942 
G01 X-44.2760 Y8.6870 
G01 X-44.2486 Y8.6834 
G01 X-44.2230 Y8.6728 
G01 X-44.1962 Y8.6656 
G01 X-44.1723 Y8.6518 
G01 X-44.1467 Y8.6412 
G01 X-44.1248 Y8.6244 
G01 X-44.1008 Y8.6105 
G01 X-44.0812 Y8.5909 
G01 X-44.0593 Y8.5741 
G01 X-44.0424 Y8.5521 
G01 X-44.0228 Y8.5325 
G01 X-44.0121 Y8.5139 
G01 X-43.9860 Y8.4879 
G01 X-43.9541 Y8.4694 
G01 X-43.9184 Y8.4599 
G01 X-43.6139 Y8.4599 
G01 X-43.6139 Y8.4861 
G01 X-43.9227 Y8.4861 
G01 X-43.9645 Y8.5034 
G01 X-43.9966 Y8.5355 
G01 X-44.0139 Y8.5773 
G01 X-44.0139 Y10.4227 
G01 X-43.9966 Y10.4645 
G01 X-43.9645 Y10.4966 
G01 X-43.9227 Y10.5139 
G01 X-43.6139 Y10.5139 
G01 X-43.6139 Y10.5401 
G01 X-43.9184 Y10.5401 
G01 X-43.9541 Y10.5306 
G01 X-43.9860 Y10.5121 
G01 X-44.0121 Y10.4860 
G01 X-44.0228 Y10.4675 
G01 X-44.0424 Y10.4479 
G01 X-44.0593 Y10.4259 
G01 X-44.0812 Y10.4091 
G01 X-44.1008 Y10.3895 
G01 X-44.1248 Y10.3756 
G01 X-44.1467 Y10.3588 
G01 X-44.1723 Y10.3482 
G01 X-44.1962 Y10.3344 
G01 X-44.2230 Y10.3272 
G01 X-44.2486 Y10.3166 
G01 X-44.2760 Y10.3130 
G01 X-44.3027 Y10.3058 
G01 X-44.3304 Y10.3058 
G01 X-44.3579 Y10.3022 
G01 X-44.3853 Y10.3058 
G01 X-44.4130 Y10.3058 
G01 X-44.4397 Y10.3130 
G01 X-44.4672 Y10.3166 
G01 X-44.4927 Y10.3272 
G01 X-44.5194 Y10.3343 
G01 X-44.5435 Y10.3482 
G01 X-44.5690 Y10.3588 
G01 X-44.5910 Y10.3756 
G01 X-44.6149 Y10.3894 
G01 X-44.6345 Y10.4090 
G01 X-44.6565 Y10.4259 
G01 X-44.6733 Y10.4478 
G01 X-44.6929 Y10.4674 
G01 X-44.7068 Y10.4914 
G01 X-44.7236 Y10.5133 
G01 X-44.7342 Y10.5389 
G01 X-44.7480 Y10.5628 
G01 X-44.7552 Y10.5896 
G01 X-44.7684 Y10.6215 
G01 X-44.8785 Y10.7316 
G01 X-44.9070 Y10.7395 
G01 X-44.9310 Y10.7533 
G01 X-44.9566 Y10.7639 
G01 X-44.9785 Y10.7808 
G01 X-45.0025 Y10.7946 
G01 X-45.0220 Y10.8142 
G01 X-45.0440 Y10.8310 
G01 X-45.0609 Y10.8530 
G01 X-45.0804 Y10.8726 
G01 X-45.0943 Y10.8965 
G01 X-45.1111 Y10.9185 
G01 X-45.1217 Y10.9441 
G01 X-45.1356 Y10.9680 
G01 X-45.1427 Y10.9948 
G01 X-45.1533 Y11.0203 
G01 X-45.1569 Y11.0478 
G01 X-45.1641 Y11.0745 
G01 X-45.1641 Y11.1022 
G01 X-45.1677 Y11.1296 
G01 X-45.1641 Y11.1571 
G01 X-45.1641 Y12.8253 
G01 X-45.1356 Y12.9318 
G01 X-45.0804 Y13.0273 
G01 X-45.0025 Y13.1052 
G01 X-44.9070 Y13.1604 
G01 X-44.8005 Y13.1889 
G01 X-44.2122 Y13.1889 
G01 X-44.0685 Y13.2484 
G01 X-43.9518 Y13.3651 
G01 X-43.9350 Y13.3870 
G01 X-43.9130 Y13.4039 
G01 X-43.8935 Y13.4234 
G01 X-43.8695 Y13.4373 
G01 X-43.8475 Y13.4541 
G01 X-43.8220 Y13.4647 
G01 X-43.7980 Y13.4786 
G01 X-43.7713 Y13.4857 
G01 X-43.7457 Y13.4963 
G01 X-43.7182 Y13.4999 
G01 X-43.6915 Y13.5071 
G01 X-43.6638 Y13.5071 
G01 X-43.6364 Y13.5107 
G01 X-43.6089 Y13.5071 
G01 X-43.5812 Y13.5071 
G01 X-43.5545 Y13.4999 
G01 X-43.5271 Y13.4963 
G01 X-43.5015 Y13.4857 
G01 X-43.4748 Y13.4786 
G01 X-43.4508 Y13.4647 
G01 X-43.2890 Y13.3977 
G01 X-41.7110 Y13.3977 
G01 X-41.7066 Y13.3995 
G01 X-41.6826 Y13.4134 
G01 X-41.6559 Y13.4205 
G01 X-41.6303 Y13.4311 
G01 X-41.6029 Y13.4347 
G01 X-41.5761 Y13.4419 
G01 X-41.5484 Y13.4419 
G01 X-41.5210 Y13.4455 
G01 X-41.4936 Y13.4419 
G01 X-41.4659 Y13.4419 
G01 X-41.4391 Y13.4347 
G01 X-41.4117 Y13.4311 
G01 X-41.3861 Y13.4205 
G01 X-41.3594 Y13.4134 
G01 X-41.3354 Y13.3995 
G01 X-41.3098 Y13.3889 
G01 X-41.2879 Y13.3721 
G01 X-41.2639 Y13.3582 
G01 X-41.2443 Y13.3387 
G01 X-41.2224 Y13.3218 
G01 X-41.2055 Y13.2999 
G01 X-41.1860 Y13.2803 
G01 X-41.1721 Y13.2563 
G01 X-41.1553 Y13.2344 
G01 X-41.1447 Y13.2088 
G01 X-41.1308 Y13.1848 
G01 X-41.1237 Y13.1581 
G01 X-41.1131 Y13.1325 
G01 X-41.1095 Y13.1051 
G01 X-41.1023 Y13.0783 
G01 X-41.1023 Y13.0506 
G01 X-41.0987 Y13.0232 
G01 X-41.1023 Y12.9958 
G01 X-41.1023 Y12.2110 
G01 X-41.0428 Y12.0673 
G01 X-40.9327 Y11.9572 
G01 X-40.7890 Y11.8977 
G01 X-39.2110 Y11.8977 
G01 X-39.0673 Y11.9572 
G01 X-38.9572 Y12.0673 
G01 X-38.8977 Y12.2110 
G01 X-38.8977 Y13.7890 
G01 X-38.9572 Y13.9327 
G01 X-39.0673 Y14.0428 
G01 X-39.2110 Y14.1023 
G01 X-40.7890 Y14.1023 
G01 X-40.7934 Y14.1005 
G01 X-40.8174 Y14.0866 
G01 X-40.8441 Y14.0795 
G01 X-40.8697 Y14.0689 
G01 X-40.8971 Y14.0653 
G01 X-40.9239 Y14.0581 
G01 X-40.9516 Y14.0581 
G01 X-40.9790 Y14.0545 
G01 X-41.0064 Y14.0581 
G01 X-41.0341 Y14.0581 
G01 X-41.0608 Y14.0653 
G01 X-41.0883 Y14.0689 
G01 X-41.1139 Y14.0795 
G01 X-41.1406 Y14.0866 
G01 X-41.1646 Y14.1005 
G01 X-41.1902 Y14.1111 
G01 X-41.2121 Y14.1279 
G01 X-41.2361 Y14.1417 
G01 X-41.2557 Y14.1613 
G01 X-41.2776 Y14.1782 
G01 X-41.2945 Y14.2001 
G01 X-41.3140 Y14.2197 
G01 X-41.3279 Y14.2437 
G01 X-41.3447 Y14.2656 
G01 X-41.3553 Y14.2912 
G01 X-41.3692 Y14.3152 
G01 X-41.3763 Y14.3419 
G01 X-41.3869 Y14.3675 
G01 X-41.3905 Y14.3949 
G01 X-41.3977 Y14.4217 
G01 X-41.3977 Y14.4493 
G01 X-41.4013 Y14.4768 
G01 X-41.3977 Y14.5042 
G01 X-41.3977 Y15.2890 
G01 X-41.4572 Y15.4327 
G01 X-41.5673 Y15.5428 
G01 X-41.7110 Y15.6023 
G01 X-43.2890 Y15.6023 
G01 X-43.4327 Y15.5428 
G01 X-43.5079 Y15.4676 
G01 X-43.6046 Y15.4113 
G01 X-43.6677 Y15.3944 
G01 X-43.7111 Y15.3827 
G01 X-43.8213 Y15.3827 
G01 X-43.9057 Y15.4053 
G01 X-43.9278 Y15.4113 
G01 X-43.9965 Y15.4509 
G01 X-44.0233 Y15.4664 
G01 X-44.0685 Y15.5116 
G01 X-44.2122 Y15.5711 
G01 X-44.8005 Y15.5711 
G01 X-44.9070 Y15.5996 
G01 X-45.0025 Y15.6548 
G01 X-45.0804 Y15.7327 
G01 X-45.1356 Y15.8282 
G01 X-45.1641 Y15.9347 
G01 X-45.1641 Y18.0253 
G01 X-45.1356 Y18.1318 
G01 X-45.0804 Y18.2273 
G01 X-45.0025 Y18.3052 
G01 X-44.9070 Y18.3604 
G01 X-44.8005 Y18.3889 
G01 X-44.2122 Y18.3889 
G01 X-44.0685 Y18.4484 
G01 X-43.9584 Y18.5585 
G01 X-43.8989 Y18.7022 
G01 X-43.8989 Y19.3193 
G01 X-43.9025 Y19.3467 
G01 X-43.8989 Y19.3741 
G01 X-43.8989 Y19.4018 
G01 X-43.8941 Y19.4197 
G01 X-43.8941 Y19.4405 
G01 X-43.8656 Y19.5470 
G01 X-43.8104 Y19.6425 
G01 X-43.7325 Y19.7204 
G01 X-43.6370 Y19.7756 
G01 X-43.5305 Y19.8041 
G01 X-35.5595 Y19.8041 
G01 X-35.4530 Y19.7756 
G01 X-35.3575 Y19.7204 
G01 X-35.2796 Y19.6425 
G01 X-35.2244 Y19.5470 
G01 X-35.1959 Y19.4405 
G01 X-35.1959 Y17.5848 
G01 X-35.2232 Y17.4829 
G01 X-35.2244 Y17.4784 
G01 X-35.2256 Y17.4763 
G01 X-35.2796 Y17.3829 
G01 X-35.5864 Y17.0760 
G01 X-35.6980 Y16.8066 
G01 X-35.7015 Y16.7903 
G01 X-35.7190 Y16.7558 
G01 X-35.7338 Y16.7201 
G01 X-35.7440 Y16.7069 
G01 X-35.7516 Y16.6920 
G01 X-35.7774 Y16.6633 
G01 X-35.8009 Y16.6327 
G01 X-35.8142 Y16.6225 
G01 X-35.8253 Y16.6101 
G01 X-35.8577 Y16.5891 
G01 X-35.8884 Y16.5656 
G01 X-35.9038 Y16.5592 
G01 X-35.9178 Y16.5501 
G01 X-35.9546 Y16.5382 
G01 X-35.9903 Y16.5234 
G01 X-36.0068 Y16.5212 
G01 X-36.0227 Y16.5160 
G01 X-36.0613 Y16.5140 
G01 X-36.0996 Y16.5090 
G01 X-36.1161 Y16.5112 
G01 X-36.1328 Y16.5103 
G01 X-36.1706 Y16.5183 
G01 X-36.2089 Y16.5234 
G01 X-36.2243 Y16.5297 
G01 X-36.2406 Y16.5332 
G01 X-36.2750 Y16.5508 
G01 X-36.3107 Y16.5656 
G01 X-36.3240 Y16.5757 
G01 X-36.3388 Y16.5833 
G01 X-36.3675 Y16.6091 
G01 X-36.3982 Y16.6327 
G01 X-36.4083 Y16.6459 
G01 X-36.4207 Y16.6571 
G01 X-36.4418 Y16.6895 
G01 X-36.4653 Y16.7201 
G01 X-36.4717 Y16.7355 
G01 X-36.4808 Y16.7495 
G01 X-36.4927 Y16.7863 
G01 X-36.4938 Y16.7890 
G01 X-36.5503 Y16.8999 
G01 X-36.6244 Y17.0019 
G01 X-36.7135 Y17.0910 
G01 X-36.8155 Y17.1651 
G01 X-36.8163 Y17.1319 
G01 X-36.7414 Y17.0818 
G01 X-36.6336 Y16.9740 
G01 X-36.5488 Y16.8472 
G01 X-36.4905 Y16.7063 
G01 X-36.4607 Y16.5567 
G01 X-36.4607 Y16.3398 
G01 X-36.4183 Y16.2974 
G01 X-36.3791 Y16.2387 
G01 X-36.1101 Y16.2387 
G01 X-36.0036 Y16.2102 
G01 X-35.9081 Y16.1551 
G01 X-35.8302 Y16.0771 
G01 X-35.7750 Y15.9816 
G01 X-35.7465 Y15.8751 
G01 X-35.7465 Y15.7649 
G01 X-35.7750 Y15.6584 
G01 X-35.8302 Y15.5629 
G01 X-35.9081 Y15.4849 
G01 X-36.0036 Y15.4298 
G01 X-36.1101 Y15.4013 
G01 X-36.2511 Y15.4013 
G01 X-36.2511 Y15.1014 
G01 X-36.2406 Y15.1068 
G01 X-36.2243 Y15.1102 
G01 X-36.2089 Y15.1166 
G01 X-36.1706 Y15.1217 
G01 X-36.1328 Y15.1297 
G01 X-36.1161 Y15.1288 
G01 X-36.0996 Y15.1310 
G01 X-36.0613 Y15.1260 
G01 X-36.0227 Y15.1240 
G01 X-36.0068 Y15.1188 
G01 X-35.9903 Y15.1166 
G01 X-35.9546 Y15.1018 
G01 X-35.9178 Y15.0899 
G01 X-35.9038 Y15.0808 
G01 X-35.8884 Y15.0744 
G01 X-35.8577 Y15.0509 
G01 X-35.8253 Y15.0299 
G01 X-35.8142 Y15.0175 
G01 X-35.8009 Y15.0073 
G01 X-35.7774 Y14.9767 
G01 X-35.7516 Y14.9480 
G01 X-35.7440 Y14.9331 
G01 X-35.7338 Y14.9199 
G01 X-35.7190 Y14.8842 
G01 X-35.7015 Y14.8497 
G01 X-35.6980 Y14.8334 
G01 X-35.5864 Y14.5640 
G01 X-35.2906 Y14.2682 
G01 X-34.9018 Y14.1071 
G01 X-34.8751 Y14.1000 
G01 X-34.8511 Y14.0861 
G01 X-34.8255 Y14.0755 
G01 X-34.8036 Y14.0587 
G01 X-34.7796 Y14.0448 
G01 X-34.7600 Y14.0253 
G01 X-34.7381 Y14.0084 
G01 X-34.7212 Y13.9864 
G01 X-34.7016 Y13.9669 
G01 X-34.6950 Y13.9554 
G01 X-34.6884 Y13.9669 
G01 X-34.6688 Y13.9864 
G01 X-34.6519 Y14.0084 
G01 X-34.6300 Y14.0253 
G01 X-34.6104 Y14.0448 
G01 X-34.5864 Y14.0587 
G01 X-34.5645 Y14.0755 
G01 X-34.5389 Y14.0861 
G01 X-34.5149 Y14.1000 
G01 X-34.4882 Y14.1071 
G01 X-34.0994 Y14.2682 
G01 X-33.8036 Y14.5640 
G01 X-33.8005 Y14.5715 
G01 X-33.7907 Y14.5950 
G01 X-33.7522 Y14.6453 
G01 X-33.7236 Y14.6825 
G01 X-33.6873 Y14.7104 
G01 X-33.6362 Y14.7496 
G01 X-33.5999 Y14.7646 
G01 X-33.5343 Y14.7918 
G01 X-33.4759 Y14.7994 
G01 X-33.4250 Y14.8062 
G01 X-33.3255 Y14.7930 
G01 X-33.3157 Y14.7918 
G01 X-33.2360 Y14.7588 
G01 X-33.2138 Y14.7496 
G01 X-33.1636 Y14.7110 
G01 X-33.1264 Y14.6825 
G01 X-33.0985 Y14.6461 
G01 X-33.0593 Y14.5950 
G01 X-33.0464 Y14.5640 
G01 X-32.8897 Y14.4073 
G01 X-32.8747 Y14.3968 
G01 X-32.8509 Y14.3684 
G01 X-32.8247 Y14.3422 
G01 X-32.8155 Y14.3264 
G01 X-32.8038 Y14.3124 
G01 X-32.7881 Y14.2788 
G01 X-32.7696 Y14.2468 
G01 X-32.7648 Y14.2291 
G01 X-32.7571 Y14.2125 
G01 X-32.7506 Y14.1761 
G01 X-32.7410 Y14.1403 
G01 X-32.7410 Y14.1220 
G01 X-32.6853 Y13.8074 
G00 Z2.0000  F3000
G00 X-32.6699 Y11.8806  F3000
G01 Z-0.2000 F200.00 
G01 X-32.6476 Y11.8898 F500.00 
G01 X-32.6268 Y11.9023 
G01 X-32.5968 Y11.9108 
G01 X-32.5681 Y11.9227 
G01 X-32.5441 Y11.9259 
G01 X-32.5208 Y11.9326 
G01 X-32.4896 Y11.9331 
G01 X-32.4588 Y11.9371 
G01 X-32.4348 Y11.9340 
G01 X-32.4106 Y11.9344 
G01 X-32.3803 Y11.9268 
G01 X-32.3495 Y11.9227 
G01 X-32.3271 Y11.9135 
G01 X-32.3036 Y11.9076 
G01 X-32.2858 Y11.8977 
G01 X-31.3679 Y11.8977 
G01 X-31.3404 Y11.9013 
G01 X-31.3130 Y11.8977 
G01 X-31.2853 Y11.8977 
G01 X-31.2586 Y11.8905 
G01 X-31.2311 Y11.8869 
G01 X-31.2055 Y11.8763 
G01 X-31.1788 Y11.8692 
G01 X-31.1548 Y11.8553 
G01 X-31.1293 Y11.8447 
G01 X-31.1073 Y11.8279 
G01 X-31.0833 Y11.8140 
G01 X-31.0638 Y11.7945 
G01 X-31.0418 Y11.7776 
G01 X-31.0250 Y11.7556 
G01 X-31.0054 Y11.7361 
G01 X-30.9915 Y11.7121 
G01 X-30.9747 Y11.6902 
G01 X-30.9641 Y11.6646 
G01 X-30.9503 Y11.6406 
G01 X-30.9431 Y11.6139 
G01 X-30.9325 Y11.5883 
G01 X-30.9289 Y11.5609 
G01 X-30.9217 Y11.5341 
G01 X-30.9217 Y11.5064 
G01 X-30.9181 Y11.4790 
G01 X-30.9217 Y11.4516 
G01 X-30.9217 Y11.4239 
G01 X-30.9289 Y11.3971 
G01 X-30.9325 Y11.3697 
G01 X-30.9431 Y11.3441 
G01 X-30.9503 Y11.3174 
G01 X-30.9641 Y11.2934 
G01 X-31.0011 Y11.2041 
G01 X-31.0011 Y9.8897 
G01 X-31.0296 Y9.7832 
G01 X-31.0848 Y9.6877 
G01 X-31.1627 Y9.6098 
G01 X-31.2582 Y9.5546 
G01 X-31.3647 Y9.5261 
G01 X-32.0067 Y9.5261 
G01 X-32.0584 Y9.5252 
G01 X-32.0618 Y9.5261 
G01 X-32.0653 Y9.5261 
G01 X-32.1151 Y9.5395 
G01 X-32.1653 Y9.5520 
G01 X-32.1684 Y9.5537 
G01 X-32.1718 Y9.5546 
G01 X-32.2165 Y9.5804 
G01 X-32.2617 Y9.6056 
G01 X-32.2642 Y9.6080 
G01 X-32.2673 Y9.6098 
G01 X-32.3038 Y9.6463 
G01 X-32.3409 Y9.6822 
G01 X-32.3427 Y9.6852 
G01 X-32.3452 Y9.6877 
G01 X-32.3710 Y9.7324 
G01 X-32.3976 Y9.7768 
G01 X-32.3986 Y9.7801 
G01 X-32.4003 Y9.7832 
G01 X-32.4137 Y9.8330 
G01 X-32.8548 Y11.3767 
G01 X-32.8667 Y11.4055 
G01 X-32.8698 Y11.4295 
G01 X-32.8765 Y11.4528 
G01 X-32.8770 Y11.4840 
G01 X-32.8811 Y11.5148 
G01 X-32.8779 Y11.5388 
G01 X-32.8783 Y11.5630 
G01 X-32.8707 Y11.5933 
G01 X-32.8667 Y11.6241 
G01 X-32.8574 Y11.6465 
G01 X-32.8515 Y11.6700 
G01 X-32.8364 Y11.6972 
G01 X-32.8245 Y11.7260 
G01 X-32.8098 Y11.7452 
G01 X-32.7980 Y11.7663 
G01 X-32.7763 Y11.7887 
G01 X-32.7574 Y11.8134 
G01 X-32.7382 Y11.8282 
G01 X-32.7213 Y11.8456 
G01 X-32.6946 Y11.8616 
G01 X-32.6699 Y11.8806 
G00 Z2.0000  F3000
G00 X-34.0936 Y14.6660  F3000
G01 Z-0.2000 F200.00 
G01 X-34.2014 Y14.5582 F500.00 
G01 X-34.3282 Y14.4734 
G01 X-34.4691 Y14.4151 
G01 X-34.6187 Y14.3853 
G01 X-34.7713 Y14.3853 
G01 X-34.9209 Y14.4151 
G01 X-35.0618 Y14.4734 
G01 X-35.1886 Y14.5582 
G01 X-35.2964 Y14.6660 
G01 X-35.3812 Y14.7928 
G01 X-35.4395 Y14.9337 
G01 X-35.4693 Y15.0833 
G01 X-35.4693 Y16.5567 
G01 X-35.4395 Y16.7063 
G01 X-35.3812 Y16.8472 
G01 X-35.2964 Y16.9740 
G01 X-35.1886 Y17.0818 
G01 X-35.0618 Y17.1666 
G01 X-34.9209 Y17.2249 
G01 X-34.9187 Y17.2254 
G01 X-34.9187 Y20.0813 
G01 X-44.1713 Y20.0813 
G01 X-44.1713 Y19.5249 
G01 X-44.1761 Y19.5070 
G01 X-44.1761 Y18.7573 
G01 X-44.1934 Y18.7155 
G01 X-44.2255 Y18.6834 
G01 X-44.2673 Y18.6661 
G01 X-44.9127 Y18.6661 
G01 X-44.9545 Y18.6834 
G01 X-44.9866 Y18.7155 
G01 X-45.0039 Y18.7573 
G01 X-45.0039 Y19.5070 
G01 X-45.0087 Y19.5249 
G01 X-45.0087 Y20.5551 
G01 X-44.9802 Y20.6616 
G01 X-44.9250 Y20.7571 
G01 X-44.8471 Y20.8350 
G01 X-44.7516 Y20.8902 
G01 X-44.6451 Y20.9187 
G01 X-34.4449 Y20.9187 
G01 X-34.3384 Y20.8902 
G01 X-34.2429 Y20.8350 
G01 X-34.1650 Y20.7571 
G01 X-34.1098 Y20.6616 
G01 X-34.0813 Y20.5551 
G01 X-34.0813 Y16.9556 
G01 X-34.0088 Y16.8472 
G01 X-33.9505 Y16.7063 
G01 X-33.9207 Y16.5567 
G01 X-33.9207 Y15.0833 
G01 X-33.9505 Y14.9337 
G01 X-34.0088 Y14.7928 
G01 X-34.0936 Y14.6660 
G00 Z2.0000  F3000
G00 X-33.7204 Y17.0721  F3000
G01 Z-0.2000 F200.00 
G01 X-33.7756 Y17.1676 F500.00 
G01 X-33.8041 Y17.2740 
G01 X-33.8041 Y17.9570 
G01 X-33.8077 Y17.9845 
G01 X-33.8041 Y18.0119 
G01 X-33.8041 Y18.0396 
G01 X-33.7969 Y18.0663 
G01 X-33.7933 Y18.0938 
G01 X-33.7827 Y18.1193 
G01 X-33.7756 Y18.1460 
G01 X-33.7617 Y18.1700 
G01 X-33.7511 Y18.1956 
G01 X-33.7343 Y18.2176 
G01 X-33.7204 Y18.2415 
G01 X-33.7009 Y18.2611 
G01 X-33.6840 Y18.2831 
G01 X-33.6620 Y18.2999 
G01 X-33.6425 Y18.3195 
G01 X-33.6185 Y18.3333 
G01 X-33.5965 Y18.3502 
G01 X-33.5709 Y18.3608 
G01 X-33.5470 Y18.3746 
G01 X-33.5202 Y18.3818 
G01 X-33.4946 Y18.3924 
G01 X-33.4672 Y18.3960 
G01 X-33.4405 Y18.4031 
G01 X-33.4128 Y18.4031 
G01 X-33.3853 Y18.4067 
G01 X-33.3579 Y18.4031 
G01 X-33.3303 Y18.4031 
G01 X-33.3100 Y18.3977 
G01 X-31.7110 Y18.3977 
G01 X-31.5673 Y18.4572 
G01 X-31.4572 Y18.5673 
G01 X-31.3977 Y18.7110 
G01 X-31.3977 Y18.9958 
G01 X-31.4013 Y19.0232 
G01 X-31.3977 Y19.0506 
G01 X-31.3977 Y19.0783 
G01 X-31.3905 Y19.1051 
G01 X-31.3869 Y19.1325 
G01 X-31.3763 Y19.1581 
G01 X-31.3692 Y19.1848 
G01 X-31.3553 Y19.2088 
G01 X-31.3447 Y19.2344 
G01 X-31.3279 Y19.2563 
G01 X-31.3140 Y19.2803 
G01 X-31.2945 Y19.2999 
G01 X-31.2776 Y19.3218 
G01 X-31.2557 Y19.3387 
G01 X-31.2361 Y19.3582 
G01 X-31.2121 Y19.3721 
G01 X-31.1902 Y19.3889 
G01 X-31.1646 Y19.3995 
G01 X-31.1406 Y19.4134 
G01 X-31.1139 Y19.4205 
G01 X-31.0883 Y19.4311 
G01 X-31.0608 Y19.4347 
G01 X-31.0341 Y19.4419 
G01 X-31.0064 Y19.4419 
G01 X-30.9790 Y19.4455 
G01 X-30.9516 Y19.4419 
G01 X-30.9239 Y19.4419 
G01 X-30.8971 Y19.4347 
G01 X-30.8697 Y19.4311 
G01 X-30.8441 Y19.4205 
G01 X-30.8174 Y19.4134 
G01 X-30.7934 Y19.3995 
G01 X-30.7890 Y19.3977 
G01 X-29.2110 Y19.3977 
G01 X-29.1304 Y19.4311 
G01 X-29.1064 Y19.4449 
G01 X-29.0797 Y19.4521 
G01 X-29.0541 Y19.4627 
G01 X-29.0267 Y19.4663 
G01 X-28.9999 Y19.4735 
G01 X-28.9722 Y19.4735 
G01 X-28.9448 Y19.4771 
G01 X-28.9174 Y19.4735 
G01 X-28.8897 Y19.4735 
G01 X-28.8629 Y19.4663 
G01 X-28.8355 Y19.4627 
G01 X-28.8099 Y19.4521 
G01 X-28.7832 Y19.4449 
G01 X-28.7592 Y19.4311 
G01 X-28.7336 Y19.4205 
G01 X-28.7117 Y19.4036 
G01 X-28.6877 Y19.3898 
G01 X-28.6681 Y19.3702 
G01 X-28.6462 Y19.3534 
G01 X-28.6293 Y19.3314 
G01 X-28.6098 Y19.3119 
G01 X-28.5959 Y19.2879 
G01 X-28.5791 Y19.2659 
G01 X-28.5685 Y19.2404 
G01 X-28.5546 Y19.2164 
G01 X-28.5475 Y19.1897 
G01 X-28.5369 Y19.1641 
G01 X-28.5333 Y19.1366 
G01 X-28.5261 Y19.1099 
G01 X-28.5261 Y19.0822 
G01 X-28.5225 Y19.0548 
G01 X-28.5261 Y19.0273 
G01 X-28.5261 Y17.8216 
G01 X-28.5225 Y17.7941 
G01 X-28.5261 Y17.7667 
G01 X-28.5261 Y17.7390 
G01 X-28.5333 Y17.7123 
G01 X-28.5369 Y17.6848 
G01 X-28.5475 Y17.6592 
G01 X-28.5546 Y17.6325 
G01 X-28.5685 Y17.6085 
G01 X-28.5791 Y17.5830 
G01 X-28.5959 Y17.5610 
G01 X-28.6098 Y17.5370 
G01 X-28.6293 Y17.5175 
G01 X-28.6462 Y17.4955 
G01 X-28.6681 Y17.4786 
G01 X-28.6877 Y17.4591 
G01 X-28.7117 Y17.4452 
G01 X-28.7336 Y17.4284 
G01 X-28.7592 Y17.4178 
G01 X-28.7832 Y17.4040 
G01 X-28.8099 Y17.3968 
G01 X-28.8355 Y17.3862 
G01 X-28.8629 Y17.3826 
G01 X-28.8897 Y17.3754 
G01 X-28.9174 Y17.3754 
G01 X-28.9448 Y17.3718 
G01 X-28.9722 Y17.3754 
G01 X-28.9999 Y17.3754 
G01 X-29.0267 Y17.3826 
G01 X-29.0541 Y17.3862 
G01 X-29.0797 Y17.3968 
G01 X-29.1064 Y17.4040 
G01 X-29.1304 Y17.4178 
G01 X-29.4058 Y17.5319 
G01 X-29.8242 Y17.5319 
G01 X-30.2106 Y17.3718 
G01 X-30.5064 Y17.0760 
G01 X-30.5193 Y17.0450 
G01 X-30.5578 Y16.9948 
G01 X-30.5864 Y16.9576 
G01 X-30.6227 Y16.9297 
G01 X-30.6738 Y16.8904 
G01 X-30.6950 Y16.8816 
G01 X-30.7757 Y16.8482 
G01 X-30.7830 Y16.8473 
G01 X-30.8850 Y16.8338 
G01 X-30.9347 Y16.8404 
G01 X-30.9943 Y16.8482 
G01 X-31.0582 Y16.8747 
G01 X-31.0961 Y16.8904 
G01 X-31.1464 Y16.9290 
G01 X-31.1836 Y16.9575 
G01 X-31.2115 Y16.9939 
G01 X-31.2507 Y17.0450 
G01 X-31.2600 Y17.0674 
G01 X-31.2636 Y17.0760 
G01 X-31.5594 Y17.3718 
G01 X-31.9458 Y17.5319 
G01 X-32.3642 Y17.5319 
G01 X-32.7506 Y17.3718 
G01 X-33.1283 Y16.9941 
G01 X-33.2238 Y16.9390 
G01 X-33.3303 Y16.9105 
G01 X-33.4405 Y16.9105 
G01 X-33.4451 Y16.9117 
G01 X-33.5470 Y16.9390 
G01 X-33.6404 Y16.9929 
G01 X-33.6425 Y16.9941 
G01 X-33.7204 Y17.0721 
G00 Z2.0000  F3000
G00 X-33.2757 Y18.6922  F3000
G01 Z-0.2000 F200.00 
G01 X-33.3078 Y18.7243 F500.00 
G01 X-33.3251 Y18.7661 
G01 X-33.3251 Y19.0813 
G01 X-33.5551 Y19.0813 
G01 X-33.6616 Y19.1098 
G01 X-33.7571 Y19.1650 
G01 X-33.8350 Y19.2429 
G01 X-33.8902 Y19.3384 
G01 X-33.9187 Y19.4449 
G01 X-33.9187 Y21.0813 
G01 X-34.7501 Y21.0813 
G01 X-34.8566 Y21.1098 
G01 X-34.9521 Y21.1650 
G01 X-35.0300 Y21.2429 
G01 X-35.0852 Y21.3384 
G01 X-35.1137 Y21.4449 
G01 X-35.1137 Y22.1281 
G01 X-35.1886 Y22.1782 
G01 X-35.2964 Y22.2860 
G01 X-35.3812 Y22.4128 
G01 X-35.4395 Y22.5537 
G01 X-35.4693 Y22.7033 
G01 X-35.4693 Y24.1767 
G01 X-35.4395 Y24.3263 
G01 X-35.3812 Y24.4672 
G01 X-35.2964 Y24.5940 
G01 X-35.1886 Y24.7018 
G01 X-35.0618 Y24.7866 
G01 X-34.9209 Y24.8449 
G01 X-34.7713 Y24.8747 
G01 X-34.6187 Y24.8747 
G01 X-34.4691 Y24.8449 
G01 X-34.3282 Y24.7866 
G01 X-34.2014 Y24.7018 
G01 X-34.0936 Y24.5940 
G01 X-34.0088 Y24.4672 
G01 X-33.9505 Y24.3263 
G01 X-33.9207 Y24.1767 
G01 X-33.9207 Y22.7033 
G01 X-33.9505 Y22.5537 
G01 X-34.0088 Y22.4128 
G01 X-34.0936 Y22.2860 
G01 X-34.2014 Y22.1782 
G01 X-34.2763 Y22.1281 
G01 X-34.2763 Y21.9187 
G01 X-33.4449 Y21.9187 
G01 X-33.3384 Y21.8902 
G01 X-33.2429 Y21.8350 
G01 X-33.1650 Y21.7571 
G01 X-33.1098 Y21.6616 
G01 X-33.0813 Y21.5551 
G01 X-33.0813 Y20.3251 
G01 X-31.7661 Y20.3251 
G01 X-31.7243 Y20.3078 
G01 X-31.6922 Y20.2757 
G01 X-31.6749 Y20.2339 
G01 X-31.6749 Y18.7661 
G01 X-31.6922 Y18.7243 
G01 X-31.7243 Y18.6922 
G01 X-31.7661 Y18.6749 
G01 X-33.2339 Y18.6749 
G01 X-33.2757 Y18.6922 
G00 Z2.0000  F3000
G00 X-31.4723 Y20.2214  F3000
G01 Z-0.2000 F200.00 
G01 X-31.4801 Y20.2330 F500.00 
G01 X-31.4900 Y20.2429 
G01 X-31.5107 Y20.2787 
G01 X-31.5336 Y20.3130 
G01 X-31.5382 Y20.3263 
G01 X-31.5452 Y20.3384 
G01 X-31.5558 Y20.3783 
G01 X-32.1093 Y22.0053 
G01 X-32.2313 Y22.0053 
G01 X-32.3809 Y22.0351 
G01 X-32.5218 Y22.0934 
G01 X-32.6486 Y22.1782 
G01 X-32.7564 Y22.2860 
G01 X-32.8412 Y22.4128 
G01 X-32.8995 Y22.5537 
G01 X-32.9293 Y22.7033 
G01 X-32.9293 Y24.1767 
G01 X-32.8995 Y24.3263 
G01 X-32.8412 Y24.4672 
G01 X-32.7564 Y24.5940 
G01 X-32.6486 Y24.7018 
G01 X-32.5218 Y24.7866 
G01 X-32.3809 Y24.8449 
G01 X-32.2313 Y24.8747 
G01 X-32.0787 Y24.8747 
G01 X-31.9291 Y24.8449 
G01 X-31.7882 Y24.7866 
G01 X-31.6614 Y24.7018 
G01 X-31.5536 Y24.5940 
G01 X-31.4688 Y24.4672 
G01 X-31.4105 Y24.3263 
G01 X-31.3807 Y24.1767 
G01 X-31.3807 Y22.7033 
G01 X-31.4105 Y22.5537 
G01 X-30.8552 Y20.9187 
G01 X-30.8251 Y20.9187 
G01 X-30.8251 Y21.2339 
G01 X-30.8078 Y21.2757 
G01 X-30.7757 Y21.3078 
G01 X-30.7339 Y21.3251 
G01 X-29.2661 Y21.3251 
G01 X-29.2243 Y21.3078 
G01 X-29.1922 Y21.2757 
G01 X-29.1749 Y21.2339 
G01 X-29.1749 Y19.7661 
G01 X-29.1922 Y19.7243 
G01 X-29.2243 Y19.6922 
G01 X-29.2661 Y19.6749 
G01 X-30.7339 Y19.6749 
G01 X-30.7757 Y19.6922 
G01 X-30.8078 Y19.7243 
G01 X-30.8251 Y19.7661 
G01 X-30.8251 Y20.0813 
G01 X-31.1412 Y20.0813 
G01 X-31.1824 Y20.0786 
G01 X-31.1961 Y20.0813 
G01 X-31.2101 Y20.0813 
G01 X-31.2500 Y20.0920 
G01 X-31.2905 Y20.1000 
G01 X-31.3031 Y20.1062 
G01 X-31.3166 Y20.1098 
G01 X-31.3524 Y20.1305 
G01 X-31.3894 Y20.1487 
G01 X-31.4000 Y20.1580 
G01 X-31.4121 Y20.1650 
G01 X-31.4413 Y20.1941 
G01 X-31.4723 Y20.2214 
G00 Z2.0000  F3000
G00 X-35.4746 Y21.3575  F3000
G01 Z-0.2000 F200.00 
G01 X-35.5525 Y21.2796 F500.00 
G01 X-35.6480 Y21.2244 
G01 X-35.7545 Y21.1959 
G01 X-36.3760 Y21.1959 
G01 X-36.4779 Y21.2232 
G01 X-36.4824 Y21.2244 
G01 X-36.4845 Y21.2256 
G01 X-36.5779 Y21.2796 
G01 X-36.6547 Y21.3563 
G01 X-36.6575 Y21.3604 
G01 X-36.7110 Y21.4530 
G01 X-36.7391 Y21.5578 
G01 X-36.7395 Y21.6697 
G01 X-36.7122 Y21.7717 
G01 X-36.7110 Y21.7762 
G01 X-36.7098 Y21.7783 
G01 X-36.6559 Y21.8717 
G01 X-36.3436 Y22.1840 
G01 X-36.3405 Y22.1915 
G01 X-36.3307 Y22.2150 
G01 X-36.2922 Y22.2653 
G01 X-36.2636 Y22.3025 
G01 X-36.2273 Y22.3303 
G01 X-36.1762 Y22.3696 
G01 X-36.1399 Y22.3846 
G01 X-36.0743 Y22.4118 
G01 X-36.0159 Y22.4194 
G01 X-35.9650 Y22.4261 
G01 X-35.8655 Y22.4130 
G01 X-35.8557 Y22.4118 
G01 X-35.7760 Y22.3788 
G01 X-35.7538 Y22.3696 
G01 X-35.7036 Y22.3310 
G01 X-35.6664 Y22.3025 
G01 X-35.6385 Y22.2661 
G01 X-35.5993 Y22.2150 
G01 X-35.5864 Y22.1840 
G01 X-35.4746 Y22.0721 
G01 X-35.4194 Y21.9766 
G01 X-35.3909 Y21.8702 
G01 X-35.3909 Y21.5595 
G01 X-35.4194 Y21.4530 
G01 X-35.4746 Y21.3575 
G00 Z2.0000  F3000
G00 X-36.6336 Y22.2860  F3000
G01 Z-0.2000 F200.00 
G01 X-36.7414 Y22.1782 F500.00 
G01 X-36.8682 Y22.0934 
G01 X-37.0091 Y22.0351 
G01 X-37.1587 Y22.0053 
G01 X-37.3113 Y22.0053 
G01 X-37.4609 Y22.0351 
G01 X-37.6018 Y22.0934 
G01 X-37.7286 Y22.1782 
G01 X-37.8364 Y22.2860 
G01 X-37.9212 Y22.4128 
G01 X-37.9795 Y22.5537 
G01 X-38.0093 Y22.7033 
G01 X-38.0093 Y22.7060 
G01 X-38.6913 Y22.7265 
G01 X-38.6922 Y22.7243 
G01 X-38.7243 Y22.6922 
G01 X-38.7661 Y22.6749 
G01 X-40.2339 Y22.6749 
G01 X-40.2757 Y22.6922 
G01 X-40.3078 Y22.7243 
G01 X-40.3251 Y22.7661 
G01 X-40.3251 Y24.2339 
G01 X-40.3078 Y24.2757 
G01 X-40.2757 Y24.3078 
G01 X-40.2339 Y24.3251 
G01 X-38.7661 Y24.3251 
G01 X-38.7243 Y24.3078 
G01 X-38.6922 Y24.2757 
G01 X-38.6749 Y24.2339 
G01 X-38.6749 Y24.2245 
G01 X-38.0038 Y24.2043 
G01 X-37.9795 Y24.3263 
G01 X-37.9212 Y24.4672 
G01 X-37.8364 Y24.5940 
G01 X-37.7286 Y24.7018 
G01 X-37.6018 Y24.7866 
G01 X-37.4609 Y24.8449 
G01 X-37.3113 Y24.8747 
G01 X-37.1587 Y24.8747 
G01 X-37.0091 Y24.8449 
G01 X-36.8682 Y24.7866 
G01 X-36.7414 Y24.7018 
G01 X-36.6336 Y24.5940 
G01 X-36.5488 Y24.4672 
G01 X-36.4905 Y24.3263 
G01 X-36.4607 Y24.1767 
G01 X-36.4607 Y22.7033 
G01 X-36.4905 Y22.5537 
G01 X-36.5488 Y22.4128 
G01 X-36.6336 Y22.2860 
G00 Z2.0000  F3000
G00 X-37.6537 Y17.1655  F3000
G01 Z-0.2000 F200.00 
G01 X-37.6545 Y17.1651 F500.00 
G01 X-37.7565 Y17.0910 
G01 X-37.8456 Y17.0019 
G01 X-37.9197 Y16.8999 
G01 X-37.9769 Y16.7877 
G01 X-38.0158 Y16.6679 
G01 X-38.0355 Y16.5434 
G01 X-38.0355 Y16.2387 
G01 X-38.0093 Y16.2387 
G01 X-38.0093 Y16.5567 
G01 X-37.9795 Y16.7063 
G01 X-37.9212 Y16.8472 
G01 X-37.8364 Y16.9740 
G01 X-37.7286 Y17.0818 
G01 X-37.6537 Y17.1319 
G01 X-37.6537 Y17.1655 
G00 Z2.0000  F3000
G00 X-38.0093 Y15.4013  F3000
G01 Z-0.2000 F200.00 
G01 X-38.0355 Y15.4013 F500.00 
G01 X-38.0355 Y15.0966 
G01 X-38.0158 Y14.9721 
G01 X-37.9769 Y14.8523 
G01 X-37.9197 Y14.7401 
G01 X-37.8456 Y14.6381 
G01 X-37.7565 Y14.5490 
G01 X-37.7489 Y14.5435 
G01 X-37.7489 Y14.5785 
G01 X-37.8364 Y14.6660 
G01 X-37.9212 Y14.7928 
G01 X-37.9795 Y14.9337 
G01 X-38.0093 Y15.0833 
G01 X-38.0093 Y15.4013 
G00 Z2.0000  F3000
G00 X-37.7860 Y13.0121  F3000
G01 Z-0.2000 F200.00 
G01 X-37.8121 Y12.9860 F500.00 
G01 X-37.8306 Y12.9541 
G01 X-37.8401 Y12.9184 
G01 X-37.8401 Y12.5139 
G01 X-37.8139 Y12.5139 
G01 X-37.8139 Y12.9227 
G01 X-37.7966 Y12.9645 
G01 X-37.7645 Y12.9966 
G01 X-37.7489 Y13.0030 
G01 X-37.7489 Y13.0319 
G01 X-37.7541 Y13.0306 
G01 X-37.7860 Y13.0121 
G00 Z2.0000  F3000
G00 X-37.8139 Y11.4861  F3000
G01 Z-0.2000 F200.00 
G01 X-37.8401 Y11.4861 F500.00 
G01 X-37.8401 Y11.0815 
G01 X-37.8306 Y11.0459 
G01 X-37.8121 Y11.0140 
G01 X-37.7860 Y10.9879 
G01 X-37.7541 Y10.9694 
G01 X-37.7489 Y10.9681 
G01 X-37.7489 Y10.9970 
G01 X-37.7645 Y11.0034 
G01 X-37.7966 Y11.0355 
G01 X-37.8139 Y11.0773 
G01 X-37.8139 Y11.4861 
G00 Z2.0000  F3000
G00 X-39.1922 Y12.2243  F3000
G01 Z-0.2000 F200.00 
G01 X-39.2243 Y12.1922 F500.00 
G01 X-39.2661 Y12.1749 
G01 X-40.7339 Y12.1749 
G01 X-40.7757 Y12.1922 
G01 X-40.8078 Y12.2243 
G01 X-40.8251 Y12.2661 
G01 X-40.8251 Y13.7339 
G01 X-40.8078 Y13.7757 
G01 X-40.7757 Y13.8078 
G01 X-40.7339 Y13.8251 
G01 X-39.2661 Y13.8251 
G01 X-39.2243 Y13.8078 
G01 X-39.1922 Y13.7757 
G01 X-39.1749 Y13.7339 
G01 X-39.1749 Y12.2661 
G01 X-39.1922 Y12.2243 
G00 Z2.0000  F3000
G00 X-41.6922 Y13.7243  F3000
G01 Z-0.2000 F200.00 
G01 X-41.7243 Y13.6922 F500.00 
G01 X-41.7661 Y13.6749 
G01 X-43.2339 Y13.6749 
G01 X-43.2757 Y13.6922 
G01 X-43.3078 Y13.7243 
G01 X-43.3251 Y13.7661 
G01 X-43.3251 Y13.9613 
G01 X-44.1761 Y13.9613 
G01 X-44.1761 Y13.5573 
G01 X-44.1934 Y13.5155 
G01 X-44.2255 Y13.4834 
G01 X-44.2673 Y13.4661 
G01 X-44.9127 Y13.4661 
G01 X-44.9545 Y13.4834 
G01 X-44.9866 Y13.5155 
G01 X-45.0039 Y13.5573 
G01 X-45.0039 Y14.3070 
G01 X-45.0087 Y14.3249 
G01 X-45.0087 Y14.4351 
G01 X-45.0039 Y14.4530 
G01 X-45.0039 Y15.2027 
G01 X-44.9866 Y15.2445 
G01 X-44.9545 Y15.2766 
G01 X-44.9127 Y15.2939 
G01 X-44.2673 Y15.2939 
G01 X-44.2255 Y15.2766 
G01 X-44.1934 Y15.2445 
G01 X-44.1761 Y15.2027 
G01 X-44.1761 Y14.7987 
G01 X-43.3251 Y14.7987 
G01 X-43.3251 Y15.2339 
G01 X-43.3078 Y15.2757 
G01 X-43.2757 Y15.3078 
G01 X-43.2339 Y15.3251 
G01 X-41.7661 Y15.3251 
G01 X-41.7243 Y15.3078 
G01 X-41.6922 Y15.2757 
G01 X-41.6749 Y15.2339 
G01 X-41.6749 Y13.7661 
G01 X-41.6922 Y13.7243 
G00 Z2.0000  F3000
G00 X-42.1879 Y10.4860  F3000
G01 Z-0.2000 F200.00 
G01 X-42.2140 Y10.5121 F500.00 
G01 X-42.2459 Y10.5305 
G01 X-42.2816 Y10.5401 
G01 X-42.5861 Y10.5401 
G01 X-42.5861 Y10.5139 
G01 X-42.2773 Y10.5139 
G01 X-42.2355 Y10.4966 
G01 X-42.2034 Y10.4645 
G01 X-42.1861 Y10.4227 
G01 X-42.1861 Y10.2489 
G01 X-42.1599 Y10.2489 
G01 X-42.1599 Y10.4184 
G01 X-42.1694 Y10.4541 
G01 X-42.1879 Y10.4860 
G00 Z2.0000  F3000
G00 X-42.1861 Y8.7511  F3000
G01 Z-0.2000 F200.00 
G01 X-42.1861 Y8.5773 F500.00 
G01 X-42.2034 Y8.5355 
G01 X-42.2355 Y8.5034 
G01 X-42.2773 Y8.4861 
G01 X-42.5861 Y8.4861 
G01 X-42.5861 Y8.4599 
G01 X-42.2816 Y8.4599 
G01 X-42.2459 Y8.4694 
G01 X-42.2140 Y8.4879 
G01 X-42.1879 Y8.5140 
G01 X-42.1694 Y8.5459 
G01 X-42.1599 Y8.5816 
G01 X-42.1599 Y8.7511 
G01 X-42.1861 Y8.7511 
G00 Z2.0000  F3000
G00 X-48.0034 Y13.5155  F3000
G01 Z-0.2000 F200.00 
G01 X-48.0355 Y13.4834 F500.00 
G01 X-48.0773 Y13.4661 
G01 X-48.4748 Y13.4661 
G01 X-48.5343 Y13.4089 
G01 X-48.6586 Y13.3294 
G01 X-48.7960 Y13.2757 
G01 X-48.9412 Y13.2498 
G01 X-53.0140 Y13.3312 
G01 X-53.0869 Y13.3325 
G01 X-53.1603 Y13.3485 
G01 X-53.2311 Y13.3638 
G01 X-53.2996 Y13.3936 
G01 X-53.3663 Y13.4227 
G01 X-53.4276 Y13.4652 
G01 X-53.4875 Y13.5068 
G01 X-53.5391 Y13.5602 
G01 X-53.5900 Y13.6129 
G01 X-53.6299 Y13.6749 
G01 X-53.6698 Y13.7370 
G01 X-53.6970 Y13.8061 
G01 X-53.7238 Y13.8742 
G01 X-53.7370 Y13.9472 
