;(.../Engineering/Matt/pcb-gcode/pcb-gcode.ulp)
;(Copyright 2005 - 2012 by John Johnson)
;(See readme.txt for licensing terms.)
;(This file generated from the board:)
;(.../pneumatic-regulator/pneumatic-reg.brd)
;(Current profile is .../pcb-gcode/profiles/generic.pp  )
;(This file generated 06/07/2016 10:59)
;(Settings from pcb-machine.h)
;(spindle on time = 1000.0000)
;(spindle speed = 20000.0000)
;(tool change at 0.0000 0.0000 5.0000 )
;(feed rate xy = F0.00  )
;(feed rate z  = F500.00 )
;(Z Axis Settings)
;(  High     Up        Down     Drill)
;(5.0000 	2.0000 	-0.2000 	-2.0000 )
;(Settings from pcb-defaults.h)
;(isolate min = 0.0250)
;(isolate max = 0.5000)
;(isolate step = 0.1200)
;(Generated bottom outlines, bottom drill, )
;(Unit of measure: mm)
;( Tool|       Size       |  Min Sub |  Max Sub |   Count )
;( T01  0.600mm 0.0236in 0.0000in 0.0000in )
;( T02  0.813mm 0.0320in 0.0000in 0.0000in )
;( T03  1.000mm 0.0394in 0.0000in 0.0000in )
;(Metric Mode)
G21
;(Absolute Coordinates)
G90
;S20000
G00 Z5.0000  F3000
G00 X0.0000 Y0.0000  F3000
;M03 S1
G04 P1000.000000
;M03 S0
;M06 T01  ; 0.6000 
G01 Z0.0000 F500.00 
;M06 
G00 Z2.0000  F3000
;M03 S1
G04 P1000.000000
G00 X-6.0000 Y14.0000  F3000
G01 Z-2.0000 F500.00 
G00 Z2.0000  F3000
G00 X-8.5000 Y16.5000  F3000
G01 Z-2.0000 F500.00 
G00 Z2.0000  F3000
G00 X-11.5000 Y12.0000  F3000
G01 Z-2.0000 F500.00 
G00 Z2.0000  F3000
G00 X-14.5000 Y14.5000  F3000
G01 Z-2.0000 F500.00 
G00 Z2.0000  F3000
G00 X-17.0000 Y8.0000  F3000
G01 Z-2.0000 F500.00 
G00 Z2.0000  F3000
G00 X-17.0000 Y3.5000  F3000
G01 Z-2.0000 F500.00 
G00 Z2.0000  F3000
G00 X-22.0000 Y2.5000  F3000
G01 Z-2.0000 F500.00 
G00 Z2.0000  F3000
G00 X-27.0000 Y2.5000  F3000
G01 Z-2.0000 F500.00 
G00 Z2.0000  F3000
G00 X-25.5000 Y13.0000  F3000
G01 Z-2.0000 F500.00 
G00 Z2.0000  F3000
G00 X-23.5000 Y13.0000  F3000
G01 Z-2.0000 F500.00 
G00 Z2.0000  F3000
G00 X-31.5000 Y13.0000  F3000
G01 Z-2.0000 F500.00 
G00 Z2.0000  F3000
G00 X-32.5000 Y19.5000  F3000
G01 Z-2.0000 F500.00 
G00 Z2.0000  F3000
G00 X-30.0000 Y20.5000  F3000
G01 Z-2.0000 F500.00 
G00 Z2.0000  F3000
G00 X-39.5000 Y23.5000  F3000
G01 Z-2.0000 F500.00 
G00 Z2.0000  F3000
G00 X-42.5000 Y14.5000  F3000
G01 Z-2.0000 F500.00 
G00 Z2.0000  F3000
G00 X-40.0000 Y13.0000  F3000
G01 Z-2.0000 F500.00 
G00 Z2.0000  F3000
G00 X-54.5000 Y26.5000  F3000
G01 Z-2.0000 F500.00 
G00 Z2.0000  F3000
G00 X-56.5000 Y35.5000  F3000
G01 Z-2.0000 F500.00 
G00 Z2.0000  F3000
G00 X-38.0000 Y38.0000  F3000
G01 Z-2.0000 F500.00 
G00 Z2.0000  F3000
G00 X-29.5000 Y44.5000  F3000
G01 Z-2.0000 F500.00 
G00 Z2.0000  F3000
G00 X-22.5000 Y36.0000  F3000
G01 Z-2.0000 F500.00 
G00 Z2.0000  F3000
G00 X-25.0000 Y32.0000  F3000
G01 Z-2.0000 F500.00 
G00 Z2.0000  F3000
G00 X-15.0000 Y31.0000  F3000
G01 Z-2.0000 F500.00 
G00 Z2.0000  F3000
;M03 S0
G00 Z5.0000  F3000
G00 X0.0000 Y0.0000  F3000
;M06 T02  ; 0.8128 
G01 Z0.0000 F500.00 
;M06 
G00 Z2.0000  F3000
;M03 S1
G04 P1000.000000
G00 X-16.4600 Y42.2300  F3000
G01 Z-2.0000 F500.00 
G00 Z2.0000  F3000
G00 X-19.0000 Y42.2300  F3000
G01 Z-2.0000 F500.00 
G00 Z2.0000  F3000
G00 X-21.5400 Y42.2300  F3000
G01 Z-2.0000 F500.00 
G00 Z2.0000  F3000
G00 X-19.0000 Y44.7700  F3000
G01 Z-2.0000 F500.00 
G00 Z2.0000  F3000
G00 X-29.6150 Y23.4400  F3000
G01 Z-2.0000 F500.00 
G00 Z2.0000  F3000
G00 X-32.1550 Y23.4400  F3000
G01 Z-2.0000 F500.00 
G00 Z2.0000  F3000
G00 X-34.6950 Y23.4400  F3000
G01 Z-2.0000 F500.00 
G00 Z2.0000  F3000
G00 X-37.2350 Y23.4400  F3000
G01 Z-2.0000 F500.00 
G00 Z2.0000  F3000
G00 X-37.2350 Y15.8200  F3000
G01 Z-2.0000 F500.00 
G00 Z2.0000  F3000
G00 X-34.6950 Y15.8200  F3000
G01 Z-2.0000 F500.00 
G00 Z2.0000  F3000
G00 X-32.1550 Y15.8200  F3000
G01 Z-2.0000 F500.00 
G00 Z2.0000  F3000
G00 X-29.6150 Y15.8200  F3000
G01 Z-2.0000 F500.00 
G00 Z2.0000  F3000
G00 X-29.9750 Y8.2800  F3000
G01 Z-2.0000 F500.00 
G00 Z2.0000  F3000
G00 X-28.7050 Y6.3750  F3000
G01 Z-2.0000 F500.00 
G00 Z2.0000  F3000
G00 X-27.4350 Y8.2800  F3000
G01 Z-2.0000 F500.00 
G00 Z2.0000  F3000
;M03 S0
G00 Z5.0000  F3000
G00 X0.0000 Y0.0000  F3000
;M06 T03  ; 1.0000 
G01 Z0.0000 F500.00 
;M06 
G00 Z2.0000  F3000
;M03 S1
G04 P1000.000000
G00 X-6.1900 Y8.5000  F3000
G01 Z-2.0000 F500.00 
G00 Z2.0000  F3000
G00 X-8.7300 Y8.5000  F3000
G01 Z-2.0000 F500.00 
G00 Z2.0000  F3000
G00 X-11.2700 Y8.5000  F3000
G01 Z-2.0000 F500.00 
G00 Z2.0000  F3000
G00 X-13.8100 Y8.5000  F3000
G01 Z-2.0000 F500.00 
G00 Z2.0000  F3000
G00 X-33.0150 Y32.8700  F3000
G01 Z-2.0000 F500.00 
G00 Z2.0000  F3000
G00 X-35.5550 Y32.8700  F3000
G01 Z-2.0000 F500.00 
G00 Z2.0000  F3000
G00 X-38.0950 Y32.8700  F3000
G01 Z-2.0000 F500.00 
G00 Z2.0000  F3000
G00 X-40.6350 Y32.8700  F3000
G01 Z-2.0000 F500.00 
G00 Z2.0000  F3000
G00 X-43.1750 Y32.8700  F3000
G01 Z-2.0000 F500.00 
G00 Z2.0000  F3000
;T01 
G00 Z5.0000  F3000
;M03 S0
M0
