; generated by Slic3r 1.2.9 on 2019-04-21 at 17:40:36

; external perimeters extrusion width = 0.40mm
; perimeters extrusion width = 0.40mm
; infill extrusion width = 0.40mm
; solid infill extrusion width = 0.40mm
; top infill extrusion width = 0.40mm

M107
M83
T0
M116
G21 ; set units to millimeters
G90 ; use absolute coordinates
M83 ; use relative distances for extrusion
G1 E-3.50000 F1500.00000
G1 Z0.400 F15000.000
G1 X0.001 Y-18.585 F15000.000
G1 Z0.300 F15000.000
G1 E3.50000 F1500.00000
G1 X31.511 Y-18.584 E2.42838 F960.000
G1 X31.918 Y-18.561 E0.03141 F960.000
G1 X32.563 Y-18.488 E0.05004
G1 X33.357 Y-18.307 E0.06274
G1 X33.981 Y-18.089 E0.05090
G1 X34.714 Y-17.736 E0.06274
G1 X35.273 Y-17.385 E0.05090
G1 X35.910 Y-16.877 E0.06274
G1 X36.377 Y-16.410 E0.05090
G1 X36.885 Y-15.773 E0.06274
G1 X37.236 Y-15.214 E0.05090
G1 X37.589 Y-14.481 E0.06274
G1 X37.807 Y-13.857 E0.05090
G1 X37.988 Y-13.063 E0.06274
G1 X38.063 Y-12.404 E0.05112
G1 X38.086 Y-11.997 E0.03142
G1 X38.086 Y11.997 E1.84914
G1 X38.063 Y12.404 E0.03142
G1 X37.988 Y13.063 E0.05112
G1 X37.807 Y13.857 E0.06274
G1 X37.589 Y14.481 E0.05090
G1 X37.236 Y15.214 E0.06274
G1 X36.885 Y15.773 E0.05090
G1 X36.377 Y16.410 E0.06274
G1 X35.910 Y16.877 E0.05090
G1 X35.273 Y17.385 E0.06274
G1 X34.714 Y17.736 E0.05090
G1 X33.981 Y18.089 E0.06274
G1 X33.357 Y18.307 E0.05090
G1 X32.563 Y18.488 E0.06274
G1 X31.904 Y18.563 E0.05112
G1 X31.497 Y18.586 E0.03142
G1 X-18.497 Y18.586 E3.85284
G1 X-18.904 Y18.563 E0.03142
G1 X-19.563 Y18.488 E0.05112
G1 X-20.357 Y18.307 E0.06274
G1 X-20.981 Y18.089 E0.05090
G1 X-21.714 Y17.736 E0.06274
G1 X-22.511 Y17.222 E0.07309
G1 X-34.810 Y8.059 E1.18196
G1 X-35.694 Y7.113 E0.09977
G1 X-35.743 Y7.038 E0.00694
G1 X-36.265 Y5.712 E0.10978
G1 X-36.336 Y4.998 E0.05534
G1 X-36.336 Y-4.998 E0.77028
G1 X-36.248 Y-5.794 E0.06173
G1 X-35.715 Y-7.085 E0.10766
G1 X-34.816 Y-8.054 E0.10190
G1 X-22.502 Y-17.228 E1.18337
G1 X-21.714 Y-17.736 E0.07224
G1 X-20.981 Y-18.089 E0.06274
G1 X-20.357 Y-18.307 E0.05090
G1 X-19.563 Y-18.488 E0.06274
G1 X-18.904 Y-18.563 E0.05112
G1 X-18.497 Y-18.586 E0.03143
G1 X-0.059 Y-18.585 E1.42091
G1 E-3.50000 F1500.00000
G1 Z0.700 F15000.000
G1 X0.816 Y-10.815 F15000.000
G1 Z0.300 F15000.000
G1 E3.50000 F1500.00000
G1 X1.442 Y-10.886 E0.04853 F720.000
G1 X19.058 Y-10.886 E1.35761 F720.000
G1 X19.755 Y-10.807 E0.05403
G1 X20.472 Y-10.556 E0.05854
G1 X21.115 Y-10.152 E0.05854
G1 X21.652 Y-9.615 E0.05854
G1 X22.056 Y-8.972 E0.05854
G1 X22.307 Y-8.255 E0.05854
G1 X22.386 Y-7.558 E0.05403
G1 X22.386 Y-7.187 E0.02861
G1 X22.279 Y-6.312 E0.06791
G1 X21.942 Y-5.430 E0.07280
G1 X21.422 Y-4.683 E0.07014
G1 X21.067 Y-4.328 E0.03863
G1 X20.320 Y-3.808 E0.07014
G1 X19.438 Y-3.471 E0.07280
G1 X18.563 Y-3.364 E0.06791
G1 X15.386 Y-3.364 E0.24487
G1 X15.386 Y3.364 E0.51856
G1 X18.563 Y3.364 E0.24487
G1 X19.438 Y3.471 E0.06791
G1 X20.320 Y3.808 E0.07280
G1 X21.067 Y4.328 E0.07014
G1 X21.422 Y4.683 E0.03863
G1 X21.942 Y5.430 E0.07014
G1 X22.279 Y6.312 E0.07280
G1 X22.386 Y7.187 E0.06791
G1 X22.386 Y7.558 E0.02861
G1 X22.307 Y8.255 E0.05403
G1 X22.056 Y8.972 E0.05854
G1 X21.652 Y9.615 E0.05854
G1 X21.115 Y10.152 E0.05854
G1 X20.472 Y10.556 E0.05854
G1 X19.755 Y10.807 E0.05854
G1 X19.058 Y10.886 E0.05403
G1 X1.442 Y10.886 E1.35761
G1 X0.411 Y10.770 E0.07991
G1 X-0.623 Y10.408 E0.08443
G1 X-1.550 Y9.825 E0.08443
G1 X-2.325 Y9.050 E0.08443
G1 X-2.908 Y8.123 E0.08443
G1 X-3.270 Y7.089 E0.08443
G1 X-3.386 Y6.058 E0.07991
G1 X-3.386 Y-6.058 E0.93375
G1 X-3.270 Y-7.089 E0.07991
G1 X-2.908 Y-8.123 E0.08443
G1 X-2.325 Y-9.050 E0.08443
G1 X-1.550 Y-9.825 E0.08443
G1 X-0.623 Y-10.408 E0.08443
G1 X0.411 Y-10.770 E0.08443
G1 X0.756 Y-10.808 E0.02676
G1 X0.828 Y-10.177 F15000.000
G1 X1.478 Y-10.250 E0.05041 F720.000
G1 X19.022 Y-10.250 E1.35211 F720.000
G1 X19.612 Y-10.184 E0.04576
G1 X20.194 Y-9.980 E0.04750
G1 X20.716 Y-9.652 E0.04750
G1 X21.152 Y-9.216 E0.04750
G1 X21.480 Y-8.694 E0.04750
G1 X21.684 Y-8.112 E0.04750
G1 X21.750 Y-7.522 E0.04576
G1 X21.750 Y-7.226 E0.02287
G1 X21.657 Y-6.467 E0.05894
G1 X21.376 Y-5.729 E0.06083
G1 X20.932 Y-5.092 E0.05980
G1 X20.658 Y-4.818 E0.02992
G1 X20.021 Y-4.374 E0.05980
G1 X19.283 Y-4.093 E0.06083
G1 X18.524 Y-4.000 E0.05894
G1 X15.522 Y-4.000 E0.23134
G1 X15.334 Y-3.979 E0.01464
G1 X15.176 Y-3.923 E0.01290
G1 X15.034 Y-3.834 E0.01290
G1 X14.916 Y-3.716 E0.01290
G1 X14.827 Y-3.574 E0.01290
G1 X14.771 Y-3.416 E0.01290
G1 X14.750 Y-3.228 E0.01464
G1 X14.750 Y3.228 E0.49746
G1 X14.771 Y3.416 E0.01464
G1 X14.827 Y3.574 E0.01290
G1 X14.916 Y3.716 E0.01290
G1 X15.034 Y3.834 E0.01290
G1 X15.176 Y3.923 E0.01290
G1 X15.334 Y3.979 E0.01290
G1 X15.522 Y4.000 E0.01464
G1 X18.524 Y4.000 E0.23134
G1 X19.283 Y4.093 E0.05894
G1 X20.021 Y4.374 E0.06083
G1 X20.658 Y4.818 E0.05980
G1 X20.932 Y5.092 E0.02992
G1 X21.376 Y5.729 E0.05980
G1 X21.657 Y6.467 E0.06083
G1 X21.750 Y7.226 E0.05894
G1 X21.750 Y7.522 E0.02287
G1 X21.684 Y8.112 E0.04576
G1 X21.480 Y8.694 E0.04750
G1 X21.152 Y9.216 E0.04750
G1 X20.716 Y9.652 E0.04750
G1 X20.194 Y9.980 E0.04750
G1 X19.612 Y10.184 E0.04750
G1 X19.022 Y10.250 E0.04576
G1 X1.478 Y10.250 E1.35211
G1 X0.554 Y10.146 E0.07164
G1 X-0.345 Y9.831 E0.07339
G1 X-1.151 Y9.325 E0.07339
G1 X-1.825 Y8.651 E0.07339
G1 X-2.331 Y7.845 E0.07339
G1 X-2.646 Y6.946 E0.07339
G1 X-2.750 Y6.022 E0.07164
G1 X-2.750 Y-6.022 E0.92825
G1 X-2.646 Y-6.946 E0.07164
G1 X-2.331 Y-7.845 E0.07339
G1 X-1.825 Y-8.651 E0.07339
G1 X-1.151 Y-9.325 E0.07339
G1 X-0.345 Y-9.831 E0.07339
G1 X0.554 Y-10.146 E0.07339
G1 X0.768 Y-10.170 E0.01661
G1 X0.988 Y-10.543 F15000.000
G1 E-3.50000 F1500.00000
G1 Z0.700 F15000.000
G1 X-16.729 Y13.964 F15000.000
G1 Z0.300 F15000.000
G1 E3.50000 F1500.00000
G1 X-18.442 Y13.964 E0.13199 F720.000
G1 X-18.936 Y13.909 E0.03830
G1 X-19.349 Y13.764 E0.03379
G1 X-19.721 Y13.531 E0.03379
G1 X-20.031 Y13.221 E0.03379
G1 X-20.264 Y12.849 E0.03379
G1 X-20.409 Y12.436 E0.03379
G1 X-20.464 Y11.942 E0.03830
G1 X-20.464 Y4.214 E0.59552
G1 X-31.714 Y4.214 E0.86699
G1 X-31.714 Y-4.214 E0.64957
G1 X-20.464 Y-4.214 E0.86699
G1 X-20.464 Y-11.942 E0.59552
G1 X-20.409 Y-12.436 E0.03830
G1 X-20.264 Y-12.849 E0.03379
G1 X-20.032 Y-13.219 E0.03364
G1 X-19.713 Y-13.536 E0.03463
G1 X-19.349 Y-13.764 E0.03307
G1 X-18.936 Y-13.909 E0.03379
G1 X-18.442 Y-13.964 E0.03830
G1 X31.456 Y-13.963 E3.84538
G1 X31.936 Y-13.909 E0.03722 F720.000
G1 X32.349 Y-13.764 E0.03379
G1 X32.721 Y-13.531 E0.03379
G1 X33.031 Y-13.221 E0.03379
G1 X33.264 Y-12.849 E0.03379
G1 X33.409 Y-12.436 E0.03379
G1 X33.464 Y-11.942 E0.03830
G1 X33.464 Y11.942 E1.84061
G1 X33.409 Y12.436 E0.03830
G1 X33.264 Y12.849 E0.03379
G1 X33.031 Y13.221 E0.03379
G1 X32.721 Y13.531 E0.03379
G1 X32.349 Y13.764 E0.03379
G1 X31.936 Y13.909 E0.03379
G1 X31.442 Y13.964 E0.03830
G1 X-16.669 Y13.964 E3.70770
G1 X-16.669 Y14.600 F15000.000
G1 X-18.478 Y14.600 E0.13936 F720.000
G1 X-19.078 Y14.532 E0.04657
G1 X-19.627 Y14.340 E0.04483
G1 X-20.119 Y14.031 E0.04482
G1 X-20.531 Y13.619 E0.04483
G1 X-20.840 Y13.127 E0.04482
G1 X-21.032 Y12.578 E0.04483
G1 X-21.100 Y11.978 E0.04657
G1 X-21.100 Y4.850 E0.54929
G1 X-32.350 Y4.850 E0.86699
G1 X-32.350 Y-4.850 E0.74754
G1 X-21.100 Y-4.850 E0.86699
G1 X-21.100 Y-11.978 E0.54929
G1 X-21.032 Y-12.578 E0.04657
G1 X-20.840 Y-13.127 E0.04483
G1 X-20.531 Y-13.619 E0.04477
G1 X-20.111 Y-14.036 E0.04566
G1 X-19.627 Y-14.340 E0.04402
G1 X-19.078 Y-14.532 E0.04483
G1 X-18.478 Y-14.600 E0.04657
G1 X31.491 Y-14.598 E3.85088
G1 X32.078 Y-14.532 E0.04549 F720.000
G1 X32.627 Y-14.340 E0.04483
G1 X33.119 Y-14.031 E0.04482
G1 X33.531 Y-13.619 E0.04483
G1 X33.840 Y-13.127 E0.04482
G1 X34.032 Y-12.578 E0.04483
G1 X34.100 Y-11.978 E0.04657
G1 X34.100 Y11.978 E1.84611
G1 X34.032 Y12.578 E0.04657
G1 X33.840 Y13.127 E0.04482
G1 X33.531 Y13.619 E0.04483
G1 X33.119 Y14.031 E0.04482
G1 X32.627 Y14.340 E0.04483
G1 X32.078 Y14.532 E0.04482
G1 X31.478 Y14.600 E0.04657
G1 X-16.609 Y14.600 E3.70583
G1 X-16.869 Y14.254 F15000.000
G1 X-20.043 Y12.097 F15000.000
G1 X-18.597 Y13.543 E0.15820 F960.000
G1 X-17.659 Y13.579 E0.07269
G1 X-20.079 Y11.159 E0.26487
G1 X-20.079 Y10.256 E0.06985
G1 X-16.756 Y13.579 E0.36366
G1 X-15.853 Y13.579 E0.06985
G1 X-20.079 Y9.353 E0.46244
G1 X-20.079 Y8.451 E0.06985
G1 X-14.951 Y13.579 E0.56123
G1 X-14.048 Y13.579 E0.06985
G1 X-20.079 Y7.548 E0.66002
G1 X-20.079 Y6.646 E0.06985
G1 X-13.146 Y13.579 E0.75880
G1 X-12.243 Y13.579 E0.06985
G1 X-20.079 Y5.743 E0.85759
G1 X-20.079 Y4.840 E0.06985
G1 X-11.340 Y13.579 E0.95638
G1 X-10.438 Y13.579 E0.06985
G1 X-27.845 Y-3.829 E1.90514
G1 X-26.943 Y-3.829 E0.06985
G1 X-9.535 Y13.579 E1.90514
G1 X-8.632 Y13.579 E0.06985
G1 X-26.040 Y-3.829 E1.90514
G1 X-25.138 Y-3.829 E0.06985
G1 X-7.730 Y13.579 E1.90514
G1 X-6.827 Y13.579 E0.06985
G1 X-24.235 Y-3.829 E1.90514
G1 X-23.332 Y-3.829 E0.06985
G1 X-5.924 Y13.579 E1.90514
G1 X-5.022 Y13.579 E0.06985
G1 X-22.430 Y-3.829 E1.90514
G1 X-21.527 Y-3.829 E0.06985
G1 X-4.119 Y13.579 E1.90514
G1 X-3.216 Y13.579 E0.06985
G1 X-20.624 Y-3.829 E1.90514
G1 X-20.079 Y-4.186 F15000.000
G1 X-2.314 Y13.579 E1.94425 F960.000
G1 X-1.411 Y13.579 E0.06985
G1 X-20.079 Y-5.089 E2.04303
G1 X-20.079 Y-5.992 E0.06985
G1 X-0.508 Y13.579 E2.14182
G1 X0.394 Y13.579 E0.06985
G1 X-20.079 Y-6.894 E2.24061
G1 X-20.079 Y-7.797 E0.06985
G1 X1.297 Y13.579 E2.33940
G1 X2.199 Y13.579 E0.06985
G1 X-0.447 Y10.933 E0.28960
G1 X0.733 Y11.210 E0.09376
G1 X3.102 Y13.579 E0.25930
G1 X4.005 Y13.579 E0.06985
G1 X1.697 Y11.271 E0.25258
G1 X2.600 Y11.271 E0.06985
G1 X4.907 Y13.579 E0.25258
G1 X5.810 Y13.579 E0.06985
G1 X3.502 Y11.271 E0.25258
G1 X4.405 Y11.271 E0.06985
G1 X6.713 Y13.579 E0.25258
G1 X7.615 Y13.579 E0.06985
G1 X5.307 Y11.271 E0.25258
G1 X6.210 Y11.271 E0.06985
G1 X8.518 Y13.579 E0.25258
G1 X9.421 Y13.579 E0.06985
G1 X7.113 Y11.271 E0.25258
G1 X8.015 Y11.271 E0.06985
G1 X10.323 Y13.579 E0.25258
G1 X11.226 Y13.579 E0.06985
G1 X8.918 Y11.271 E0.25258
G1 X9.821 Y11.271 E0.06985
G1 X12.129 Y13.579 E0.25258
G1 X13.031 Y13.579 E0.06985
G1 X10.723 Y11.271 E0.25258
G1 X11.626 Y11.271 E0.06985
G1 X13.934 Y13.579 E0.25258
G1 X14.837 Y13.579 E0.06985
G1 X12.529 Y11.271 E0.25258
G1 X13.431 Y11.271 E0.06985
G1 X15.739 Y13.579 E0.25258
G1 X16.642 Y13.579 E0.06985
G1 X14.334 Y11.271 E0.25258
G1 X15.237 Y11.271 E0.06985
G1 X17.545 Y13.579 E0.25258
G1 X18.447 Y13.579 E0.06985
G1 X16.139 Y11.271 E0.25258
G1 X17.042 Y11.271 E0.06985
G1 X19.350 Y13.579 E0.25258
G1 X20.252 Y13.579 E0.06985
G1 X17.945 Y11.271 E0.25258
G1 X18.847 Y11.271 E0.06985
G1 X21.155 Y13.579 E0.25258
G1 X22.058 Y13.579 E0.06985
G1 X19.669 Y11.190 E0.26142
G1 X20.350 Y10.968 E0.05540
G1 X22.960 Y13.579 E0.28573
G1 X23.863 Y13.579 E0.06985
G1 X20.941 Y10.657 E0.31983
G1 X21.460 Y10.273 E0.04995
G1 X24.766 Y13.579 E0.36178
G1 X25.668 Y13.579 E0.06985
G1 X21.911 Y9.822 E0.41118
G1 X22.263 Y9.271 E0.05058
G1 X26.571 Y13.579 E0.47146
G1 X27.474 Y13.579 E0.06985
G1 X22.540 Y8.645 E0.53997
G1 X22.718 Y7.921 E0.05772
G1 X28.376 Y13.579 E0.61922
G1 X29.279 Y13.579 E0.06985
G1 X22.771 Y7.071 E0.71223
G1 X22.652 Y6.049 E0.07962
G1 X30.182 Y13.579 E0.82407
G1 X31.084 Y13.579 E0.06985
G1 X15.771 Y-1.734 E1.67589
G1 X15.771 Y-2.637 E0.06985
G1 X31.942 Y13.534 E1.76981
G1 X32.534 Y13.223 E0.05172
G1 X16.332 Y-2.979 E1.77319
G1 X17.234 Y-2.979 E0.06985
G1 X32.938 Y12.725 E1.71867
G1 X33.079 Y11.963 E0.05996
G1 X18.137 Y-2.979 E1.63528
G1 X18.976 Y-3.042 E0.06515
G1 X33.079 Y11.060 E1.54340
G1 X33.079 Y10.158 E0.06985
G1 X19.715 Y-3.206 E1.46261
G1 X20.368 Y-3.456 E0.05411
G1 X33.079 Y9.255 E1.39112
G1 X33.079 Y8.353 E0.06985
G1 X20.912 Y-3.815 E1.33161
G1 X21.417 Y-4.212 E0.04975
G1 X33.079 Y7.450 E1.27630
G1 X33.079 Y6.547 E0.06985
G1 X21.836 Y-4.696 E1.23045
G1 X22.206 Y-5.228 E0.05018
G1 X33.079 Y5.645 E1.18991
G1 X33.079 Y4.742 E0.06985
G1 X22.477 Y-5.860 E1.16033
G1 X22.682 Y-6.558 E0.05628
G1 X33.079 Y3.839 E1.13790
G1 X33.079 Y2.937 E0.06985
G1 X22.771 Y-7.371 E1.12811
G1 X22.701 Y-8.344 E0.07547
G1 X33.079 Y2.034 E1.13578
G1 X33.079 Y1.131 E0.06985
G1 X18.370 Y-13.578 E1.60979
G1 X19.272 Y-13.578 E0.06986
G1 X33.079 Y0.229 E1.51100
G1 X33.079 Y-0.674 E0.06985
G1 X20.175 Y-13.578 E1.41221
G1 X21.078 Y-13.578 E0.06986
G1 X33.079 Y-1.577 E1.31342
G1 X33.079 Y-2.479 E0.06985
G1 X21.981 Y-13.578 E1.21463
G1 X22.883 Y-13.578 E0.06986
G1 X33.079 Y-3.382 E1.11584
G1 X33.079 Y-4.285 E0.06985
G1 X23.786 Y-13.578 E1.01705
G1 X24.689 Y-13.578 E0.06986
G1 X33.079 Y-5.187 E0.91826
G1 X33.079 Y-6.090 E0.06985
G1 X25.591 Y-13.578 E0.81947
G1 X26.494 Y-13.578 E0.06986
G1 X33.079 Y-6.992 E0.72068
G1 X33.079 Y-7.895 E0.06985
G1 X27.397 Y-13.578 E0.62189
G1 X28.299 Y-13.577 E0.06986
G1 X33.079 Y-8.798 E0.52310
G1 X33.079 Y-9.700 E0.06985
G1 X29.202 Y-13.577 E0.42431
G1 X30.105 Y-13.577 E0.06986
G1 X33.079 Y-10.603 E0.32552
G1 X33.079 Y-11.506 E0.06985
G1 X31.007 Y-13.577 E0.22673
G1 X32.183 Y-13.304 E0.09344
G1 X32.804 Y-12.683 E0.06793
G1 X17.467 Y-13.578 F15000.000
G1 X19.844 Y-11.201 E0.26013 F960.000
G1 X18.871 Y-11.271 E0.07547
G1 X16.564 Y-13.578 E0.25246
G1 X15.662 Y-13.578 E0.06986
G1 X17.969 Y-11.271 E0.25246
G1 X17.066 Y-11.271 E0.06985
G1 X14.759 Y-13.578 E0.25247
G1 X13.856 Y-13.578 E0.06986
G1 X16.163 Y-11.271 E0.25247
G1 X15.261 Y-11.271 E0.06985
G1 X12.954 Y-13.578 E0.25247
G1 X12.051 Y-13.578 E0.06986
G1 X14.358 Y-11.271 E0.25248
G1 X13.455 Y-11.271 E0.06985
G1 X11.148 Y-13.578 E0.25248
G1 X10.246 Y-13.578 E0.06986
G1 X12.553 Y-11.271 E0.25248
G1 X11.650 Y-11.271 E0.06985
G1 X9.343 Y-13.578 E0.25249
G1 X8.440 Y-13.578 E0.06986
G1 X10.747 Y-11.271 E0.25249
G1 X9.845 Y-11.271 E0.06985
G1 X7.538 Y-13.578 E0.25249
G1 X6.635 Y-13.578 E0.06986
G1 X8.942 Y-11.271 E0.25250
G1 X8.040 Y-11.271 E0.06985
G1 X5.732 Y-13.578 E0.25250
G1 X4.830 Y-13.578 E0.06986
G1 X7.137 Y-11.271 E0.25250
G1 X6.234 Y-11.271 E0.06985
G1 X3.927 Y-13.578 E0.25250
G1 X3.024 Y-13.578 E0.06986
G1 X5.332 Y-11.271 E0.25251
G1 X4.429 Y-11.271 E0.06985
G1 X2.122 Y-13.578 E0.25251
G1 X1.219 Y-13.578 E0.06986
G1 X3.526 Y-11.271 E0.25251
G1 X2.624 Y-11.271 E0.06985
G1 X0.316 Y-13.578 E0.25252
G1 X-0.586 Y-13.578 E0.06986
G1 X1.721 Y-11.271 E0.25252
G1 X0.892 Y-11.197 E0.06439
G1 X-1.489 Y-13.578 E0.26060
G1 X-2.392 Y-13.578 E0.06986
G1 X0.142 Y-11.045 E0.27732
G1 X-0.526 Y-10.811 E0.05482
G1 X-3.294 Y-13.578 E0.30293
G1 X-4.197 Y-13.579 E0.06986
G1 X-1.113 Y-10.494 E0.33752
G1 X-1.667 Y-10.146 E0.05066
G1 X-5.100 Y-13.579 E0.37565
G1 X-6.002 Y-13.579 E0.06985
G1 X-2.133 Y-9.709 E0.42353
G1 X-2.584 Y-9.257 E0.04939
G1 X-6.905 Y-13.579 E0.47293
G1 X-7.808 Y-13.579 E0.06986
G1 X-2.936 Y-8.707 E0.53321
G1 X-3.271 Y-8.139 E0.05100
G1 X-8.710 Y-13.579 E0.59529
G1 X-9.613 Y-13.579 E0.06986
G1 X-3.505 Y-7.471 E0.66848
G1 X-3.682 Y-6.745 E0.05782
G1 X-10.516 Y-13.579 E0.74792
G1 X-11.418 Y-13.579 E0.06986
G1 X-3.771 Y-5.931 E0.83695
G1 X-3.771 Y-5.029 E0.06985
G1 X-12.321 Y-13.579 E0.93574
G1 X-13.224 Y-13.579 E0.06986
G1 X-3.771 Y-4.126 E1.03453
G1 X-3.771 Y-3.223 E0.06985
G1 X-14.127 Y-13.579 E1.13332
G1 X-15.029 Y-13.579 E0.06986
G1 X-3.771 Y-2.321 E1.23211
G1 X-3.771 Y-1.418 E0.06985
G1 X-15.932 Y-13.579 E1.33090
G1 X-16.835 Y-13.579 E0.06986
G1 X-3.771 Y-0.515 E1.42969
G1 X-3.771 Y0.387 E0.06985
G1 X-17.737 Y-13.579 E1.52848
G1 X-18.631 Y-13.570 E0.06913
G1 X-3.771 Y1.290 E1.62624
G1 X-3.771 Y2.193 E0.06985
G1 X-19.339 Y-13.376 E1.70379
G1 X-19.810 Y-12.944 E0.04944
G1 X-3.771 Y3.095 E1.75531
G1 X-3.771 Y3.998 E0.06985
G1 X-20.052 Y-12.283 E1.78185
G1 X-20.079 Y-11.407 E0.06783
G1 X-3.771 Y4.900 E1.78476
G1 X-3.771 Y5.803 E0.06985
G1 X-20.079 Y-10.505 E1.78476
G1 X-20.079 Y-9.602 E0.06985
G1 X-3.710 Y6.767 E1.79148
G1 X-3.433 Y7.947 E0.09376
G1 X-20.079 Y-8.699 E1.82178
G1 X-21.090 Y3.829 F15000.000
G1 X-28.748 Y-3.829 E0.83809 F960.000
G1 X-29.651 Y-3.829 E0.06985
G1 X-21.993 Y3.829 E0.83809
G1 X-22.896 Y3.829 E0.06985
G1 X-30.553 Y-3.829 E0.83809
G1 X-31.329 Y-3.702 E0.06082
G1 X-23.798 Y3.829 E0.82418
G1 X-24.701 Y3.829 E0.06985
G1 X-31.329 Y-2.799 E0.72539
G1 X-31.329 Y-1.897 E0.06985
G1 X-25.603 Y3.829 E0.62661
G1 X-26.506 Y3.829 E0.06985
G1 X-31.329 Y-0.994 E0.52782
