; GCode generated by RepRap Java Host Software
; Created: 2013-05-13:14-51-40
;#!RECTANGLE: <BOX x:[l:29.0, h:91.0], y:[l:42.0, h:104.0]>, height: 25.5
M110
G21
G90
G10 P0 X0 Y0 Z0 S205.0 R205.0
M83
G92 E0
G28 X0
G28 Y0
G28 Z0
T0
G1 Z0.24 F200.0
T0
G1 X29.0 Y42.0 F2500.0
G1 F5388.1
G1 E2.993
G1 F2500.0
G1 F74.8
G1 E0.062
G1 F2500.0
G1 X91.0 E1.856
G1 Y104.0 E1.856
G1 X29.0 E1.856
G1 Y42.0 E1.856
G1 F5388.1
G1 E-2.993
G1 F2500.0
;#!LAYER: 1/106
G92 E0
G1 Z0.24 F200.0
G1 X43.89 Y59.91 F15000.0
T0
G1 F5388.1
G1 E2.993
G1 F2500.0
G1 F74.8
G1 E0.062
G1 F2500.0
G1 X43.8 Y60.06 E0.005 F2250.0
G1 X43.86 Y62.13 E0.062
G1 X43.92 Y62.19 E0.003
G1 X54.81 E0.326
G1 X54.78 Y90.87 E0.859
G1 X49.14 Y90.84 E0.169
G1 X49.11 Y76.98 E0.415
G1 X48.99 Y76.86 E0.005
G1 X40.89 E0.242
G1 X40.8 Y77.04 E0.006
G1 X40.77 Y90.87 E0.414
G1 X35.13 Y90.84 E0.169
G1 Y51.18 E1.187
G1 X54.81 Y51.21 E0.589
G1 X54.78 Y59.88 E0.26
G1 X43.89 Y59.91 E0.326
G1 X43.83 Y59.64 E0.008
G1 X43.53 Y59.94 E0.013
G1 X43.56 Y62.19 E0.067
G1 X43.83 Y62.46 E0.011
G1 X54.51 Y62.49 E0.32
G1 X54.48 Y90.57 E0.841
G1 X49.44 E0.151
G1 X49.41 Y76.86 E0.41
G1 X49.14 Y76.59 E0.011
G1 X40.71 Y76.62 E0.252
G1 X40.5 Y77.01 E0.013
G1 X40.47 Y90.57 E0.406
G1 X35.43 Y90.54 E0.151
G1 Y51.48 E1.169
G1 X54.51 Y51.51 E0.571
G1 Y59.58 E0.242
G1 X43.83 Y59.64 E0.32
G1 F5388.1
G1 E-2.993
G1 F2500.0
G1 X43.89 Y59.91
G1 X43.8 Y59.52 F15000.0
G1 F5388.1
G1 E2.993
G1 F2500.0
G1 F74.8
G1 E0.062
G1 F2500.0
G1 X51.72 Y51.6 E0.335
G1 X52.08 E0.011
G1 X44.25 Y59.49 E0.333
G1 X44.61 E0.011
G1 X52.56 Y51.6 E0.335
G1 X52.92 E0.011
G1 X45.12 Y59.49 E0.332
G1 X45.45 E0.01
G1 X53.43 Y51.6 E0.336
G1 X53.76 E0.01
G1 X45.96 Y59.49 E0.332
G1 X46.29 E0.01
G1 X54.27 Y51.6 E0.336
G1 X54.39 E0.004
G1 X54.42 Y51.81 E0.006
G1 X46.8 Y59.49 E0.324
G1 X47.16 E0.011
G1 X54.42 Y52.29 E0.306
G1 Y52.65 E0.011
G1 X47.64 Y59.49 E0.288
G1 X48.0 E0.011
G1 X54.42 Y53.16 E0.27
G1 Y53.49 E0.01
G1 X48.51 Y59.49 E0.252
G1 X48.84 E0.01
G1 X54.42 Y54.0 E0.234
G1 Y54.33 E0.01
G1 X49.35 Y59.49 E0.217
G1 X49.74 Y59.46 E0.012
G1 X54.42 Y54.84 E0.197
G1 Y55.2 E0.011
G1 X50.22 Y59.46 E0.179
G1 X50.58 E0.011
G1 X54.42 Y55.68 E0.161
G1 Y56.04 E0.011
G1 X51.09 Y59.46 E0.143
G1 X51.42 E0.01
G1 X54.42 Y56.55 E0.125
G1 Y56.88 E0.01
G1 X51.93 Y59.46 E0.107
G1 X52.26 E0.01
G1 X54.42 Y57.39 E0.09
G1 Y57.75 E0.011
G1 X52.77 Y59.46 E0.071
G1 X53.13 E0.011
G1 X54.42 Y58.23 E0.053
G1 Y58.59 E0.011
G1 X53.61 Y59.46 E0.036
G1 X53.97 E0.011
G1 X54.42 Y59.07 E0.018
G1 F5388.1
G1 E-2.993
G1 F2500.0
G1 Y70.95 F15000.0
G1 F5388.1
G1 E2.993
G1 F2500.0
G1 F74.8
G1 E0.062
G1 F2500.0
G1 X48.87 Y76.44 E0.234
G1 X48.51 E0.011
G1 X54.42 Y70.47 E0.251
G1 Y70.11 E0.011
G1 X48.03 Y76.44 E0.269
G1 X47.67 E0.011
G1 X54.42 Y69.63 E0.287
G1 Y69.27 E0.011
G1 X47.16 Y76.44 E0.305
G1 X46.83 E0.01
G1 X54.42 Y68.76 E0.323
G1 Y68.43 E0.01
G1 X46.32 Y76.44 E0.341
G1 X45.99 E0.01
G1 X54.42 Y67.92 E0.359
G1 Y67.56 E0.011
G1 X45.48 Y76.44 E0.377
G1 X45.12 E0.011
G1 X54.42 Y67.08 E0.395
G1 Y66.72 E0.011
G1 X44.64 Y76.44 E0.413
G1 X44.28 E0.011
G1 X54.42 Y66.21 E0.431
G1 Y65.88 E0.01
G1 X43.77 Y76.44 E0.449
G1 X43.44 E0.01
G1 X54.42 Y65.37 E0.467
G1 Y65.04 E0.01
G1 X42.93 Y76.44 E0.485
G1 X42.57 E0.011
G1 X54.42 Y64.53 E0.503
G1 Y64.17 E0.011
G1 X42.09 Y76.44 E0.521
G1 X41.73 E0.011
G1 X54.42 Y63.69 E0.538
G1 Y63.33 E0.011
G1 X41.28 Y76.44 E0.556
G1 F5388.1
G1 E-2.993
G1 F2500.0
G1 X49.29 Y76.53 F15000.0
G1 F5388.1
G1 E2.993
G1 F2500.0
G1 F74.8
G1 E0.062
G1 F2500.0
G1 X54.42 Y71.4 E0.217
G1 Y71.73 E0.01
G1 X49.5 Y76.77 E0.211
G1 X49.56 Y77.01 E0.007
G1 X54.42 Y72.24 E0.204
G1 Y72.6 E0.011
G1 X49.56 Y77.52 E0.207
G1 Y77.88 E0.011
G1 X54.42 Y73.08 E0.204
G1 Y73.44 E0.011
G1 X49.56 Y78.36 E0.207
G1 Y78.72 E0.011
G1 X54.42 Y73.92 E0.204
G1 Y74.28 E0.011
G1 X49.56 Y79.23 E0.208
G1 Y79.56 E0.01
G1 X54.42 Y74.79 E0.204
G1 Y75.12 E0.01
G1 X49.56 Y80.07 E0.208
G1 Y80.43 E0.011
G1 X54.42 Y75.63 E0.204
G1 Y75.99 E0.011
G1 X49.56 Y80.91 E0.207
G1 Y81.27 E0.011
G1 X54.42 Y76.47 E0.204
G1 Y76.83 E0.011
G1 X49.56 Y81.75 E0.207
G1 Y82.11 E0.011
G1 X54.42 Y77.34 E0.204
G1 Y77.67 E0.01
G1 X49.56 Y82.62 E0.208
G1 Y82.95 E0.01
G1 X54.42 Y78.18 E0.204
G1 Y78.54 E0.011
G1 X49.56 Y83.46 E0.207
G1 Y83.82 E0.011
G1 X54.42 Y79.02 E0.204
G1 Y79.38 E0.011
G1 X49.56 Y84.3 E0.207
G1 Y84.66 E0.011
G1 X54.42 Y79.86 E0.204
G1 Y80.22 E0.011
G1 X49.56 Y85.17 E0.208
G1 Y85.5 E0.01
G1 X54.42 Y80.73 E0.204
G1 Y81.06 E0.01
G1 X49.56 Y86.01 E0.208
G1 Y86.37 E0.011
G1 X54.42 Y81.57 E0.204
G1 Y81.93 E0.011
G1 X49.56 Y86.85 E0.207
G1 Y87.21 E0.011
G1 X54.42 Y82.41 E0.204
G1 Y82.77 E0.011
G1 X49.56 Y87.69 E0.207
G1 Y88.05 E0.011
G1 X54.42 Y83.28 E0.204
G1 Y83.61 E0.01
G1 X49.56 Y88.56 E0.208
G1 Y88.89 E0.01
G1 X54.42 Y84.12 E0.204
G1 Y84.48 E0.011
G1 X49.56 Y89.4 E0.207
G1 Y89.76 E0.011
G1 X54.42 Y84.96 E0.204
G1 Y85.32 E0.011
G1 X49.56 Y90.24 E0.207
G1 Y90.42 E0.005
G1 X49.71 Y90.45 E0.005
G1 X54.42 Y85.8 E0.198
G1 Y86.16 E0.011
G1 X50.22 Y90.45 E0.18
G1 X50.55 E0.01
G1 X54.42 Y86.67 E0.162
G1 Y87.0 E0.01
G1 X51.06 Y90.45 E0.144
G1 X51.42 E0.011
G1 X54.42 Y87.51 E0.126
G1 Y87.87 E0.011
G1 X51.9 Y90.45 E0.108
G1 X52.26 E0.011
G1 X54.42 Y88.35 E0.09
G1 Y88.71 E0.011
G1 X52.74 Y90.45 E0.072
G1 X53.1 E0.011
G1 X54.42 Y89.22 E0.054
G1 Y89.55 E0.01
G1 X53.61 Y90.45 E0.036
G1 X53.94 E0.01
G1 X54.42 Y90.03 E0.019
G1 F5388.1
G1 E-2.993
G1 F2500.0
G1 X40.41 Y90.06 F15000.0
G1 F5388.1
G1 E2.993
G1 F2500.0
G1 F74.8
G1 E0.062
G1 F2500.0
G1 X39.96 Y90.45 E0.018
G1 X39.6 E0.011
G1 X40.41 Y89.58 E0.036
G1 Y89.22 E0.011
G1 X39.09 Y90.45 E0.054
G1 X38.76 E0.01
G1 X40.41 Y88.71 E0.072
G1 Y88.38 E0.01
G1 X38.25 Y90.45 E0.09
G1 X37.92 Y90.42 E0.01
G1 X40.41 Y87.87 E0.107
G1 Y87.51 E0.011
G1 X37.44 Y90.42 E0.124
G1 X37.08 E0.011
G1 X40.41 Y87.03 E0.142
G1 Y86.67 E0.011
G1 X36.6 Y90.42 E0.16
G1 X36.24 E0.011
G1 X40.41 Y86.16 E0.178
G1 Y85.83 E0.01
G1 X35.73 Y90.42 E0.196
G1 X35.55 Y90.39 E0.005
G1 Y90.27 E0.004
G1 X40.41 Y85.32 E0.208
G1 Y84.99 E0.01
G1 X35.55 Y89.76 E0.204
G1 Y89.4 E0.011
G1 X40.41 Y84.48 E0.207
G1 Y84.12 E0.011
G1 X35.55 Y88.92 E0.204
G1 Y88.56 E0.011
G1 X40.41 Y83.64 E0.207
G1 Y83.28 E0.011
G1 X35.55 Y88.05 E0.204
G1 Y87.72 E0.01
G1 X40.41 Y82.77 E0.208
G1 Y82.44 E0.01
G1 X35.55 Y87.21 E0.204
G1 Y86.88 E0.01
G1 X40.41 Y81.93 E0.208
G1 Y81.57 E0.011
G1 X35.55 Y86.37 E0.204
G1 Y86.01 E0.011
G1 X40.41 Y81.09 E0.207
G1 Y80.73 E0.011
G1 X35.55 Y85.53 E0.204
G1 Y85.17 E0.011
G1 X40.41 Y80.22 E0.208
G1 Y79.89 E0.01
G1 X35.55 Y84.66 E0.204
G1 Y84.33 E0.01
G1 X40.41 Y79.38 E0.208
G1 Y79.05 E0.01
G1 X35.55 Y83.82 E0.204
G1 Y83.46 E0.011
G1 X40.41 Y78.54 E0.207
G1 Y78.18 E0.011
G1 X35.55 Y82.98 E0.204
G1 Y82.62 E0.011
G1 X40.41 Y77.7 E0.207
G1 Y77.34 E0.011
G1 X35.55 Y82.11 E0.204
G1 Y81.78 E0.01
G1 X40.5 Y76.74 E0.211
G1 X40.8 Y76.47 E0.012
G1 X54.42 Y62.82 E0.577
G1 X54.39 Y62.58 E0.007
G1 X35.55 Y81.27 E0.794
G1 Y80.94 E0.01
G1 X53.82 Y62.58 E0.775
G1 X53.46 E0.011
G1 X35.55 Y80.43 E0.757
G1 Y80.07 E0.011
G1 X52.98 Y62.58 E0.739
G1 X52.62 E0.011
G1 X35.55 Y79.59 E0.721
G1 Y79.23 E0.011
G1 X52.11 Y62.58 E0.703
G1 X51.78 E0.01
G1 X35.55 Y78.72 E0.685
G1 Y78.39 E0.01
G1 X51.27 Y62.58 E0.667
G1 X50.94 E0.01
G1 X35.55 Y77.88 E0.65
G1 Y77.52 E0.011
G1 X50.43 Y62.58 E0.631
G1 X50.07 E0.011
G1 X35.55 Y77.04 E0.613
G1 Y76.68 E0.011
G1 X49.59 Y62.58 E0.596
G1 X49.23 E0.011
G1 X35.55 Y76.17 E0.577
G1 Y75.84 E0.01
G1 X48.72 Y62.58 E0.559
G1 X48.39 E0.01
G1 X35.55 Y75.33 E0.542
G1 Y75.0 E0.01
G1 X47.88 Y62.58 E0.524
G1 X47.52 E0.011
G1 X35.55 Y74.49 E0.505
G1 Y74.13 E0.011
G1 X47.04 Y62.58 E0.488
G1 X46.68 E0.011
G1 X35.55 Y73.65 E0.47
G1 Y73.29 E0.011
G1 X46.17 Y62.58 E0.451
G1 X45.84 E0.01
G1 X35.55 Y72.78 E0.434
G1 Y72.45 E0.01
G1 X45.33 Y62.58 E0.416
G1 X45.0 E0.01
G1 X35.55 Y71.94 E0.398
G1 Y71.58 E0.011
G1 X44.49 Y62.58 E0.38
G1 X44.13 E0.011
G1 X35.55 Y71.1 E0.362
G1 Y70.74 E0.011
G1 X43.71 Y62.52 E0.347
G1 X43.53 Y62.34 E0.008
G1 X35.55 Y70.23 E0.336
G1 Y69.9 E0.01
G1 X43.41 Y61.95 E0.335
G1 Y61.62 E0.01
G1 X35.55 Y69.39 E0.331
G1 Y69.06 E0.01
G1 X43.41 Y61.11 E0.335
G1 Y60.75 E0.011
G1 X35.55 Y68.55 E0.331
G1 Y68.19 E0.011
G1 X43.41 Y60.27 E0.334
G1 X43.47 Y59.85 E0.013
G1 X35.55 Y67.71 E0.334
G1 Y67.35 E0.011
G1 X51.21 Y51.6 E0.665
G1 X50.88 E0.01
G1 X35.55 Y66.84 E0.647
G1 Y66.51 E0.01
G1 X50.37 Y51.6 E0.629
G1 X50.04 E0.01
G1 X35.55 Y66.0 E0.612
G1 Y65.64 E0.011
G1 X49.53 Y51.6 E0.593
G1 X49.17 E0.011
G1 X35.55 Y65.16 E0.575
G1 Y64.8 E0.011
G1 X48.69 Y51.6 E0.558
G1 X48.33 E0.011
G1 X35.55 Y64.29 E0.539
G1 Y63.96 E0.01
G1 X47.82 Y51.6 E0.521
G1 X47.49 E0.01
G1 X35.55 Y63.45 E0.504
G1 Y63.12 E0.01
G1 X46.98 Y51.6 E0.486
G1 X46.62 E0.011
G1 X35.55 Y62.61 E0.467
G1 Y62.25 E0.011
G1 X46.14 Y51.6 E0.45
G1 X45.78 E0.011
G1 X35.55 Y61.77 E0.432
G1 Y61.41 E0.011
G1 X45.27 Y51.6 E0.413
G1 X44.97 Y51.57 E0.009
G1 X35.55 Y60.9 E0.397
G1 Y60.57 E0.01
G1 X44.46 Y51.57 E0.379
G1 X44.13 E0.01
G1 X35.55 Y60.06 E0.361
G1 Y59.7 E0.011
G1 X43.62 Y51.57 E0.343
G1 X43.26 E0.011
G1 X35.55 Y59.22 E0.325
G1 Y58.86 E0.011
G1 X42.78 Y51.57 E0.307
G1 X42.42 E0.011
G1 X35.55 Y58.35 E0.289
G1 Y58.02 E0.01
G1 X41.91 Y51.57 E0.271
G1 X41.58 E0.01
G1 X35.55 Y57.51 E0.253
G1 Y57.18 E0.01
G1 X41.07 Y51.57 E0.236
G1 X40.71 E0.011
G1 X35.55 Y56.67 E0.217
G1 Y56.31 E0.011
G1 X40.23 Y51.57 E0.199
G1 X39.87 E0.011
G1 X35.55 Y55.83 E0.182
G1 Y55.47 E0.011
G1 X39.36 Y51.57 E0.163
G1 X39.03 E0.01
G1 X35.55 Y54.96 E0.145
G1 Y54.63 E0.01
G1 X38.52 Y51.57 E0.128
G1 X38.19 E0.01
G1 X35.55 Y54.12 E0.11
G1 Y53.76 E0.011
G1 X37.68 Y51.57 E0.091
G1 X37.32 E0.011
G1 X35.55 Y53.28 E0.074
G1 Y52.92 E0.011
G1 X36.84 Y51.57 E0.056
G1 X36.48 E0.011
G1 X35.55 Y52.41 E0.038
G1 Y52.08 E0.01
G1 X36.0 Y51.57 E0.02
G1 X35.64 E0.011
G1 X35.55 Y51.63 E0.003
G1 F5388.1
G1 E-2.993
G1 F2500.0
G1 X79.53 Y70.08 F15000.0
G1 F5388.1
G1 E2.993
G1 F2500.0
G1 F74.8
G1 E0.062
G1 F2500.0
G1 X79.62 Y69.9 E0.006 F2250.0
G1 X79.56 Y66.03 E0.116
G1 X79.5 Y65.97 E0.003
G1 X70.41 E0.272
G1 X70.32 Y66.12 E0.005
G1 X70.38 Y69.99 E0.116
G1 X70.47 Y70.08 E0.004
G1 X73.8 Y70.11 E0.1
G1 Y72.36 E0.067
G1 X70.35 Y72.45 E0.103
G1 Y79.62 E0.215
G1 X70.44 Y79.68 E0.003
G1 X79.59 Y79.59 E0.274
G1 X79.56 Y72.48 E0.213
G1 X79.5 Y72.36 E0.004
G1 X76.14 E0.101
G1 X76.17 Y70.08 E0.068
G1 X79.53 E0.101
G1 X79.59 Y70.35 E0.008
G1 X79.8 Y70.2 E0.008
G1 X79.92 Y69.87 E0.011
G1 X79.86 Y65.94 E0.118
G1 X79.65 Y65.7 E0.01
G1 X70.32 E0.279
G1 X70.08 Y65.94 E0.01
G1 Y70.08 E0.124
G1 X70.35 Y70.35 E0.011
G1 X73.5 Y70.38 E0.094
G1 Y72.06 E0.05
G1 X70.23 Y72.15 E0.098
G1 X70.05 Y72.42 E0.01
G1 Y79.56 E0.214
G1 X70.23 Y79.89 E0.011
G1 X70.38 Y79.98 E0.005
G1 X79.65 Y79.89 E0.278
G1 X79.86 Y79.68 E0.009
G1 X79.89 Y79.41 E0.008
G1 X79.83 Y72.36 E0.211
G1 X79.68 Y72.15 E0.008
G1 X79.5 Y72.06 E0.006
G1 X76.44 E0.092
G1 X76.47 Y70.38 E0.05
G1 X79.59 Y70.35 E0.093
G1 F5388.1
G1 E-2.993
G1 F2500.0
G1 X79.53 Y70.08
G1 X77.91 Y82.89 F15000.0
G1 F5388.1
G1 E2.993
G1 F2500.0
G1 F74.8
G1 E0.062
G1 F2500.0
G1 X77.82 Y83.04 E0.005 F2250.0
G1 Y97.86 E0.444
G1 X72.12 Y97.83 E0.171
G1 X72.09 Y82.98 E0.445
G1 X72.03 Y82.86 E0.004
G1 X65.13 Y82.83 E0.207
G1 Y48.18 E1.037
G1 X84.81 Y48.24 E0.589
G1 Y82.86 E1.036
G1 X77.91 Y82.89 E0.207
G1 X77.79 Y82.65 E0.008
G1 X77.58 Y82.86 E0.009
G1 X77.52 Y83.04 E0.006
G1 Y97.56 E0.435
G1 X72.42 Y97.5 E0.153
G1 X72.39 Y82.98 E0.435
G1 X72.21 Y82.65 E0.011
G1 X72.06 Y82.56 E0.005
G1 X65.43 E0.198
G1 Y48.48 E1.02
G1 X84.51 Y48.54 E0.571
G1 X84.48 Y82.56 E1.018
G1 X77.79 Y82.65 E0.2
G1 F5388.1
G1 E-2.993
G1 F2500.0
G1 X77.91 Y82.89
G1 X78.54 Y82.47 F15000.0
G1 F5388.1
G1 E2.993
G1 F2500.0
G1 F74.8
G1 E0.062
G1 F2500.0
G1 X84.42 Y76.59 E0.249
G1 Y76.95 E0.011
G1 X78.99 Y82.47 E0.232
G1 X79.32 E0.01
G1 X84.42 Y77.46 E0.214
G1 Y77.79 E0.01
G1 X79.83 Y82.47 E0.196
G1 X80.19 E0.011
G1 X84.42 Y78.3 E0.178
G1 Y78.66 E0.011
G1 X80.67 Y82.47 E0.16
G1 X81.03 E0.011
G1 X84.42 Y79.14 E0.142
G1 F5388.1
G1 E-2.993
G1 F2500.0
G1 Y82.11 F15000.0
G1 F5388.1
G1 E2.993
G1 F2500.0
G1 F74.8
G1 E0.062
G1 F2500.0
G1 X84.03 Y82.44 E0.015
G1 X83.67 E0.011
G1 X84.42 Y81.63 E0.033
G1 Y81.27 E0.011
G1 X83.19 Y82.44 E0.051
G1 X82.83 E0.011
G1 X84.42 Y80.76 E0.069
G1 Y80.43 E0.01
G1 X82.32 Y82.44 E0.087
G1 X81.99 E0.01
G1 X84.42 Y79.92 E0.105
G1 Y79.56 E0.011
G1 X81.54 Y82.44 E0.122
G1 F5388.1
G1 E-2.993
G1 F2500.0
G1 X79.26 Y80.04 F15000.0
G1 F5388.1
G1 E2.993
G1 F2500.0
G1 F74.8
G1 E0.062
G1 F2500.0
G1 X72.54 Y86.7 E0.283
G1 Y86.37 E0.01
G1 X78.78 Y80.04 E0.266
G1 X78.45 E0.01
G1 X72.54 Y85.86 E0.248
G1 Y85.5 E0.011
G1 X77.94 Y80.04 E0.23
G1 X77.58 E0.011
G1 X72.54 Y85.02 E0.212
G1 Y84.66 E0.011
G1 X77.1 Y80.04 E0.194
G1 X76.74 E0.011
G1 X72.54 Y84.18 E0.177
G1 Y83.82 E0.011
G1 X76.23 Y80.04 E0.158
G1 X75.9 E0.01
G1 X72.54 Y83.31 E0.14
G1 Y83.01 E0.009
G1 X75.39 Y80.04 E0.123
G1 X75.03 E0.011
G1 X72.39 Y82.65 E0.111
G1 X72.18 Y82.47 E0.008
G1 X74.52 Y80.07 E0.1
G1 X74.16 E0.011
G1 X71.73 Y82.44 E0.102
G1 X71.37 E0.011
G1 X73.68 Y80.07 E0.099
G1 X73.32 E0.011
G1 X70.86 Y82.44 E0.102
G1 X70.53 E0.01
G1 X72.81 Y80.07 E0.098
G1 X72.48 E0.01
G1 X70.02 Y82.44 E0.102
G1 X69.66 E0.011
G1 X71.97 Y80.07 E0.099
G1 X71.61 E0.011
G1 X69.18 Y82.44 E0.102
G1 X68.82 E0.011
G1 X71.13 Y80.07 E0.099
G1 X70.77 E0.011
G1 X68.34 Y82.44 E0.102
G1 X67.98 E0.011
G1 X70.29 Y80.04 E0.1
G1 X70.11 Y79.89 E0.007
G1 X67.47 Y82.44 E0.11
G1 X67.14 E0.01
G1 X69.96 Y79.53 E0.121
G1 X69.93 Y79.2 E0.01
G1 X66.63 Y82.44 E0.138
G1 X66.27 E0.011
G1 X69.93 Y78.72 E0.156
G1 Y78.36 E0.011
G1 X65.79 Y82.44 E0.174
G1 X65.55 Y82.41 E0.007
G1 Y82.32 E0.003
G1 X69.93 Y77.88 E0.187
G1 Y77.52 E0.011
G1 X65.55 Y81.81 E0.184
G1 Y81.48 E0.01
G1 X69.93 Y77.01 E0.187
G1 Y76.68 E0.01
G1 X65.55 Y80.97 E0.184
G1 Y80.61 E0.011
G1 X69.93 Y76.17 E0.187
G1 Y75.81 E0.011
G1 X65.55 Y80.13 E0.184
G1 Y79.77 E0.011
G1 X69.93 Y75.33 E0.187
G1 Y74.97 E0.011
G1 X65.55 Y79.29 E0.184
G1 Y78.93 E0.011
G1 X69.93 Y74.46 E0.187
G1 Y74.13 E0.01
G1 X65.55 Y78.42 E0.184
G1 Y78.09 E0.01
G1 X69.93 Y73.62 E0.187
G1 Y73.26 E0.011
G1 X65.55 Y77.58 E0.184
G1 Y77.22 E0.011
G1 X69.93 Y72.78 E0.187
G1 X69.96 Y72.39 E0.012
G1 X65.55 Y76.74 E0.185
G1 Y76.38 E0.011
G1 X71.4 Y70.47 E0.249
G1 X71.04 E0.011
G1 X65.55 Y75.87 E0.231
G1 Y75.54 E0.01
G1 X70.53 Y70.47 E0.213
G1 X70.26 Y70.41 E0.008
G1 X65.55 Y75.03 E0.197
G1 Y74.67 E0.011
G1 X70.02 Y70.14 E0.191
G1 X69.96 Y69.84 E0.009
G1 X65.55 Y74.19 E0.185
G1 Y73.83 E0.011
G1 X69.96 Y69.36 E0.188
G1 Y69.0 E0.011
G1 X65.55 Y73.35 E0.185
G1 Y72.99 E0.011
G1 X69.96 Y68.49 E0.189
G1 Y68.16 E0.01
G1 X65.55 Y72.48 E0.185
G1 Y72.15 E0.01
G1 X69.96 Y67.65 E0.189
G1 Y67.29 E0.011
G1 X65.55 Y71.64 E0.185
G1 Y71.28 E0.011
G1 X69.96 Y66.81 E0.188
G1 Y66.45 E0.011
G1 X65.55 Y70.8 E0.185
G1 Y70.44 E0.011
G1 X69.96 Y66.03 E0.187
G1 F5388.1
G1 E-2.993
G1 F2500.0
G1 X70.35 Y72.0 F15000.0
G1 F5388.1
G1 E2.993
G1 F2500.0
G1 F74.8
G1 E0.062
G1 F2500.0
G1 X71.88 Y70.47 E0.065
G1 X72.24 E0.011
G1 X70.8 Y71.97 E0.062
G1 X71.16 E0.011
G1 X72.72 Y70.47 E0.065
G1 X73.08 E0.011
G1 X71.67 Y71.97 E0.062
G1 X72.0 E0.01
G1 X73.41 Y70.65 E0.058
G1 Y70.98 E0.01
G1 X72.54 Y71.94 E0.039
G1 X72.9 E0.011
G1 X73.41 Y71.49 E0.02
G1 Y71.91 E0.013
G1 F5388.1
G1 E-2.993
G1 F2500.0
G1 X76.56 Y70.86 F15000.0
G1 F5388.1
G1 E2.993
G1 F2500.0
G1 F74.8
G1 E0.062
G1 F2500.0
G1 X76.98 Y70.47 E0.017
G1 X77.34 E0.011
G1 X76.56 Y71.31 E0.034
G1 Y71.67 E0.011
G1 X77.82 Y70.47 E0.052
G1 X78.18 E0.011
G1 X76.77 Y71.94 E0.061
G1 X77.13 E0.011
G1 X78.66 Y70.47 E0.064
G1 X79.02 E0.011
G1 X77.64 Y71.94 E0.06
G1 X77.97 E0.01
G1 X79.5 Y70.47 E0.064
G1 F5388.1
G1 E-2.993
G1 F2500.0
G1 X65.55 Y48.78 F15000.0
G1 F5388.1
G1 E2.993
G1 F2500.0
G1 F74.8
G1 E0.062
G1 F2500.0
G1 X65.79 Y48.57 E0.01
G1 X66.15 E0.011
G1 X65.55 Y49.23 E0.027
G1 Y49.59 E0.011
G1 X66.63 Y48.57 E0.044
G1 X66.99 E0.011
G1 X65.55 Y50.07 E0.062
G1 Y50.43 E0.011
G1 X67.47 Y48.57 E0.08
G1 X67.83 E0.011
G1 X65.55 Y50.94 E0.098
G1 Y51.27 E0.01
G1 X68.34 Y48.57 E0.116
G1 X68.67 E0.01
G1 X65.55 Y51.78 E0.134
G1 Y52.11 E0.01
G1 X69.18 Y48.57 E0.152
G1 X69.54 E0.011
G1 X65.55 Y52.62 E0.17
G1 Y52.98 E0.011
G1 X70.02 Y48.57 E0.188
G1 X70.38 E0.011
G1 X65.55 Y53.46 E0.206
G1 Y53.82 E0.011
G1 X70.89 Y48.57 E0.224
G1 X71.22 E0.01
G1 X65.55 Y54.33 E0.242
G1 Y54.66 E0.01
G1 X71.73 Y48.57 E0.26
G1 X72.06 E0.01
G1 X65.55 Y55.17 E0.278
G1 Y55.53 E0.011
G1 X72.57 Y48.57 E0.296
G1 X72.93 E0.011
G1 X65.55 Y56.01 E0.314
G1 Y56.37 E0.011
G1 X73.41 Y48.57 E0.331
G1 X73.77 E0.011
G1 X65.55 Y56.88 E0.35
G1 Y57.21 E0.01
G1 X74.28 Y48.57 E0.368
G1 X74.61 E0.01
G1 X65.55 Y57.72 E0.385
G1 Y58.05 E0.01
G1 X75.09 Y48.6 E0.402
G1 X75.45 E0.011
G1 X65.55 Y58.56 E0.42
G1 Y58.92 E0.011
G1 X75.93 Y48.6 E0.438
G1 X76.29 E0.011
G1 X65.55 Y59.4 E0.456
G1 Y59.76 E0.011
G1 X76.8 Y48.6 E0.474
G1 X77.13 E0.01
G1 X65.55 Y60.27 E0.492
G1 Y60.6 E0.01
G1 X77.64 Y48.6 E0.51
G1 X77.97 E0.01
G1 X65.55 Y61.11 E0.528
G1 Y61.47 E0.011
G1 X78.48 Y48.6 E0.546
G1 X78.84 E0.011
G1 X65.55 Y61.95 E0.564
G1 Y62.31 E0.011
G1 X79.32 Y48.6 E0.582
G1 X79.68 E0.011
G1 X65.55 Y62.79 E0.599
G1 Y63.15 E0.011
G1 X80.19 Y48.6 E0.618
G1 X80.52 E0.01
G1 X65.55 Y63.66 E0.636
G1 Y63.99 E0.01
G1 X81.03 Y48.6 E0.653
G1 X81.39 E0.011
G1 X65.55 Y64.5 E0.672
G1 Y64.86 E0.011
G1 X81.87 Y48.6 E0.69
G1 X82.23 E0.011
G1 X65.55 Y65.34 E0.707
G1 Y65.7 E0.011
G1 X82.71 Y48.6 E0.725
G1 X83.07 E0.011
G1 X65.55 Y66.21 E0.744
G1 Y66.54 E0.01
G1 X83.58 Y48.6 E0.761
G1 X83.91 E0.01
G1 X65.55 Y67.05 E0.779
G1 Y67.41 E0.011
G1 X84.42 Y48.6 E0.798
G1 Y48.96 E0.011
G1 X65.55 Y67.89 E0.8
G1 Y68.25 E0.011
G1 X84.42 Y49.44 E0.798
G1 Y49.8 E0.011
G1 X65.55 Y68.73 E0.8
G1 Y69.09 E0.011
G1 X84.42 Y50.31 E0.797
G1 Y50.64 E0.01
G1 X65.55 Y69.6 E0.801
G1 Y69.93 E0.01
G1 X84.42 Y51.15 E0.797
G1 Y51.51 E0.011
G1 X70.44 Y65.55 E0.593
G1 X70.8 E0.011
G1 X84.42 Y51.99 E0.575
G1 Y52.35 E0.011
G1 X71.28 Y65.55 E0.558
G1 X71.64 E0.011
G1 X84.42 Y52.83 E0.54
G1 Y53.19 E0.011
G1 X72.15 Y65.55 E0.521
G1 X72.48 E0.01
G1 X84.42 Y53.7 E0.504
G1 Y54.03 E0.01
G1 X72.99 Y65.55 E0.486
G1 X73.35 E0.011
G1 X84.42 Y54.54 E0.467
G1 Y54.9 E0.011
G1 X73.83 Y65.55 E0.45
G1 X74.19 E0.011
G1 X84.42 Y55.38 E0.432
G1 Y55.74 E0.011
G1 X74.67 Y65.55 E0.414
G1 X75.03 E0.011
G1 X84.42 Y56.25 E0.396
G1 Y56.58 E0.01
G1 X75.54 Y65.55 E0.378
G1 X75.87 E0.01
G1 X84.42 Y57.09 E0.36
G1 Y57.45 E0.011
G1 X76.38 Y65.55 E0.342
G1 X76.74 E0.011
G1 X84.42 Y57.93 E0.324
G1 Y58.29 E0.011
G1 X77.22 Y65.55 E0.306
G1 X77.58 E0.011
G1 X84.42 Y58.77 E0.288
G1 Y59.13 E0.011
G1 X78.09 Y65.55 E0.27
G1 X78.42 E0.01
G1 X84.42 Y59.64 E0.252
G1 Y59.97 E0.01
G1 X78.93 Y65.55 E0.234
G1 X79.29 E0.011
G1 X84.42 Y60.48 E0.216
G1 Y60.84 E0.011
G1 X79.71 Y65.61 E0.201
G1 X79.92 Y65.79 E0.008
G1 X84.42 Y61.32 E0.19
G1 Y61.68 E0.011
G1 X80.04 Y66.12 E0.187
G1 Y66.48 E0.011
G1 X84.42 Y62.19 E0.184
G1 Y62.52 E0.01
G1 X80.04 Y66.99 E0.187
G1 Y67.32 E0.01
G1 X84.42 Y63.03 E0.184
G1 Y63.39 E0.011
G1 X80.04 Y67.83 E0.187
G1 Y68.19 E0.011
G1 X84.42 Y63.87 E0.184
G1 Y64.23 E0.011
G1 X80.04 Y68.67 E0.187
G1 Y69.03 E0.011
G1 X84.42 Y64.71 E0.184
G1 Y65.07 E0.011
G1 X80.04 Y69.54 E0.187
G1 Y69.87 E0.01
G1 X84.42 Y65.58 E0.184
G1 Y65.91 E0.01
G1 X78.48 Y71.94 E0.253
G1 X78.84 E0.011
G1 X84.42 Y66.42 E0.235
G1 Y66.78 E0.011
G1 X79.32 Y71.94 E0.217
G1 X79.65 Y71.97 E0.01
G1 X84.42 Y67.26 E0.201
G1 Y67.62 E0.011
G1 X79.92 Y72.21 E0.192
G1 X79.98 Y72.48 E0.008
G1 X84.42 Y68.13 E0.186
G1 Y68.46 E0.01
G1 X80.01 Y72.96 E0.189
G1 Y73.29 E0.01
G1 X84.42 Y68.97 E0.185
G1 Y69.33 E0.011
G1 X80.01 Y73.8 E0.188
G1 Y74.16 E0.011
G1 X84.42 Y69.81 E0.185
G1 Y70.17 E0.011
G1 X80.01 Y74.64 E0.188
G1 Y75.0 E0.011
G1 X84.42 Y70.65 E0.185
G1 Y71.01 E0.011
G1 X80.01 Y75.51 E0.189
G1 Y75.84 E0.01
G1 X84.42 Y71.52 E0.185
G1 Y71.85 E0.01
G1 X80.01 Y76.35 E0.189
G1 Y76.71 E0.011
G1 X84.42 Y72.36 E0.185
G1 Y72.72 E0.011
G1 X80.01 Y77.19 E0.188
G1 Y77.55 E0.011
G1 X84.42 Y73.2 E0.185
G1 Y73.56 E0.011
G1 X80.01 Y78.03 E0.188
G1 Y78.39 E0.011
G1 X84.42 Y74.07 E0.185
G1 Y74.4 E0.01
G1 X80.01 Y78.9 E0.189
G1 Y79.23 E0.01
G1 X84.42 Y74.91 E0.185
G1 Y75.27 E0.011
G1 X72.54 Y87.21 E0.504
G1 Y87.57 E0.011
G1 X84.42 Y75.75 E0.502
G1 Y76.11 E0.011
G1 X78.09 Y82.47 E0.269
G1 X77.88 E0.006
G1 X77.55 Y82.71 E0.012
G1 X77.43 Y83.1 E0.012
G1 X72.54 Y88.05 E0.208
G1 Y88.41 E0.011
G1 X77.43 Y83.58 E0.206
G1 Y83.94 E0.011
G1 X72.54 Y88.92 E0.209
G1 Y89.25 E0.01
G1 X77.43 Y84.45 E0.205
G1 Y84.78 E0.01
G1 X72.54 Y89.76 E0.209
G1 Y90.12 E0.011
G1 X77.43 Y85.29 E0.206
G1 Y85.65 E0.011
G1 X72.54 Y90.6 E0.208
G1 Y90.96 E0.011
G1 X77.43 Y86.13 E0.206
G1 Y86.49 E0.011
G1 X72.54 Y91.44 E0.208
G1 Y91.8 E0.011
G1 X77.43 Y87.0 E0.205
G1 Y87.33 E0.01
G1 X72.54 Y92.31 E0.209
G1 Y92.64 E0.01
G1 X77.43 Y87.84 E0.205
G1 Y88.2 E0.011
G1 X72.54 Y93.15 E0.208
G1 Y93.51 E0.011
G1 X77.43 Y88.68 E0.206
G1 Y89.04 E0.011
G1 X72.54 Y93.99 E0.208
G1 Y94.35 E0.011
G1 X77.43 Y89.52 E0.206
G1 Y89.88 E0.011
G1 X72.54 Y94.86 E0.209
G1 Y95.19 E0.01
G1 X77.43 Y90.39 E0.205
G1 Y90.72 E0.01
G1 X72.54 Y95.7 E0.209
G1 Y96.03 E0.01
G1 X77.43 Y91.23 E0.205
G1 Y91.59 E0.011
G1 X72.54 Y96.54 E0.208
G1 Y96.9 E0.011
G1 X77.43 Y92.07 E0.206
G1 Y92.43 E0.011
G1 X72.54 Y97.38 E0.208
G1 X72.87 Y97.41 E0.01
G1 X77.43 Y92.94 E0.191
G1 Y93.27 E0.01
G1 X73.38 Y97.41 E0.173
G1 X73.71 E0.01
G1 X77.43 Y93.78 E0.156
G1 Y94.11 E0.01
G1 X74.22 Y97.41 E0.138
G1 X74.58 E0.011
G1 X77.43 Y94.62 E0.119
G1 Y94.98 E0.011
G1 X75.03 Y97.44 E0.103
G1 X75.39 E0.011
G1 X77.43 Y95.46 E0.085
G1 Y95.82 E0.011
G1 X75.9 Y97.44 E0.067
G1 X76.23 E0.01
G1 X77.43 Y96.33 E0.049
G1 Y96.66 E0.01
G1 X76.74 Y97.44 E0.031
G1 X77.07 E0.01
G1 X77.43 Y97.14 E0.014
G1 F5388.1
G1 E-2.993
G1 F2500.0
;#!LAYER: 2/106
G92 E0
G1 Z0.48 F200.0
G1 X43.89 Y59.91 F15000.0
T0
G1 F5388.1
G1 E2.993
G1 F2500.0
G1 F74.8
G1 E0.062
G1 F2500.0
G1 X43.8 Y60.06 E0.005 F2250.0
G1 X43.86 Y62.13 E0.062
G1 X43.92 Y62.19 E0.003
G1 X54.81 E0.326
G1 X54.78 Y90.87 E0.859
G1 X49.14 Y90.84 E0.169
G1 X49.11 Y76.98 E0.415
G1 X48.99 Y76.86 E0.005
G1 X40.89 E0.242
G1 X40.8 Y77.04 E0.006
G1 X40.77 Y90.87 E0.414
G1 X35.13 Y90.84 E0.169
G1 Y51.18 E1.187
G1 X54.81 Y51.21 E0.589
G1 X54.78 Y59.88 E0.26
G1 X43.89 Y59.91 E0.326
G1 X43.83 Y59.64 E0.008
G1 X43.53 Y59.94 E0.013
G1 X43.56 Y62.19 E0.067
G1 X43.83 Y62.46 E0.011
G1 X54.51 Y62.49 E0.32
G1 X54.48 Y90.57 E0.841
G1 X49.44 E0.151
G1 X49.41 Y76.86 E0.41
G1 X49.14 Y76.59 E0.011
G1 X40.71 Y76.62 E0.252
G1 X40.5 Y77.01 E0.013
G1 X40.47 Y90.57 E0.406
G1 X35.43 Y90.54 E0.151
G1 Y51.48 E1.169
G1 X54.51 Y51.51 E0.571
G1 Y59.58 E0.242
G1 X43.83 Y59.64 E0.32
G1 F5388.1
G1 E-2.993
G1 F2500.0
G1 X43.89 Y59.91
G1 X44.34 Y62.58 F15000.0
G1 F5388.1
G1 E2.993
G1 F2500.0
G1 F74.8
G1 E0.062
G1 F2500.0
G1 X54.42 Y72.66 E0.427
G1 Y72.3 E0.011
G1 X44.79 Y62.58 E0.41
G1 X45.12 E0.01
G1 X54.42 Y71.79 E0.392
G1 Y71.46 E0.01
G1 X45.63 Y62.58 E0.374
G1 X45.96 E0.01
G1 X54.42 Y70.95 E0.356
G1 Y70.59 E0.011
G1 X46.47 Y62.58 E0.338
G1 X46.83 E0.011
G1 X54.42 Y70.11 E0.32
G1 Y69.75 E0.011
G1 X47.31 Y62.58 E0.302
G1 X47.67 E0.011
G1 X54.42 Y69.24 E0.284
G1 Y68.91 E0.01
G1 X48.18 Y62.58 E0.266
G1 X48.51 E0.01
G1 X54.42 Y68.4 E0.248
G1 Y68.07 E0.01
G1 X49.02 Y62.58 E0.231
G1 X49.38 E0.011
G1 X54.42 Y67.56 E0.212
G1 Y67.2 E0.011
G1 X49.86 Y62.58 E0.194
G1 X50.22 E0.011
G1 X54.42 Y66.72 E0.177
G1 Y66.36 E0.011
G1 X50.73 Y62.58 E0.158
G1 X51.06 E0.01
G1 X54.42 Y65.85 E0.14
G1 Y65.52 E0.01
G1 X51.57 Y62.58 E0.123
G1 X51.9 E0.01
G1 X54.42 Y65.01 E0.105
G1 Y64.65 E0.011
G1 X52.41 Y62.58 E0.086
G1 X52.77 E0.011
G1 X54.42 Y64.17 E0.069
G1 Y63.81 E0.011
G1 X53.25 Y62.58 E0.051
G1 X53.61 E0.011
G1 X54.42 Y63.3 E0.032
G1 Y62.97 E0.01
G1 X54.09 Y62.58 E0.015
G1 F5388.1
G1 E-2.993
G1 F2500.0
G1 X54.15 Y51.6 F15000.0
G1 F5388.1
G1 E2.993
G1 F2500.0
G1 F74.8
G1 E0.062
G1 F2500.0
G1 X54.42 Y51.93 E0.013
G1 Y52.29 E0.011
G1 X53.67 Y51.6 E0.031
G1 X53.31 E0.011
G1 X54.42 Y52.77 E0.048
G1 Y53.13 E0.011
G1 X52.8 Y51.6 E0.067
G1 X52.47 E0.01
G1 X54.42 Y53.64 E0.084
G1 Y53.97 E0.01
G1 X51.96 Y51.6 E0.102
G1 X51.6 E0.011
G1 X54.42 Y54.48 E0.121
G1 Y54.84 E0.011
G1 X51.12 Y51.6 E0.138
G1 X50.76 E0.011
G1 X54.42 Y55.32 E0.156
G1 Y55.68 E0.011
G1 X50.28 Y51.6 E0.174
G1 X49.92 E0.011
G1 X54.42 Y56.19 E0.192
G1 Y56.52 E0.01
G1 X49.41 Y51.6 E0.21
G1 X49.08 E0.01
G1 X54.42 Y57.03 E0.228
G1 Y57.36 E0.01
G1 X48.57 Y51.6 E0.246
G1 X48.21 E0.011
G1 X54.42 Y57.87 E0.264
G1 Y58.23 E0.011
G1 X47.73 Y51.6 E0.282
G1 X47.37 E0.011
G1 X54.42 Y58.71 E0.3
G1 Y59.07 E0.011
G1 X46.86 Y51.6 E0.318
G1 X46.53 E0.01
G1 X54.3 Y59.46 E0.331
G1 X53.97 E0.01
G1 X46.02 Y51.6 E0.335
G1 X45.69 E0.01
G1 X53.46 Y59.46 E0.331
G1 X53.1 E0.011
G1 X45.18 Y51.6 E0.334
G1 X44.79 Y51.57 E0.012
G1 X52.62 Y59.46 E0.333
G1 X52.26 E0.011
G1 X44.31 Y51.57 E0.335
G1 X43.95 E0.011
G1 X51.75 Y59.46 E0.332
G1 X51.42 E0.01
G1 X43.44 Y51.57 E0.336
G1 X43.11 E0.01
G1 X50.91 Y59.46 E0.332
G1 X50.58 E0.01
G1 X42.6 Y51.57 E0.336
G1 X42.24 E0.011
G1 X50.07 Y59.46 E0.333
G1 X49.71 E0.011
G1 X41.76 Y51.57 E0.335
G1 X41.4 E0.011
G1 X49.26 Y59.49 E0.334
G1 X48.9 E0.011
G1 X40.89 Y51.57 E0.337
G1 X40.56 E0.01
G1 X48.39 Y59.49 E0.333
G1 X48.06 E0.01
G1 X40.05 Y51.57 E0.337
G1 X39.72 E0.01
G1 X47.55 Y59.49 E0.333
G1 X47.19 E0.011
G1 X39.21 Y51.57 E0.337
G1 X38.85 E0.011
G1 X46.71 Y59.49 E0.334
G1 X46.35 E0.011
G1 X38.37 Y51.57 E0.337
G1 X38.01 E0.011
G1 X45.84 Y59.49 E0.333
G1 X45.51 E0.01
G1 X37.5 Y51.57 E0.337
G1 X37.17 E0.01
G1 X45.0 Y59.49 E0.333
G1 X44.67 E0.01
G1 X36.66 Y51.57 E0.337
G1 X36.3 E0.011
G1 X44.16 Y59.49 E0.334
G1 X43.83 Y59.52 E0.01
G1 X35.82 Y51.57 E0.338
G1 X35.55 Y51.6 E0.008
G1 X43.56 Y59.7 E0.341
G1 X43.44 Y59.97 E0.009
G1 X35.55 Y52.17 E0.332
G1 Y52.5 E0.01
G1 X43.41 Y60.45 E0.335
G1 Y60.78 E0.01
G1 X35.55 Y53.01 E0.331
G1 Y53.34 E0.01
G1 X43.41 Y61.29 E0.335
G1 Y61.65 E0.011
G1 X35.55 Y53.85 E0.331
G1 Y54.21 E0.011
G1 X43.44 Y62.16 E0.335
G1 X43.71 Y62.52 E0.013
G1 X43.89 Y62.58 E0.006
G1 X54.42 Y73.14 E0.446
G1 Y73.5 E0.011
G1 X35.55 Y54.69 E0.798
G1 Y55.05 E0.011
G1 X54.42 Y74.01 E0.801
G1 Y74.34 E0.01
G1 X35.55 Y55.56 E0.797
G1 Y55.89 E0.01
G1 X54.42 Y74.85 E0.801
G1 Y75.18 E0.01
G1 X35.55 Y56.4 E0.797
G1 Y56.76 E0.011
G1 X54.42 Y75.69 E0.8
G1 Y76.05 E0.011
G1 X35.55 Y57.24 E0.798
G1 Y57.6 E0.011
G1 X54.42 Y76.53 E0.8
G1 Y76.89 E0.011
G1 X35.55 Y58.11 E0.797
G1 Y58.44 E0.01
G1 X54.42 Y77.4 E0.801
G1 Y77.73 E0.01
G1 X35.55 Y58.95 E0.797
G1 Y59.28 E0.01
G1 X54.42 Y78.24 E0.801
G1 Y78.6 E0.011
G1 X35.55 Y59.79 E0.798
G1 Y60.15 E0.011
G1 X54.42 Y79.08 E0.8
G1 Y79.44 E0.011
G1 X35.55 Y60.63 E0.798
G1 Y60.99 E0.011
G1 X54.42 Y79.95 E0.801
G1 Y80.28 E0.01
G1 X35.55 Y61.5 E0.797
G1 Y61.83 E0.01
G1 X54.42 Y80.79 E0.801
G1 Y81.12 E0.01
G1 X35.55 Y62.34 E0.797
G1 Y62.7 E0.011
G1 X54.42 Y81.63 E0.8
G1 Y81.99 E0.011
G1 X49.56 Y77.19 E0.204
G1 Y77.55 E0.011
G1 X54.42 Y82.47 E0.207
G1 Y82.83 E0.011
G1 X49.56 Y78.06 E0.204
G1 Y78.39 E0.01
G1 X54.42 Y83.34 E0.208
G1 Y83.67 E0.01
G1 X49.56 Y78.9 E0.204
G1 Y79.23 E0.01
G1 X54.42 Y84.18 E0.208
G1 Y84.54 E0.011
G1 X49.56 Y79.74 E0.204
G1 Y80.1 E0.011
G1 X54.42 Y85.02 E0.207
G1 Y85.38 E0.011
G1 X49.56 Y80.58 E0.204
G1 Y80.94 E0.011
G1 X54.42 Y85.89 E0.208
G1 Y86.22 E0.01
G1 X49.56 Y81.45 E0.204
G1 Y81.78 E0.01
G1 X54.42 Y86.73 E0.208
G1 Y87.06 E0.01
G1 X49.56 Y82.29 E0.204
G1 Y82.65 E0.011
G1 X54.42 Y87.57 E0.207
G1 Y87.93 E0.011
G1 X49.56 Y83.13 E0.204
G1 Y83.49 E0.011
G1 X54.42 Y88.41 E0.207
G1 Y88.77 E0.011
G1 X49.56 Y84.0 E0.204
G1 Y84.33 E0.01
G1 X54.42 Y89.28 E0.208
G1 Y89.61 E0.01
G1 X49.56 Y84.84 E0.204
G1 Y85.17 E0.01
G1 X54.42 Y90.12 E0.208
G1 X54.39 Y90.45 E0.01
G1 X49.56 Y85.68 E0.203
G1 Y86.04 E0.011
G1 X53.91 Y90.45 E0.185
G1 X53.55 E0.011
G1 X49.56 Y86.52 E0.168
G1 Y86.88 E0.011
G1 X53.04 Y90.45 E0.149
G1 X52.71 E0.01
G1 X49.56 Y87.39 E0.131
G1 Y87.72 E0.01
G1 X52.2 Y90.45 E0.114
G1 X51.87 E0.01
G1 X49.56 Y88.23 E0.096
G1 Y88.59 E0.011
G1 X51.36 Y90.45 E0.077
G1 X51.0 E0.011
G1 X49.56 Y89.07 E0.06
G1 Y89.43 E0.011
G1 X50.52 Y90.45 E0.042
G1 X50.16 E0.011
G1 X49.56 Y89.91 E0.024
G1 Y90.27 E0.011
G1 X49.71 Y90.45 E0.007
G1 F5388.1
G1 E-2.993
G1 F2500.0
G1 X35.7 Y90.42 F15000.0
G1 F5388.1
G1 E2.993
G1 F2500.0
G1 F74.8
G1 E0.062
G1 F2500.0
G1 X35.55 Y90.27 E0.006
G1 Y89.91 E0.011
G1 X36.12 Y90.42 E0.023
G1 X36.48 E0.011
G1 X35.55 Y89.43 E0.041
G1 Y89.07 E0.011
G1 X36.99 Y90.42 E0.059
G1 X37.32 E0.01
G1 X35.55 Y88.56 E0.077
G1 Y88.23 E0.01
G1 X37.83 Y90.42 E0.095
G1 X38.22 Y90.45 E0.012
G1 X35.55 Y87.72 E0.114
G1 Y87.36 E0.011
G1 X38.7 Y90.45 E0.132
G1 X39.06 E0.011
G1 X35.55 Y86.88 E0.15
G1 Y86.52 E0.011
G1 X39.54 Y90.45 E0.168
G1 X39.9 E0.011
G1 X35.55 Y86.01 E0.186
G1 Y85.68 E0.01
G1 X40.41 Y90.45 E0.204
G1 Y90.12 E0.01
G1 X35.55 Y85.17 E0.208
G1 Y84.81 E0.011
G1 X40.41 Y89.61 E0.204
G1 Y89.25 E0.011
G1 X35.55 Y84.33 E0.207
G1 Y83.97 E0.011
G1 X40.41 Y88.77 E0.204
G1 Y88.41 E0.011
G1 X35.55 Y83.49 E0.207
G1 Y83.13 E0.011
G1 X40.41 Y87.9 E0.204
G1 Y87.57 E0.01
G1 X35.55 Y82.62 E0.208
G1 Y82.29 E0.01
G1 X40.41 Y87.06 E0.204
G1 Y86.7 E0.011
G1 X35.55 Y81.78 E0.207
G1 Y81.42 E0.011
G1 X40.41 Y86.22 E0.204
G1 Y85.86 E0.011
G1 X35.55 Y80.94 E0.207
G1 Y80.58 E0.011
G1 X40.41 Y85.38 E0.204
G1 Y85.02 E0.011
G1 X35.55 Y80.07 E0.208
G1 Y79.74 E0.01
G1 X40.41 Y84.51 E0.204
G1 Y84.18 E0.01
G1 X35.55 Y79.23 E0.208
G1 Y78.87 E0.011
G1 X40.41 Y83.67 E0.204
G1 Y83.31 E0.011
G1 X35.55 Y78.39 E0.207
G1 Y78.03 E0.011
G1 X40.41 Y82.83 E0.204
G1 Y82.47 E0.011
G1 X35.55 Y77.55 E0.207
G1 Y77.19 E0.011
G1 X40.41 Y81.96 E0.204
G1 Y81.63 E0.01
G1 X35.55 Y76.68 E0.208
G1 Y76.35 E0.01
G1 X40.41 Y81.12 E0.204
G1 Y80.79 E0.01
G1 X35.55 Y75.84 E0.208
G1 Y75.48 E0.011
G1 X40.41 Y80.28 E0.204
G1 Y79.92 E0.011
G1 X35.55 Y75.0 E0.207
G1 Y74.64 E0.011
G1 X40.41 Y79.44 E0.204
G1 Y79.08 E0.011
G1 X35.55 Y74.13 E0.208
G1 Y73.8 E0.01
G1 X40.41 Y78.57 E0.204
G1 Y78.24 E0.01
G1 X35.55 Y73.29 E0.208
G1 Y72.96 E0.01
G1 X40.41 Y77.73 E0.204
G1 Y77.37 E0.011
G1 X35.55 Y72.45 E0.207
G1 Y72.09 E0.011
G1 X40.44 Y76.92 E0.206
G1 X40.56 Y76.65 E0.009
G1 X35.55 Y71.61 E0.213
G1 Y71.25 E0.011
G1 X40.86 Y76.44 E0.222
G1 X41.16 E0.009
G1 X35.55 Y70.74 E0.239
G1 Y70.41 E0.01
G1 X41.67 Y76.44 E0.257
G1 X42.0 E0.01
G1 X35.55 Y69.9 E0.275
G1 Y69.54 E0.011
G1 X42.51 Y76.44 E0.293
G1 X42.87 E0.011
G1 X35.55 Y69.06 E0.311
G1 Y68.7 E0.011
G1 X43.35 Y76.44 E0.329
G1 X43.71 E0.011
G1 X35.55 Y68.19 E0.347
G1 Y67.86 E0.01
G1 X44.22 Y76.44 E0.365
G1 X44.55 E0.01
G1 X35.55 Y67.35 E0.383
G1 Y67.02 E0.01
G1 X45.06 Y76.44 E0.401
G1 X45.42 E0.011
G1 X35.55 Y66.51 E0.419
G1 Y66.15 E0.011
G1 X45.9 Y76.44 E0.437
G1 X46.26 E0.011
G1 X35.55 Y65.67 E0.455
G1 Y65.31 E0.011
G1 X46.77 Y76.44 E0.473
G1 X47.1 E0.01
G1 X35.55 Y64.8 E0.491
G1 Y64.47 E0.01
G1 X47.61 Y76.44 E0.509
G1 X47.94 E0.01
G1 X35.55 Y63.96 E0.526
G1 Y63.6 E0.011
G1 X48.45 Y76.44 E0.545
G1 X48.81 E0.011
G1 X35.55 Y63.12 E0.563
G1 F5388.1
G1 E-2.993
G1 F2500.0
G1 X77.91 Y82.89 F15000.0
G1 F5388.1
G1 E2.993
G1 F2500.0
G1 F74.8
G1 E0.062
G1 F2500.0
G1 X77.82 Y83.04 E0.005 F2250.0
G1 Y97.86 E0.444
G1 X72.12 Y97.83 E0.171
G1 X72.09 Y82.98 E0.445
G1 X72.03 Y82.86 E0.004
G1 X65.13 Y82.83 E0.207
G1 Y48.18 E1.037
G1 X84.81 Y48.24 E0.589
G1 Y82.86 E1.036
G1 X77.91 Y82.89 E0.207
G1 X77.79 Y82.65 E0.008
G1 X77.58 Y82.86 E0.009
G1 X77.52 Y83.04 E0.006
G1 Y97.56 E0.435
G1 X72.42 Y97.5 E0.153
G1 X72.39 Y82.98 E0.435
G1 X72.21 Y82.65 E0.011
G1 X72.06 Y82.56 E0.005
G1 X65.43 E0.198
G1 Y48.48 E1.02
G1 X84.51 Y48.54 E0.571
G1 X84.48 Y82.56 E1.018
G1 X77.79 Y82.65 E0.2
G1 F5388.1
G1 E-2.993
G1 F2500.0
G1 X77.91 Y82.89
G1 X79.53 Y79.68 F15000.0
G1 F5388.1
G1 E2.993
G1 F2500.0
G1 F74.8
G1 E0.062
G1 F2500.0
G1 X79.59 Y79.47 E0.007 F2250.0
G1 X79.56 Y72.48 E0.209
G1 X79.5 Y72.36 E0.004
G1 X76.14 Y72.3 E0.101
G1 X76.17 Y69.84 E0.074
G1 X79.53 E0.101
G1 X79.59 Y69.66 E0.006
G1 X79.56 Y66.33 E0.1
G1 X79.44 Y66.21 E0.005
G1 X70.41 E0.27
G1 X70.32 Y66.36 E0.005
G1 X70.38 Y69.75 E0.101
G1 X70.47 Y69.84 E0.004
G1 X73.8 Y69.87 E0.1
G1 X73.77 Y72.36 E0.075
G1 X70.35 Y72.42 E0.102
G1 X70.38 Y79.62 E0.216
G1 X70.47 Y79.68 E0.003
G1 X79.53 E0.271
G1 X79.59 Y79.95 E0.008
G1 X79.89 Y79.65 E0.013
G1 X79.86 Y72.36 E0.218
G1 X79.59 Y72.09 E0.011
G1 X76.44 Y72.03 E0.094
G1 X76.47 Y70.14 E0.057
G1 X79.71 Y70.08 E0.097
G1 X79.89 Y69.81 E0.01
G1 X79.83 Y66.18 E0.109
G1 X79.62 Y65.94 E0.01
G1 X70.32 E0.278
G1 X70.08 Y66.18 E0.01
G1 Y69.84 E0.11
G1 X70.35 Y70.11 E0.011
G1 X73.5 Y70.14 E0.094
G1 Y72.06 E0.057
G1 X70.23 Y72.12 E0.098
G1 X70.05 Y72.39 E0.01
G1 X70.08 Y79.56 E0.215
G1 X70.26 Y79.89 E0.011
G1 X70.41 Y79.98 E0.005
G1 X79.59 Y79.95 E0.275
G1 F5388.1
G1 E-2.993
G1 F2500.0
G1 X79.53 Y79.68
G1 X79.95 Y72.3 F15000.0
G1 F5388.1
G1 E2.993
G1 F2500.0
G1 F74.8
G1 E0.062
G1 F2500.0
G1 X84.42 Y76.83 E0.191
G1 Y77.19 E0.011
G1 X80.01 Y72.87 E0.185
G1 Y73.2 E0.01
G1 X84.42 Y77.7 E0.189
G1 Y78.03 E0.01
G1 X80.01 Y73.71 E0.185
G1 Y74.07 E0.011
G1 X84.42 Y78.54 E0.188
G1 Y78.9 E0.011
G1 X80.01 Y74.55 E0.185
G1 Y74.91 E0.011
G1 X84.42 Y79.38 E0.188
G1 Y79.74 E0.011
G1 X80.01 Y75.39 E0.185
G1 Y75.75 E0.011
G1 X84.42 Y80.25 E0.189
G1 Y80.58 E0.01
G1 X80.01 Y76.26 E0.185
G1 Y76.59 E0.01
G1 X84.42 Y81.09 E0.189
G1 Y81.45 E0.011
G1 X80.01 Y77.1 E0.185
G1 Y77.46 E0.011
G1 X84.42 Y81.93 E0.188
G1 Y82.29 E0.011
G1 X80.01 Y77.94 E0.185
G1 Y78.3 E0.011
G1 X84.09 Y82.44 E0.174
G1 X83.73 E0.011
G1 X80.01 Y78.81 E0.156
G1 Y79.14 E0.01
G1 X83.22 Y82.44 E0.138
G1 X82.89 E0.01
G1 X80.01 Y79.65 E0.12
G1 X79.89 Y79.86 E0.007
G1 X82.38 Y82.44 E0.107
G1 X82.02 E0.011
G1 X79.62 Y80.04 E0.102
G1 X79.23 Y80.07 E0.012
G1 X81.54 Y82.44 E0.099
G1 X81.21 Y82.47 E0.01
G1 X78.75 Y80.07 E0.103
G1 X78.39 E0.011
G1 X80.7 Y82.47 E0.1
G1 X80.37 E0.01
G1 X77.88 Y80.07 E0.104
G1 X77.55 E0.01
G1 X79.86 Y82.47 E0.1
G1 X79.53 E0.01
G1 X77.04 Y80.07 E0.104
G1 X76.68 E0.011
G1 X79.02 Y82.47 E0.1
G1 X78.66 E0.011
G1 X76.2 Y80.07 E0.103
G1 X75.84 E0.011
G1 X78.18 Y82.47 E0.1
G1 X77.85 Y82.5 E0.01
G1 X75.33 Y80.07 E0.105
G1 X75.0 E0.01
G1 X77.55 Y82.71 E0.11
G1 X77.46 Y82.95 E0.008
G1 X74.49 Y80.07 E0.124
G1 X74.16 E0.01
G1 X77.43 Y83.43 E0.14
G1 Y83.79 E0.011
G1 X73.65 Y80.07 E0.159
G1 X73.29 E0.011
G1 X77.43 Y84.27 E0.177
G1 Y84.63 E0.011
G1 X72.81 Y80.07 E0.194
G1 X72.45 E0.011
G1 X77.43 Y85.14 E0.213
G1 Y85.47 E0.01
G1 X71.94 Y80.07 E0.231
G1 X71.61 E0.01
G1 X77.43 Y85.98 E0.248
G1 Y86.31 E0.01
G1 X71.1 Y80.07 E0.266
G1 X70.74 E0.011
G1 X77.43 Y86.82 E0.284
G1 Y87.18 E0.011
G1 X65.55 Y75.36 E0.502
G1 Y75.72 E0.011
G1 X77.43 Y87.66 E0.504
G1 Y88.02 E0.011
G1 X72.54 Y83.22 E0.205
G1 Y83.55 E0.01
G1 X77.43 Y88.53 E0.209
G1 Y88.86 E0.01
G1 X72.54 Y84.06 E0.205
G1 Y84.39 E0.01
G1 X77.43 Y89.37 E0.209
G1 Y89.73 E0.011
G1 X72.54 Y84.9 E0.206
G1 Y85.26 E0.011
G1 X77.43 Y90.21 E0.208
G1 Y90.57 E0.011
G1 X72.54 Y85.74 E0.206
G1 Y86.1 E0.011
G1 X77.43 Y91.08 E0.209
G1 Y91.41 E0.01
G1 X72.54 Y86.61 E0.205
G1 Y86.94 E0.01
G1 X77.43 Y91.92 E0.209
G1 Y92.25 E0.01
G1 X72.54 Y87.45 E0.205
G1 Y87.81 E0.011
G1 X77.43 Y92.76 E0.208
G1 Y93.12 E0.011
G1 X72.54 Y88.29 E0.206
G1 Y88.65 E0.011
G1 X77.43 Y93.6 E0.208
G1 Y93.96 E0.011
G1 X72.54 Y89.16 E0.205
G1 Y89.49 E0.01
G1 X77.43 Y94.47 E0.209
G1 Y94.8 E0.01
G1 X72.54 Y90.0 E0.205
G1 Y90.33 E0.01
G1 X77.43 Y95.31 E0.209
G1 Y95.67 E0.011
G1 X72.54 Y90.84 E0.206
G1 Y91.2 E0.011
G1 X77.43 Y96.15 E0.208
G1 Y96.51 E0.011
G1 X72.54 Y91.68 E0.206
G1 Y92.04 E0.011
G1 X77.43 Y97.02 E0.209
G1 Y97.35 E0.01
G1 X72.54 Y92.55 E0.205
G1 Y92.88 E0.01
G1 X77.01 Y97.44 E0.191
G1 X76.68 E0.01
G1 X72.54 Y93.39 E0.173
G1 Y93.75 E0.011
G1 X76.17 Y97.44 E0.155
G1 X75.81 E0.011
G1 X72.54 Y94.23 E0.137
G1 Y94.59 E0.011
G1 X75.33 Y97.44 E0.119
G1 X74.94 Y97.41 E0.012
G1 X72.54 Y95.1 E0.1
G1 Y95.43 E0.01
G1 X74.43 Y97.41 E0.082
G1 X74.1 E0.01
G1 X72.54 Y95.94 E0.064
G1 Y96.27 E0.01
G1 X73.59 Y97.41 E0.046
G1 X73.23 E0.011
G1 X72.54 Y96.78 E0.028
G1 Y97.14 E0.011
G1 X72.81 Y97.41 E0.011
G1 F5388.1
G1 E-2.993
G1 F2500.0
G1 X65.88 Y82.44 F15000.0
G1 F5388.1
G1 E2.993
G1 F2500.0
G1 F74.8
G1 E0.062
G1 F2500.0
G1 X65.55 Y82.08 E0.015
G1 Y81.72 E0.011
G1 X66.33 Y82.44 E0.032
G1 X66.69 E0.011
G1 X65.55 Y81.24 E0.05
G1 Y80.88 E0.011
G1 X67.17 Y82.44 E0.067
G1 X67.53 E0.011
G1 X65.55 Y80.37 E0.086
G1 Y80.04 E0.01
G1 X68.04 Y82.44 E0.104
G1 X68.37 E0.01
G1 X65.55 Y79.53 E0.121
G1 Y79.2 E0.01
G1 X68.88 Y82.44 E0.139
G1 X69.24 E0.011
G1 X65.55 Y78.69 E0.157
G1 Y78.33 E0.011
G1 X69.72 Y82.44 E0.175
G1 X70.08 E0.011
G1 X65.55 Y77.85 E0.193
G1 Y77.49 E0.011
G1 X70.59 Y82.44 E0.211
G1 X70.92 E0.01
G1 X65.55 Y76.98 E0.229
G1 Y76.65 E0.01
G1 X71.43 Y82.44 E0.247
G1 X71.76 E0.01
G1 X65.55 Y76.17 E0.264
G1 F5388.1
G1 E-2.993
G1 F2500.0
G1 Y74.88 F15000.0
G1 F5388.1
G1 E2.993
G1 F2500.0
G1 F74.8
G1 E0.062
G1 F2500.0
G1 X69.96 Y79.29 E0.187
G1 Y78.93 E0.011
G1 X65.55 Y74.43 E0.189
G1 Y74.1 E0.01
G1 X69.96 Y78.42 E0.185
G1 Y78.09 E0.01
G1 X65.55 Y73.59 E0.189
G1 Y73.26 E0.01
G1 X69.96 Y77.58 E0.185
G1 Y77.22 E0.011
G1 X65.55 Y72.75 E0.188
G1 Y72.39 E0.011
G1 X69.96 Y76.74 E0.185
G1 Y76.38 E0.011
G1 X65.55 Y71.91 E0.188
G1 Y71.55 E0.011
G1 X69.96 Y75.87 E0.185
G1 Y75.54 E0.01
G1 X65.55 Y71.04 E0.189
G1 Y70.71 E0.01
G1 X69.96 Y75.03 E0.185
G1 Y74.7 E0.01
G1 X65.55 Y70.2 E0.189
G1 Y69.84 E0.011
G1 X69.96 Y74.19 E0.185
G1 Y73.83 E0.011
G1 X65.55 Y69.36 E0.188
G1 Y69.0 E0.011
G1 X69.96 Y73.35 E0.185
G1 Y72.99 E0.011
G1 X65.55 Y68.52 E0.188
G1 F5388.1
G1 E-2.993
G1 F2500.0
G1 X69.93 Y72.48 F15000.0
G1 F5388.1
G1 E2.993
G1 F2500.0
G1 F74.8
G1 E0.062
G1 F2500.0
G1 X65.55 Y68.07 E0.186
G1 Y67.74 E0.01
G1 X70.08 Y72.15 E0.189
G1 X70.23 Y72.0 E0.006
G1 X65.55 Y67.23 E0.2
G1 Y66.87 E0.011
G1 X70.68 Y71.94 E0.216
G1 X71.04 E0.011
G1 X65.55 Y66.39 E0.234
G1 Y66.03 E0.011
G1 X71.52 Y71.94 E0.251
G1 X71.88 E0.011
G1 X65.55 Y65.55 E0.269
G1 Y65.19 E0.011
G1 X69.96 Y69.51 E0.185
G1 Y69.18 E0.01
G1 X65.55 Y64.68 E0.189
G1 Y64.35 E0.01
G1 X69.96 Y68.67 E0.185
G1 Y68.31 E0.011
G1 X65.55 Y63.84 E0.188
G1 Y63.48 E0.011
G1 X69.96 Y67.83 E0.185
G1 Y67.47 E0.011
G1 X65.55 Y63.0 E0.188
G1 Y62.64 E0.011
G1 X69.96 Y66.99 E0.185
G1 Y66.63 E0.011
G1 X65.55 Y62.13 E0.189
G1 Y61.8 E0.01
G1 X69.99 Y66.15 E0.186
G1 X70.14 Y65.94 E0.008
G1 X65.55 Y61.29 E0.196
G1 Y60.93 E0.011
G1 X70.47 Y65.79 E0.207
G1 X70.83 E0.011
G1 X65.55 Y60.45 E0.225
G1 Y60.09 E0.011
G1 X71.31 Y65.79 E0.243
G1 X71.67 E0.011
G1 X65.55 Y59.61 E0.26
G1 Y59.25 E0.011
G1 X72.18 Y65.79 E0.279
G1 X72.51 E0.01
G1 X65.55 Y58.74 E0.297
G1 Y58.41 E0.01
G1 X73.02 Y65.79 E0.314
G1 X73.38 E0.011
G1 X65.55 Y57.9 E0.333
G1 Y57.54 E0.011
G1 X73.86 Y65.79 E0.351
G1 X74.22 E0.011
G1 X65.55 Y57.06 E0.368
G1 Y56.7 E0.011
G1 X74.7 Y65.79 E0.386
G1 X75.06 E0.011
G1 X65.55 Y56.19 E0.404
G1 Y55.86 E0.01
G1 X75.57 Y65.79 E0.422
G1 X75.9 E0.01
G1 X65.55 Y55.35 E0.44
G1 Y54.99 E0.011
G1 X76.41 Y65.79 E0.458
G1 X76.77 E0.011
G1 X65.55 Y54.51 E0.476
G1 Y54.15 E0.011
G1 X77.25 Y65.79 E0.494
G1 X77.61 E0.011
G1 X65.55 Y53.67 E0.512
G1 Y53.31 E0.011
G1 X78.12 Y65.79 E0.53
G1 X78.45 E0.01
G1 X65.55 Y52.8 E0.548
G1 Y52.47 E0.01
G1 X78.96 Y65.79 E0.566
G1 X79.32 E0.011
G1 X65.55 Y51.96 E0.584
G1 Y51.6 E0.011
G1 X84.42 Y70.41 E0.798
G1 Y70.05 E0.011
G1 X65.55 Y51.12 E0.8
G1 Y50.76 E0.011
G1 X84.42 Y69.57 E0.798
G1 Y69.21 E0.011
G1 X65.55 Y50.25 E0.801
G1 Y49.92 E0.01
G1 X84.42 Y68.7 E0.797
G1 Y68.37 E0.01
G1 X65.55 Y49.41 E0.801
G1 Y49.05 E0.011
G1 X84.42 Y67.86 E0.798
G1 Y67.5 E0.011
G1 X65.55 Y48.57 E0.8
G1 X65.91 E0.011
G1 X84.42 Y67.02 E0.782
G1 Y66.66 E0.011
G1 X66.39 Y48.57 E0.765
G1 X66.75 E0.011
G1 X84.42 Y66.15 E0.746
G1 Y65.82 E0.01
G1 X67.26 Y48.57 E0.728
G1 X67.59 E0.01
G1 X84.42 Y65.31 E0.711
G1 Y64.95 E0.011
G1 X68.1 Y48.57 E0.692
G1 X68.46 E0.011
G1 X84.42 Y64.47 E0.674
G1 Y64.11 E0.011
G1 X68.94 Y48.57 E0.657
G1 X69.3 E0.011
G1 X84.42 Y63.63 E0.639
G1 Y63.27 E0.011
G1 X69.81 Y48.57 E0.62
G1 X70.14 E0.01
G1 X84.42 Y62.76 E0.603
G1 Y62.43 E0.01
G1 X70.65 Y48.57 E0.585
G1 X71.01 E0.011
G1 X84.42 Y61.92 E0.566
G1 Y61.56 E0.011
G1 X71.49 Y48.57 E0.549
G1 X71.85 E0.011
G1 X84.42 Y61.08 E0.531
G1 Y60.72 E0.011
G1 X72.33 Y48.57 E0.513
G1 X72.69 E0.011
G1 X84.42 Y60.21 E0.495
G1 Y59.88 E0.01
G1 X73.2 Y48.57 E0.477
G1 X73.53 E0.01
G1 X84.42 Y59.37 E0.459
G1 Y59.01 E0.011
G1 X74.04 Y48.57 E0.441
G1 X74.4 E0.011
G1 X84.42 Y58.53 E0.423
G1 Y58.17 E0.011
G1 X74.88 Y48.57 E0.405
G1 X75.27 Y48.6 E0.012
G1 X84.42 Y57.69 E0.386
G1 Y57.33 E0.011
G1 X75.78 Y48.6 E0.368
G1 X76.11 E0.01
G1 X84.42 Y56.82 E0.35
G1 Y56.49 E0.01
G1 X76.62 Y48.6 E0.332
G1 X76.98 E0.011
G1 X84.42 Y55.98 E0.314
G1 Y55.62 E0.011
G1 X77.46 Y48.6 E0.296
G1 X77.82 E0.011
G1 X84.42 Y55.14 E0.278
G1 Y54.78 E0.011
G1 X78.3 Y48.6 E0.26
G1 X78.66 E0.011
G1 X84.42 Y54.27 E0.242
G1 Y53.94 E0.01
G1 X79.17 Y48.6 E0.224
G1 X79.5 E0.01
G1 X84.42 Y53.43 E0.206
G1 Y53.07 E0.011
G1 X80.01 Y48.6 E0.188
G1 X80.37 E0.011
G1 X84.42 Y52.59 E0.17
G1 Y52.23 E0.011
G1 X80.85 Y48.6 E0.152
G1 X81.21 E0.011
G1 X84.42 Y51.75 E0.135
G1 Y51.39 E0.011
G1 X81.72 Y48.6 E0.116
G1 X82.05 E0.01
G1 X84.42 Y50.88 E0.098
G1 Y50.55 E0.01
G1 X82.56 Y48.6 E0.081
G1 X82.92 E0.011
G1 X84.42 Y50.04 E0.062
G1 Y49.68 E0.011
G1 X83.4 Y48.6 E0.044
G1 X83.76 E0.011
G1 X84.42 Y49.2 E0.027
G1 Y48.84 E0.011
G1 X84.24 Y48.6 E0.009
G1 F5388.1
G1 E-2.993
G1 F2500.0
G1 X80.01 Y66.42 F15000.0
G1 F5388.1
G1 E2.993
G1 F2500.0
G1 F74.8
G1 E0.062
G1 F2500.0
G1 X84.42 Y70.89 E0.188
G1 Y71.25 E0.011
G1 X80.01 Y66.93 E0.185
G1 Y67.26 E0.01
G1 X84.42 Y71.76 E0.189
G1 Y72.09 E0.01
G1 X80.01 Y67.77 E0.185
G1 Y68.13 E0.011
G1 X84.42 Y72.6 E0.188
G1 Y72.96 E0.011
G1 X80.01 Y68.61 E0.185
G1 Y68.97 E0.011
G1 X84.42 Y73.44 E0.188
G1 Y73.8 E0.011
G1 X80.01 Y69.45 E0.185
G1 Y69.81 E0.011
G1 X84.42 Y74.31 E0.189
G1 Y74.64 E0.01
G1 X79.8 Y70.11 E0.194
G1 X79.59 Y70.23 E0.007
G1 X84.42 Y75.15 E0.206
G1 Y75.51 E0.011
G1 X79.08 Y70.23 E0.225
G1 X78.72 E0.011
G1 X84.42 Y75.99 E0.243
G1 Y76.35 E0.011
G1 X78.24 Y70.23 E0.26
G1 X77.88 E0.011
G1 X79.53 Y71.94 E0.071
G1 X79.17 E0.011
G1 X77.37 Y70.23 E0.074
G1 X77.04 E0.01
G1 X78.66 Y71.94 E0.071
G1 X78.33 E0.01
G1 X76.59 Y70.23 E0.073
G1 X76.56 Y70.62 E0.012
G1 X77.82 Y71.94 E0.055
G1 X77.43 Y71.91 E0.012
G1 X76.56 Y71.1 E0.036
G1 Y71.46 E0.011
G1 X76.98 Y71.91 E0.018
G1 X76.56 Y71.88 E0.013
G1 F5388.1
G1 E-2.993
G1 F2500.0
G1 X73.2 Y70.23 F15000.0
G1 F5388.1
G1 E2.993
G1 F2500.0
G1 F74.8
G1 E0.062
G1 F2500.0
G1 X73.41 Y70.5 E0.01
G1 Y70.86 E0.011
G1 X72.72 Y70.23 E0.028
G1 X72.36 E0.011
G1 X73.41 Y71.34 E0.046
G1 Y71.7 E0.011
G1 X71.88 Y70.23 E0.064
G1 X71.52 E0.011
G1 X73.14 Y71.94 E0.071
G1 X72.81 E0.01
G1 X71.01 Y70.23 E0.074
G1 X70.68 E0.01
G1 X72.36 Y71.94 E0.072
G1 F5388.1
G1 E-2.993
G1 F2500.0
;#!LAYER: 3/106
G92 E0
G1 Z0.72 F200.0
G1 X43.89 Y59.91 F15000.0
T0
G1 F5388.1
G1 E2.993
G1 F2500.0
G1 F74.8
G1 E0.062
G1 F2500.0
G1 X43.8 Y60.06 E0.005 F2250.0
G1 X43.86 Y62.13 E0.062
G1 X43.92 Y62.19 E0.003
G1 X54.81 E0.326
G1 X54.78 Y90.87 E0.859
G1 X49.14 Y90.84 E0.169
G1 X49.11 Y76.98 E0.415
G1 X48.99 Y76.86 E0.005
G1 X40.89 E0.242
G1 X40.8 Y77.04 E0.006
G1 X40.77 Y90.87 E0.414
G1 X35.13 Y90.84 E0.169
G1 Y51.18 E1.187
G1 X54.81 Y51.21 E0.589
G1 X54.78 Y59.88 E0.26
G1 X43.89 Y59.91 E0.326
G1 X43.83 Y59.64 E0.008
G1 X43.53 Y59.94 E0.013
G1 X43.56 Y62.19 E0.067
G1 X43.83 Y62.46 E0.011
G1 X54.51 Y62.49 E0.32
G1 X54.48 Y90.57 E0.841
G1 X49.44 E0.151
G1 X49.41 Y76.86 E0.41
G1 X49.14 Y76.59 E0.011
G1 X40.71 Y76.62 E0.252
G1 X40.5 Y77.01 E0.013
G1 X40.47 Y90.57 E0.406
G1 X35.43 Y90.54 E0.151
G1 Y51.48 E1.169
G1 X54.51 Y51.51 E0.571
G1 Y59.58 E0.242
G1 X43.83 Y59.64 E0.32
G1 F5388.1
G1 E-2.993
G1 F2500.0
G1 X43.89 Y59.91
G1 X44.61 Y59.49 F15000.0
G1 F5388.1
G1 E2.993
G1 F2500.0
G1 F74.8
G1 E0.062
G1 F2500.0
G1 X52.5 Y51.6 E0.334
G1 X53.55 E0.031
G1 X45.75 Y59.49 E0.332
G1 X46.8 E0.031
G1 X54.42 Y51.93 E0.321
G1 Y53.01 E0.032
G1 X48.0 Y59.49 E0.273
G1 X49.05 E0.031
G1 X54.42 Y54.21 E0.225
G1 Y55.26 E0.031
G1 X50.31 Y59.46 E0.176
G1 X51.36 E0.031
G1 X54.42 Y56.46 E0.128
G1 Y57.54 E0.032
G1 X52.56 Y59.46 E0.08
G1 X53.61 E0.031
G1 X54.42 Y58.71 E0.033
G1 F5388.1
G1 E-2.993
G1 F2500.0
G1 X35.55 Y51.57 F15000.0
G1 F5388.1
G1 E2.993
G1 F2500.0
G1 F74.8
G1 E0.062
G1 F2500.0
G1 Y52.65 E0.032
G1 X36.69 Y51.57 E0.047
G1 X37.74 E0.031
G1 X35.55 Y53.85 E0.095
G1 Y54.9 E0.031
G1 X38.94 Y51.57 E0.142
G1 X40.02 E0.032
G1 X35.55 Y56.1 E0.191
G1 Y57.15 E0.031
G1 X41.22 Y51.57 E0.238
G1 X42.27 E0.031
G1 X35.55 Y58.38 E0.286
G1 Y59.43 E0.031
G1 X43.47 Y51.57 E0.334
G1 X44.55 E0.032
G1 X35.55 Y60.63 E0.382
G1 Y61.68 E0.031
G1 X45.72 Y51.6 E0.429
G1 X46.77 E0.031
G1 X35.55 Y62.88 E0.476
G1 Y63.96 E0.032
G1 X47.97 Y51.6 E0.525
G1 X49.02 E0.031
G1 X35.55 Y65.16 E0.572
G1 Y66.21 E0.031
G1 X50.25 Y51.6 E0.62
G1 X51.3 E0.031
G1 X35.55 Y67.41 E0.668
G1 Y68.49 E0.032
G1 X43.41 Y60.69 E0.331
G1 Y61.74 E0.031
G1 X35.55 Y69.69 E0.335
G1 Y70.74 E0.031
G1 X43.8 Y62.55 E0.348
G1 X44.85 Y62.58 E0.031
G1 X35.55 Y71.94 E0.395
G1 Y72.99 E0.031
G1 X46.05 Y62.58 E0.443
G1 X47.1 E0.031
G1 X35.55 Y74.22 E0.491
G1 Y75.27 E0.031
G1 X48.3 Y62.58 E0.538
G1 X49.38 E0.032
G1 X35.55 Y76.47 E0.587
G1 Y77.52 E0.031
G1 X50.58 Y62.58 E0.634
G1 X51.63 E0.031
G1 X35.55 Y78.72 E0.682
G1 Y79.8 E0.032
G1 X52.83 Y62.58 E0.73
G1 X53.88 E0.031
G1 X35.55 Y81.0 E0.778
G1 Y82.05 E0.031
G1 X40.41 Y77.25 E0.204
G1 X40.44 Y76.86 E0.012
G1 X40.71 Y76.5 E0.013
G1 X41.16 Y76.44 E0.014
G1 X54.42 Y63.27 E0.559
G1 Y64.32 E0.031
G1 X42.36 Y76.44 E0.512
G1 X43.44 E0.032
G1 X54.42 Y65.52 E0.464
G1 Y66.57 E0.031
G1 X44.64 Y76.44 E0.416
G1 X45.69 E0.031
G1 X54.42 Y67.77 E0.368
G1 Y68.85 E0.032
G1 X46.89 Y76.44 E0.32
G1 X47.94 E0.031
G1 X54.42 Y70.05 E0.272
G1 Y71.1 E0.031
G1 X49.17 Y76.47 E0.225
G1 X49.47 Y76.71 E0.012
G1 X49.56 Y77.1 E0.012
G1 X54.42 Y72.3 E0.204
G1 Y73.35 E0.031
G1 X49.56 Y78.3 E0.208
G1 Y79.35 E0.031
G1 X54.42 Y74.58 E0.204
G1 Y75.63 E0.031
G1 X49.56 Y80.55 E0.207
G1 Y81.63 E0.032
G1 X54.42 Y76.83 E0.204
G1 Y77.88 E0.031
G1 X49.56 Y82.83 E0.208
G1 Y83.88 E0.031
G1 X54.42 Y79.11 E0.204
G1 Y80.16 E0.031
G1 X49.56 Y85.08 E0.207
G1 Y86.13 E0.031
G1 X54.42 Y81.36 E0.204
G1 Y82.41 E0.031
G1 X49.56 Y87.36 E0.208
G1 Y88.41 E0.031
G1 X54.42 Y83.61 E0.204
G1 Y84.69 E0.032
G1 X49.56 Y89.61 E0.207
G1 Y90.42 E0.024
G1 X49.77 Y90.45 E0.006
G1 X54.42 Y85.89 E0.195
G1 Y86.94 E0.031
G1 X51.0 Y90.45 E0.147
G1 X52.05 E0.031
G1 X54.42 Y88.14 E0.099
G1 Y89.19 E0.031
G1 X53.25 Y90.45 E0.051
G1 X54.18 E0.028
G1 X54.42 Y90.39 E0.007
G1 F5388.1
G1 E-2.993
G1 F2500.0
G1 X40.41 Y89.7 F15000.0
G1 F5388.1
G1 E2.993
G1 F2500.0
G1 F74.8
G1 E0.062
G1 F2500.0
G1 X39.6 Y90.45 E0.033
G1 X38.55 E0.031
G1 X40.41 Y88.5 E0.081
G1 Y87.45 E0.031
G1 X37.35 Y90.42 E0.128
G1 X36.3 E0.031
G1 X40.41 Y86.25 E0.175
G1 Y85.2 E0.031
G1 X35.55 Y89.97 E0.204
G1 Y88.92 E0.031
G1 X40.41 Y83.97 E0.208
G1 Y82.92 E0.031
G1 X35.55 Y87.72 E0.204
G1 Y86.64 E0.032
G1 X40.41 Y81.72 E0.207
G1 Y80.67 E0.031
G1 X35.55 Y85.44 E0.204
G1 Y84.39 E0.031
G1 X40.41 Y79.47 E0.207
G1 Y78.39 E0.032
G1 X35.55 Y83.25 E0.206
G1 F5388.1
G1 E-2.993
G1 F2500.0
G1 X70.44 Y79.68 F15000.0
G1 F5388.1
G1 E2.993
G1 F2500.0
G1 F74.8
G1 E0.062
G1 F2500.0
G1 X79.53 Y79.65 E0.272 F2250.0
G1 X79.59 Y79.44 E0.007
G1 X79.56 Y72.42 E0.21
G1 X79.47 Y72.36 E0.003
G1 X76.14 Y72.33 E0.1
G1 X76.17 Y69.6 E0.082
G1 X79.53 Y69.57 E0.101
G1 X79.62 Y69.39 E0.006
G1 X79.59 Y66.57 E0.084
G1 X79.47 Y66.45 E0.005
G1 X70.41 E0.271
G1 X70.32 Y66.6 E0.005
G1 X70.38 Y69.54 E0.088
G1 X70.5 Y69.6 E0.004
G1 X73.8 E0.099
G1 X73.77 Y72.36 E0.083
G1 X70.41 E0.101
G1 X70.35 Y72.54 E0.006
G1 X70.38 Y79.56 E0.21
G1 X70.44 Y79.68 E0.004
G1 X70.26 Y79.89 E0.008
G1 X70.41 Y79.98 E0.005
G1 X79.59 Y79.92 E0.275
G1 X79.89 Y79.62 E0.013
G1 X79.86 Y72.36 E0.217
G1 X79.59 Y72.09 E0.011
G1 X76.44 Y72.06 E0.094
G1 X76.47 Y69.9 E0.065
G1 X79.62 Y69.84 E0.094
G1 X79.89 Y69.57 E0.011
G1 Y66.57 E0.09
G1 X79.71 Y66.24 E0.011
G1 X79.56 Y66.15 E0.005
G1 X70.32 Y66.18 E0.277
G1 X70.08 Y66.42 E0.01
G1 Y69.6 E0.095
G1 X70.35 Y69.87 E0.011
G1 X73.5 Y69.9 E0.094
G1 X73.47 Y72.06 E0.065
G1 X70.32 Y72.09 E0.094
G1 X70.05 Y72.36 E0.011
G1 X70.08 Y79.56 E0.216
G1 X70.26 Y79.89 E0.011
G1 F5388.1
G1 E-2.993
G1 F2500.0
G1 X70.44 Y79.68
G1 X77.91 Y82.89 F15000.0
G1 F5388.1
G1 E2.993
G1 F2500.0
G1 F74.8
G1 E0.062
G1 F2500.0
G1 X77.82 Y83.04 E0.005 F2250.0
G1 Y97.86 E0.444
G1 X72.12 Y97.83 E0.171
G1 X72.09 Y82.98 E0.445
G1 X72.03 Y82.86 E0.004
G1 X65.13 Y82.83 E0.207
G1 Y48.18 E1.037
G1 X84.81 Y48.24 E0.589
G1 Y82.86 E1.036
G1 X77.91 Y82.89 E0.207
G1 X77.79 Y82.65 E0.008
G1 X77.58 Y82.86 E0.009
G1 X77.52 Y83.04 E0.006
G1 Y97.56 E0.435
G1 X72.42 Y97.5 E0.153
G1 X72.39 Y82.98 E0.435
G1 X72.21 Y82.65 E0.011
G1 X72.06 Y82.56 E0.005
G1 X65.43 E0.198
G1 Y48.48 E1.02
G1 X84.51 Y48.54 E0.571
G1 X84.48 Y82.56 E1.018
G1 X77.79 Y82.65 E0.2
G1 F5388.1
G1 E-2.993
G1 F2500.0
G1 X77.91 Y82.89
G1 X84.42 Y81.9 F15000.0
G1 F5388.1
G1 E2.993
G1 F2500.0
G1 F74.8
G1 E0.062
G1 F2500.0
G1 X83.82 Y82.44 E0.024
G1 X82.77 E0.031
G1 X84.42 Y80.7 E0.072
G1 Y79.65 E0.031
G1 X81.54 Y82.44 E0.12
G1 X80.46 Y82.47 E0.032
G1 X84.42 Y78.45 E0.169
G1 Y77.37 E0.032
G1 X79.26 Y82.47 E0.217
G1 X78.21 E0.031
G1 X84.42 Y76.17 E0.265
G1 Y75.12 E0.031
G1 X80.01 Y79.44 E0.185
G1 Y78.39 E0.031
G1 X84.42 Y73.92 E0.188
G1 Y72.87 E0.031
G1 X80.01 Y77.19 E0.185
G1 Y76.14 E0.031
G1 X84.42 Y71.64 E0.189
G1 Y70.59 E0.031
G1 X80.01 Y74.94 E0.185
G1 Y73.86 E0.032
G1 X84.42 Y69.39 E0.188
G1 Y68.34 E0.031
G1 X80.01 Y72.66 E0.185
G1 X79.92 Y72.21 E0.014
G1 X79.65 Y71.97 E0.011
G1 X84.42 Y67.11 E0.204
G1 Y66.06 E0.031
G1 X78.48 Y71.94 E0.25
G1 X77.43 E0.031
G1 X79.32 Y69.96 E0.082
G1 X78.27 E0.031
G1 X76.56 Y71.58 E0.071
G1 Y70.53 E0.031
G1 X77.1 Y69.99 E0.023
G1 X76.71 Y70.08 E0.012
G1 X76.83 Y69.99 E0.004
G1 X77.19 E0.011
G1 X77.16 Y70.08 E0.003
G1 X77.43 E0.008
G1 X77.67 Y69.99 E0.008
G1 X78.06 E0.012
G1 X77.97 Y70.11 E0.004
G1 X78.3 E0.01
G1 X78.51 Y69.99 E0.007
G1 X78.9 E0.012
G1 X78.81 Y70.11 E0.004
G1 X79.14 E0.01
G1 X79.35 Y69.99 E0.007
G1 F5388.1
G1 E-2.993
G1 F2500.0
G1 X79.56 Y65.97 F15000.0
G1 F5388.1
G1 E2.993
G1 F2500.0
G1 F74.8
G1 E0.062
G1 F2500.0
G1 X79.32 Y66.03 E0.007
G1 X79.08 E0.007
G1 X79.14 Y65.94 E0.003
G1 X78.75 E0.012
G1 X78.51 Y66.03 E0.008
G1 X78.24 E0.008
G1 X78.27 Y65.94 E0.003
G1 X77.91 E0.011
G1 X77.67 Y66.03 E0.008
G1 X77.4 E0.008
G1 X77.43 Y65.94 E0.003
G1 X77.04 E0.012
G1 X76.86 Y66.03 E0.006
G1 X76.53 E0.01
G1 X76.59 Y65.94 E0.003
G1 X76.2 E0.012
G1 X76.02 Y66.03 E0.006
G1 X75.69 E0.01
G1 X75.72 Y65.94 E0.003
G1 X75.36 E0.011
G1 X75.12 Y66.03 E0.008
G1 X74.82 Y66.06 E0.009
G1 X74.88 Y65.94 E0.004
G1 X74.52 E0.011
G1 X74.28 Y66.06 E0.008
G1 X73.95 E0.01
G1 X74.04 Y65.94 E0.004
G1 X73.65 E0.012
G1 X73.44 Y66.06 E0.007
G1 X73.11 E0.01
G1 X73.2 Y65.94 E0.004
G1 X72.81 E0.012
G1 X72.57 Y66.06 E0.008
G1 X72.27 E0.009
G1 X72.33 Y65.94 E0.004
G1 X71.97 E0.011
G1 X71.73 Y66.06 E0.008
G1 X71.43 E0.009
G1 X71.49 Y65.94 E0.004
G1 X71.1 E0.012
G1 X70.89 Y66.06 E0.007
G1 X70.56 E0.01
G1 X70.68 Y65.94 E0.005
G1 F5388.1
G1 E-2.993
G1 F2500.0
G1 X72.0 Y66.03 F15000.0
G1 F5388.1
G1 E2.993
G1 F2500.0
G1 F74.8
G1 E0.062
G1 F2500.0
G1 X84.42 Y53.61 E0.526
G1 Y54.69 E0.032
G1 X73.14 Y66.03 E0.479
G1 X74.19 E0.031
G1 X84.42 Y55.89 E0.431
G1 Y56.94 E0.031
G1 X75.42 Y66.03 E0.383
G1 X76.47 E0.031
G1 X84.42 Y58.14 E0.335
G1 Y59.19 E0.031
G1 X77.67 Y66.03 E0.288
G1 X78.72 E0.031
G1 X84.42 Y60.42 E0.239
G1 Y61.47 E0.031
G1 X79.8 Y66.15 E0.197
G1 X79.98 Y66.36 E0.008
G1 X80.04 Y66.99 E0.019
G1 X84.42 Y62.67 E0.184
G1 Y63.72 E0.031
G1 X80.04 Y68.19 E0.187
G1 Y69.24 E0.031
G1 X84.42 Y64.92 E0.184
G1 F5388.1
G1 E-2.993
G1 F2500.0
G1 X73.41 Y69.99 F15000.0
G1 F5388.1
G1 E2.993
G1 F2500.0
G1 F74.8
G1 E0.062
G1 F2500.0
G1 X73.2 Y70.11 E0.007
G1 X72.87 E0.01
G1 X72.96 Y69.99 E0.004
G1 X72.57 E0.012
G1 X72.36 Y70.11 E0.007
G1 X72.06 Y70.08 E0.009
G1 X72.12 Y69.99 E0.003
G1 X71.73 E0.012
G1 X71.49 Y70.08 E0.008
G1 X71.22 E0.008
G1 X71.25 Y69.99 E0.003
G1 X70.89 E0.011
G1 X70.65 Y70.08 E0.008
G1 X70.41 E0.007
G1 X70.44 Y69.99 E0.003
G1 F5388.1
G1 E-2.993
G1 F2500.0
G1 X70.62 Y71.94 F15000.0
G1 F5388.1
G1 E2.993
G1 F2500.0
G1 F74.8
G1 E0.062
G1 F2500.0
G1 X72.57 Y69.99 E0.083
G1 X73.38 E0.024
G1 X73.41 Y70.2 E0.006
G1 X71.76 Y71.94 E0.072
G1 X72.81 E0.031
G1 X73.41 Y71.4 E0.024
G1 F5388.1
G1 E-2.993
G1 F2500.0
G1 X65.7 Y48.57 F15000.0
G1 F5388.1
G1 E2.993
G1 F2500.0
G1 F74.8
G1 E0.062
G1 F2500.0
G1 X65.55 Y48.72 E0.006
G1 Y49.8 E0.032
G1 X66.84 Y48.57 E0.053
G1 X67.89 E0.031
G1 X65.55 Y51.0 E0.101
G1 Y52.05 E0.031
G1 X69.12 Y48.57 E0.149
G1 X70.17 E0.031
G1 X65.55 Y53.25 E0.197
G1 Y54.33 E0.032
G1 X71.37 Y48.57 E0.245
G1 X72.42 E0.031
G1 X65.55 Y55.53 E0.293
G1 Y56.58 E0.031
G1 X73.62 Y48.57 E0.34
G1 X74.7 E0.032
G1 X65.55 Y57.78 E0.389
G1 Y58.83 E0.031
G1 X75.87 Y48.6 E0.435
G1 X76.92 E0.031
G1 X65.55 Y60.06 E0.483
G1 Y61.11 E0.031
G1 X78.12 Y48.6 E0.531
G1 X79.17 E0.031
G1 X65.55 Y62.31 E0.578
G1 Y63.36 E0.031
G1 X80.4 Y48.6 E0.627
G1 X81.45 E0.031
G1 X65.55 Y64.56 E0.674
G1 Y65.64 E0.032
G1 X82.65 Y48.6 E0.723
G1 X83.7 E0.031
G1 X65.55 Y66.84 E0.77
G1 Y67.89 E0.031
G1 X84.42 Y49.11 E0.797
G1 Y50.16 E0.031
G1 X65.55 Y69.09 E0.8
G1 Y70.14 E0.031
G1 X84.42 Y51.36 E0.797
G1 Y52.41 E0.031
G1 X70.86 Y66.03 E0.575
G1 X70.32 Y66.06 E0.016
G1 X69.96 Y66.42 E0.015
G1 Y66.87 E0.013
G1 X65.55 Y71.37 E0.189
G1 Y72.42 E0.031
G1 X69.96 Y68.07 E0.185
G1 Y69.15 E0.032
G1 X65.55 Y73.62 E0.188
G1 Y74.67 E0.031
G1 X70.35 Y69.96 E0.201
G1 X71.37 Y69.99 E0.031
G1 X65.55 Y75.9 E0.248
G1 Y76.95 E0.031
G1 X69.96 Y72.6 E0.185
G1 Y73.65 E0.031
G1 X65.55 Y78.15 E0.189
G1 Y79.2 E0.031
G1 X69.96 Y74.88 E0.185
G1 Y75.93 E0.031
G1 X65.55 Y80.4 E0.188
G1 Y81.48 E0.032
G1 X69.96 Y77.13 E0.185
G1 Y78.18 E0.031
G1 X65.79 Y82.44 E0.178
G1 X66.84 E0.031
G1 X69.96 Y79.44 E0.13
G1 X70.08 Y79.83 E0.012
G1 X70.38 Y80.04 E0.011
G1 X68.04 Y82.44 E0.1
G1 X69.09 E0.031
G1 X71.55 Y80.07 E0.102
G1 X72.6 E0.031
G1 X70.32 Y82.44 E0.098
G1 X71.37 E0.031
G1 X73.8 Y80.07 E0.102
G1 X74.88 E0.032
G1 X72.39 Y82.65 E0.107
G1 X72.48 Y82.77 E0.004
G1 X72.54 Y83.52 E0.023
G1 X76.11 Y80.04 E0.149
G1 X77.16 E0.031
G1 X72.54 Y84.75 E0.197
G1 Y85.8 E0.031
G1 X78.36 Y80.04 E0.245
G1 X79.41 E0.031
G1 X72.54 Y87.0 E0.293
G1 Y88.05 E0.031
G1 X77.43 Y83.25 E0.205
G1 Y84.3 E0.031
G1 X72.54 Y89.25 E0.208
G1 Y90.33 E0.032
G1 X77.43 Y85.5 E0.206
G1 Y86.55 E0.031
G1 X72.54 Y91.53 E0.209
G1 Y92.58 E0.031
G1 X77.43 Y87.78 E0.205
G1 Y88.83 E0.031
G1 X72.54 Y93.78 E0.208
G1 Y94.83 E0.031
G1 X77.43 Y90.03 E0.205
G1 Y91.08 E0.031
G1 X72.54 Y96.06 E0.209
G1 Y97.11 E0.031
G1 X77.43 Y92.28 E0.206
G1 Y93.36 E0.032
G1 X73.44 Y97.41 E0.17
G1 X74.49 E0.031
G1 X77.43 Y94.56 E0.123
G1 Y95.61 E0.031
G1 X75.66 Y97.44 E0.076
G1 X76.74 E0.032
G1 X77.43 Y96.81 E0.028
G1 F5388.1
G1 E-2.993
G1 F2500.0
;#!LAYER: 4/106
G92 E0
G1 Z0.96 F200.0
G1 X43.89 Y59.91 F15000.0
T0
G1 F5388.1
G1 E2.993
G1 F2500.0
G1 F74.8
G1 E0.062
G1 F2500.0
G1 X43.8 Y60.06 E0.005 F2250.0
G1 X43.86 Y62.13 E0.062
G1 X43.92 Y62.19 E0.003
G1 X54.81 E0.326
G1 X54.78 Y90.87 E0.859
G1 X49.14 Y90.84 E0.169
G1 X49.11 Y76.98 E0.415
G1 X48.99 Y76.86 E0.005
G1 X40.89 E0.242
G1 X40.8 Y77.04 E0.006
G1 X40.77 Y90.87 E0.414
G1 X35.13 Y90.84 E0.169
G1 Y51.18 E1.187
G1 X54.81 Y51.21 E0.589
G1 X54.78 Y59.88 E0.26
G1 X43.89 Y59.91 E0.326
G1 X43.83 Y59.64 E0.008
G1 X43.53 Y59.94 E0.013
G1 X43.56 Y62.19 E0.067
G1 X43.83 Y62.46 E0.011
G1 X54.51 Y62.49 E0.32
G1 X54.48 Y90.57 E0.841
G1 X49.44 E0.151
G1 X49.41 Y76.86 E0.41
G1 X49.14 Y76.59 E0.011
G1 X40.71 Y76.62 E0.252
G1 X40.5 Y77.01 E0.013
G1 X40.47 Y90.57 E0.406
G1 X35.43 Y90.54 E0.151
G1 Y51.48 E1.169
G1 X54.51 Y51.51 E0.571
G1 Y59.58 E0.242
G1 X43.83 Y59.64 E0.32
G1 F5388.1
G1 E-2.993
G1 F2500.0
G1 X43.89 Y59.91
G1 X43.92 Y62.58 F15000.0
G1 F5388.1
G1 E2.993
G1 F2500.0
G1 F74.8
G1 E0.062
G1 F2500.0
G1 X54.42 Y73.08 E0.444
G1 Y72.03 E0.031
G1 X45.06 Y62.58 E0.398
G1 X46.11 E0.031
G1 X54.42 Y70.8 E0.35
G1 Y69.75 E0.031
G1 X47.31 Y62.58 E0.302
G1 X48.39 E0.032
G1 X54.42 Y68.55 E0.254
G1 Y67.5 E0.031
G1 X49.59 Y62.58 E0.206
G1 X50.64 E0.031
G1 X54.42 Y66.27 E0.158
G1 Y65.22 E0.031
G1 X51.84 Y62.58 E0.11
G1 X52.89 E0.031
G1 X54.42 Y64.02 E0.063
G1 Y62.97 E0.031
G1 X54.09 Y62.58 E0.015
G1 F5388.1
G1 E-2.993
G1 F2500.0
G1 X54.42 Y51.6 F15000.0
G1 F5388.1
G1 E2.993
G1 F2500.0
G1 F74.8
G1 E0.062
G1 F2500.0
G1 Y52.71 E0.033
G1 X53.25 Y51.6 E0.048
G1 X52.17 E0.032
G1 X54.42 Y53.91 E0.097
G1 Y54.96 E0.031
G1 X50.97 Y51.6 E0.144
G1 X49.92 E0.031
G1 X54.42 Y56.19 E0.192
G1 Y57.24 E0.031
G1 X48.72 Y51.6 E0.24
G1 X47.67 E0.031
G1 X54.42 Y58.44 E0.288
G1 X54.39 Y59.46 E0.031
G1 X46.44 Y51.6 E0.335
G1 X45.39 E0.031
G1 X53.19 Y59.46 E0.331
G1 X52.11 E0.032
G1 X44.16 Y51.57 E0.335
G1 X43.11 E0.031
G1 X50.91 Y59.46 E0.332
G1 X49.86 E0.031
G1 X41.88 Y51.57 E0.336
G1 X40.83 E0.031
G1 X48.69 Y59.49 E0.334
G1 X47.64 E0.031
G1 X39.63 Y51.57 E0.337
G1 X38.58 E0.031
G1 X46.41 Y59.49 E0.333
G1 X45.36 E0.031
G1 X37.38 Y51.57 E0.337
G1 X36.3 E0.032
G1 X44.16 Y59.49 E0.334
G1 X43.71 Y59.55 E0.014
G1 X43.47 Y59.85 E0.012
G1 X35.55 Y52.02 E0.333
G1 Y53.07 E0.031
G1 X43.41 Y61.02 E0.335
G1 X43.44 Y62.1 E0.032
G1 X35.55 Y54.27 E0.333
G1 Y55.32 E0.031
G1 X54.42 Y74.28 E0.801
G1 Y75.33 E0.031
G1 X35.55 Y56.55 E0.797
G1 Y57.6 E0.031
G1 X54.42 Y76.53 E0.8
G1 Y77.61 E0.032
G1 X35.55 Y58.8 E0.798
G1 Y59.85 E0.031
G1 X54.42 Y78.81 E0.801
G1 Y79.86 E0.031
G1 X35.55 Y61.08 E0.797
G1 Y62.13 E0.031
G1 X54.42 Y81.06 E0.8
G1 Y82.11 E0.031
G1 X49.56 Y77.34 E0.204
G1 Y78.39 E0.031
G1 X54.42 Y83.34 E0.208
G1 Y84.39 E0.031
G1 X49.56 Y79.59 E0.204
G1 Y80.67 E0.032
G1 X54.42 Y85.59 E0.207
G1 Y86.64 E0.031
G1 X49.56 Y81.87 E0.204
G1 Y82.92 E0.031
G1 X54.42 Y87.87 E0.208
G1 Y88.92 E0.031
G1 X49.56 Y84.12 E0.204
G1 Y85.17 E0.031
G1 X54.42 Y90.12 E0.208
G1 X54.39 Y90.45 E0.01
G1 X53.7 E0.021
G1 X49.56 Y86.4 E0.173
G1 Y87.45 E0.031
G1 X52.5 Y90.45 E0.126
G1 X51.42 E0.032
G1 X49.56 Y88.65 E0.077
G1 Y89.7 E0.031
G1 X50.28 Y90.45 E0.031
G1 F5388.1
G1 E-2.993
G1 F2500.0
G1 X35.55 Y89.34 F15000.0
G1 F5388.1
G1 E2.993
G1 F2500.0
G1 F74.8
G1 E0.062
G1 F2500.0
G1 X36.69 Y90.42 E0.047
G1 X37.74 E0.031
G1 X35.55 Y88.14 E0.095
G1 Y87.09 E0.031
G1 X39.0 Y90.45 E0.144
G1 X40.05 E0.031
G1 X35.55 Y85.89 E0.192
G1 Y84.81 E0.032
G1 X40.41 Y89.61 E0.204
G1 Y88.56 E0.031
G1 X35.55 Y83.61 E0.208
G1 Y82.56 E0.031
G1 X40.41 Y87.36 E0.204
G1 Y86.28 E0.032
G1 X35.55 Y81.36 E0.207
G1 Y80.31 E0.031
G1 X40.41 Y85.08 E0.204
G1 Y84.03 E0.031
G1 X35.55 Y79.08 E0.208
G1 Y78.03 E0.031
G1 X40.41 Y82.83 E0.204
G1 Y81.78 E0.031
G1 X35.55 Y76.83 E0.208
G1 Y75.78 E0.031
G1 X40.41 Y80.55 E0.204
G1 Y79.5 E0.031
G1 X35.55 Y74.58 E0.207
G1 Y73.5 E0.032
G1 X40.41 Y78.3 E0.204
G1 Y77.25 E0.031
G1 X35.55 Y72.3 E0.208
G1 Y71.25 E0.031
G1 X40.86 Y76.44 E0.222
G1 X41.88 E0.031
G1 X35.55 Y70.05 E0.269
G1 Y69.0 E0.031
G1 X43.08 Y76.44 E0.317
G1 X44.13 E0.031
G1 X35.55 Y67.77 E0.365
G1 Y66.72 E0.031
G1 X45.33 Y76.44 E0.413
G1 X46.41 E0.032
G1 X35.55 Y65.52 E0.461
G1 Y64.47 E0.031
G1 X47.61 Y76.44 E0.509
G1 X48.66 E0.031
G1 X35.55 Y63.27 E0.556
G1 F5388.1
G1 E-2.993
G1 F2500.0
G1 X77.91 Y82.89 F15000.0
G1 F5388.1
G1 E2.993
G1 F2500.0
G1 F74.8
G1 E0.062
G1 F2500.0
G1 X77.82 Y83.04 E0.005 F2250.0
G1 Y97.86 E0.444
G1 X72.12 Y97.83 E0.171
G1 X72.09 Y82.98 E0.445
G1 X72.03 Y82.86 E0.004
G1 X65.13 Y82.83 E0.207
G1 Y48.18 E1.037
G1 X84.81 Y48.24 E0.589
G1 Y82.86 E1.036
G1 X77.91 Y82.89 E0.207
G1 X77.79 Y82.65 E0.008
G1 X77.58 Y82.86 E0.009
G1 X77.52 Y83.04 E0.006
G1 Y97.56 E0.435
G1 X72.42 Y97.5 E0.153
G1 X72.39 Y82.98 E0.435
G1 X72.21 Y82.65 E0.011
G1 X72.06 Y82.56 E0.005
G1 X65.43 E0.198
G1 Y48.48 E1.02
G1 X84.51 Y48.54 E0.571
G1 X84.48 Y82.56 E1.018
G1 X77.79 Y82.65 E0.2
G1 F5388.1
G1 E-2.993
G1 F2500.0
G1 X77.91 Y82.89
G1 X79.53 Y79.68 F15000.0
G1 F5388.1
G1 E2.993
G1 F2500.0
G1 F74.8
G1 E0.062
G1 F2500.0
G1 X79.59 Y79.47 E0.007 F2250.0
G1 X79.56 Y72.48 E0.209
G1 X79.5 Y72.36 E0.004
G1 X76.14 Y72.33 E0.101
G1 X76.17 Y69.36 E0.089
G1 X79.53 Y69.33 E0.101
G1 X79.59 Y69.15 E0.006
G1 X79.56 Y66.81 E0.07
G1 X79.44 Y66.69 E0.005
G1 X70.41 E0.27
G1 X70.32 Y66.84 E0.005
G1 X70.38 Y69.3 E0.074
G1 X70.5 Y69.36 E0.004
G1 X73.8 E0.099
G1 Y72.36 E0.09
G1 X70.41 E0.101
G1 X70.32 Y72.51 E0.005
G1 X70.35 Y79.62 E0.213
G1 X70.44 Y79.68 E0.003
G1 X79.53 E0.272
G1 X79.65 Y79.92 E0.008
G1 X79.86 Y79.71 E0.009
G1 Y72.36 E0.22
G1 X79.59 Y72.09 E0.011
G1 X76.44 Y72.03 E0.094
G1 Y69.66 E0.071
G1 X79.71 Y69.57 E0.098
G1 X79.89 Y69.3 E0.01
G1 X79.86 Y66.81 E0.075
G1 X79.68 Y66.48 E0.011
G1 X79.53 Y66.39 E0.005
G1 X70.32 Y66.42 E0.276
G1 X70.08 Y66.66 E0.01
G1 X70.11 Y69.42 E0.083
G1 X70.41 Y69.66 E0.012
G1 X73.5 E0.092
G1 Y72.06 E0.072
G1 X70.32 Y72.09 E0.095
G1 X70.05 Y72.36 E0.011
G1 X70.08 Y79.71 E0.22
G1 X70.29 Y79.95 E0.01
G1 X79.65 Y79.92 E0.28
G1 F5388.1
G1 E-2.993
G1 F2500.0
G1 X79.53 Y79.68
G1 X71.58 Y80.07 F15000.0
G1 F5388.1
G1 E2.993
G1 F2500.0
G1 F74.8
G1 E0.062
G1 F2500.0
G1 X77.43 Y85.89 E0.247
G1 Y84.84 E0.031
G1 X72.72 Y80.07 E0.201
G1 X73.8 E0.032
G1 X77.43 Y83.64 E0.152
G1 Y83.1 E0.016
G1 X77.55 Y82.71 E0.012
G1 X75.0 Y80.07 E0.11
G1 X76.05 E0.031
G1 X78.54 Y82.47 E0.104
G1 X79.59 E0.031
G1 X77.25 Y80.07 E0.1
G1 X78.3 E0.031
G1 X80.79 Y82.47 E0.104
G1 X81.81 Y82.44 E0.031
G1 X79.59 Y80.07 E0.097
G1 X79.89 Y79.86 E0.011
G1 X80.04 Y79.5 E0.012
G1 X83.01 Y82.44 E0.125
G1 X84.09 E0.032
G1 X80.01 Y78.3 E0.174
G1 Y77.25 E0.031
G1 X84.42 Y81.57 E0.185
G1 Y80.52 E0.031
G1 X80.01 Y76.05 E0.188
G1 Y74.97 E0.032
G1 X84.42 Y79.32 E0.185
G1 Y78.27 E0.031
G1 X80.01 Y73.77 E0.189
G1 Y72.72 E0.031
G1 X84.42 Y77.04 E0.185
G1 Y75.99 E0.031
G1 X78.21 Y69.72 E0.264
G1 X79.29 E0.032
G1 X84.42 Y74.79 E0.216
G1 Y73.74 E0.031
G1 X80.01 Y69.24 E0.189
G1 Y68.19 E0.031
G1 X84.42 Y72.54 E0.185
G1 Y71.46 E0.032
G1 X80.01 Y66.99 E0.188
G1 F5388.1
G1 E-2.993
G1 F2500.0
G1 X79.56 Y66.21 F15000.0
G1 F5388.1
G1 E2.993
G1 F2500.0
G1 F74.8
G1 E0.062
G1 F2500.0
G1 X79.14 Y66.18 E0.013
G1 X79.17 Y66.27 E0.003
G1 X78.81 E0.011
G1 X78.57 Y66.18 E0.008
G1 X78.3 E0.008
G1 X78.33 Y66.27 E0.003
G1 X77.94 E0.012
G1 X77.76 Y66.18 E0.006
G1 X77.43 E0.01
G1 X77.49 Y66.27 E0.003
G1 X77.1 E0.012
G1 X76.92 Y66.18 E0.006
G1 X76.59 E0.01
G1 X76.62 Y66.27 E0.003
G1 X76.26 E0.011
G1 X76.02 Y66.18 E0.008
G1 X75.75 E0.008
G1 X75.78 Y66.27 E0.003
G1 X75.42 E0.011
G1 X75.18 Y66.18 E0.008
G1 X74.88 E0.009
G1 X74.94 Y66.3 E0.004
G1 X74.58 E0.011
G1 X74.37 Y66.18 E0.007
G1 X74.04 E0.01
G1 X74.13 Y66.3 E0.004
G1 X73.74 E0.012
G1 X73.5 Y66.18 E0.008
G1 X73.2 E0.009
G1 X73.26 Y66.3 E0.004
G1 X72.9 E0.011
G1 X72.66 Y66.18 E0.008
G1 X72.36 E0.009
G1 X72.42 Y66.3 E0.004
G1 X72.03 E0.012
G1 X71.82 Y66.18 E0.007
G1 X71.49 E0.01
G1 X71.58 Y66.3 E0.004
G1 X71.19 E0.012
G1 X70.98 Y66.18 E0.007
G1 X70.65 E0.01
G1 X70.71 Y66.3 E0.004
G1 F5388.1
G1 E-2.993
G1 F2500.0
G1 X70.35 Y69.72 F15000.0
G1 F5388.1
G1 E2.993
G1 F2500.0
G1 F74.8
G1 E0.062
G1 F2500.0
G1 X70.5 Y69.84 E0.006
G1 X70.86 E0.011
G1 X70.83 Y69.75 E0.003
G1 X71.1 E0.008
G1 X71.34 Y69.84 E0.008
G1 X71.73 E0.012
G1 X71.67 Y69.75 E0.003
G1 X72.0 E0.01
G1 X72.21 Y69.87 E0.007
G1 X72.6 E0.012
G1 X72.51 Y69.75 E0.004
G1 X72.84 E0.01
G1 X73.08 Y69.87 E0.008
G1 X73.38 E0.009
G1 X73.35 Y69.75 E0.004
G1 F5388.1
G1 E-2.993
G1 F2500.0
G1 X77.01 Y71.91 F15000.0
G1 F5388.1
G1 E2.993
G1 F2500.0
G1 F74.8
G1 E0.062
G1 F2500.0
G1 X76.56 Y71.46 E0.019
G1 Y70.41 E0.031
G1 X78.18 Y71.94 E0.067
G1 X79.23 E0.031
G1 X77.1 Y69.75 E0.091
G1 X76.74 E0.011
G1 X76.86 Y69.84 E0.004
G1 X77.22 E0.011
G1 X77.19 Y69.75 E0.003
G1 X77.52 E0.01
G1 X77.7 Y69.84 E0.006
G1 X78.12 Y69.87 E0.013
G1 X78.03 Y69.75 E0.004
G1 X78.36 E0.01
G1 X78.57 Y69.87 E0.007
G1 X78.96 E0.012
G1 X78.87 Y69.75 E0.004
G1 X79.2 E0.01
G1 X79.41 Y69.87 E0.007
G1 X79.5 Y69.84 E0.003
G1 X79.62 Y69.75 E0.004
G1 X79.32 E0.009
G1 F5388.1
G1 E-2.993
G1 F2500.0
G1 X65.55 Y76.29 F15000.0
G1 F5388.1
G1 E2.993
G1 F2500.0
G1 F74.8
G1 E0.062
G1 F2500.0
G1 X71.64 Y82.44 E0.259
G1 X70.59 E0.031
G1 X65.55 Y77.49 E0.211
G1 Y78.54 E0.031
G1 X69.36 Y82.44 E0.163
G1 X68.31 E0.031
G1 X65.55 Y79.74 E0.116
G1 Y80.82 E0.032
G1 X67.11 Y82.44 E0.067
G1 X66.06 E0.031
G1 X65.55 Y81.96 E0.021
G1 F5388.1
G1 E-2.993
G1 F2500.0
G1 X72.54 Y96.87 F15000.0
G1 F5388.1
G1 E2.993
G1 F2500.0
G1 F74.8
G1 E0.062
G1 F2500.0
G1 X73.11 Y97.41 E0.024
G1 X74.16 E0.031
G1 X72.54 Y95.73 E0.07
G1 Y94.65 E0.032
G1 X75.39 Y97.44 E0.119
G1 X76.44 E0.031
G1 X72.54 Y93.45 E0.167
G1 Y92.4 E0.031
G1 X77.43 Y97.2 E0.205
G1 Y96.15 E0.031
G1 X72.54 Y91.2 E0.208
G1 Y90.15 E0.031
G1 X77.43 Y94.95 E0.205
G1 Y93.9 E0.031
G1 X72.54 Y88.92 E0.209
G1 Y87.87 E0.031
G1 X77.43 Y92.7 E0.206
G1 Y91.62 E0.032
G1 X72.54 Y86.67 E0.208
G1 Y85.62 E0.031
G1 X77.43 Y90.42 E0.205
G1 Y89.37 E0.031
G1 X72.54 Y84.39 E0.209
G1 Y83.34 E0.031
G1 X77.43 Y88.17 E0.206
G1 Y87.12 E0.031
G1 X70.44 Y80.07 E0.297
G1 X70.23 Y80.01 E0.007
G1 X69.96 Y79.65 E0.013
G1 X65.55 Y75.15 E0.189
G1 Y74.1 E0.031
G1 X69.93 Y78.39 E0.184
G1 Y77.34 E0.031
G1 X65.55 Y72.9 E0.187
G1 Y71.82 E0.032
G1 X69.93 Y76.14 E0.184
G1 Y75.09 E0.031
G1 X65.55 Y70.62 E0.187
G1 Y69.57 E0.031
G1 X69.93 Y73.86 E0.184
G1 Y72.81 E0.031
G1 X65.55 Y68.37 E0.187
G1 Y67.32 E0.031
G1 X70.29 Y71.97 E0.199
G1 X71.31 Y71.94 E0.031
G1 X65.55 Y66.09 E0.246
G1 Y65.04 E0.031
G1 X72.51 Y71.94 E0.293
G1 X73.38 E0.026
G1 X73.41 Y71.76 E0.005
G1 X71.43 Y69.75 E0.084
G1 X70.35 Y69.72 E0.032
G1 X69.99 Y69.36 E0.015
G1 X69.96 Y68.31 E0.031
G1 X65.55 Y63.84 E0.188
G1 Y62.79 E0.031
G1 X69.96 Y67.11 E0.185
G1 Y66.69 E0.013
G1 X70.23 Y66.33 E0.013
G1 X65.55 Y61.59 E0.199
G1 Y60.51 E0.032
G1 X71.37 Y66.27 E0.245
G1 X72.42 E0.031
G1 X65.55 Y59.31 E0.293
G1 Y58.26 E0.031
G1 X73.65 Y66.27 E0.341
G1 X74.7 E0.031
G1 X65.55 Y57.06 E0.389
G1 Y55.98 E0.032
G1 X75.9 Y66.27 E0.437
G1 X76.95 E0.031
G1 X65.55 Y54.78 E0.485
G1 Y53.73 E0.031
G1 X78.15 Y66.27 E0.532
G1 X79.23 E0.032
G1 X65.55 Y52.53 E0.58
G1 Y51.48 E0.031
G1 X84.42 Y70.26 E0.797
G1 Y69.21 E0.031
G1 X65.55 Y50.25 E0.801
G1 Y49.2 E0.031
G1 X84.42 Y68.01 E0.798
G1 Y66.93 E0.032
G1 X66.12 Y48.57 E0.776
G1 X67.17 E0.031
G1 X84.42 Y65.73 E0.728
G1 Y64.68 E0.031
G1 X68.37 Y48.57 E0.681
G1 X69.45 E0.032
G1 X84.42 Y63.48 E0.632
G1 Y62.43 E0.031
G1 X70.65 Y48.57 E0.585
G1 X71.7 E0.031
G1 X84.42 Y61.2 E0.537
G1 Y60.15 E0.031
G1 X72.9 Y48.57 E0.489
G1 X73.98 E0.032
G1 X84.42 Y58.95 E0.441
G1 Y57.9 E0.031
G1 X75.21 Y48.6 E0.392
G1 X76.26 E0.031
G1 X84.42 Y56.7 E0.344
G1 Y55.62 E0.032
G1 X77.46 Y48.6 E0.296
G1 X78.51 E0.031
G1 X84.42 Y54.42 E0.248
G1 Y53.37 E0.031
G1 X79.74 Y48.6 E0.2
G1 X80.79 E0.031
G1 X84.42 Y52.17 E0.152
G1 Y51.09 E0.032
G1 X81.99 Y48.6 E0.104
G1 X83.04 E0.031
G1 X84.42 Y49.89 E0.057
G1 Y48.84 E0.031
G1 X84.24 Y48.6 E0.009
G1 F5388.1
G1 E-2.993
G1 F2500.0
;#!LAYER: 5/106
G92 E0
G1 Z1.2 F200.0
G1 X43.89 Y59.91 F15000.0
T0
G1 F5388.1
G1 E2.993
G1 F2500.0
G1 F74.8
G1 E0.062
G1 F2500.0
G1 X43.8 Y60.06 E0.005 F2250.0
G1 X43.86 Y62.13 E0.062
G1 X43.92 Y62.19 E0.003
G1 X54.81 E0.326
G1 X54.78 Y90.87 E0.859
G1 X49.14 Y90.84 E0.169
G1 X49.11 Y76.98 E0.415
G1 X48.99 Y76.86 E0.005
G1 X40.89 E0.242
G1 X40.8 Y77.04 E0.006
G1 X40.77 Y90.87 E0.414
G1 X35.13 Y90.84 E0.169
G1 Y51.18 E1.187
G1 X54.81 Y51.21 E0.589
G1 X54.78 Y59.88 E0.26
G1 X43.89 Y59.91 E0.326
G1 X43.83 Y59.64 E0.008
G1 X43.53 Y59.94 E0.013
G1 X43.56 Y62.19 E0.067
G1 X43.83 Y62.46 E0.011
G1 X54.51 Y62.49 E0.32
G1 X54.48 Y90.57 E0.841
G1 X49.44 E0.151
G1 X49.41 Y76.86 E0.41
G1 X49.14 Y76.59 E0.011
G1 X40.71 Y76.62 E0.252
G1 X40.5 Y77.01 E0.013
G1 X40.47 Y90.57 E0.406
G1 X35.43 Y90.54 E0.151
G1 Y51.48 E1.169
G1 X54.51 Y51.51 E0.571
G1 Y59.58 E0.242
G1 X43.83 Y59.64 E0.32
G1 F5388.1
G1 E-2.993
G1 F2500.0
G1 X43.89 Y59.91
G1 X54.42 Y59.28 F15000.0
G1 F5388.1
G1 E2.993
G1 F2500.0
G1 F74.8
G1 E0.062
G1 F2500.0
G1 X54.18 Y59.46 E0.009
G1 X53.13 E0.031
G1 X54.42 Y58.08 E0.057
G1 Y57.03 E0.031
G1 X51.93 Y59.46 E0.104
G1 X50.85 E0.032
G1 X54.42 Y55.83 E0.152
G1 Y54.78 E0.031
G1 X49.65 Y59.46 E0.2
G1 X48.57 Y59.49 E0.032
G1 X54.42 Y53.58 E0.249
G1 Y52.5 E0.032
G1 X47.37 Y59.49 E0.297
G1 X46.32 E0.031
G1 X54.12 Y51.6 E0.332
G1 X53.07 E0.031
G1 X45.09 Y59.49 E0.336
G1 X44.04 E0.031
G1 X51.93 Y51.6 E0.334
G1 F5388.1
G1 E-2.993
G1 F2500.0
G1 X35.55 Y52.14 F15000.0
G1 F5388.1
G1 E2.993
G1 F2500.0
G1 F74.8
G1 E0.062
G1 F2500.0
G1 X36.12 Y51.57 E0.024
G1 X37.17 E0.031
G1 X35.55 Y53.28 E0.071
G1 Y54.33 E0.031
G1 X38.4 Y51.57 E0.119
G1 X39.45 E0.031
G1 X35.55 Y55.53 E0.166
G1 Y56.61 E0.032
G1 X40.65 Y51.57 E0.215
G1 X41.7 E0.031
G1 X35.55 Y57.81 E0.262
G1 Y58.86 E0.031
G1 X42.9 Y51.57 E0.31
G1 X43.98 E0.032
G1 X35.55 Y60.06 E0.358
G1 Y61.11 E0.031
G1 X45.15 Y51.6 E0.404
G1 X46.2 E0.031
G1 X35.55 Y62.34 E0.453
G1 Y63.39 E0.031
G1 X47.4 Y51.6 E0.5
G1 X48.48 E0.032
G1 X35.55 Y64.59 E0.549
G1 Y65.64 E0.031
G1 X49.68 Y51.6 E0.596
G1 X50.73 E0.031
G1 X35.55 Y66.84 E0.644
G1 Y67.92 E0.032
G1 X43.41 Y60.12 E0.331
G1 Y61.17 E0.031
G1 X35.55 Y69.12 E0.335
G1 Y70.17 E0.031
G1 X43.5 Y62.31 E0.335
G1 X43.77 Y62.55 E0.011
G1 X44.28 Y62.58 E0.015
G1 X35.55 Y71.37 E0.371
G1 Y72.45 E0.032
G1 X45.48 Y62.58 E0.419
G1 X46.53 E0.031
G1 X35.55 Y73.65 E0.467
G1 Y74.7 E0.031
G1 X47.73 Y62.58 E0.514
G1 X48.81 E0.032
G1 X35.55 Y75.9 E0.563
G1 Y76.95 E0.031
G1 X50.01 Y62.58 E0.61
G1 X51.06 E0.031
G1 X35.55 Y78.18 E0.658
G1 Y79.23 E0.031
G1 X52.26 Y62.58 E0.706
G1 X53.34 E0.032
G1 X35.55 Y80.43 E0.754
G1 Y81.48 E0.031
G1 X54.42 Y62.7 E0.797
G1 Y63.75 E0.031
G1 X41.79 Y76.44 E0.536
G1 X42.87 E0.032
G1 X54.42 Y64.95 E0.488
G1 Y66.0 E0.031
G1 X44.07 Y76.44 E0.44
G1 X45.12 E0.031
G1 X54.42 Y67.23 E0.392
G1 Y68.28 E0.031
G1 X46.32 Y76.44 E0.344
G1 X47.4 E0.032
G1 X54.42 Y69.48 E0.296
G1 Y70.53 E0.031
G1 X48.6 Y76.44 E0.248
G1 X49.11 E0.015
G1 X49.44 Y76.68 E0.012
G1 X54.42 Y71.73 E0.21
G1 Y72.81 E0.032
G1 X49.56 Y77.73 E0.207
G1 Y78.78 E0.031
G1 X54.42 Y74.01 E0.204
G1 Y75.06 E0.031
G1 X49.56 Y80.01 E0.208
G1 Y81.06 E0.031
G1 X54.42 Y76.26 E0.204
G1 Y77.31 E0.031
G1 X49.56 Y82.26 E0.208
G1 Y83.31 E0.031
G1 X54.42 Y78.54 E0.204
G1 Y79.59 E0.031
G1 X49.56 Y84.51 E0.207
G1 Y85.59 E0.032
G1 X54.42 Y80.79 E0.204
G1 Y81.84 E0.031
G1 X49.56 Y86.79 E0.208
G1 Y87.84 E0.031
G1 X54.42 Y83.07 E0.204
G1 Y84.12 E0.031
G1 X49.56 Y89.04 E0.207
G1 Y90.09 E0.031
G1 X54.42 Y85.32 E0.204
G1 Y86.37 E0.031
G1 X50.43 Y90.45 E0.171
G1 X51.48 E0.031
G1 X54.42 Y87.57 E0.123
G1 Y88.65 E0.032
G1 X52.68 Y90.45 E0.075
G1 X53.73 E0.031
G1 X54.42 Y89.82 E0.028
G1 F5388.1
G1 E-2.993
G1 F2500.0
G1 X40.41 Y90.27 F15000.0
G1 F5388.1
G1 E2.993
G1 F2500.0
G1 F74.8
G1 E0.062
G1 F2500.0
G1 X40.17 Y90.45 E0.009
G1 X39.12 E0.031
G1 X40.41 Y89.07 E0.057
G1 Y88.02 E0.031
G1 X37.98 Y90.45 E0.103
G1 F5388.1
G1 E-2.993
G1 F2500.0
G1 X40.41 Y86.88 F15000.0
G1 F5388.1
G1 E2.993
G1 F2500.0
G1 F74.8
G1 E0.062
G1 F2500.0
G1 X36.81 Y90.42 E0.151
G1 X35.73 E0.032
G1 X40.41 Y85.68 E0.199
G1 Y84.63 E0.031
G1 X35.55 Y89.4 E0.204
G1 Y88.35 E0.031
G1 X40.41 Y83.43 E0.207
G1 Y82.35 E0.032
G1 X35.55 Y87.15 E0.204
G1 Y86.1 E0.031
G1 X40.41 Y81.15 E0.208
G1 Y80.1 E0.031
G1 X35.55 Y84.87 E0.204
G1 Y83.82 E0.031
G1 X40.41 Y78.9 E0.207
G1 Y77.82 E0.032
G1 X35.55 Y82.68 E0.206
G1 F5388.1
G1 E-2.993
G1 F2500.0
G1 X77.91 Y82.89 F15000.0
G1 F5388.1
G1 E2.993
G1 F2500.0
G1 F74.8
G1 E0.062
G1 F2500.0
G1 X77.82 Y83.04 E0.005 F2250.0
G1 Y97.86 E0.444
G1 X72.12 Y97.83 E0.171
G1 X72.09 Y82.98 E0.445
G1 X72.03 Y82.86 E0.004
G1 X65.13 Y82.83 E0.207
G1 Y48.18 E1.037
G1 X84.81 Y48.24 E0.589
G1 Y82.86 E1.036
G1 X77.91 Y82.89 E0.207
G1 X77.79 Y82.65 E0.008
G1 X77.58 Y82.86 E0.009
G1 X77.52 Y83.04 E0.006
G1 Y97.56 E0.435
G1 X72.42 Y97.5 E0.153
G1 X72.39 Y82.98 E0.435
G1 X72.21 Y82.65 E0.011
G1 X72.06 Y82.56 E0.005
G1 X65.43 E0.198
G1 Y48.48 E1.02
G1 X84.51 Y48.54 E0.571
G1 X84.48 Y82.56 E1.018
G1 X77.79 Y82.65 E0.2
G1 F5388.1
G1 E-2.993
G1 F2500.0
G1 X77.91 Y82.89
G1 X79.53 Y66.93 F15000.0
G1 F5388.1
G1 E2.993
G1 F2500.0
G1 F74.8
G1 E0.062
G1 F2500.0
G1 X75.48 Y66.87 E0.121 F2250.0
G1 X75.39 Y66.78 E0.004
G1 X74.49 E0.027
G1 X74.4 Y66.93 E0.005
G1 X70.41 E0.119
G1 X70.32 Y67.08 E0.005
G1 X70.35 Y69.03 E0.058
G1 X70.44 Y69.12 E0.004
G1 X73.8 E0.101
G1 X73.77 Y72.36 E0.097
G1 X70.41 E0.101
G1 X70.35 Y72.54 E0.006
G1 X70.38 Y79.56 E0.21
G1 X70.44 Y79.68 E0.004
G1 X79.59 Y79.59 E0.274
G1 X79.56 Y72.42 E0.215
G1 X79.47 Y72.36 E0.003
G1 X76.14 E0.1
G1 Y69.12 E0.097
G1 X79.53 Y69.09 E0.101
G1 X79.62 Y68.91 E0.006
G1 X79.59 Y67.05 E0.056
G1 X79.53 Y66.93 E0.004
G1 X79.71 Y66.72 E0.008
G1 X79.56 Y66.63 E0.005
G1 X75.63 Y66.6 E0.118
G1 X75.39 Y66.48 E0.008
G1 X74.43 Y66.51 E0.029
G1 X74.25 Y66.63 E0.006
G1 X70.26 Y66.69 E0.119
G1 X70.05 Y66.96 E0.01
G1 Y69.12 E0.065
G1 X70.32 Y69.39 E0.011
G1 X73.5 Y69.45 E0.095
G1 X73.47 Y72.06 E0.078
G1 X70.23 Y72.12 E0.097
G1 X70.05 Y72.39 E0.01
G1 X70.08 Y79.56 E0.215
G1 X70.26 Y79.89 E0.011
G1 X70.41 Y79.98 E0.005
G1 X79.65 Y79.89 E0.277
G1 X79.86 Y79.68 E0.009
G1 X79.83 Y72.36 E0.219
G1 X79.65 Y72.12 E0.009
G1 X79.53 Y72.06 E0.004
G1 X76.44 E0.092
G1 Y69.42 E0.079
G1 X79.62 Y69.36 E0.095
G1 X79.89 Y69.09 E0.011
G1 Y67.05 E0.061
G1 X79.71 Y66.72 E0.011
G1 F5388.1
G1 E-2.993
G1 F2500.0
G1 X79.53 Y66.93
G1 X79.62 Y66.54 F15000.0
G1 F5388.1
G1 E2.993
G1 F2500.0
G1 F74.8
G1 E0.062
G1 F2500.0
G1 X79.44 Y66.42 E0.006
G1 X79.32 E0.004
G1 X79.14 Y66.51 E0.006
G1 X78.81 E0.01
G1 X78.87 Y66.42 E0.003
G1 X78.48 E0.012
G1 X78.3 Y66.51 E0.006
G1 X77.97 E0.01
G1 X78.0 Y66.42 E0.003
G1 X77.64 E0.011
G1 X77.4 Y66.51 E0.008
G1 X77.13 E0.008
G1 X77.16 Y66.42 E0.003
G1 X76.77 E0.012
G1 X76.59 Y66.51 E0.006
G1 X76.26 E0.01
G1 X76.32 Y66.42 E0.003
G1 X75.93 E0.012
G1 X75.84 Y66.51 E0.004
G1 F5388.1
G1 E-2.993
G1 F2500.0
G1 X74.22 Y66.42 F15000.0
G1 F5388.1
G1 E2.993
G1 F2500.0
G1 F74.8
G1 E0.062
G1 F2500.0
G1 X74.04 Y66.51 E0.006
G1 X73.71 E0.01
G1 X73.77 Y66.42 E0.003
G1 X73.38 E0.012
G1 X73.2 Y66.51 E0.006
G1 X72.87 E0.01
G1 X72.93 Y66.42 E0.003
G1 X72.54 E0.012
G1 X72.36 Y66.51 E0.006
G1 X72.03 E0.01
G1 X72.06 Y66.42 E0.003
G1 X71.7 E0.011
G1 X71.46 Y66.51 E0.008
G1 X71.19 E0.008
G1 X71.22 Y66.42 E0.003
G1 X70.83 E0.012
G1 X70.65 Y66.51 E0.006
G1 X70.38 E0.008
G1 Y66.45 E0.002
G1 X70.32 Y66.51 E0.003
G1 F5388.1
G1 E-2.993
G1 F2500.0
G1 Y69.48 F15000.0
G1 F5388.1
G1 E2.993
G1 F2500.0
G1 F74.8
G1 E0.062
G1 F2500.0
G1 Y69.54 E0.002
G1 X70.53 Y69.6 E0.007
G1 X70.71 Y69.51 E0.006
G1 X71.1 E0.012
G1 X71.07 Y69.6 E0.003
G1 X71.34 E0.008
G1 X71.58 Y69.51 E0.008
G1 X71.94 E0.011
G1 X71.91 Y69.6 E0.003
G1 X72.21 Y69.63 E0.009
G1 X72.42 Y69.51 E0.007
G1 X72.81 E0.012
G1 X72.72 Y69.63 E0.004
G1 X73.05 E0.01
G1 X73.26 Y69.51 E0.007
G1 X73.41 Y69.72 E0.008
G1 X71.19 Y71.94 E0.094
G1 X72.24 E0.031
G1 X73.41 Y70.83 E0.048
G1 F5388.1
G1 E-2.993
G1 F2500.0
G1 X79.62 Y69.51 F15000.0
G1 F5388.1
G1 E2.993
G1 F2500.0
G1 F74.8
G1 E0.062
G1 F2500.0
G1 X79.2 E0.013
G1 X78.99 Y69.63 E0.007
G1 X78.66 E0.01
G1 X78.75 Y69.51 E0.004
G1 X78.36 E0.012
G1 X78.15 Y69.63 E0.007
G1 X77.82 E0.01
G1 X77.88 Y69.51 E0.004
G1 X77.52 E0.011
G1 X77.28 Y69.6 E0.008
G1 X77.01 E0.008
G1 X77.04 Y69.51 E0.003
G1 X76.65 E0.012
G1 X76.56 Y69.6 E0.004
G1 X77.01 Y69.51 E0.014
G1 X76.56 Y69.96 E0.019
G1 Y71.01 E0.031
G1 X78.18 Y69.48 E0.067
G1 X79.23 E0.031
G1 X76.86 Y71.94 E0.102
G1 X77.91 E0.031
G1 X84.42 Y65.49 E0.274
G1 Y66.57 E0.032
G1 X79.11 Y71.94 E0.226
G1 X79.62 Y71.97 E0.015
G1 X79.92 Y72.21 E0.012
G1 X84.42 Y67.77 E0.189
G1 Y68.82 E0.031
G1 X80.01 Y73.32 E0.189
G1 Y74.37 E0.031
G1 X84.42 Y70.02 E0.185
G1 Y71.07 E0.031
G1 X80.01 Y75.57 E0.189
G1 Y76.62 E0.031
G1 X84.42 Y72.3 E0.185
G1 Y73.35 E0.031
G1 X80.01 Y77.82 E0.188
G1 Y78.9 E0.032
G1 X84.42 Y74.55 E0.185
G1 Y75.6 E0.031
G1 X72.54 Y87.57 E0.505
G1 Y88.62 E0.031
G1 X77.43 Y83.82 E0.205
G1 Y84.87 E0.031
G1 X72.54 Y89.82 E0.208
G1 Y90.87 E0.031
G1 X77.43 Y86.07 E0.205
G1 Y87.12 E0.031
G1 X72.54 Y92.1 E0.209
G1 Y93.15 E0.031
G1 X77.43 Y88.32 E0.206
G1 Y89.4 E0.032
G1 X72.54 Y94.35 E0.208
G1 Y95.4 E0.031
G1 X77.43 Y90.6 E0.205
G1 Y91.65 E0.031
G1 X72.54 Y96.6 E0.208
G1 Y97.38 E0.023
G1 X72.81 Y97.41 E0.008
G1 X77.43 Y92.85 E0.194
G1 Y93.9 E0.031
G1 X74.01 Y97.41 E0.147
G1 X75.03 Y97.44 E0.031
G1 X77.43 Y95.13 E0.1
G1 Y96.18 E0.031
G1 X76.23 Y97.44 E0.052
G1 X77.19 E0.029
G1 X77.43 Y97.38 E0.007
G1 F5388.1
G1 E-2.993
G1 F2500.0
G1 X78.75 Y82.47 F15000.0
G1 F5388.1
G1 E2.993
G1 F2500.0
G1 F74.8
G1 E0.062
G1 F2500.0
G1 X84.42 Y76.83 E0.239
G1 Y77.88 E0.031
G1 X79.89 Y82.47 E0.193
G1 X80.94 E0.031
G1 X84.42 Y79.08 E0.145
G1 Y80.13 E0.031
G1 X82.2 Y82.44 E0.096
G1 X83.25 E0.031
G1 X84.42 Y81.33 E0.048
G1 F5388.1
G1 E-2.993
G1 F2500.0
G1 X78.93 Y80.04 F15000.0
G1 F5388.1
G1 E2.993
G1 F2500.0
G1 F74.8
G1 E0.062
G1 F2500.0
G1 X72.54 Y86.37 E0.269
G1 Y85.29 E0.032
G1 X77.73 Y80.04 E0.221
G1 X76.68 E0.031
G1 X72.54 Y84.09 E0.173
G1 Y83.04 E0.031
G1 X75.45 Y80.04 E0.125
G1 X74.37 Y80.07 E0.032
G1 X71.94 Y82.44 E0.102
G1 X70.89 E0.031
G1 X73.17 Y80.07 E0.098
G1 X72.12 E0.031
G1 X69.66 Y82.44 E0.102
G1 X68.61 E0.031
G1 X70.92 Y80.07 E0.099
G1 X70.32 Y80.04 E0.018
G1 X70.08 Y79.83 E0.01
G1 X67.41 Y82.44 E0.112
G1 X66.36 E0.031
G1 X69.96 Y78.75 E0.154
G1 Y77.7 E0.031
G1 X65.55 Y82.02 E0.185
G1 Y80.97 E0.031
G1 X69.96 Y76.5 E0.188
G1 Y75.45 E0.031
G1 X65.55 Y79.77 E0.185
G1 Y78.72 E0.031
G1 X69.96 Y74.22 E0.189
G1 Y73.17 E0.031
G1 X65.55 Y77.52 E0.185
G1 Y76.44 E0.032
G1 X72.42 Y69.51 E0.292
G1 X71.37 E0.031
G1 X65.55 Y75.24 E0.244
G1 Y74.19 E0.031
G1 X70.23 Y69.45 E0.199
G1 X69.96 Y69.09 E0.013
G1 X69.93 Y68.67 E0.013
G1 X65.55 Y72.99 E0.184
G1 Y71.94 E0.031
G1 X69.93 Y67.47 E0.187
G1 X69.99 Y66.84 E0.019
G1 X70.32 Y66.54 E0.013
G1 X70.95 Y66.51 E0.019
G1 X84.42 Y52.98 E0.572
G1 Y51.93 E0.031
G1 X65.55 Y70.71 E0.797
G1 Y69.66 E0.031
G1 X84.42 Y50.73 E0.8
G1 Y49.65 E0.032
G1 X65.55 Y68.46 E0.798
G1 Y67.41 E0.031
G1 X84.27 Y48.6 E0.794
G1 X83.22 E0.031
G1 X65.55 Y66.18 E0.746
G1 Y65.13 E0.031
G1 X82.02 Y48.6 E0.698
G1 X80.97 E0.031
G1 X65.55 Y63.93 E0.651
G1 Y62.88 E0.031
G1 X79.74 Y48.6 E0.603
G1 X78.69 E0.031
G1 X65.55 Y61.68 E0.555
G1 Y60.6 E0.032
G1 X77.49 Y48.6 E0.507
G1 X76.44 E0.031
G1 X65.55 Y59.4 E0.459
G1 Y58.35 E0.031
G1 X75.24 Y48.6 E0.411
G1 X74.19 Y48.57 E0.031
G1 X65.55 Y57.15 E0.364
G1 Y56.1 E0.031
G1 X72.99 Y48.57 E0.317
G1 X71.94 E0.031
G1 X65.55 Y54.87 E0.269
G1 Y53.82 E0.031
G1 X70.74 Y48.57 E0.221
G1 X69.66 E0.032
G1 X65.55 Y52.62 E0.173
G1 Y51.57 E0.031
G1 X68.46 Y48.57 E0.125
G1 X67.41 E0.031
G1 X65.55 Y50.37 E0.077
G1 Y49.29 E0.032
G1 X66.27 Y48.57 E0.03
G1 F5388.1
G1 E-2.993
G1 F2500.0
G1 X84.42 Y54.18 F15000.0
G1 F5388.1
G1 E2.993
G1 F2500.0
G1 F74.8
G1 E0.062
G1 F2500.0
G1 X72.09 Y66.51 E0.522
G1 X73.14 E0.031
G1 X84.42 Y55.29 E0.476
G1 Y56.37 E0.032
G1 X74.49 Y66.36 E0.422
G1 X75.57 Y66.39 E0.032
G1 X84.42 Y57.57 E0.374
G1 Y58.65 E0.032
G1 X76.65 Y66.48 E0.33
G1 X77.67 Y66.51 E0.031
G1 X84.42 Y59.85 E0.284
G1 Y60.9 E0.031
G1 X78.9 Y66.51 E0.236
G1 X79.53 E0.019
G1 X79.83 Y66.66 E0.01
G1 X84.42 Y62.1 E0.194
G1 Y63.15 E0.031
G1 X80.04 Y67.62 E0.187
G1 Y68.67 E0.031
G1 X84.42 Y64.35 E0.184
G1 F5388.1
G1 E-2.993
G1 F2500.0
;#!LAYER: 6/106
G92 E0
G1 Z1.44 F200.0
G1 X43.89 Y59.91 F15000.0
T0
G1 F5388.1
G1 E2.993
G1 F2500.0
G1 F74.8
G1 E0.062
G1 F2500.0
G1 X43.8 Y60.06 E0.005 F2250.0
G1 X43.86 Y62.13 E0.062
G1 X43.92 Y62.19 E0.003
G1 X54.81 E0.326
G1 X54.78 Y90.87 E0.859
G1 X49.14 Y90.84 E0.169
G1 X49.11 Y76.98 E0.415
G1 X48.99 Y76.86 E0.005
G1 X40.89 E0.242
G1 X40.8 Y77.04 E0.006
G1 X40.77 Y90.87 E0.414
G1 X35.13 Y90.84 E0.169
G1 Y51.18 E1.187
G1 X54.81 Y51.21 E0.589
G1 X54.78 Y59.88 E0.26
G1 X43.89 Y59.91 E0.326
G1 X43.83 Y59.64 E0.008
G1 X43.53 Y59.94 E0.013
G1 X43.56 Y62.19 E0.067
G1 X43.83 Y62.46 E0.011
G1 X54.51 Y62.49 E0.32
G1 X54.48 Y90.57 E0.841
G1 X49.44 E0.151
G1 X49.41 Y76.86 E0.41
G1 X49.14 Y76.59 E0.011
G1 X40.71 Y76.62 E0.252
G1 X40.5 Y77.01 E0.013
G1 X40.47 Y90.57 E0.406
G1 X35.43 Y90.54 E0.151
G1 Y51.48 E1.169
G1 X54.51 Y51.51 E0.571
G1 Y59.58 E0.242
G1 X43.83 Y59.64 E0.32
G1 F5388.1
G1 E-2.993
G1 F2500.0
G1 X43.89 Y59.91
G1 X43.71 Y59.55 F15000.0
G1 F5388.1
G1 E2.993
G1 F2500.0
G1 F74.8
G1 E0.062
G1 F2500.0
G1 X35.76 Y51.57 E0.337
G1 X36.81 E0.031
G1 X44.79 Y59.49 E0.337
G1 X45.84 E0.031
G1 X38.01 Y51.57 E0.333
G1 X39.06 E0.031
G1 X47.07 Y59.49 E0.337
G1 X48.12 E0.031
G1 X40.26 Y51.57 E0.334
G1 X41.34 E0.032
G1 X49.32 Y59.49 E0.337
G1 X50.34 Y59.46 E0.031
G1 X42.54 Y51.57 E0.332
G1 X43.59 E0.031
G1 X51.57 Y59.46 E0.336
G1 X52.62 E0.031
G1 X44.79 Y51.57 E0.333
G1 X45.87 Y51.6 E0.032
G1 X53.82 Y59.46 E0.335
G1 X54.39 E0.017
G1 X54.42 Y59.01 E0.014
G1 X47.1 Y51.6 E0.312
G1 X48.15 E0.031
G1 X54.42 Y57.81 E0.264
G1 Y56.73 E0.032
G1 X49.35 Y51.6 E0.216
G1 X50.4 E0.031
G1 X54.42 Y55.53 E0.168
G1 Y54.48 E0.031
G1 X51.6 Y51.6 E0.121
G1 X52.68 E0.032
G1 X54.42 Y53.28 E0.072
G1 Y52.23 E0.031
G1 X53.85 Y51.6 E0.025
G1 F5388.1
G1 E-2.993
G1 F2500.0
G1 X53.52 Y62.58 F15000.0
G1 F5388.1
G1 E2.993
G1 F2500.0
G1 F74.8
G1 E0.062
G1 F2500.0
G1 X54.42 Y63.54 E0.039
G1 Y64.59 E0.031
G1 X52.35 Y62.58 E0.086
G1 X51.27 E0.032
G1 X54.42 Y65.79 E0.135
G1 Y66.84 E0.031
G1 X50.07 Y62.58 E0.182
G1 X49.02 E0.031
G1 X54.42 Y68.07 E0.231
G1 Y69.12 E0.031
G1 X47.82 Y62.58 E0.278
G1 X46.77 E0.031
G1 X54.42 Y70.32 E0.326
G1 Y71.37 E0.031
G1 X45.54 Y62.58 E0.374
G1 X44.49 E0.031
G1 X54.42 Y72.57 E0.422
G1 Y73.65 E0.032
G1 X35.55 Y54.84 E0.798
G1 Y55.89 E0.031
G1 X54.42 Y74.85 E0.801
G1 Y75.9 E0.031
G1 X35.55 Y57.12 E0.797
G1 Y58.17 E0.031
G1 X54.42 Y77.1 E0.8
G1 Y78.15 E0.031
G1 X35.55 Y59.37 E0.797
G1 Y60.42 E0.031
G1 X54.42 Y79.38 E0.801
G1 Y80.43 E0.031
G1 X35.55 Y61.62 E0.798
G1 Y62.7 E0.032
G1 X54.42 Y81.63 E0.8
G1 Y82.68 E0.031
G1 X49.56 Y77.91 E0.204
G1 Y78.96 E0.031
G1 X54.42 Y83.91 E0.208
G1 Y84.96 E0.031
G1 X49.56 Y80.16 E0.204
G1 Y81.21 E0.031
G1 X54.42 Y86.16 E0.208
G1 Y87.21 E0.031
G1 X49.56 Y82.44 E0.204
G1 Y83.49 E0.031
G1 X54.42 Y88.41 E0.207
G1 Y89.49 E0.032
G1 X49.56 Y84.69 E0.204
G1 Y85.74 E0.031
G1 X54.18 Y90.45 E0.197
G1 X53.13 E0.031
G1 X49.56 Y86.97 E0.149
G1 Y88.02 E0.031
G1 X51.93 Y90.45 E0.102
G1 X50.88 E0.031
G1 X49.56 Y89.22 E0.054
G1 Y90.27 E0.031
G1 X49.71 Y90.45 E0.007
G1 F5388.1
G1 E-2.993
G1 F2500.0
G1 X35.55 Y89.85 F15000.0
G1 F5388.1
G1 E2.993
G1 F2500.0
G1 F74.8
G1 E0.062
G1 F2500.0
G1 X36.12 Y90.42 E0.024
G1 X37.2 E0.032
G1 X35.55 Y88.71 E0.071
G1 Y87.66 E0.031
G1 X38.43 Y90.45 E0.12
G1 X39.48 E0.031
G1 X35.55 Y86.46 E0.168
G1 Y85.38 E0.032
G1 X40.41 Y90.18 E0.204
G1 Y89.13 E0.031
G1 X35.55 Y84.18 E0.208
G1 Y83.13 E0.031
G1 X40.41 Y87.9 E0.204
G1 Y86.85 E0.031
G1 X35.55 Y81.93 E0.207
G1 Y80.85 E0.032
G1 X40.41 Y85.65 E0.204
G1 Y84.6 E0.031
G1 X35.55 Y79.65 E0.208
G1 Y78.6 E0.031
G1 X40.41 Y83.4 E0.204
G1 Y82.32 E0.032
G1 X35.55 Y77.4 E0.207
G1 Y76.35 E0.031
G1 X40.41 Y81.12 E0.204
G1 Y80.07 E0.031
G1 X35.55 Y75.12 E0.208
G1 Y74.07 E0.031
G1 X40.41 Y78.87 E0.204
G1 Y77.82 E0.031
G1 X35.55 Y72.87 E0.208
G1 Y71.82 E0.031
G1 X40.53 Y76.68 E0.208
G1 X40.77 Y76.47 E0.01
G1 X41.31 Y76.44 E0.016
G1 X35.55 Y70.62 E0.245
G1 Y69.54 E0.032
G1 X42.51 Y76.44 E0.293
G1 X43.56 E0.031
G1 X35.55 Y68.34 E0.341
G1 Y67.29 E0.031
G1 X44.79 Y76.44 E0.389
G1 X45.84 E0.031
G1 X35.55 Y66.09 E0.437
G1 Y65.04 E0.031
G1 X47.04 Y76.44 E0.485
G1 X48.09 E0.031
G1 X35.55 Y63.84 E0.532
G1 F5388.1
G1 E-2.993
G1 F2500.0
G1 Y53.64 F15000.0
G1 F5388.1
G1 E2.993
G1 F2500.0
G1 F74.8
G1 E0.062
G1 F2500.0
G1 X43.41 Y61.5 E0.333
G1 Y60.45 E0.031
G1 X35.55 Y52.53 E0.334
G1 F5388.1
G1 E-2.993
G1 F2500.0
G1 X70.44 Y79.68 F15000.0
G1 F5388.1
G1 E2.993
G1 F2500.0
G1 F74.8
G1 E0.062
G1 F2500.0
G1 X79.53 Y79.65 E0.272 F2250.0
G1 X79.59 Y79.44 E0.007
G1 X79.56 Y72.42 E0.21
G1 X79.47 Y72.36 E0.003
G1 X76.14 Y72.33 E0.1
G1 Y68.88 E0.103
G1 X79.59 Y68.79 E0.103
G1 Y67.23 E0.047
G1 X79.5 Y67.17 E0.003
G1 X75.69 E0.114
G1 X75.33 Y66.81 E0.015
G1 X74.55 Y66.84 E0.023
G1 X74.22 Y67.17 E0.014
G1 X70.41 E0.114
G1 X70.32 Y67.32 E0.005
G1 X70.38 Y68.79 E0.044
G1 X70.47 Y68.88 E0.004
G1 X73.8 E0.1
G1 Y72.36 E0.104
G1 X70.35 Y72.42 E0.103
G1 X70.38 Y79.56 E0.214
G1 X70.44 Y79.68 E0.004
G1 X70.26 Y79.89 E0.008
G1 X70.41 Y79.98 E0.005
G1 X79.59 Y79.92 E0.275
G1 X79.89 Y79.62 E0.013
G1 X79.86 Y72.36 E0.217
G1 X79.59 Y72.09 E0.011
G1 X76.44 Y72.06 E0.094
G1 X76.47 Y69.18 E0.086
G1 X79.71 Y69.09 E0.097
G1 X79.89 Y68.82 E0.01
G1 Y67.29 E0.046
G1 X79.71 Y66.96 E0.011
G1 X79.56 Y66.87 E0.005
G1 X75.84 E0.111
G1 X75.51 Y66.57 E0.013
G1 X75.39 Y66.51 E0.004
G1 X74.4 Y66.6 E0.03
G1 X74.07 Y66.87 E0.013
G1 X70.32 Y66.9 E0.112
G1 X70.08 Y67.14 E0.01
G1 Y68.88 E0.052
G1 X70.35 Y69.15 E0.011
G1 X73.5 Y69.18 E0.094
G1 Y72.06 E0.086
G1 X70.23 Y72.12 E0.098
G1 X70.05 Y72.39 E0.01
G1 X70.08 Y79.56 E0.215
G1 X70.26 Y79.89 E0.011
G1 F5388.1
G1 E-2.993
G1 F2500.0
G1 X70.44 Y79.68
G1 X77.91 Y82.89 F15000.0
G1 F5388.1
G1 E2.993
G1 F2500.0
G1 F74.8
G1 E0.062
G1 F2500.0
G1 X77.82 Y83.04 E0.005 F2250.0
G1 Y97.86 E0.444
G1 X72.12 Y97.83 E0.171
G1 X72.09 Y82.98 E0.445
G1 X72.03 Y82.86 E0.004
G1 X65.13 Y82.83 E0.207
G1 Y48.18 E1.037
G1 X84.81 Y48.24 E0.589
G1 Y82.86 E1.036
G1 X77.91 Y82.89 E0.207
G1 X77.79 Y82.65 E0.008
G1 X77.58 Y82.86 E0.009
G1 X77.52 Y83.04 E0.006
G1 Y97.56 E0.435
G1 X72.42 Y97.5 E0.153
G1 X72.39 Y82.98 E0.435
G1 X72.21 Y82.65 E0.011
G1 X72.06 Y82.56 E0.005
G1 X65.43 E0.198
G1 Y48.48 E1.02
G1 X84.51 Y48.54 E0.571
G1 X84.48 Y82.56 E1.018
G1 X77.79 Y82.65 E0.2
G1 F5388.1
G1 E-2.993
G1 F2500.0
G1 X77.91 Y82.89
G1 X69.96 Y77.88 F15000.0
G1 F5388.1
G1 E2.993
G1 F2500.0
G1 F74.8
G1 E0.062
G1 F2500.0
G1 X65.55 Y73.44 E0.187
G1 Y72.39 E0.031
G1 X69.96 Y76.74 E0.185
G1 Y75.69 E0.031
G1 X65.55 Y71.19 E0.189
G1 Y70.14 E0.031
G1 X69.96 Y74.46 E0.185
G1 Y73.41 E0.031
G1 X65.55 Y68.94 E0.188
G1 Y67.86 E0.032
G1 X70.02 Y72.24 E0.187
G1 X70.23 Y72.0 E0.01
G1 X70.74 Y71.94 E0.015
G1 X65.55 Y66.66 E0.222
G1 Y65.61 E0.031
G1 X71.94 Y71.94 E0.269
G1 X73.02 E0.032
G1 X70.38 Y69.24 E0.113
G1 X71.46 Y69.27 E0.032
G1 X73.41 Y71.13 E0.081
G1 Y70.08 E0.031
G1 X72.66 Y69.27 E0.033
G1 X73.11 Y69.3 E0.014
G1 X73.17 Y69.39 E0.003
G1 X72.81 E0.011
G1 X72.57 Y69.3 E0.008
G1 X72.27 E0.009
G1 X72.33 Y69.39 E0.003
G1 X71.94 E0.012
G1 X71.73 Y69.27 E0.007
G1 X71.4 E0.01
G1 X71.49 Y69.39 E0.004
G1 X71.1 E0.012
G1 X70.89 Y69.27 E0.007
G1 X70.56 E0.01
G1 X70.65 Y69.39 E0.004
G1 F5388.1
G1 E-2.993
G1 F2500.0
G1 X69.99 Y68.85 F15000.0
G1 F5388.1
G1 E2.993
G1 F2500.0
G1 F74.8
G1 E0.062
G1 F2500.0
G1 X65.55 Y64.41 E0.188
G1 Y63.36 E0.031
G1 X69.96 Y67.68 E0.185
G1 Y67.17 E0.015
G1 X70.2 Y66.84 E0.012
G1 X65.55 Y62.13 E0.198
G1 Y61.08 E0.031
G1 X71.28 Y66.75 E0.241
G1 X72.36 E0.032
G1 X65.55 Y59.88 E0.29
G1 Y58.83 E0.031
G1 X73.56 Y66.75 E0.337
G1 X74.04 E0.014
G1 X74.37 Y66.48 E0.013
G1 X65.55 Y57.63 E0.374
G1 Y56.55 E0.032
G1 X75.48 Y66.42 E0.419
G1 X75.87 Y66.72 E0.015
G1 X76.86 Y66.75 E0.03
G1 X65.55 Y55.35 E0.481
G1 Y54.3 E0.031
G1 X78.09 Y66.75 E0.529
G1 X79.14 E0.031
G1 X65.55 Y53.1 E0.577
G1 Y52.02 E0.032
G1 X84.42 Y70.83 E0.798
G1 Y69.78 E0.031
G1 X65.55 Y50.82 E0.801
G1 Y49.77 E0.031
G1 X84.42 Y68.58 E0.798
G1 Y67.5 E0.032
G1 X65.55 Y48.57 E0.8
G1 X66.6 E0.031
G1 X84.42 Y66.3 E0.752
G1 Y65.25 E0.031
G1 X67.83 Y48.57 E0.704
G1 X68.88 E0.031
G1 X84.42 Y64.05 E0.657
G1 Y62.97 E0.032
G1 X70.08 Y48.57 E0.608
G1 X71.13 E0.031
G1 X84.42 Y61.77 E0.561
G1 Y60.72 E0.031
G1 X72.33 Y48.57 E0.513
G1 X73.41 E0.032
G1 X84.42 Y59.52 E0.465
G1 Y58.47 E0.031
G1 X74.61 Y48.57 E0.417
G1 X75.69 Y48.6 E0.032
G1 X84.42 Y57.24 E0.368
G1 Y56.19 E0.031
G1 X76.89 Y48.6 E0.32
G1 X77.97 E0.032
G1 X84.42 Y54.99 E0.272
G1 Y53.94 E0.031
G1 X79.17 Y48.6 E0.224
G1 X80.22 E0.031
G1 X84.42 Y52.74 E0.177
G1 Y51.66 E0.032
G1 X81.42 Y48.6 E0.128
G1 X82.47 E0.031
G1 X84.42 Y50.46 E0.081
G1 Y49.41 E0.031
G1 X83.67 Y48.6 E0.033
G1 F5388.1
G1 E-2.993
G1 F2500.0
G1 X79.44 Y66.72 F15000.0
G1 F5388.1
G1 E2.993
G1 F2500.0
G1 F74.8
G1 E0.062
G1 F2500.0
G1 X76.95 Y66.75 E0.075
G1 X76.59 Y66.69 E0.011
G1 X76.47 E0.004
G1 Y66.75 E0.002
G1 X76.11 E0.011
G1 X76.02 Y66.69 E0.003
G1 F5388.1
G1 E-2.993
G1 F2500.0
G1 X73.89 F15000.0
G1 F5388.1
G1 E2.993
G1 F2500.0
G1 F74.8
G1 E0.062
G1 F2500.0
G1 X73.92 Y66.75 E0.002
G1 X73.56 E0.011
G1 X73.2 Y66.69 E0.011
G1 X73.08 E0.004
G1 Y66.75 E0.002
G1 X72.69 E0.012
G1 X72.51 Y66.66 E0.006
G1 X72.18 E0.01
G1 X72.27 Y66.78 E0.004
G1 X71.88 E0.012
G1 X71.67 Y66.66 E0.007
G1 X71.34 E0.01
G1 X71.43 Y66.78 E0.004
G1 X71.04 E0.012
G1 X70.8 Y66.66 E0.008
G1 X70.5 E0.009
G1 X70.59 Y66.78 E0.004
G1 F5388.1
G1 E-2.993
G1 F2500.0
G1 X76.56 Y70.89 F15000.0
G1 F5388.1
G1 E2.993
G1 F2500.0
G1 F74.8
G1 E0.062
G1 F2500.0
G1 X77.61 Y71.94 E0.044
G1 X78.66 E0.031
G1 X76.56 Y69.78 E0.09
G1 Y69.36 E0.013
G1 X77.01 Y69.39 E0.014
G1 X76.92 Y69.27 E0.004
G1 X77.25 E0.01
G1 X77.46 Y69.39 E0.007
G1 X77.85 E0.012
G1 X77.76 Y69.27 E0.004
G1 X78.09 E0.01
G1 X78.3 Y69.39 E0.007
G1 X78.69 E0.012
G1 X78.63 Y69.27 E0.004
G1 X78.93 E0.009
G1 X79.17 Y69.39 E0.008
G1 X79.5 Y69.36 E0.01
G1 X79.44 Y69.27 E0.003
G1 F5388.1
G1 E-2.993
G1 F2500.0
G1 X80.04 Y67.59 F15000.0
G1 F5388.1
G1 E2.993
G1 F2500.0
G1 F74.8
G1 E0.062
G1 F2500.0
G1 X84.42 Y72.03 E0.187
G1 Y73.08 E0.031
G1 X80.01 Y68.76 E0.185
G1 X79.86 Y69.06 E0.01
G1 X79.56 Y69.24 E0.01
G1 X79.44 E0.004
G1 X84.42 Y74.31 E0.213
G1 Y75.36 E0.031
G1 X78.24 Y69.24 E0.26
G1 X77.19 Y69.27 E0.031
G1 X84.42 Y76.56 E0.307
G1 Y77.61 E0.031
G1 X80.01 Y73.29 E0.185
G1 Y74.34 E0.031
G1 X84.42 Y78.81 E0.188
G1 Y79.89 E0.032
G1 X80.01 Y75.54 E0.185
G1 Y76.59 E0.031
G1 X84.42 Y81.09 E0.189
G1 Y82.14 E0.031
G1 X80.01 Y77.82 E0.185
G1 Y78.87 E0.031
G1 X83.52 Y82.44 E0.15
G1 X82.44 E0.032
G1 X79.83 Y79.89 E0.109
G1 X79.53 Y80.04 E0.01
G1 X78.93 E0.018
G1 X81.27 Y82.47 E0.101
G1 X80.22 E0.031
G1 X77.73 Y80.04 E0.104
G1 X76.65 E0.032
G1 X79.02 Y82.47 E0.102
G1 X77.97 E0.031
G1 X75.45 Y80.04 E0.105
G1 X74.43 Y80.07 E0.031
G1 X77.43 Y83.16 E0.129
G1 Y84.21 E0.031
G1 X73.23 Y80.07 E0.177
G1 X72.18 E0.031
G1 X77.43 Y85.41 E0.224
G1 Y86.46 E0.031
G1 X70.95 Y80.07 E0.272
G1 X70.32 Y80.04 E0.019
G1 X69.99 Y79.68 E0.015
G1 X69.96 Y79.02 E0.02
G1 X65.55 Y74.67 E0.185
G1 Y75.72 E0.031
G1 X77.43 Y87.66 E0.504
G1 Y88.74 E0.032
G1 X72.54 Y83.91 E0.206
G1 Y84.96 E0.031
G1 X77.43 Y89.94 E0.209
G1 Y90.99 E0.031
G1 X72.54 Y86.19 E0.205
G1 Y87.24 E0.031
G1 X77.43 Y92.19 E0.208
G1 Y93.24 E0.031
G1 X72.54 Y88.44 E0.205
G1 Y89.49 E0.031
G1 X77.43 Y94.47 E0.209
G1 Y95.52 E0.031
G1 X72.54 Y90.69 E0.206
G1 Y91.77 E0.032
G1 X77.43 Y96.72 E0.208
G1 X77.4 Y97.44 E0.022
G1 X77.1 E0.009
G1 X72.54 Y92.97 E0.191
G1 Y94.02 E0.031
G1 X75.87 Y97.44 E0.143
G1 X74.79 Y97.41 E0.032
G1 X72.54 Y95.22 E0.094
G1 Y96.27 E0.031
G1 X73.65 Y97.41 E0.048
G1 F5388.1
G1 E-2.993
G1 F2500.0
G1 X66.6 Y82.44 F15000.0
G1 F5388.1
G1 E2.993
G1 F2500.0
G1 F74.8
G1 E0.062
G1 F2500.0
G1 X65.55 Y81.36 E0.045
G1 Y80.31 E0.031
G1 X67.74 Y82.44 E0.091
G1 X68.79 E0.031
G1 X65.55 Y79.11 E0.139
G1 Y78.06 E0.031
G1 X70.02 Y82.44 E0.187
G1 X71.07 E0.031
G1 X65.55 Y76.86 E0.235
G1 F5388.1
G1 E-2.993
G1 F2500.0
;#!LAYER: 7/106
G92 E0
G1 Z1.68 F200.0
G1 X43.89 Y59.91 F15000.0
T0
G1 F5388.1
G1 E2.993
G1 F2500.0
G1 F74.8
G1 E0.062
G1 F2500.0
G1 X43.8 Y60.06 E0.005 F2250.0
G1 X43.86 Y62.13 E0.062
G1 X43.92 Y62.19 E0.003
G1 X54.81 E0.326
G1 X54.78 Y90.87 E0.859
G1 X49.14 Y90.84 E0.169
G1 X49.11 Y76.98 E0.415
G1 X48.99 Y76.86 E0.005
G1 X40.89 E0.242
G1 X40.8 Y77.04 E0.006
G1 X40.77 Y90.87 E0.414
G1 X35.13 Y90.84 E0.169
G1 Y51.18 E1.187
G1 X54.81 Y51.21 E0.589
G1 X54.78 Y59.88 E0.26
G1 X43.89 Y59.91 E0.326
G1 X43.83 Y59.64 E0.008
G1 X43.53 Y59.94 E0.013
G1 X43.56 Y62.19 E0.067
G1 X43.83 Y62.46 E0.011
G1 X54.51 Y62.49 E0.32
G1 X54.48 Y90.57 E0.841
G1 X49.44 E0.151
G1 X49.41 Y76.86 E0.41
G1 X49.14 Y76.59 E0.011
G1 X40.71 Y76.62 E0.252
G1 X40.5 Y77.01 E0.013
G1 X40.47 Y90.57 E0.406
G1 X35.43 Y90.54 E0.151
G1 Y51.48 E1.169
G1 X54.51 Y51.51 E0.571
G1 Y59.58 E0.242
G1 X43.83 Y59.64 E0.32
G1 F5388.1
G1 E-2.993
G1 F2500.0
G1 X43.89 Y59.91
G1 X44.61 Y59.49 F15000.0
G1 F5388.1
G1 E2.993
G1 F2500.0
G1 F74.8
G1 E0.062
G1 F2500.0
G1 X52.5 Y51.6 E0.334
G1 X53.55 E0.031
G1 X45.75 Y59.49 E0.332
G1 X46.8 E0.031
G1 X54.42 Y51.93 E0.321
G1 Y53.01 E0.032
G1 X48.0 Y59.49 E0.273
G1 X49.05 E0.031
G1 X54.42 Y54.21 E0.225
G1 Y55.26 E0.031
G1 X50.31 Y59.46 E0.176
G1 X51.36 E0.031
G1 X54.42 Y56.46 E0.128
G1 Y57.54 E0.032
G1 X52.56 Y59.46 E0.08
G1 X53.61 E0.031
G1 X54.42 Y58.71 E0.033
G1 F5388.1
G1 E-2.993
G1 F2500.0
G1 X35.55 Y51.57 F15000.0
G1 F5388.1
G1 E2.993
G1 F2500.0
G1 F74.8
G1 E0.062
G1 F2500.0
G1 Y52.65 E0.032
G1 X36.69 Y51.57 E0.047
G1 X37.74 E0.031
G1 X35.55 Y53.85 E0.095
G1 Y54.9 E0.031
G1 X38.94 Y51.57 E0.142
G1 X40.02 E0.032
G1 X35.55 Y56.1 E0.191
G1 Y57.15 E0.031
G1 X41.22 Y51.57 E0.238
G1 X42.27 E0.031
G1 X35.55 Y58.38 E0.286
G1 Y59.43 E0.031
G1 X43.47 Y51.57 E0.334
G1 X44.55 E0.032
G1 X35.55 Y60.63 E0.382
G1 Y61.68 E0.031
G1 X45.72 Y51.6 E0.429
G1 X46.77 E0.031
G1 X35.55 Y62.88 E0.476
G1 Y63.96 E0.032
G1 X47.97 Y51.6 E0.525
G1 X49.02 E0.031
G1 X35.55 Y65.16 E0.572
G1 Y66.21 E0.031
G1 X50.25 Y51.6 E0.62
G1 X51.3 E0.031
G1 X35.55 Y67.41 E0.668
G1 Y68.49 E0.032
G1 X43.41 Y60.69 E0.331
G1 Y61.74 E0.031
G1 X35.55 Y69.69 E0.335
G1 Y70.74 E0.031
G1 X43.8 Y62.55 E0.348
G1 X44.85 Y62.58 E0.031
G1 X35.55 Y71.94 E0.395
G1 Y72.99 E0.031
G1 X46.05 Y62.58 E0.443
G1 X47.1 E0.031
G1 X35.55 Y74.22 E0.491
G1 Y75.27 E0.031
G1 X48.3 Y62.58 E0.538
G1 X49.38 E0.032
G1 X35.55 Y76.47 E0.587
G1 Y77.52 E0.031
G1 X50.58 Y62.58 E0.634
G1 X51.63 E0.031
G1 X35.55 Y78.72 E0.682
G1 Y79.8 E0.032
G1 X52.83 Y62.58 E0.73
G1 X53.88 E0.031
G1 X35.55 Y81.0 E0.778
G1 Y82.05 E0.031
G1 X40.41 Y77.25 E0.204
G1 X40.44 Y76.86 E0.012
G1 X40.71 Y76.5 E0.013
G1 X41.16 Y76.44 E0.014
G1 X54.42 Y63.27 E0.559
G1 Y64.32 E0.031
G1 X42.36 Y76.44 E0.512
G1 X43.44 E0.032
G1 X54.42 Y65.52 E0.464
G1 Y66.57 E0.031
G1 X44.64 Y76.44 E0.416
G1 X45.69 E0.031
G1 X54.42 Y67.77 E0.368
G1 Y68.85 E0.032
G1 X46.89 Y76.44 E0.32
G1 X47.94 E0.031
G1 X54.42 Y70.05 E0.272
G1 Y71.1 E0.031
G1 X49.17 Y76.47 E0.225
G1 X49.47 Y76.71 E0.012
G1 X49.56 Y77.1 E0.012
G1 X54.42 Y72.3 E0.204
G1 Y73.35 E0.031
G1 X49.56 Y78.3 E0.208
G1 Y79.35 E0.031
G1 X54.42 Y74.58 E0.204
G1 Y75.63 E0.031
G1 X49.56 Y80.55 E0.207
G1 Y81.63 E0.032
G1 X54.42 Y76.83 E0.204
G1 Y77.88 E0.031
G1 X49.56 Y82.83 E0.208
G1 Y83.88 E0.031
G1 X54.42 Y79.11 E0.204
G1 Y80.16 E0.031
G1 X49.56 Y85.08 E0.207
G1 Y86.13 E0.031
G1 X54.42 Y81.36 E0.204
G1 Y82.41 E0.031
G1 X49.56 Y87.36 E0.208
G1 Y88.41 E0.031
G1 X54.42 Y83.61 E0.204
G1 Y84.69 E0.032
G1 X49.56 Y89.61 E0.207
G1 Y90.42 E0.024
G1 X49.77 Y90.45 E0.006
G1 X54.42 Y85.89 E0.195
G1 Y86.94 E0.031
G1 X51.0 Y90.45 E0.147
G1 X52.05 E0.031
G1 X54.42 Y88.14 E0.099
G1 Y89.19 E0.031
G1 X53.25 Y90.45 E0.051
G1 X54.18 E0.028
G1 X54.42 Y90.39 E0.007
G1 F5388.1
G1 E-2.993
G1 F2500.0
G1 X40.41 Y89.7 F15000.0
G1 F5388.1
G1 E2.993
G1 F2500.0
G1 F74.8
G1 E0.062
G1 F2500.0
G1 X39.6 Y90.45 E0.033
G1 X38.55 E0.031
G1 X40.41 Y88.5 E0.081
G1 Y87.45 E0.031
G1 X37.35 Y90.42 E0.128
G1 X36.3 E0.031
G1 X40.41 Y86.25 E0.175
G1 Y85.2 E0.031
G1 X35.55 Y89.97 E0.204
G1 Y88.92 E0.031
G1 X40.41 Y83.97 E0.208
G1 Y82.92 E0.031
G1 X35.55 Y87.72 E0.204
G1 Y86.64 E0.032
G1 X40.41 Y81.72 E0.207
G1 Y80.67 E0.031
G1 X35.55 Y85.44 E0.204
G1 Y84.39 E0.031
G1 X40.41 Y79.47 E0.207
G1 Y78.39 E0.032
G1 X35.55 Y83.25 E0.206
G1 F5388.1
G1 E-2.993
G1 F2500.0
G1 X77.91 Y82.89 F15000.0
G1 F5388.1
G1 E2.993
G1 F2500.0
G1 F74.8
G1 E0.062
G1 F2500.0
G1 X77.82 Y83.04 E0.005 F2250.0
G1 Y97.86 E0.444
G1 X72.12 Y97.83 E0.171
G1 X72.09 Y82.98 E0.445
G1 X72.03 Y82.86 E0.004
G1 X65.13 Y82.83 E0.207
G1 Y48.18 E1.037
G1 X84.81 Y48.24 E0.589
G1 Y82.86 E1.036
G1 X77.91 Y82.89 E0.207
G1 X77.79 Y82.65 E0.008
G1 X77.58 Y82.86 E0.009
G1 X77.52 Y83.04 E0.006
G1 Y97.56 E0.435
G1 X72.42 Y97.5 E0.153
G1 X72.39 Y82.98 E0.435
G1 X72.21 Y82.65 E0.011
G1 X72.06 Y82.56 E0.005
G1 X65.43 E0.198
G1 Y48.48 E1.02
G1 X84.51 Y48.54 E0.571
G1 X84.48 Y82.56 E1.018
G1 X77.79 Y82.65 E0.2
G1 F5388.1
G1 E-2.993
G1 F2500.0
G1 X77.91 Y82.89
G1 X79.53 Y79.68 F15000.0
G1 F5388.1
G1 E2.993
G1 F2500.0
G1 F74.8
G1 E0.062
G1 F2500.0
G1 X79.59 Y79.47 E0.007 F2250.0
G1 X79.56 Y72.48 E0.209
G1 X79.5 Y72.36 E0.004
G1 X76.14 Y72.3 E0.101
G1 Y68.64 E0.11
G1 X79.59 Y68.55 E0.103
G1 Y67.53 E0.031
G1 X79.53 Y67.41 E0.004
G1 X76.08 Y67.38 E0.103
G1 X75.81 Y67.11 E0.011
G1 X75.36 Y66.84 E0.016
G1 X74.49 Y66.9 E0.026
G1 X73.95 Y67.23 E0.019
G1 X73.83 Y67.41 E0.006
G1 X70.35 Y67.47 E0.104
G1 Y68.55 E0.032
G1 X70.44 Y68.64 E0.004
G1 X73.8 Y68.67 E0.101
G1 Y72.36 E0.11
G1 X70.41 Y72.39 E0.101
G1 X70.32 Y72.57 E0.006
G1 X70.35 Y79.56 E0.209
G1 X70.41 Y79.68 E0.004
G1 X79.53 E0.273
G1 X79.65 Y79.92 E0.008
G1 X79.86 Y79.71 E0.009
G1 X79.89 Y79.44 E0.008
G1 X79.83 Y72.36 E0.212
G1 X79.68 Y72.15 E0.008
G1 X79.5 Y72.06 E0.006
G1 X76.44 Y72.03 E0.092
G1 X76.47 Y68.94 E0.093
G1 X79.62 Y68.88 E0.094
G1 X79.89 Y68.61 E0.011
G1 Y67.41 E0.036
G1 X79.62 Y67.14 E0.011
G1 X76.26 Y67.11 E0.101
G1 X75.87 Y66.81 E0.015
G1 X75.42 Y66.54 E0.016
G1 X74.46 Y66.6 E0.029
G1 X74.16 Y66.72 E0.01
G1 X73.65 Y67.11 E0.019
G1 X70.32 Y67.14 E0.1
G1 X70.08 Y67.38 E0.01
G1 X70.02 Y67.56 E0.006
G1 X70.05 Y68.64 E0.032
G1 X70.32 Y68.91 E0.011
G1 X73.5 Y69.0 E0.095
G1 X73.47 Y72.06 E0.092
G1 X70.23 Y72.15 E0.097
G1 X70.05 Y72.42 E0.01
G1 Y79.56 E0.214
G1 X70.23 Y79.89 E0.011
G1 X70.38 Y79.98 E0.005
G1 X79.65 Y79.92 E0.277
G1 F5388.1
G1 E-2.993
G1 F2500.0
G1 X79.53 Y79.68
G1 X84.42 Y81.9 F15000.0
G1 F5388.1
G1 E2.993
G1 F2500.0
G1 F74.8
G1 E0.062
G1 F2500.0
G1 X83.82 Y82.44 E0.024
G1 X82.77 E0.031
G1 X84.42 Y80.7 E0.072
G1 Y79.65 E0.031
G1 X81.54 Y82.44 E0.12
G1 X80.46 Y82.47 E0.032
G1 X84.42 Y78.45 E0.169
G1 Y77.37 E0.032
G1 X79.26 Y82.47 E0.217
G1 X78.21 E0.031
G1 X84.42 Y76.17 E0.265
G1 Y75.12 E0.031
G1 X80.01 Y79.44 E0.185
G1 Y78.39 E0.031
G1 X84.42 Y73.92 E0.188
G1 Y72.87 E0.031
G1 X80.01 Y77.19 E0.185
G1 Y76.14 E0.031
G1 X84.42 Y71.64 E0.189
G1 Y70.59 E0.031
G1 X80.01 Y74.94 E0.185
G1 Y73.86 E0.032
G1 X84.42 Y69.39 E0.188
G1 Y68.34 E0.031
G1 X80.01 Y72.66 E0.185
G1 X79.92 Y72.21 E0.014
G1 X79.65 Y71.97 E0.011
G1 X84.42 Y67.11 E0.204
G1 Y66.06 E0.031
G1 X78.48 Y71.94 E0.25
G1 X77.46 Y71.91 E0.031
G1 X84.42 Y64.86 E0.297
G1 Y63.81 E0.031
G1 X80.04 Y68.1 E0.184
G1 X79.98 Y67.32 E0.023
G1 X79.89 Y67.2 E0.004
G1 X84.42 Y62.61 E0.193
G1 Y61.53 E0.032
G1 X78.9 Y66.99 E0.232
G1 X77.85 E0.031
G1 X84.42 Y60.33 E0.28
G1 Y59.28 E0.031
G1 X76.62 Y66.99 E0.328
G1 X76.29 Y66.96 E0.01
G1 X75.9 Y66.69 E0.014
G1 X84.42 Y58.08 E0.363
G1 Y57.03 E0.031
G1 X75.0 Y66.42 E0.398
G1 F5388.1
G1 E-2.993
G1 F2500.0
G1 X73.53 Y66.9 F15000.0
G1 F5388.1
G1 E2.993
G1 F2500.0
G1 F74.8
G1 E0.062
G1 F2500.0
G1 X73.35 Y66.99 E0.006
G1 X73.02 E0.01
G1 X73.05 Y66.93 E0.002
G1 X72.66 E0.012
G1 X72.42 Y66.99 E0.007
G1 X72.15 Y67.02 E0.008
G1 X72.24 Y66.9 E0.004
G1 X71.85 E0.012
G1 X71.61 Y67.02 E0.008
G1 X71.31 E0.009
G1 X71.37 Y66.9 E0.004
G1 X71.01 E0.011
G1 X70.77 Y67.02 E0.008
G1 X70.47 E0.009
G1 X70.56 Y66.9 E0.004
G1 X71.04 Y66.99 E0.015
G1 X84.42 Y53.61 E0.566
G1 Y54.69 E0.032
G1 X72.18 Y66.99 E0.519
G1 X73.23 E0.031
G1 X84.42 Y55.86 E0.472
G1 F5388.1
G1 E-2.993
G1 F2500.0
G1 X79.44 Y66.93 F15000.0
G1 F5388.1
G1 E2.993
G1 F2500.0
G1 F74.8
G1 E0.062
G1 F2500.0
G1 X79.2 Y66.99 E0.007
G1 X78.96 E0.007
G1 X78.99 Y66.93 E0.002
G1 X78.6 E0.012
G1 X78.36 Y66.99 E0.007
G1 X78.12 E0.007
G1 X78.15 Y66.93 E0.002
G1 X77.76 E0.012
G1 X77.4 Y66.99 E0.011
G1 X77.28 E0.004
G1 X77.34 Y66.9 E0.003
G1 F5388.1
G1 E-2.993
G1 F2500.0
G1 X76.83 Y69.12 F15000.0
G1 F5388.1
G1 E2.993
G1 F2500.0
G1 F74.8
G1 E0.062
G1 F2500.0
G1 X76.92 Y69.03 E0.004
G1 X77.31 E0.012
G1 X77.28 Y69.12 E0.003
G1 X77.55 E0.008
G1 X77.79 Y69.03 E0.008
G1 X78.15 E0.011
G1 X78.09 Y69.15 E0.004
G1 X78.39 E0.009
G1 X78.63 Y69.03 E0.008
G1 X79.02 E0.012
G1 X78.93 Y69.15 E0.004
G1 X79.26 E0.01
G1 X79.47 Y69.03 E0.007
G1 X79.2 Y69.0 E0.008
G1 X76.56 Y71.58 E0.11
G1 Y70.53 E0.031
G1 X78.03 Y69.0 E0.064
G1 X76.92 Y69.03 E0.033
G1 X76.56 Y69.39 E0.015
G1 F5388.1
G1 E-2.993
G1 F2500.0
G1 X73.41 Y69.15 F15000.0
G1 F5388.1
G1 E2.993
G1 F2500.0
G1 F74.8
G1 E0.062
G1 F2500.0
G1 X73.38 Y69.06 E0.003
G1 X73.08 E0.009
G1 X72.9 Y69.15 E0.006
G1 X72.57 E0.01
G1 X72.6 Y69.06 E0.003
G1 X72.24 E0.011
G1 X72.15 Y69.12 E0.003
G1 X71.82 Y69.03 E0.01
G1 X71.64 Y69.12 E0.006
G1 X71.34 E0.009
G1 X71.37 Y69.03 E0.003
G1 X70.98 E0.012
G1 X70.8 Y69.12 E0.006
G1 X70.47 E0.01
G1 X70.56 Y69.03 E0.004
G1 F5388.1
G1 E-2.993
G1 F2500.0
G1 X70.59 Y71.97 F15000.0
G1 F5388.1
G1 E2.993
G1 F2500.0
G1 F74.8
G1 E0.062
G1 F2500.0
G1 X73.41 Y69.15 E0.119
G1 Y70.2 E0.031
G1 X71.73 Y71.97 E0.073
G1 X72.81 Y71.94 E0.032
G1 X73.41 Y71.4 E0.024
G1 F5388.1
G1 E-2.993
G1 F2500.0
G1 X69.93 Y79.41 F15000.0
G1 F5388.1
G1 E2.993
G1 F2500.0
G1 F74.8
G1 E0.062
G1 F2500.0
G1 X66.84 Y82.44 E0.13
G1 X65.79 E0.031
G1 X69.93 Y78.21 E0.177
G1 Y77.16 E0.031
G1 X65.55 Y81.48 E0.184
G1 Y80.4 E0.032
G1 X69.93 Y75.96 E0.187
G1 Y74.91 E0.031
G1 X65.55 Y79.2 E0.184
G1 Y78.15 E0.031
G1 X69.93 Y73.68 E0.187
G1 Y72.63 E0.031
G1 X65.55 Y76.95 E0.184
G1 Y75.9 E0.031
G1 X72.3 Y69.06 E0.288
G1 X71.28 Y69.03 E0.031
G1 X65.55 Y74.67 E0.241
G1 Y73.62 E0.031
G1 X70.2 Y68.94 E0.197
G1 X69.96 Y68.61 E0.012
G1 X69.93 Y68.1 E0.015
G1 X65.55 Y72.42 E0.184
G1 Y71.37 E0.031
G1 X84.42 Y52.41 E0.801
G1 Y51.36 E0.031
G1 X65.55 Y70.14 E0.797
G1 Y69.09 E0.031
