; GCode generated by RepRap Java Host Software
; Created: 2010-03-27:17-38-11
G21 ;metric is good!
G90 ;absolute positioning
T0; select new extruder
M113; set extruder to use pot for PWM
G92 E0 ;zero the extruded length
G28; go home
G92 E0 ;zero the extruded length
G1 F5.0; feed for start of next move
G1 Z0.4125 F50.0 ;z move
G1 Z0.5875 ;z move
G1 Z1.0 F5.0 ;z move
G1 F1500.0; feed for start of next move
G1 X2.8 Y0.1 F3000.0 ;horizontal move
G1 X127.2 Y4.9 ;horizontal move
G1 X130.0 Y5.0 F1500.0 ;horizontal move
M109 S190.0 ;set temperature and wait
G1 F3000.0; feed for start of next move
G1 E1000.0; extruder dwell
G1 F1500.0; feed for start of next move
G1 F18000.0; feed for start of next move
G1 E960.0; extruder retraction
G1 F1500.0; feed for start of next move
G28; go home
G92 E0 ;zero the extruded length
G92 E0 ;zero the extruded length
;#!LAYER: 1/3
M107 ;cooler off
G4 P20 ;delay
G1 F5.0; feed for start of next move
G1 Z-0.0744 F30.4 ;z move
G1 Z0.0756 F5.0 ;z move
G1 F1500.0; feed for start of next move
G1 X1.9 Y2.1 F3000.0 ;horizontal move
G1 X28.2 Y30.7 ;horizontal move
G1 X30.1 Y32.8 F1500.0 ;horizontal move
G1 F18000.0; feed for start of next move
G1 E40.0; extruder dwell
G1 F1500.0; feed for start of next move
G1 F3000.0; feed for start of next move
G1 E80.0; extruder dwell
G1 F1500.0; feed for start of next move
G1 F3000.0; feed for start of next move
G1 E90.0; extruder dwell
G1 F1500.0; feed for start of next move
G1 X30.8 Y32.5 E90.8 F2017.8 ;horizontal move
G1 X31.7 Y32.2 E91.7 F2488.8 ;horizontal move
G1 X32.1 Y32.0 E92.2 F2241.9 ;horizontal move
G1 X32.9 Y32.4 E93.1 F2693.9 ;horizontal move
G1 X33.4 Y32.7 E93.6 F2424.8 ;horizontal move
G1 X33.6 Y33.2 E94.2 F2700.0 ;horizontal move
G1 X33.8 Y33.6 E94.6 ;horizontal move
G1 X33.9 Y33.9 E94.9 F2550.3 ;horizontal move
G1 Y34.2 E95.2 F2686.5 ;horizontal move
G1 X33.8 Y34.4 E95.5 F2601.8 ;horizontal move
G1 X33.7 Y34.6 E95.7 F2700.0 ;horizontal move
G1 X33.6 Y34.9 E96.0 ;horizontal move
G1 X33.2 Y35.4 E96.6 F2404.3 ;horizontal move
G1 X32.6 Y35.6 E97.3 F2700.0 ;horizontal move
G1 X32.0 Y35.8 E97.9 F2402.0 ;horizontal move
G1 X31.4 Y35.6 E98.5 F2697.4 ;horizontal move
G1 X30.8 Y35.3 E99.2 F2411.1 ;horizontal move
G1 X30.6 Y34.8 E99.7 F2677.3 ;horizontal move
G1 X30.1 Y33.9 E100.8 F2158.3 ;horizontal move
G1 X30.8 Y32.5 E102.3 F960.6 ;horizontal move
G1 X30.2 Y32.7 E103.0 F1580.2 ;horizontal move
G1 F18000.0; feed for start of next move
G1 E63.0; extruder retraction
G1 F1500.0; feed for start of next move
G1 X30.1 Y32.8 F3000.0 ;horizontal move
G1 F1500.0; feed for start of next move
G1 X30.9 Y35.5 F3000.0 ;horizontal move
G1 X31.2 Y36.2 ;horizontal move
G1 X32.0 Y38.9 F1500.0 ;horizontal move
G1 F18000.0; feed for start of next move
G1 E103.0; extruder dwell
G1 F1500.0; feed for start of next move
G1 F3000.0; feed for start of next move
G1 E108.0; extruder dwell
G1 F1500.0; feed for start of next move
G1 F3000.0; feed for start of next move
G1 E113.0; extruder dwell
G1 F1500.0; feed for start of next move
G1 X33.5 Y40.4 E115.1 F2700.0 ;horizontal move
G1 X34.6 Y41.6 E116.7 ;horizontal move
G1 X35.1 Y42.1 E117.4 F2360.6 ;horizontal move
G1 Y42.2 E117.5 F2382.8 ;horizontal move
G1 Y44.1 E119.4 F1015.5 ;horizontal move
G1 X34.4 Y43.5 E120.4 F1770.8 ;horizontal move
G1 X34.3 Y43.4 E120.5 F1669.7 ;horizontal move
G1 X33.2 Y44.4 E122.0 F2501.2 ;horizontal move
G1 X32.8 Y44.5 E122.4 F2700.0 ;horizontal move
G1 X32.6 Y44.6 E122.6 ;horizontal move
G1 X32.0 Y44.8 E123.2 F2402.0 ;horizontal move
G1 X31.4 Y44.6 E123.9 F2697.4 ;horizontal move
G1 X30.8 Y44.3 E124.6 F2411.1 ;horizontal move
G1 X30.6 Y43.8 E125.1 F2695.6 ;horizontal move
G1 X30.1 Y42.9 E126.1 F2203.3 ;horizontal move
G1 X30.6 Y42.0 E127.2 F2691.8 ;horizontal move
G1 X30.8 Y41.5 E127.7 F2429.3 ;horizontal move
G1 X31.3 Y41.3 E128.2 F2666.2 ;horizontal move
G1 X32.1 Y41.0 E129.1 F2241.9 ;horizontal move
G1 X32.9 Y41.4 E130.0 F2693.9 ;horizontal move
G1 X33.4 Y41.7 E130.6 F2424.8 ;horizontal move
G1 X33.6 Y42.1 E131.0 F2635.4 ;horizontal move
G1 X33.9 Y42.9 E131.9 F2215.7 ;horizontal move
G1 X33.8 Y43.4 E132.4 F1936.0 ;horizontal move
G1 X33.2 Y44.4 E133.5 F952.9 ;horizontal move
G1 X32.7 Y41.8 E136.2 F2700.0 ;horizontal move
G1 X32.5 Y41.0 E137.0 ;horizontal move
G1 F18000.0; feed for start of next move
G1 E97.0; extruder retraction
G1 F1500.0; feed for start of next move
G1 X32.0 Y38.9 F3000.0 ;horizontal move
G1 F1500.0; feed for start of next move
G1 X31.4 Y41.6 F3000.0 ;horizontal move
G1 X30.3 Y46.7 ;horizontal move
G1 X29.7 Y49.4 F1500.0 ;horizontal move
G1 F18000.0; feed for start of next move
G1 E137.0; extruder dwell
G1 F1500.0; feed for start of next move
G1 F3000.0; feed for start of next move
G1 E142.0; extruder dwell
G1 F1500.0; feed for start of next move
G1 F3000.0; feed for start of next move
G1 E147.0; extruder dwell
G1 F1500.0; feed for start of next move
G1 X30.5 Y50.0 E148.0 F2141.8 ;horizontal move
G1 Y50.1 E148.1 F2079.4 ;horizontal move
G1 X30.8 Y50.5 E148.6 F1756.4 ;horizontal move
G1 X31.8 Y50.1 E149.7 F2387.6 ;horizontal move
G1 X32.1 Y50.0 E150.0 F2241.9 ;horizontal move
G1 X32.9 Y50.4 E150.9 F2693.9 ;horizontal move
G1 X33.4 Y50.7 E151.5 F2424.8 ;horizontal move
G1 X33.6 Y51.2 E152.0 F2700.0 ;horizontal move
G1 X33.8 Y51.6 E152.5 ;horizontal move
G1 X33.9 Y51.9 E152.8 F2550.3 ;horizontal move
G1 Y52.2 E153.1 F2686.5 ;horizontal move
G1 X33.8 Y52.4 E153.3 F2601.8 ;horizontal move
G1 X33.7 Y52.6 E153.5 F2700.0 ;horizontal move
G1 X33.6 Y52.9 E153.8 ;horizontal move
G1 X33.2 Y53.4 E154.5 F2404.3 ;horizontal move
G1 X32.6 Y53.6 E155.1 F2700.0 ;horizontal move
G1 X32.0 Y53.8 E155.8 F2402.0 ;horizontal move
G1 X31.4 Y53.6 E156.4 F2697.4 ;horizontal move
G1 X30.8 Y53.3 E157.1 F2411.1 ;horizontal move
G1 X30.6 Y52.8 E157.6 F2695.6 ;horizontal move
G1 X30.1 Y51.9 E158.6 F2203.3 ;horizontal move
G1 X30.4 Y51.5 E159.1 F2460.3 ;horizontal move
G1 X30.8 Y50.5 E160.2 F1875.0 ;horizontal move
G1 X30.5 Y50.1 E160.7 F2189.1 ;horizontal move
G1 F18000.0; feed for start of next move
G1 E120.7; extruder retraction
G1 F1500.0; feed for start of next move
G1 X29.7 Y49.4 F3000.0 ;horizontal move
G1 F1500.0; feed for start of next move
G1 X31.7 Y51.4 F3000.0 ;horizontal move
G1 X32.3 Y51.9 ;horizontal move
G1 X34.3 Y53.9 F1500.0 ;horizontal move
G1 F18000.0; feed for start of next move
G1 E160.7; extruder dwell
G1 F1500.0; feed for start of next move
G1 F3000.0; feed for start of next move
G1 E165.7; extruder dwell
G1 F1500.0; feed for start of next move
G1 F3000.0; feed for start of next move
G1 E170.7; extruder dwell
G1 F1500.0; feed for start of next move
G1 X34.6 Y54.1 E171.1 F1731.2 ;horizontal move
G1 X35.5 Y54.4 E172.0 F801.3 ;horizontal move
G1 X32.8 E174.7 F2700.0 ;horizontal move
G1 X30.5 E177.0 ;horizontal move
G1 X28.4 E179.1 F1510.2 ;horizontal move
G1 Y52.3 E181.2 F2700.0 ;horizontal move
G1 Y33.5 E200.0 ;horizontal move
G1 Y31.4 E202.1 F1493.7 ;horizontal move
G1 X30.5 Y31.5 E204.2 F2700.0 ;horizontal move
G1 X33.5 E207.2 ;horizontal move
G1 X35.6 E209.3 F1506.9 ;horizontal move
G1 Y33.6 E211.4 F2700.0 ;horizontal move
G1 X35.5 Y52.0 E229.8 ;horizontal move
G1 Y54.4 E232.2 F1223.3 ;horizontal move
G1 X34.8 Y54.1 E233.0 F1850.4 ;horizontal move
G1 F18000.0; feed for start of next move
G1 E193.0; extruder retraction
G1 F1500.0; feed for start of next move
G1 X34.3 Y53.9 F3000.0 ;horizontal move
G1 F18000.0; feed for start of next move
G1 E233.0; extruder dwell
G1 F1500.0; feed for start of next move
G1 F3000.0; feed for start of next move
G1 E238.0; extruder dwell
G1 F1500.0; feed for start of next move
G1 F3000.0; feed for start of next move
G1 E243.0; extruder dwell
G1 F1500.0; feed for start of next move
G1 X33.8 Y53.4 E243.7 F1996.0 ;horizontal move
G1 X33.9 Y53.2 E243.9 F2153.5 ;horizontal move
G1 X34.4 Y52.0 E245.2 F1295.9 ;horizontal move
G1 X34.7 Y52.2 E245.6 F1545.4 ;horizontal move
G1 X35.1 Y52.6 E246.1 F1025.1 ;horizontal move
G1 Y50.6 E248.1 F2408.9 ;horizontal move
G1 X34.2 Y49.6 E249.5 F3000.0 ;horizontal move
G1 X29.8 Y45.2 E255.7 ;horizontal move
G1 X28.9 Y44.3 E257.0 F2425.4 ;horizontal move
G1 Y42.2 E259.1 F993.2 ;horizontal move
G1 X29.6 Y42.9 E260.1 F1825.0 ;horizontal move
G1 X29.7 Y43.1 E260.3 F1981.0 ;horizontal move
G1 X30.3 Y44.5 E261.8 F2727.7 ;horizontal move
G1 X30.4 Y44.6 E261.9 F2638.7 ;horizontal move
G1 X31.2 Y45.0 E262.8 F3000.0 ;horizontal move
G1 X31.7 Y45.2 E263.4 ;horizontal move
G1 X31.9 Y45.3 E263.6 F2913.2 ;horizontal move
G1 X32.1 Y45.4 E263.8 F3000.0 ;horizontal move
G1 X32.7 Y46.0 E264.7 ;horizontal move
G1 X35.1 Y48.3 E268.0 F985.3 ;horizontal move
G1 Y46.3 E270.0 F2392.3 ;horizontal move
G1 X34.6 Y45.8 E270.7 F2743.1 ;horizontal move
G1 X33.7 Y44.7 E272.1 F2030.7 ;horizontal move
G1 X33.8 Y44.4 E272.4 F2212.2 ;horizontal move
G1 X34.3 Y43.4 E273.6 F1500.0 ;horizontal move
G1 F18000.0; feed for start of next move
G1 E233.6; extruder retraction
G1 F1500.0; feed for start of next move
G1 X33.2 Y41.2 F2883.5 ;horizontal move
G1 X32.0 Y38.9 F1500.0 ;horizontal move
G1 F18000.0; feed for start of next move
G1 E273.6; extruder dwell
G1 F1500.0; feed for start of next move
G1 F3000.0; feed for start of next move
G1 E278.6; extruder dwell
G1 F1500.0; feed for start of next move
G1 F3000.0; feed for start of next move
G1 E283.6; extruder dwell
G1 F1500.0; feed for start of next move
G1 X30.1 Y36.9 E286.3 F3000.0 ;horizontal move
G1 X29.9 Y36.7 E286.6 ;horizontal move
G1 X28.9 Y35.8 E288.0 F2393.0 ;horizontal move
G1 Y33.8 E290.0 F987.0 ;horizontal move
G1 X29.9 Y34.7 E291.3 F2032.8 ;horizontal move
G1 X30.3 Y35.5 E292.2 F2527.1 ;horizontal move
G1 X31.1 Y36.0 E293.1 F2951.0 ;horizontal move
G1 X31.2 Y36.1 E293.3 F3000.0 ;horizontal move
G1 X32.7 Y37.5 E295.3 ;horizontal move
G1 X35.1 Y39.8 E298.7 F977.9 ;horizontal move
G1 Y37.9 E300.6 F2389.2 ;horizontal move
G1 X34.8 Y37.5 E301.1 F2613.6 ;horizontal move
G1 X33.3 Y35.9 E303.2 F1237.7 ;horizontal move
G1 X33.6 Y35.8 E303.6 F1519.0 ;horizontal move
G1 X33.8 Y35.4 E304.0 F1848.8 ;horizontal move
G1 X34.1 Y34.8 E304.7 F1373.2 ;horizontal move
G1 X34.5 Y35.1 E305.2 F1718.9 ;horizontal move
G1 X35.1 Y35.6 E306.0 F1027.1 ;horizontal move
G1 Y33.6 E308.0 F2409.7 ;horizontal move
G1 X34.9 Y33.3 E308.3 F2584.1 ;horizontal move
G1 X33.6 Y32.0 E310.2 F1500.0 ;horizontal move
G1 F18000.0; feed for start of next move
G1 E270.2; extruder retraction
G1 F1500.0; feed for start of next move
G1 X31.9 Y32.4 F2560.9 ;horizontal move
G1 X30.1 Y32.8 F1500.0 ;horizontal move
G1 F18000.0; feed for start of next move
G1 E310.2; extruder dwell
G1 F1500.0; feed for start of next move
G1 F3000.0; feed for start of next move
G1 E315.2; extruder dwell
G1 F1500.0; feed for start of next move
G1 F3000.0; feed for start of next move
G1 E320.2; extruder dwell
G1 F1500.0; feed for start of next move
G1 X29.7 Y32.3 E320.8 F1917.2 ;horizontal move
G1 X29.3 Y31.9 E321.4 F1500.0 ;horizontal move
G1 F18000.0; feed for start of next move
G1 E281.4; extruder retraction
G1 F1500.0; feed for start of next move
G1 X29.1 Y34.7 F3000.0 ;horizontal move
G1 Y35.1 ;horizontal move
G1 X28.9 Y37.9 F1500.0 ;horizontal move
G1 F18000.0; feed for start of next move
G1 E321.4; extruder dwell
G1 F1500.0; feed for start of next move
G1 F3000.0; feed for start of next move
G1 E326.4; extruder dwell
G1 F1500.0; feed for start of next move
G1 F3000.0; feed for start of next move
G1 E331.4; extruder dwell
G1 F1500.0; feed for start of next move
G1 X30.2 Y39.2 E333.2 F2549.5 ;horizontal move
G1 X31.6 Y40.6 E335.2 F1299.0 ;horizontal move
G1 X30.9 Y41.0 E336.0 F1856.2 ;horizontal move
G1 X30.4 Y41.3 E336.6 F1384.5 ;horizontal move
G1 X30.3 Y41.4 E336.7 F1262.8 ;horizontal move
G1 X29.5 Y40.6 E337.8 F2065.0 ;horizontal move
G1 X28.9 Y40.0 E338.7 F1500.0 ;horizontal move
G1 F18000.0; feed for start of next move
G1 E298.7; extruder retraction
G1 F1500.0; feed for start of next move
G1 Y42.8 F3000.0 ;horizontal move
G1 Y43.6 ;horizontal move
G1 Y46.4 F1500.0 ;horizontal move
G1 F18000.0; feed for start of next move
G1 E338.7; extruder dwell
G1 F1500.0; feed for start of next move
G1 F3000.0; feed for start of next move
G1 E343.7; extruder dwell
G1 F1500.0; feed for start of next move
G1 F3000.0; feed for start of next move
G1 E348.7; extruder dwell
G1 F1500.0; feed for start of next move
G1 X30.3 Y47.9 E350.7 F2645.6 ;horizontal move
G1 X31.9 Y49.5 E353.0 F1250.8 ;horizontal move
G1 X31.1 Y49.9 E353.9 F1909.8 ;horizontal move
G1 X30.5 Y50.1 E354.5 F1500.0 ;horizontal move
G1 F18000.0; feed for start of next move
G1 E314.5; extruder retraction
G1 F1500.0; feed for start of next move
G1 X30.1 Y49.8 F1877.7 ;horizontal move
G1 X29.7 Y49.4 F1500.0 ;horizontal move
G1 F18000.0; feed for start of next move
G1 E354.5; extruder dwell
G1 F1500.0; feed for start of next move
G1 F3000.0; feed for start of next move
G1 E359.5; extruder dwell
G1 F1500.0; feed for start of next move
G1 F3000.0; feed for start of next move
G1 E364.5; extruder dwell
G1 F1500.0; feed for start of next move
G1 X29.5 Y49.2 E364.8 F1710.9 ;horizontal move
G1 X28.9 Y48.7 E365.6 F1001.7 ;horizontal move
G1 Y50.6 E367.5 F2399.1 ;horizontal move
G1 X29.4 Y51.2 E368.3 F2738.5 ;horizontal move
G1 X29.8 Y51.5 E368.8 F2507.8 ;horizontal move
G1 X29.7 Y51.7 E369.0 F2598.5 ;horizontal move
G1 Y52.3 E369.6 F2341.3 ;horizontal move
G1 X30.5 Y53.7 E371.2 F1245.5 ;horizontal move
G1 X30.7 Y53.9 E371.5 F969.7 ;horizontal move
G1 X30.1 E372.1 F1542.8 ;horizontal move
G1 X29.5 Y53.4 E372.9 F2049.3 ;horizontal move
G1 X28.9 Y52.8 E373.7 F1500.0 ;horizontal move
G1 F18000.0; feed for start of next move
G1 E333.7; extruder retraction
G1 F1500.0; feed for start of next move
G1 X31.7 Y52.3 F3000.0 ;horizontal move
G1 X44.8 Y49.9 ;horizontal move
G1 X47.6 Y49.4 F1500.0 ;horizontal move
G1 F18000.0; feed for start of next move
G1 E373.7; extruder dwell
G1 F1500.0; feed for start of next move
G1 F3000.0; feed for start of next move
G1 E378.7; extruder dwell
G1 F1500.0; feed for start of next move
G1 F3000.0; feed for start of next move
G1 E383.7; extruder dwell
G1 F1500.0; feed for start of next move
G1 X48.4 Y50.1 E384.8 F2202.5 ;horizontal move
G1 X48.7 Y50.5 E385.3 F1937.3 ;horizontal move
G1 X49.7 Y50.1 E386.4 F2511.6 ;horizontal move
G1 X50.0 Y50.0 E386.7 F2382.4 ;horizontal move
G1 X50.6 Y50.3 E387.4 F2700.0 ;horizontal move
G1 X51.2 Y50.6 E388.0 F2398.1 ;horizontal move
G1 X51.4 Y51.2 E388.7 F2700.0 ;horizontal move
G1 X51.6 Y51.4 E388.9 ;horizontal move
G1 X51.7 Y51.8 E389.4 F2524.8 ;horizontal move
G1 Y52.1 E389.7 F2688.9 ;horizontal move
G1 Y52.3 E389.9 F2631.6 ;horizontal move
G1 X51.6 Y52.4 E390.0 F2700.0 ;horizontal move
G1 X51.4 Y52.8 E390.4 ;horizontal move
G1 X51.1 Y53.3 E391.0 F2411.1 ;horizontal move
G1 X50.6 Y53.6 E391.6 F2670.8 ;horizontal move
G1 X50.0 Y53.8 E392.2 F2341.8 ;horizontal move
G1 X49.3 Y53.5 E393.0 F2700.0 ;horizontal move
G1 X49.2 E393.1 ;horizontal move
G1 X48.5 Y53.2 E393.9 F2333.4 ;horizontal move
G1 X48.3 Y52.6 E394.5 F2668.2 ;horizontal move
G1 X48.0 Y51.8 E395.4 F2288.5 ;horizontal move
G1 X48.2 Y51.5 E395.7 F2487.3 ;horizontal move
G1 X48.7 Y50.5 E396.8 F1844.1 ;horizontal move
G1 X48.3 Y50.1 E397.4 F2164.2 ;horizontal move
G1 F18000.0; feed for start of next move
G1 E357.4; extruder retraction
G1 F1500.0; feed for start of next move
G1 X47.6 Y49.4 F3000.0 ;horizontal move
G1 F1500.0; feed for start of next move
G1 X48.2 Y46.7 F3000.0 ;horizontal move
G1 X49.3 Y41.6 ;horizontal move
G1 X49.9 Y38.9 F1500.0 ;horizontal move
G1 F18000.0; feed for start of next move
G1 E397.4; extruder dwell
G1 F1500.0; feed for start of next move
G1 F3000.0; feed for start of next move
G1 E402.4; extruder dwell
G1 F1500.0; feed for start of next move
G1 F3000.0; feed for start of next move
G1 E407.4; extruder dwell
G1 F1500.0; feed for start of next move
G1 X51.4 Y40.4 E409.5 F2700.0 ;horizontal move
G1 X52.5 Y41.6 E411.1 ;horizontal move
G1 X53.0 Y42.1 E411.9 F2360.6 ;horizontal move
G1 Y42.2 E412.0 F2382.1 ;horizontal move
G1 Y44.1 E413.9 F1011.9 ;horizontal move
G1 X52.3 Y43.5 E414.8 F1779.1 ;horizontal move
G1 X52.1 Y43.4 E415.0 F1628.2 ;horizontal move
G1 X51.1 Y44.3 E416.3 F2452.1 ;horizontal move
G1 X50.7 Y44.5 E416.8 F2689.4 ;horizontal move
G1 X50.0 Y44.8 E417.6 F2341.8 ;horizontal move
G1 X49.3 Y44.5 E418.3 F2700.0 ;horizontal move
G1 X49.2 E418.4 ;horizontal move
G1 X48.5 Y44.2 E419.2 F2333.4 ;horizontal move
G1 X48.3 Y43.6 E419.8 F2668.2 ;horizontal move
G1 X48.0 Y42.8 E420.7 F2288.5 ;horizontal move
G1 X48.4 Y42.1 E421.5 F2697.8 ;horizontal move
G1 X48.7 Y41.5 E422.1 F2363.0 ;horizontal move
G1 X49.4 Y41.2 E422.9 F2687.7 ;horizontal move
G1 X50.0 Y41.0 E423.5 F2382.4 ;horizontal move
G1 X50.6 Y41.3 E424.2 F2700.0 ;horizontal move
G1 X51.2 Y41.6 E424.9 F2398.1 ;horizontal move
G1 X51.4 Y42.0 E425.3 F2628.2 ;horizontal move
G1 X51.7 Y42.8 E426.2 F2215.0 ;horizontal move
G1 Y43.3 E426.7 F1935.2 ;horizontal move
G1 X51.1 Y44.3 E427.8 F920.4 ;horizontal move
G1 X50.5 Y41.7 E430.5 F2700.0 ;horizontal move
G1 X50.4 Y41.0 E431.2 ;horizontal move
G1 F18000.0; feed for start of next move
G1 E391.2; extruder retraction
G1 F1500.0; feed for start of next move
G1 X49.9 Y38.9 F3000.0 ;horizontal move
G1 F1500.0; feed for start of next move
G1 X49.1 Y36.2 F3000.0 ;horizontal move
G1 X48.8 Y35.4 ;horizontal move
G1 X48.0 Y32.7 F1500.0 ;horizontal move
G1 F18000.0; feed for start of next move
G1 E431.2; extruder dwell
G1 F1500.0; feed for start of next move
G1 F3000.0; feed for start of next move
G1 E436.2; extruder dwell
G1 F1500.0; feed for start of next move
G1 F3000.0; feed for start of next move
G1 E441.2; extruder dwell
G1 F1500.0; feed for start of next move
G1 X48.7 Y32.5 E441.9 F2017.8 ;horizontal move
G1 X49.7 Y32.1 E443.0 F2543.1 ;horizontal move
G1 X50.0 Y32.0 E443.3 F2382.4 ;horizontal move
G1 X50.6 Y32.3 E444.0 F2700.0 ;horizontal move
G1 X51.2 Y32.6 E444.7 F2398.1 ;horizontal move
G1 X51.4 Y33.2 E445.3 F2700.0 ;horizontal move
G1 X51.6 Y33.4 E445.6 ;horizontal move
G1 X51.7 Y33.8 E446.0 F2524.8 ;horizontal move
G1 Y34.1 E446.3 F2688.9 ;horizontal move
G1 Y34.3 E446.5 F2631.6 ;horizontal move
G1 X51.6 Y34.4 E446.6 F2700.0 ;horizontal move
G1 X51.4 Y34.8 E447.1 ;horizontal move
G1 X51.1 Y35.3 E447.7 F2411.1 ;horizontal move
G1 X50.6 Y35.6 E448.3 F2670.8 ;horizontal move
G1 X50.0 Y35.8 E448.9 F2341.8 ;horizontal move
G1 X49.3 Y35.5 E449.7 F2700.0 ;horizontal move
G1 X49.2 E449.8 ;horizontal move
G1 X48.5 Y35.2 E450.5 F2333.4 ;horizontal move
G1 X48.3 Y34.7 E451.1 F2613.4 ;horizontal move
G1 X48.0 Y33.8 E452.0 F2158.3 ;horizontal move
G1 X48.7 Y32.5 E453.5 F960.6 ;horizontal move
G1 X48.1 Y32.7 E454.1 F1580.2 ;horizontal move
G1 F18000.0; feed for start of next move
G1 E414.1; extruder retraction
G1 F1500.0; feed for start of next move
G1 X48.0 F3000.0 ;horizontal move
G1 F1500.0; feed for start of next move
G1 X48.5 Y35.5 F3000.0 ;horizontal move
G1 X51.7 Y51.1 ;horizontal move
G1 X52.2 Y53.9 F1500.0 ;horizontal move
G1 F18000.0; feed for start of next move
G1 E454.1; extruder dwell
G1 F1500.0; feed for start of next move
G1 F3000.0; feed for start of next move
G1 E459.1; extruder dwell
G1 F1500.0; feed for start of next move
G1 F3000.0; feed for start of next move
G1 E464.1; extruder dwell
G1 F1500.0; feed for start of next move
G1 X52.5 Y54.1 E464.5 F1731.2 ;horizontal move
G1 X53.4 Y54.4 E465.4 F801.3 ;horizontal move
G1 X50.6 E468.2 F2700.0 ;horizontal move
G1 X48.4 E470.4 ;horizontal move
G1 X46.3 E472.5 F1510.2 ;horizontal move
G1 Y52.3 E474.6 F2700.0 ;horizontal move
G1 Y33.5 E493.4 ;horizontal move
G1 Y31.4 E495.5 F1493.7 ;horizontal move
G1 X48.4 Y31.5 E497.6 F2700.0 ;horizontal move
G1 X51.4 E500.6 ;horizontal move
G1 X53.5 E502.7 F1506.9 ;horizontal move
G1 Y33.6 E504.8 F2700.0 ;horizontal move
G1 X53.4 Y52.0 E523.2 ;horizontal move
G1 Y54.4 E525.6 F1223.3 ;horizontal move
G1 X52.7 Y54.1 E526.4 F1850.4 ;horizontal move
G1 F18000.0; feed for start of next move
G1 E486.4; extruder retraction
G1 F1500.0; feed for start of next move
G1 X52.2 Y53.9 F3000.0 ;horizontal move
G1 F18000.0; feed for start of next move
G1 E526.4; extruder dwell
G1 F1500.0; feed for start of next move
G1 F3000.0; feed for start of next move
G1 E531.4; extruder dwell
G1 F1500.0; feed for start of next move
G1 F3000.0; feed for start of next move
G1 E536.4; extruder dwell
G1 F1500.0; feed for start of next move
G1 X51.7 Y53.3 E537.2 F2023.4 ;horizontal move
G1 X51.8 Y53.2 E537.3 F2124.1 ;horizontal move
G1 X52.1 Y52.6 E538.0 F1731.4 ;horizontal move
G1 X52.2 Y51.9 E538.7 F1116.3 ;horizontal move
G1 X52.6 Y52.2 E539.2 F1537.8 ;horizontal move
G1 X53.0 Y52.6 E539.8 F1015.5 ;horizontal move
G1 Y50.6 E541.8 F2404.9 ;horizontal move
G1 X52.0 Y49.6 E543.2 F3000.0 ;horizontal move
G1 X47.8 Y45.3 E549.2 ;horizontal move
G1 X46.8 Y44.3 E550.6 F2385.8 ;horizontal move
G1 Y42.3 E552.6 F969.7 ;horizontal move
G1 X47.6 Y43.1 E553.7 F1894.1 ;horizontal move
G1 X48.1 Y44.4 E555.1 F2654.6 ;horizontal move
G1 X48.2 Y44.6 E555.3 F2574.7 ;horizontal move
G1 X49.1 Y45.0 E556.3 F3000.0 ;horizontal move
G1 X49.6 Y45.2 E556.9 ;horizontal move
G1 X49.8 Y45.3 E557.1 F2915.1 ;horizontal move
G1 X50.0 Y45.4 E557.3 F3000.0 ;horizontal move
G1 X50.5 Y46.0 E558.1 ;horizontal move
G1 X53.0 Y48.3 E561.5 F985.3 ;horizontal move
G1 Y46.3 E563.5 F2392.3 ;horizontal move
G1 X52.5 Y45.8 E564.2 F2751.1 ;horizontal move
G1 X51.5 Y44.7 E565.7 F2028.7 ;horizontal move
G1 X51.6 Y44.4 E566.0 F2225.7 ;horizontal move
G1 X52.1 Y43.4 E567.1 F1500.0 ;horizontal move
G1 F18000.0; feed for start of next move
G1 E527.1; extruder retraction
G1 F1500.0; feed for start of next move
G1 X51.0 Y41.2 F2874.2 ;horizontal move
G1 X49.9 Y38.9 F1500.0 ;horizontal move
G1 F18000.0; feed for start of next move
G1 E567.1; extruder dwell
G1 F1500.0; feed for start of next move
G1 F3000.0; feed for start of next move
G1 E572.1; extruder dwell
G1 F1500.0; feed for start of next move
G1 F3000.0; feed for start of next move
G1 E577.1; extruder dwell
G1 F1500.0; feed for start of next move
G1 X47.9 Y36.9 E579.9 F3000.0 ;horizontal move
G1 X47.8 Y36.7 E580.2 ;horizontal move
G1 X46.8 Y35.8 E581.5 F2393.0 ;horizontal move
G1 Y33.8 E583.5 F987.0 ;horizontal move
G1 X47.8 Y34.7 E584.9 F2032.8 ;horizontal move
G1 X48.1 Y35.5 E585.7 F2477.5 ;horizontal move
G1 X49.0 Y36.0 E586.7 F2956.9 ;horizontal move
G1 X49.1 Y36.1 E586.9 F3000.0 ;horizontal move
G1 X50.6 Y37.5 E588.9 ;horizontal move
G1 X53.0 Y39.8 E592.3 F977.9 ;horizontal move
G1 Y37.9 E594.2 F2389.2 ;horizontal move
G1 X52.6 Y37.5 E594.7 F2620.3 ;horizontal move
G1 X51.1 Y35.9 E596.9 F1226.2 ;horizontal move
G1 X51.4 Y35.8 E597.2 F1509.7 ;horizontal move
G1 X51.7 Y35.3 E597.8 F1866.8 ;horizontal move
G1 X52.0 Y34.7 E598.5 F1360.5 ;horizontal move
G1 X52.4 Y35.0 E599.0 F1721.1 ;horizontal move
G1 X53.0 Y35.6 E599.8 F1006.1 ;horizontal move
G1 Y33.6 E601.8 F2400.9 ;horizontal move
G1 X52.7 Y33.3 E602.3 F2580.0 ;horizontal move
G1 X51.5 Y32.0 E604.0 F1500.0 ;horizontal move
G1 F18000.0; feed for start of next move
G1 E564.0; extruder retraction
G1 F1500.0; feed for start of next move
G1 X49.8 Y32.4 F2556.0 ;horizontal move
G1 X48.0 Y32.7 F1500.0 ;horizontal move
G1 F18000.0; feed for start of next move
G1 E604.0; extruder dwell
G1 F1500.0; feed for start of next move
G1 F3000.0; feed for start of next move
G1 E609.0; extruder dwell
G1 F1500.0; feed for start of next move
G1 F3000.0; feed for start of next move
G1 E614.0; extruder dwell
G1 F1500.0; feed for start of next move
G1 X47.9 E614.1 F1547.3 ;horizontal move
G1 X47.6 Y32.3 E614.6 F1909.4 ;horizontal move
G1 X47.2 Y31.9 E615.2 F1500.0 ;horizontal move
G1 F18000.0; feed for start of next move
G1 E575.2; extruder retraction
G1 F1500.0; feed for start of next move
G1 X47.0 Y34.7 F3000.0 ;horizontal move
G1 Y35.1 ;horizontal move
G1 X46.8 Y37.9 F1500.0 ;horizontal move
G1 F18000.0; feed for start of next move
G1 E615.2; extruder dwell
G1 F1500.0; feed for start of next move
G1 F3000.0; feed for start of next move
G1 E620.2; extruder dwell
G1 F1500.0; feed for start of next move
G1 F3000.0; feed for start of next move
G1 E625.2; extruder dwell
G1 F1500.0; feed for start of next move
G1 X48.0 Y39.2 E627.0 F2543.2 ;horizontal move
G1 X49.4 Y40.7 E629.0 F1232.5 ;horizontal move
G1 X48.7 Y41.0 E629.8 F1855.0 ;horizontal move
G1 X48.3 Y41.2 E630.2 F1547.3 ;horizontal move
G1 X48.2 Y41.3 E630.4 F1369.3 ;horizontal move
G1 X47.4 Y40.6 E631.4 F2086.6 ;horizontal move
G1 X46.8 Y40.0 E632.3 F1500.0 ;horizontal move
G1 F18000.0; feed for start of next move
G1 E592.3; extruder retraction
G1 F1500.0; feed for start of next move
G1 Y42.8 F3000.0 ;horizontal move
G1 Y43.6 ;horizontal move
G1 Y46.4 F1500.0 ;horizontal move
G1 F18000.0; feed for start of next move
G1 E632.3; extruder dwell
G1 F1500.0; feed for start of next move
G1 F3000.0; feed for start of next move
G1 E637.3; extruder dwell
G1 F1500.0; feed for start of next move
G1 F3000.0; feed for start of next move
G1 E642.3; extruder dwell
G1 F1500.0; feed for start of next move
G1 X48.2 Y47.9 E644.3 F2656.0 ;horizontal move
G1 X49.8 Y49.6 E646.7 F1212.9 ;horizontal move
G1 X49.0 Y49.9 E647.5 F1907.6 ;horizontal move
G1 X48.4 Y50.1 E648.2 F1500.0 ;horizontal move
G1 F18000.0; feed for start of next move
G1 E608.2; extruder retraction
G1 F1500.0; feed for start of next move
G1 X48.0 Y49.8 F1877.7 ;horizontal move
G1 X47.6 Y49.4 F1500.0 ;horizontal move
G1 F18000.0; feed for start of next move
G1 E648.2; extruder dwell
G1 F1500.0; feed for start of next move
G1 F3000.0; feed for start of next move
G1 E653.2; extruder dwell
G1 F1500.0; feed for start of next move
G1 F3000.0; feed for start of next move
G1 E658.2; extruder dwell
G1 F1500.0; feed for start of next move
G1 X47.4 Y49.2 E658.4 F1710.9 ;horizontal move
G1 X46.8 Y48.7 E659.2 F1001.7 ;horizontal move
G1 Y50.6 E661.1 F2399.1 ;horizontal move
G1 X47.4 Y51.3 E662.0 F2808.1 ;horizontal move
G1 X47.6 Y51.5 E662.3 F2675.3 ;horizontal move
G1 Y52.4 E663.2 F2266.3 ;horizontal move
G1 X48.2 Y53.6 E664.6 F1406.5 ;horizontal move
G1 X48.5 Y53.9 E665.0 F923.8 ;horizontal move
G1 X47.9 E665.6 F1514.4 ;horizontal move
G1 X47.4 Y53.3 E666.4 F2038.7 ;horizontal move
G1 X46.8 Y52.8 E667.2 F1500.0 ;horizontal move
G1 F18000.0; feed for start of next move
G1 E627.2; extruder retraction
G1 F1500.0; feed for start of next move
M106 ;cooler on
G28 X0 ;set x 0
G28 Y0 ;set x 0
G92 E0 ;zero the extruded length
;#!LAYER: 2/3
M107 ;cooler off
G4 P20 ;delay
G1 F5.0; feed for start of next move
G1 Z0.2256 F30.4 ;z move
G1 Z0.3756 F5.0 ;z move
G1 F1500.0; feed for start of next move
G1 X2.0 Y2.0 F3000.0 ;horizontal move
G1 X32.1 Y31.1 ;horizontal move
G1 X34.1 Y33.1 F1500.0 ;horizontal move
G1 F18000.0; feed for start of next move
G1 E40.0; extruder dwell
G1 F1500.0; feed for start of next move
G1 F3000.0; feed for start of next move
G1 E80.0; extruder dwell
G1 F1500.0; feed for start of next move
G1 F3000.0; feed for start of next move
G1 E90.0; extruder dwell
G1 F1500.0; feed for start of next move
G1 X34.0 E90.1 F1580.9 ;horizontal move
G1 X33.4 Y32.7 E90.8 F900.0 ;horizontal move
G1 X33.9 Y33.9 E92.1 F1977.8 ;horizontal move
G1 X33.8 Y34.4 E92.6 F2252.3 ;horizontal move
G1 X33.5 Y35.0 E93.3 F2616.6 ;horizontal move
G1 X33.2 Y35.4 E93.8 F2404.3 ;horizontal move
G1 X32.6 Y35.6 E94.4 F2700.0 ;horizontal move
G1 X32.0 Y35.8 E95.1 F2402.0 ;horizontal move
G1 X31.4 Y35.6 E95.7 F2697.4 ;horizontal move
G1 X30.8 Y35.3 E96.4 F2411.1 ;horizontal move
G1 X30.6 Y34.8 E96.9 F2695.6 ;horizontal move
G1 X30.1 Y33.9 E97.9 F2203.3 ;horizontal move
G1 X30.6 Y33.0 E99.0 F2691.8 ;horizontal move
G1 X30.8 Y32.5 E99.5 F2429.3 ;horizontal move
G1 X31.3 Y32.3 E100.0 F2666.2 ;horizontal move
G1 X32.1 Y32.0 E100.9 F2241.9 ;horizontal move
G1 X32.9 Y32.4 E101.8 F2700.0 ;horizontal move
G1 X33.4 Y32.7 E102.4 ;horizontal move
G1 F18000.0; feed for start of next move
G1 E62.4; extruder retraction
G1 F1500.0; feed for start of next move
G1 X34.1 Y33.1 F3000.0 ;horizontal move
G1 F1500.0; feed for start of next move
G1 X33.1 Y35.7 F3000.0 ;horizontal move
G1 X33.0 Y35.9 ;horizontal move
G1 X32.0 Y38.5 F1500.0 ;horizontal move
G1 F18000.0; feed for start of next move
G1 E102.4; extruder dwell
G1 F1500.0; feed for start of next move
G1 F3000.0; feed for start of next move
G1 E107.4; extruder dwell
G1 F1500.0; feed for start of next move
G1 F3000.0; feed for start of next move
G1 E112.4; extruder dwell
G1 F1500.0; feed for start of next move
G1 X33.4 Y37.2 E114.3 F2606.4 ;horizontal move
G1 X35.1 Y35.5 E116.7 F974.9 ;horizontal move
G1 Y37.4 E118.6 F2360.2 ;horizontal move
G1 X34.5 Y38.0 E119.4 F2700.0 ;horizontal move
G1 X32.0 Y40.4 E122.9 ;horizontal move
G1 X31.9 Y40.5 E123.0 F2639.6 ;horizontal move
G1 X31.8 Y40.6 E123.2 F2700.0 ;horizontal move
G1 X30.9 Y41.0 E124.2 ;horizontal move
G1 X30.4 Y41.2 E124.7 F2424.8 ;horizontal move
G1 X30.2 Y41.8 E125.3 F2700.0 ;horizontal move
G1 X29.7 Y42.7 E126.4 ;horizontal move
G1 Y42.8 E126.5 F2671.0 ;horizontal move
G1 X29.3 Y43.3 E127.1 F2700.0 ;horizontal move
G1 X28.9 Y43.8 E127.8 F2419.6 ;horizontal move
G1 Y45.8 E129.8 F1050.0 ;horizontal move
G1 X30.2 Y44.8 E131.4 F2213.9 ;horizontal move
G1 X30.8 Y44.3 E132.2 F1714.7 ;horizontal move
G1 X30.3 Y43.3 E133.3 F2414.4 ;horizontal move
G1 X30.1 Y42.9 E133.7 F2203.3 ;horizontal move
G1 X30.6 Y42.0 E134.8 F2691.8 ;horizontal move
G1 X30.8 Y41.5 E135.3 F2429.3 ;horizontal move
G1 X31.3 Y41.3 E135.8 F2666.2 ;horizontal move
G1 X32.1 Y41.0 E136.7 F2241.9 ;horizontal move
G1 X32.9 Y41.4 E137.6 F2693.9 ;horizontal move
G1 X33.4 Y41.7 E138.2 F2424.8 ;horizontal move
G1 X33.6 Y42.2 E138.7 F2700.0 ;horizontal move
G1 X33.8 Y42.6 E139.2 ;horizontal move
G1 X33.9 Y42.9 E139.5 F2550.3 ;horizontal move
G1 Y43.2 E139.8 F2686.5 ;horizontal move
G1 X33.8 Y43.4 E140.0 F2601.8 ;horizontal move
G1 X33.7 Y43.6 E140.2 F2700.0 ;horizontal move
G1 X33.6 Y43.9 E140.5 ;horizontal move
G1 X33.2 Y44.4 E141.2 F2404.3 ;horizontal move
G1 X32.6 Y44.6 E141.8 F2700.0 ;horizontal move
G1 X32.0 Y44.8 E142.4 F2402.0 ;horizontal move
G1 X31.9 E142.5 F2425.4 ;horizontal move
G1 X30.8 Y44.3 E143.8 F1739.7 ;horizontal move
G1 X31.2 Y42.6 E145.5 F2700.0 ;horizontal move
G1 X31.6 Y40.5 E147.6 ;horizontal move
G1 F18000.0; feed for start of next move
G1 E107.6; extruder retraction
G1 F1500.0; feed for start of next move
G1 X32.0 Y38.5 F3000.0 ;horizontal move
G1 F1500.0; feed for start of next move
G1 X32.4 Y41.3 F3000.0 ;horizontal move
G1 X33.9 Y50.3 ;horizontal move
G1 X34.3 Y53.1 F1500.0 ;horizontal move
G1 F18000.0; feed for start of next move
G1 E147.6; extruder dwell
G1 F1500.0; feed for start of next move
G1 F3000.0; feed for start of next move
G1 E152.6; extruder dwell
G1 F1500.0; feed for start of next move
G1 F3000.0; feed for start of next move
G1 E157.6; extruder dwell
G1 F1500.0; feed for start of next move
G1 X35.1 Y52.2 E158.8 F2259.0 ;horizontal move
G1 Y52.0 E159.0 F2345.9 ;horizontal move
G1 Y50.2 E160.8 F1003.8 ;horizontal move
G1 X34.3 Y50.8 E161.8 F1861.0 ;horizontal move
G1 X34.1 Y51.1 E162.2 F1629.2 ;horizontal move
G1 X33.4 Y50.7 E163.0 F922.0 ;horizontal move
G1 X33.9 Y51.9 E164.3 F1988.0 ;horizontal move
G1 X33.8 Y52.4 E164.8 F2261.2 ;horizontal move
G1 X33.5 Y53.0 E165.5 F2620.5 ;horizontal move
G1 X33.2 Y53.4 E166.0 F2404.3 ;horizontal move
G1 X32.6 Y53.6 E166.6 F2700.0 ;horizontal move
G1 X32.0 Y53.8 E167.3 F2402.0 ;horizontal move
G1 X31.4 Y53.6 E167.9 F2697.4 ;horizontal move
G1 X30.8 Y53.3 E168.6 F2411.1 ;horizontal move
G1 X30.6 Y52.8 E169.1 F2695.6 ;horizontal move
G1 X30.1 Y51.9 E170.1 F2203.3 ;horizontal move
G1 X30.6 Y51.0 E171.2 F2691.8 ;horizontal move
G1 X30.8 Y50.5 E171.7 F2429.3 ;horizontal move
G1 X31.3 Y50.3 E172.2 F2666.2 ;horizontal move
G1 X32.1 Y50.0 E173.1 F2241.9 ;horizontal move
G1 X32.9 Y50.4 E174.0 F2683.9 ;horizontal move
G1 X33.4 Y50.7 E174.6 F2402.5 ;horizontal move
G1 X33.6 Y51.2 E175.1 F2653.4 ;horizontal move
G1 F18000.0; feed for start of next move
G1 E135.1; extruder retraction
G1 F1500.0; feed for start of next move
G1 X34.3 Y53.1 F3000.0 ;horizontal move
G1 F1500.0; feed for start of next move
G1 X32.0 Y53.3 F2812.5 ;horizontal move
G1 X29.6 Y53.5 F1500.0 ;horizontal move
G1 F18000.0; feed for start of next move
G1 E175.1; extruder dwell
G1 F1500.0; feed for start of next move
G1 F3000.0; feed for start of next move
G1 E180.1; extruder dwell
G1 F1500.0; feed for start of next move
G1 F3000.0; feed for start of next move
G1 E185.1; extruder dwell
G1 F1500.0; feed for start of next move
G1 X29.2 Y53.8 E185.6 F1861.6 ;horizontal move
G1 Y53.9 E185.7 F1803.3 ;horizontal move
G1 X28.4 Y54.4 E186.7 F1084.0 ;horizontal move
G1 Y51.8 E189.3 F2700.0 ;horizontal move
G1 Y33.5 E207.6 ;horizontal move
G1 Y31.4 E209.7 F1493.7 ;horizontal move
G1 X30.5 Y31.5 E211.8 F2700.0 ;horizontal move
G1 X33.5 E214.8 ;horizontal move
G1 X35.6 E216.9 F1506.9 ;horizontal move
G1 Y33.6 E219.0 F2700.0 ;horizontal move
G1 X35.5 Y52.3 E237.7 ;horizontal move
G1 Y54.4 E239.8 F1495.6 ;horizontal move
G1 X33.4 E241.9 F2700.0 ;horizontal move
G1 X31.1 E244.2 ;horizontal move
G1 X28.4 E246.9 F902.0 ;horizontal move
G1 X29.3 Y53.7 E248.0 F1811.5 ;horizontal move
G1 F18000.0; feed for start of next move
G1 E208.0; extruder retraction
G1 F1500.0; feed for start of next move
G1 X29.6 Y53.5 F3000.0 ;horizontal move
G1 F1500.0; feed for start of next move
G1 X29.4 Y53.7 F1711.4 ;horizontal move
G1 X29.2 Y53.9 F1500.0 ;horizontal move
G1 F18000.0; feed for start of next move
G1 E248.0; extruder dwell
G1 F1500.0; feed for start of next move
G1 F3000.0; feed for start of next move
G1 E253.0; extruder dwell
G1 F1500.0; feed for start of next move
G1 F3000.0; feed for start of next move
G1 E258.0; extruder dwell
G1 F1500.0; feed for start of next move
G1 X28.9 Y53.8 E258.3 F1686.3 ;horizontal move
G1 Y52.3 E259.8 F2529.0 ;horizontal move
G1 Y52.1 E260.0 F2432.2 ;horizontal move
G1 X30.0 Y51.1 E261.5 F1500.0 ;horizontal move
G1 F18000.0; feed for start of next move
G1 E221.5; extruder retraction
G1 F1500.0; feed for start of next move
G1 X30.7 Y50.4 F2131.3 ;horizontal move
G1 X31.3 Y49.7 F1500.0 ;horizontal move
G1 F18000.0; feed for start of next move
G1 E261.5; extruder dwell
G1 F1500.0; feed for start of next move
G1 F3000.0; feed for start of next move
G1 E266.5; extruder dwell
G1 F1500.0; feed for start of next move
G1 F3000.0; feed for start of next move
G1 E271.5; extruder dwell
G1 F1500.0; feed for start of next move
G1 X33.0 Y48.0 E273.9 F2830.2 ;horizontal move
G1 X35.1 Y46.0 E276.8 F969.7 ;horizontal move
G1 Y47.9 E278.7 F2385.8 ;horizontal move
G1 X34.7 Y48.3 E279.3 F2651.9 ;horizontal move
G1 X33.2 Y50.0 E281.5 F1284.5 ;horizontal move
G1 X33.7 Y50.2 E282.1 F1714.0 ;horizontal move
G1 X33.8 Y50.5 E282.4 F1929.0 ;horizontal move
G1 X34.1 Y51.1 E283.1 F1500.0 ;horizontal move
G1 F18000.0; feed for start of next move
G1 E243.1; extruder retraction
G1 F1500.0; feed for start of next move
G1 X34.2 Y52.1 F2159.2 ;horizontal move
G1 X34.3 Y53.1 F1500.0 ;horizontal move
G1 F18000.0; feed for start of next move
G1 E283.1; extruder dwell
G1 F1500.0; feed for start of next move
G1 F3000.0; feed for start of next move
G1 E288.1; extruder dwell
G1 F1500.0; feed for start of next move
G1 F3000.0; feed for start of next move
G1 E293.1; extruder dwell
G1 F1500.0; feed for start of next move
G1 X33.9 Y53.5 E293.6 F1917.4 ;horizontal move
G1 X33.5 Y53.9 E294.2 F1500.0 ;horizontal move
G1 F18000.0; feed for start of next move
G1 E254.2; extruder retraction
G1 F1500.0; feed for start of next move
G1 X31.8 Y53.5 F2538.0 ;horizontal move
G1 X30.1 Y53.1 F1500.0 ;horizontal move
G1 F18000.0; feed for start of next move
G1 E294.2; extruder dwell
G1 F1500.0; feed for start of next move
G1 F3000.0; feed for start of next move
G1 E299.2; extruder dwell
G1 F1500.0; feed for start of next move
G1 F3000.0; feed for start of next move
G1 E304.2; extruder dwell
G1 F1500.0; feed for start of next move
G1 X29.8 Y53.3 E304.6 F1721.8 ;horizontal move
G1 X29.6 Y53.5 E304.8 F1500.0 ;horizontal move
G1 F18000.0; feed for start of next move
G1 E264.8; extruder retraction
G1 F1500.0; feed for start of next move
G1 X29.3 Y50.7 F3000.0 ;horizontal move
G1 X29.2 Y48.6 ;horizontal move
G1 X28.9 Y45.8 F1500.0 ;horizontal move
G1 F18000.0; feed for start of next move
G1 E304.8; extruder dwell
G1 F1500.0; feed for start of next move
G1 F3000.0; feed for start of next move
G1 E309.8; extruder dwell
G1 F1500.0; feed for start of next move
G1 F3000.0; feed for start of next move
G1 E314.8; extruder dwell
G1 F1500.0; feed for start of next move
G1 X29.9 Y44.9 E316.2 F2303.7 ;horizontal move
G1 X30.3 Y44.5 E316.7 F1969.6 ;horizontal move
G1 X30.6 Y44.7 E317.1 F2138.1 ;horizontal move
G1 X31.3 Y45.1 E317.9 F1618.7 ;horizontal move
G1 X31.6 Y45.2 E318.2 F1334.3 ;horizontal move
G1 X29.7 Y47.2 E321.0 F2883.5 ;horizontal move
G1 X28.9 Y48.0 E322.1 F2383.8 ;horizontal move
G1 Y50.0 E324.1 F964.6 ;horizontal move
G1 X31.3 Y47.6 E327.5 F3000.0 ;horizontal move
G1 X34.2 Y44.6 E331.7 ;horizontal move
G1 X35.1 Y43.7 E333.0 F2403.3 ;horizontal move
G1 Y41.7 E335.0 F1011.9 ;horizontal move
G1 X34.6 Y42.2 E335.7 F1645.7 ;horizontal move
G1 X34.3 Y42.4 E336.0 F1318.1 ;horizontal move
G1 X33.9 Y41.8 E336.7 F1853.9 ;horizontal move
G1 X33.7 Y41.2 E337.4 F1384.5 ;horizontal move
G1 X33.5 E337.6 F1262.8 ;horizontal move
G1 X34.4 Y40.3 E338.9 F2137.7 ;horizontal move
G1 X35.1 Y39.6 E339.8 F1500.0 ;horizontal move
G1 F18000.0; feed for start of next move
G1 E299.8; extruder retraction
G1 F1500.0; feed for start of next move
G1 X33.6 Y39.1 F2489.4 ;horizontal move
G1 X32.0 Y38.5 F1500.0 ;horizontal move
G1 F18000.0; feed for start of next move
G1 E339.8; extruder dwell
G1 F1500.0; feed for start of next move
G1 F3000.0; feed for start of next move
G1 E344.8; extruder dwell
G1 F1500.0; feed for start of next move
G1 F3000.0; feed for start of next move
G1 E349.8; extruder dwell
G1 F1500.0; feed for start of next move
G1 X30.7 Y39.8 E351.7 F2606.4 ;horizontal move
G1 X28.9 Y41.5 E354.2 F974.9 ;horizontal move
G1 Y39.5 E356.2 F2388.0 ;horizontal move
G1 X29.8 Y38.6 E357.4 F2990.4 ;horizontal move
G1 X32.0 Y36.3 E360.6 F1219.1 ;horizontal move
G1 X30.7 Y35.8 E362.0 F2212.0 ;horizontal move
G1 X30.6 E362.1 F2177.9 ;horizontal move
G1 X30.3 Y36.0 E362.5 F2361.1 ;horizontal move
G1 X28.9 Y37.3 E364.4 F1000.5 ;horizontal move
G1 Y35.3 E366.4 F2398.5 ;horizontal move
G1 X29.4 Y34.7 E367.2 F2750.4 ;horizontal move
G1 X29.8 Y34.3 E367.7 F2512.9 ;horizontal move
G1 X29.7 Y34.1 E367.9 F2624.9 ;horizontal move
G1 Y33.8 E368.2 F2482.3 ;horizontal move
G1 X30.2 Y32.5 E369.6 F1694.6 ;horizontal move
G1 X30.7 Y32.0 E370.3 F1066.7 ;horizontal move
G1 X30.2 Y31.9 E370.9 F1562.6 ;horizontal move
G1 X29.6 Y32.4 E371.6 F2082.6 ;horizontal move
G1 X28.9 Y33.0 E372.6 F1500.0 ;horizontal move
G1 F18000.0; feed for start of next move
G1 E332.6; extruder retraction
G1 F1500.0; feed for start of next move
G1 X31.5 Y33.1 F2914.0 ;horizontal move
G1 X34.1 F1500.0 ;horizontal move
G1 F18000.0; feed for start of next move
G1 E372.6; extruder dwell
G1 F1500.0; feed for start of next move
G1 F3000.0; feed for start of next move
G1 E377.6; extruder dwell
G1 F1500.0; feed for start of next move
G1 F3000.0; feed for start of next move
G1 E382.6; extruder dwell
G1 F1500.0; feed for start of next move
G1 X34.2 Y33.3 E382.8 F1670.8 ;horizontal move
G1 X34.4 Y33.8 E383.3 F1219.6 ;horizontal move
G1 X34.9 Y33.4 E384.0 F1743.8 ;horizontal move
G1 X35.1 Y33.2 E384.2 F1500.0 ;horizontal move
G1 F18000.0; feed for start of next move
G1 E344.2; extruder retraction
G1 F1500.0; feed for start of next move
G1 X34.6 F1859.0 ;horizontal move
G1 X34.1 Y33.1 F1500.0 ;horizontal move
G1 F18000.0; feed for start of next move
G1 E384.2; extruder dwell
G1 F1500.0; feed for start of next move
G1 F3000.0; feed for start of next move
G1 E389.2; extruder dwell
G1 F1500.0; feed for start of next move
G1 F3000.0; feed for start of next move
G1 E394.2; extruder dwell
G1 F1500.0; feed for start of next move
G1 X33.9 Y32.5 E394.9 F1958.7 ;horizontal move
G1 X33.8 Y32.4 E395.0 F1891.5 ;horizontal move
G1 X34.2 Y32.0 E395.6 F1500.0 ;horizontal move
G1 F18000.0; feed for start of next move
G1 E355.6; extruder retraction
G1 F1500.0; feed for start of next move
G1 X36.8 Y33.1 F3000.0 ;horizontal move
G1 X47.3 Y37.4 ;horizontal move
G1 X49.9 Y38.5 F1500.0 ;horizontal move
G1 F18000.0; feed for start of next move
G1 E395.6; extruder dwell
G1 F1500.0; feed for start of next move
G1 F3000.0; feed for start of next move
G1 E400.6; extruder dwell
G1 F1500.0; feed for start of next move
G1 F3000.0; feed for start of next move
G1 E405.6; extruder dwell
G1 F1500.0; feed for start of next move
G1 X51.2 Y37.2 E407.4 F2606.4 ;horizontal move
G1 X53.0 Y35.5 E409.9 F974.9 ;horizontal move
G1 Y37.4 E411.8 F2360.5 ;horizontal move
G1 X52.4 Y38.0 E412.6 F2700.0 ;horizontal move
G1 X49.8 Y40.5 E416.3 ;horizontal move
G1 X49.7 Y40.6 E416.4 F2608.1 ;horizontal move
G1 X49.5 Y40.7 E416.6 F2700.0 ;horizontal move
G1 X48.9 Y40.9 E417.3 ;horizontal move
G1 X48.3 Y41.2 E417.9 F2377.8 ;horizontal move
G1 X48.0 Y41.8 E418.6 F2700.0 ;horizontal move
G1 X47.6 Y42.6 E419.5 ;horizontal move
G1 Y42.7 E419.6 F2675.5 ;horizontal move
G1 X47.5 Y42.9 E419.8 F2590.9 ;horizontal move
G1 X47.4 Y43.1 E420.0 F2700.0 ;horizontal move
G1 X47.2 Y43.3 E420.3 ;horizontal move
G1 X46.8 Y43.8 E421.0 F2398.1 ;horizontal move
G1 Y45.8 E423.0 F999.3 ;horizontal move
G1 X48.1 Y44.6 E424.7 F2268.8 ;horizontal move
G1 X48.5 Y44.2 E425.3 F1920.4 ;horizontal move
G1 X48.2 Y43.2 E426.3 F2498.2 ;horizontal move
G1 X48.0 Y42.8 E426.8 F2288.5 ;horizontal move
G1 X48.4 Y42.1 E427.6 F2697.8 ;horizontal move
G1 X48.7 Y41.5 E428.3 F2363.0 ;horizontal move
G1 X49.4 Y41.2 E429.0 F2687.7 ;horizontal move
G1 X50.0 Y41.0 E429.7 F2382.4 ;horizontal move
G1 X50.6 Y41.3 E430.3 F2700.0 ;horizontal move
G1 X51.2 Y41.6 E431.0 F2398.1 ;horizontal move
G1 X51.4 Y42.2 E431.6 F2700.0 ;horizontal move
G1 X51.6 Y42.4 E431.9 ;horizontal move
G1 X51.7 Y42.8 E432.3 F2524.8 ;horizontal move
G1 Y43.1 E432.6 F2688.9 ;horizontal move
G1 Y43.3 E432.8 F2631.6 ;horizontal move
G1 X51.6 Y43.4 E433.0 F2700.0 ;horizontal move
G1 X51.4 Y43.8 E433.4 ;horizontal move
G1 X51.1 Y44.3 E434.0 F2411.1 ;horizontal move
G1 X50.6 Y44.6 E434.6 F2670.8 ;horizontal move
G1 X50.0 Y44.8 E435.2 F2341.8 ;horizontal move
G1 X49.8 Y44.7 E435.4 F2459.9 ;horizontal move
G1 X48.5 Y44.2 E436.8 F1695.2 ;horizontal move
G1 X49.0 Y42.4 E438.7 F2700.0 ;horizontal move
G1 X49.4 Y40.5 E440.6 ;horizontal move
G1 F18000.0; feed for start of next move
G1 E400.6; extruder retraction
G1 F1500.0; feed for start of next move
G1 X49.9 Y38.5 F3000.0 ;horizontal move
G1 F1500.0; feed for start of next move
G1 X51.2 Y36.0 F3000.0 ;horizontal move
G1 X51.3 ;horizontal move
G1 X52.6 Y33.5 F1500.0 ;horizontal move
G1 F18000.0; feed for start of next move
G1 E440.6; extruder dwell
G1 F1500.0; feed for start of next move
G1 F3000.0; feed for start of next move
G1 E445.6; extruder dwell
G1 F1500.0; feed for start of next move
G1 F3000.0; feed for start of next move
G1 E450.6; extruder dwell
G1 F1500.0; feed for start of next move
G1 X52.5 Y33.6 E450.8 F1553.0 ;horizontal move
G1 X52.2 Y33.9 E451.2 F1140.1 ;horizontal move
G1 X52.0 Y33.1 E452.0 F1817.8 ;horizontal move
G1 Y32.9 E452.2 F1712.9 ;horizontal move
G1 X51.2 Y32.6 E453.1 F933.9 ;horizontal move
G1 X51.7 Y33.8 E454.4 F2007.6 ;horizontal move
G1 Y34.3 E454.9 F2278.5 ;horizontal move
G1 X51.3 Y34.9 E455.6 F2636.5 ;horizontal move
G1 X51.1 Y35.3 E456.0 F2411.1 ;horizontal move
G1 X50.6 Y35.6 E456.6 F2670.8 ;horizontal move
G1 X50.0 Y35.8 E457.3 F2341.8 ;horizontal move
G1 X49.3 Y35.5 E458.0 F2700.0 ;horizontal move
G1 X49.2 E458.1 ;horizontal move
G1 X48.5 Y35.2 E458.9 F2333.4 ;horizontal move
G1 X48.3 Y34.6 E459.5 F2668.2 ;horizontal move
G1 X48.0 Y33.8 E460.4 F2288.5 ;horizontal move
G1 X48.4 Y33.1 E461.2 F2697.8 ;horizontal move
G1 X48.7 Y32.5 E461.9 F2363.0 ;horizontal move
G1 X49.4 Y32.2 E462.6 F2687.7 ;horizontal move
G1 X50.0 Y32.0 E463.2 F2382.4 ;horizontal move
G1 X50.6 Y32.3 E463.9 F2700.0 ;horizontal move
G1 X51.1 Y32.6 E464.5 ;horizontal move
G1 X51.2 E464.6 F2681.7 ;horizontal move
G1 F18000.0; feed for start of next move
G1 E424.6; extruder retraction
G1 F1500.0; feed for start of next move
G1 X52.6 Y33.5 F3000.0 ;horizontal move
G1 F1500.0; feed for start of next move
G1 X52.5 Y36.3 F3000.0 ;horizontal move
G1 X52.3 Y50.3 ;horizontal move
G1 X52.2 Y53.1 F1500.0 ;horizontal move
G1 F18000.0; feed for start of next move
G1 E464.6; extruder dwell
G1 F1500.0; feed for start of next move
G1 F3000.0; feed for start of next move
G1 E469.6; extruder dwell
G1 F1500.0; feed for start of next move
G1 F3000.0; feed for start of next move
G1 E474.6; extruder dwell
G1 F1500.0; feed for start of next move
G1 X53.0 Y52.2 E475.8 F2259.0 ;horizontal move
G1 Y52.0 E476.0 F2342.3 ;horizontal move
G1 Y50.2 E477.8 F987.0 ;horizontal move
G1 X52.2 Y50.9 E478.9 F1904.3 ;horizontal move
G1 X52.0 Y51.1 E479.2 F1766.4 ;horizontal move
G1 X51.2 Y50.6 E480.1 F893.4 ;horizontal move
G1 X51.7 Y51.8 E481.4 F1989.1 ;horizontal move
G1 Y52.3 E481.9 F2262.2 ;horizontal move
G1 X51.3 Y52.9 E482.6 F2629.5 ;horizontal move
G1 X51.1 Y53.3 E483.1 F2411.1 ;horizontal move
G1 X50.6 Y53.6 E483.6 F2670.8 ;horizontal move
G1 X50.0 Y53.8 E484.3 F2341.8 ;horizontal move
G1 X49.3 Y53.5 E485.0 F2700.0 ;horizontal move
G1 X49.2 E485.1 ;horizontal move
G1 X48.5 Y53.2 E485.9 F2333.4 ;horizontal move
G1 X48.3 Y52.6 E486.5 F2668.2 ;horizontal move
G1 X48.0 Y51.8 E487.4 F2288.5 ;horizontal move
G1 X48.4 Y51.1 E488.2 F2697.8 ;horizontal move
G1 X48.7 Y50.5 E488.9 F2363.0 ;horizontal move
G1 X49.4 Y50.2 E489.6 F2687.7 ;horizontal move
G1 X50.0 Y50.0 E490.3 F2382.4 ;horizontal move
G1 X50.6 Y50.3 E490.9 F2684.5 ;horizontal move
G1 X51.2 Y50.6 E491.6 F2361.9 ;horizontal move
G1 X51.4 Y51.2 E492.2 F2670.2 ;horizontal move
G1 F18000.0; feed for start of next move
G1 E452.2; extruder retraction
G1 F1500.0; feed for start of next move
G1 X52.2 Y53.1 F3000.0 ;horizontal move
G1 F1500.0; feed for start of next move
G1 X49.9 Y53.3 F2812.5 ;horizontal move
G1 X47.5 Y53.5 F1500.0 ;horizontal move
G1 F18000.0; feed for start of next move
G1 E492.2; extruder dwell
G1 F1500.0; feed for start of next move
G1 F3000.0; feed for start of next move
G1 E497.2; extruder dwell
G1 F1500.0; feed for start of next move
G1 F3000.0; feed for start of next move
G1 E502.2; extruder dwell
G1 F1500.0; feed for start of next move
G1 X47.1 Y53.8 E502.7 F1861.6 ;horizontal move
G1 X47.0 Y53.9 E502.9 F1803.3 ;horizontal move
G1 X46.3 Y54.4 E503.7 F1084.0 ;horizontal move
G1 Y51.8 E506.3 F2700.0 ;horizontal move
G1 Y33.5 E524.6 ;horizontal move
G1 Y31.4 E526.7 F1493.7 ;horizontal move
G1 X48.4 Y31.5 E528.8 F2700.0 ;horizontal move
G1 X51.4 E531.8 ;horizontal move
G1 X53.5 E533.9 F1506.9 ;horizontal move
G1 Y33.6 E536.0 F2700.0 ;horizontal move
G1 X53.4 Y52.3 E554.7 ;horizontal move
G1 Y54.4 E556.8 F1495.6 ;horizontal move
G1 X51.3 E558.9 F2700.0 ;horizontal move
G1 X49.0 E561.2 ;horizontal move
G1 X46.3 E563.9 F902.0 ;horizontal move
G1 X47.1 Y53.7 E565.0 F1811.5 ;horizontal move
G1 F18000.0; feed for start of next move
G1 E525.0; extruder retraction
G1 F1500.0; feed for start of next move
G1 X47.5 Y53.5 F3000.0 ;horizontal move
G1 F1500.0; feed for start of next move
G1 X47.3 Y53.7 F1737.3 ;horizontal move
G1 X47.0 Y53.9 F1500.0 ;horizontal move
G1 F18000.0; feed for start of next move
G1 E565.0; extruder dwell
G1 F1500.0; feed for start of next move
G1 F3000.0; feed for start of next move
G1 E570.0; extruder dwell
G1 F1500.0; feed for start of next move
G1 F3000.0; feed for start of next move
G1 E575.0; extruder dwell
G1 F1500.0; feed for start of next move
G1 X46.8 Y53.8 E575.2 F1686.3 ;horizontal move
G1 Y52.4 E576.6 F2488.4 ;horizontal move
G1 Y52.1 E576.9 F2347.0 ;horizontal move
G1 X47.8 Y51.2 E578.3 F1500.0 ;horizontal move
G1 F18000.0; feed for start of next move
G1 E538.3; extruder retraction
G1 F1500.0; feed for start of next move
G1 Y52.2 F2129.1 ;horizontal move
G1 X47.9 Y53.1 F1500.0 ;horizontal move
G1 F18000.0; feed for start of next move
G1 E578.3; extruder dwell
G1 F1500.0; feed for start of next move
G1 F3000.0; feed for start of next move
G1 E583.3; extruder dwell
G1 F1500.0; feed for start of next move
G1 F3000.0; feed for start of next move
G1 E588.3; extruder dwell
G1 F1500.0; feed for start of next move
G1 X47.7 Y53.3 E588.6 F1721.8 ;horizontal move
G1 X47.5 Y53.5 E588.8 F1500.0 ;horizontal move
G1 F18000.0; feed for start of next move
G1 E548.8; extruder retraction
G1 F1500.0; feed for start of next move
G1 X49.5 Y53.7 F2637.1 ;horizontal move
G1 X51.4 Y53.9 F1500.0 ;horizontal move
G1 F18000.0; feed for start of next move
G1 E588.8; extruder dwell
G1 F1500.0; feed for start of next move
G1 F3000.0; feed for start of next move
G1 E593.8; extruder dwell
G1 F1500.0; feed for start of next move
G1 F3000.0; feed for start of next move
G1 E598.8; extruder dwell
G1 F1500.0; feed for start of next move
G1 X51.8 Y53.5 E599.4 F1917.4 ;horizontal move
G1 X52.2 Y53.1 E600.0 F1500.0 ;horizontal move
G1 F18000.0; feed for start of next move
G1 E560.0; extruder retraction
G1 F1500.0; feed for start of next move
G1 X52.1 Y52.1 F2159.2 ;horizontal move
G1 X52.0 Y51.1 F1500.0 ;horizontal move
G1 F18000.0; feed for start of next move
G1 E600.0; extruder dwell
G1 F1500.0; feed for start of next move
G1 F3000.0; feed for start of next move
G1 E605.0; extruder dwell
G1 F1500.0; feed for start of next move
G1 F3000.0; feed for start of next move
G1 E610.0; extruder dwell
G1 F1500.0; feed for start of next move
G1 X51.7 Y50.5 E610.6 F1924.8 ;horizontal move
G1 X51.5 Y50.2 E611.0 F1625.1 ;horizontal move
G1 X51.1 Y50.0 E611.4 F1242.7 ;horizontal move
G1 X52.6 Y48.3 E613.7 F2642.0 ;horizontal move
G1 X53.0 Y47.9 E614.3 F2385.8 ;horizontal move
G1 Y46.0 E616.2 F969.7 ;horizontal move
G1 X50.9 Y48.1 E619.1 F2848.1 ;horizontal move
G1 X49.1 Y49.8 E621.6 F1500.0 ;horizontal move
G1 F18000.0; feed for start of next move
G1 E581.6; extruder retraction
G1 F1500.0; feed for start of next move
G1 X48.0 Y47.8 F2790.5 ;horizontal move
G1 X46.8 Y45.8 F1500.0 ;horizontal move
G1 F18000.0; feed for start of next move
G1 E621.6; extruder dwell
G1 F1500.0; feed for start of next move
G1 F3000.0; feed for start of next move
G1 E626.6; extruder dwell
G1 F1500.0; feed for start of next move
G1 F3000.0; feed for start of next move
G1 E631.6; extruder dwell
G1 F1500.0; feed for start of next move
G1 X47.8 Y44.9 E633.0 F2360.8 ;horizontal move
G1 X48.2 Y44.6 E633.5 F2123.2 ;horizontal move
G1 X48.3 E633.6 F2185.8 ;horizontal move
G1 X49.5 Y45.2 E634.9 F1252.0 ;horizontal move
G1 X47.6 Y47.2 E637.7 F2882.7 ;horizontal move
G1 X46.8 Y48.0 E638.8 F2383.8 ;horizontal move
G1 Y50.0 E640.8 F964.6 ;horizontal move
G1 X49.2 Y47.6 E644.2 F3000.0 ;horizontal move
G1 X52.0 Y44.7 E648.2 ;horizontal move
G1 X53.0 Y43.7 E649.6 F2394.0 ;horizontal move
G1 Y41.7 E651.6 F989.7 ;horizontal move
G1 X52.5 Y42.2 E652.3 F1642.1 ;horizontal move
G1 X52.1 Y42.5 E652.8 F1289.3 ;horizontal move
G1 X51.6 Y41.4 E654.1 F2146.3 ;horizontal move
G1 X51.5 Y41.2 E654.3 F2002.1 ;horizontal move
G1 X52.0 Y40.6 E655.1 F2393.0 ;horizontal move
G1 X53.0 Y39.6 E656.5 F1500.0 ;horizontal move
G1 F18000.0; feed for start of next move
G1 E616.5; extruder retraction
G1 F1500.0; feed for start of next move
G1 X51.5 Y39.1 F2489.4 ;horizontal move
G1 X49.9 Y38.5 F1500.0 ;horizontal move
G1 F18000.0; feed for start of next move
G1 E656.5; extruder dwell
G1 F1500.0; feed for start of next move
G1 F3000.0; feed for start of next move
G1 E661.5; extruder dwell
G1 F1500.0; feed for start of next move
G1 F3000.0; feed for start of next move
G1 E666.5; extruder dwell
G1 F1500.0; feed for start of next move
G1 X48.5 Y39.8 E668.4 F2606.4 ;horizontal move
G1 X46.8 Y41.5 E670.8 F974.9 ;horizontal move
G1 Y39.5 E672.8 F2388.0 ;horizontal move
G1 X47.7 Y38.6 E674.1 F2990.4 ;horizontal move
G1 X49.9 Y36.3 E677.2 F1219.1 ;horizontal move
G1 X48.5 Y35.8 E678.7 F2212.0 ;horizontal move
G1 X48.2 Y36.0 E679.1 F2361.1 ;horizontal move
G1 X46.8 Y37.3 E681.0 F1000.5 ;horizontal move
G1 Y35.3 E683.0 F2398.5 ;horizontal move
G1 X47.2 Y34.9 E683.6 F2661.7 ;horizontal move
G1 X47.6 Y34.3 E684.3 F2314.1 ;horizontal move
G1 X47.5 Y33.9 E684.7 F2530.5 ;horizontal move
G1 X48.1 Y32.5 E686.2 F1700.0 ;horizontal move
G1 X48.5 Y32.0 E686.9 F1075.1 ;horizontal move
G1 X48.1 Y31.9 E687.3 F1522.1 ;horizontal move
G1 X47.4 Y32.5 E688.2 F2067.6 ;horizontal move
G1 X46.8 Y33.0 E689.0 F1500.0 ;horizontal move
G1 F18000.0; feed for start of next move
G1 E649.0; extruder retraction
G1 F1500.0; feed for start of next move
G1 X49.4 F2914.0 ;horizontal move
G1 X52.0 Y32.9 F1500.0 ;horizontal move
G1 F18000.0; feed for start of next move
G1 E689.0; extruder dwell
G1 F1500.0; feed for start of next move
G1 F3000.0; feed for start of next move
G1 E694.0; extruder dwell
G1 F1500.0; feed for start of next move
G1 F3000.0; feed for start of next move
G1 E699.0; extruder dwell
G1 F1500.0; feed for start of next move
G1 X51.7 Y32.5 E699.5 F1881.0 ;horizontal move
G1 Y32.4 E699.6 F1901.0 ;horizontal move
G1 X52.1 Y32.0 E700.1 F1500.0 ;horizontal move
G1 F18000.0; feed for start of next move
G1 E660.1; extruder retraction
G1 F1500.0; feed for start of next move
G1 X52.6 Y32.6 F2012.5 ;horizontal move
G1 X53.0 Y33.2 F1500.0 ;horizontal move
G1 F18000.0; feed for start of next move
G1 E700.1; extruder dwell
G1 F1500.0; feed for start of next move
G1 F3000.0; feed for start of next move
G1 E705.1; extruder dwell
G1 F1500.0; feed for start of next move
G1 F3000.0; feed for start of next move
G1 E710.1; extruder dwell
G1 F1500.0; feed for start of next move
G1 X52.8 Y33.4 E710.4 F1699.1 ;horizontal move
G1 X52.6 Y33.5 E710.7 F1500.0 ;horizontal move
G1 F18000.0; feed for start of next move
G1 E670.7; extruder retraction
G1 F1500.0; feed for start of next move
M106 ;cooler on
G28 X0 ;set x 0
G28 Y0 ;set x 0
G92 E0 ;zero the extruded length
;#!LAYER: 3/3
G28 X0 ;set x 0
G28 Y0 ;set x 0
M107 ;cooler off
G1 F5.0; feed for start of next move
G1 Z0.5256 F30.4 ;z move
G1 Z0.6756 F5.0 ;z move
G1 F1500.0; feed for start of next move
G1 X1.9 Y2.1 F3000.0 ;horizontal move
G1 X27.4 Y29.8 ;horizontal move
G1 X29.3 Y31.9 F1500.0 ;horizontal move
G1 F18000.0; feed for start of next move
G1 E40.0; extruder dwell
G1 F1500.0; feed for start of next move
G1 F3000.0; feed for start of next move
G1 E80.0; extruder dwell
G1 F1500.0; feed for start of next move
G1 F3000.0; feed for start of next move
G1 E90.0; extruder dwell
G1 F1500.0; feed for start of next move
G1 X29.1 Y31.8 E90.2 F1625.9 ;horizontal move
G1 X28.4 Y31.4 E91.0 F845.7 ;horizontal move
G1 X31.2 Y31.5 E93.8 F2700.0 ;horizontal move
G1 X33.5 E96.1 ;horizontal move
G1 X35.6 E98.2 F1506.9 ;horizontal move
G1 Y33.6 E100.3 F2700.0 ;horizontal move
G1 X35.5 Y52.3 E119.0 ;horizontal move
G1 Y54.4 E121.1 F1495.6 ;horizontal move
G1 X33.4 E123.2 F2700.0 ;horizontal move
G1 X30.5 E126.1 ;horizontal move
G1 X28.4 E128.2 F1510.2 ;horizontal move
G1 Y52.3 E130.3 F2700.0 ;horizontal move
G1 Y33.9 E148.7 ;horizontal move
G1 Y31.4 E151.2 F1127.9 ;horizontal move
G1 X29.0 Y31.8 E152.0 F1709.4 ;horizontal move
G1 F18000.0; feed for start of next move
G1 E112.0; extruder retraction
G1 F1500.0; feed for start of next move
G1 X29.3 Y31.9 F3000.0 ;horizontal move
G1 F1500.0; feed for start of next move
G1 X30.3 Y34.5 F3000.0 ;horizontal move
G1 X31.0 Y36.3 ;horizontal move
G1 X32.0 Y38.9 F1500.0 ;horizontal move
G1 F18000.0; feed for start of next move
G1 E152.0; extruder dwell
G1 F1500.0; feed for start of next move
G1 F3000.0; feed for start of next move
G1 E157.0; extruder dwell
G1 F1500.0; feed for start of next move
G1 F3000.0; feed for start of next move
G1 E162.0; extruder dwell
G1 F1500.0; feed for start of next move
G1 X30.5 Y37.4 E164.1 F2700.0 ;horizontal move
G1 X29.4 Y36.3 E165.6 ;horizontal move
G1 X28.9 Y35.8 E166.3 F2360.6 ;horizontal move
G1 Y35.7 E166.4 F2376.8 ;horizontal move
G1 Y33.8 E168.3 F987.0 ;horizontal move
G1 X29.9 Y34.7 E169.7 F2032.8 ;horizontal move
G1 X30.3 Y35.5 E170.6 F2512.8 ;horizontal move
G1 X30.7 Y35.7 E171.0 F2700.0 ;horizontal move
G1 X31.1 Y36.0 E171.5 ;horizontal move
G1 X31.2 Y36.1 E171.7 ;horizontal move
G1 X33.2 Y38.0 E174.4 ;horizontal move
G1 X35.1 Y39.8 E177.0 F977.9 ;horizontal move
G1 Y37.9 E178.9 F2388.6 ;horizontal move
G1 X34.7 Y37.4 E179.6 F2700.0 ;horizontal move
G1 X34.5 Y37.2 E179.9 ;horizontal move
G1 X33.3 Y35.9 E181.6 F1729.5 ;horizontal move
G1 X33.2 Y35.4 E182.1 F1352.9 ;horizontal move
G1 X32.0 Y35.8 E183.4 F2240.1 ;horizontal move
G1 X31.3 Y35.5 E184.2 F2626.8 ;horizontal move
G1 X30.8 Y35.3 E184.7 F2411.1 ;horizontal move
G1 X30.6 Y34.8 E185.2 F2695.6 ;horizontal move
G1 X30.1 Y33.9 E186.3 F2203.3 ;horizontal move
G1 X30.6 Y33.0 E187.3 F2691.8 ;horizontal move
G1 X30.8 Y32.5 E187.8 F2429.3 ;horizontal move
G1 X31.3 Y32.3 E188.4 F2666.2 ;horizontal move
G1 X32.1 Y32.0 E189.2 F2241.9 ;horizontal move
G1 X32.9 Y32.4 E190.1 F2693.9 ;horizontal move
G1 X33.4 Y32.7 E190.7 F2424.8 ;horizontal move
G1 X33.6 Y33.2 E191.3 F2700.0 ;horizontal move
G1 X33.8 Y33.6 E191.7 ;horizontal move
G1 X33.9 Y33.9 E192.0 F2550.3 ;horizontal move
G1 Y34.2 E192.3 F2686.5 ;horizontal move
G1 X33.8 Y34.4 E192.5 F2601.8 ;horizontal move
G1 X33.7 Y34.6 E192.8 F2700.0 ;horizontal move
G1 X33.3 Y35.4 E193.7 ;horizontal move
G1 X33.2 E193.8 F2676.7 ;horizontal move
G1 X32.7 Y37.0 E195.4 F2700.0 ;horizontal move
G1 F18000.0; feed for start of next move
G1 E155.4; extruder retraction
G1 F1500.0; feed for start of next move
G1 X32.0 Y38.9 F3000.0 ;horizontal move
G1 F1500.0; feed for start of next move
G1 X31.1 Y39.1 F2112.5 ;horizontal move
G1 X30.2 Y39.3 F1500.0 ;horizontal move
G1 F18000.0; feed for start of next move
G1 E195.4; extruder dwell
G1 F1500.0; feed for start of next move
G1 F3000.0; feed for start of next move
G1 E200.4; extruder dwell
G1 F1500.0; feed for start of next move
G1 F3000.0; feed for start of next move
G1 E205.4; extruder dwell
G1 F1500.0; feed for start of next move
G1 X31.0 Y40.0 E206.5 F2178.4 ;horizontal move
G1 X31.6 Y40.6 E207.3 F1645.9 ;horizontal move
G1 X31.5 Y40.7 E207.5 F1757.6 ;horizontal move
G1 X30.8 Y41.5 E208.6 F838.7 ;horizontal move
G1 X32.1 Y41.0 E209.9 F1998.3 ;horizontal move
G1 X33.1 Y41.5 E211.1 F2596.3 ;horizontal move
G1 X33.4 Y41.7 E211.4 F2424.8 ;horizontal move
G1 X33.6 Y42.2 E212.0 F2700.0 ;horizontal move
G1 X33.8 Y42.6 E212.4 ;horizontal move
G1 X33.9 Y42.9 E212.7 F2550.3 ;horizontal move
G1 Y43.2 E213.0 F2686.5 ;horizontal move
G1 X33.8 Y43.4 E213.2 F2601.8 ;horizontal move
G1 X33.7 Y43.6 E213.5 F2700.0 ;horizontal move
G1 X33.6 Y43.9 E213.8 ;horizontal move
G1 X33.2 Y44.4 E214.4 F2404.3 ;horizontal move
G1 X32.6 Y44.6 E215.1 F2700.0 ;horizontal move
G1 X32.0 Y44.8 E215.7 F2402.0 ;horizontal move
G1 X31.4 Y44.6 E216.3 F2697.4 ;horizontal move
G1 X30.8 Y44.3 E217.0 F2411.1 ;horizontal move
G1 X30.6 Y43.8 E217.5 F2695.6 ;horizontal move
G1 X30.1 Y42.9 E218.6 F2203.3 ;horizontal move
G1 X30.6 Y42.1 E219.5 F2671.9 ;horizontal move
G1 X30.8 Y41.5 E220.1 F2385.0 ;horizontal move
G1 X30.7 Y41.1 E220.6 F2600.6 ;horizontal move
G1 F18000.0; feed for start of next move
G1 E180.6; extruder retraction
G1 F1500.0; feed for start of next move
G1 X30.2 Y39.3 F3000.0 ;horizontal move
G1 F1500.0; feed for start of next move
G1 X30.8 Y42.0 F3000.0 ;horizontal move
G1 X31.4 Y44.7 ;horizontal move
G1 X32.0 Y47.4 F1500.0 ;horizontal move
G1 F18000.0; feed for start of next move
G1 E220.6; extruder dwell
G1 F1500.0; feed for start of next move
G1 F3000.0; feed for start of next move
G1 E225.6; extruder dwell
G1 F1500.0; feed for start of next move
G1 F3000.0; feed for start of next move
G1 E230.6; extruder dwell
G1 F1500.0; feed for start of next move
G1 X33.5 Y48.9 E232.7 F2700.0 ;horizontal move
G1 X34.6 Y50.1 E234.3 ;horizontal move
G1 X35.1 Y50.6 E235.0 F2356.6 ;horizontal move
G1 Y52.6 E237.0 F1025.1 ;horizontal move
G1 X34.6 Y52.1 E237.7 F1651.8 ;horizontal move
G1 X34.4 Y52.0 E237.9 F1536.0 ;horizontal move
G1 X33.3 Y53.3 E239.6 F2565.8 ;horizontal move
G1 X33.2 Y53.4 E239.8 F2533.4 ;horizontal move
G1 X32.9 Y53.5 E240.1 F2700.0 ;horizontal move
G1 X32.6 Y53.6 E240.4 ;horizontal move
G1 X32.0 Y53.8 E241.0 F2402.0 ;horizontal move
G1 X31.4 Y53.6 E241.7 F2697.4 ;horizontal move
G1 X30.8 Y53.3 E242.4 F2411.1 ;horizontal move
G1 X30.6 Y52.8 E242.9 F2695.6 ;horizontal move
G1 X30.1 Y51.9 E243.9 F2203.3 ;horizontal move
G1 X30.6 Y51.0 E244.9 F2691.8 ;horizontal move
G1 X30.8 Y50.5 E245.5 F2429.3 ;horizontal move
G1 X31.3 Y50.3 E246.0 F2666.2 ;horizontal move
G1 X32.1 Y50.0 E246.9 F2241.9 ;horizontal move
G1 X32.9 Y50.4 E247.8 F2693.9 ;horizontal move
G1 X33.4 Y50.7 E248.4 F2424.8 ;horizontal move
G1 X33.6 Y51.1 E248.8 F2633.7 ;horizontal move
G1 X33.9 Y51.9 E249.7 F2211.7 ;horizontal move
G1 X33.8 Y52.4 E250.2 F1931.4 ;horizontal move
G1 X33.2 Y53.4 E251.3 F943.6 ;horizontal move
G1 X32.7 Y50.8 E254.0 F2700.0 ;horizontal move
G1 X32.4 Y49.5 E255.3 ;horizontal move
G1 F18000.0; feed for start of next move
G1 E215.3; extruder retraction
G1 F1500.0; feed for start of next move
G1 X32.0 Y47.4 F3000.0 ;horizontal move
G1 F1500.0; feed for start of next move
G1 X32.9 Y50.1 F3000.0 ;horizontal move
G1 X33.4 Y51.2 ;horizontal move
G1 X34.3 Y53.9 F1500.0 ;horizontal move
G1 F18000.0; feed for start of next move
G1 E255.3; extruder dwell
G1 F1500.0; feed for start of next move
G1 F3000.0; feed for start of next move
G1 E260.3; extruder dwell
G1 F1500.0; feed for start of next move
G1 F3000.0; feed for start of next move
G1 E265.3; extruder dwell
G1 F1500.0; feed for start of next move
G1 X33.8 Y53.4 E266.0 F1996.0 ;horizontal move
G1 X34.0 Y53.0 E266.5 F2218.7 ;horizontal move
G1 X34.4 Y52.0 E267.5 F1500.0 ;horizontal move
G1 F18000.0; feed for start of next move
G1 E227.5; extruder retraction
G1 F1500.0; feed for start of next move
G1 X33.2 Y49.7 F2911.4 ;horizontal move
G1 X32.0 Y47.4 F1500.0 ;horizontal move
G1 F18000.0; feed for start of next move
G1 E267.5; extruder dwell
G1 F1500.0; feed for start of next move
G1 F3000.0; feed for start of next move
G1 E272.5; extruder dwell
G1 F1500.0; feed for start of next move
G1 F3000.0; feed for start of next move
G1 E277.5; extruder dwell
G1 F1500.0; feed for start of next move
G1 X30.0 Y45.4 E280.4 F3000.0 ;horizontal move
G1 X29.8 Y45.2 E280.7 ;horizontal move
G1 X28.9 Y44.3 E281.9 F2425.4 ;horizontal move
G1 Y42.2 E284.0 F993.2 ;horizontal move
G1 X29.6 Y42.9 E285.0 F1825.0 ;horizontal move
G1 X29.7 Y43.1 E285.2 F1981.0 ;horizontal move
G1 X30.3 Y44.5 E286.8 F2727.7 ;horizontal move
G1 X30.4 Y44.6 E286.9 F2638.7 ;horizontal move
G1 X31.2 Y45.0 E287.8 F3000.0 ;horizontal move
G1 X31.7 Y45.2 E288.3 ;horizontal move
G1 X31.9 Y45.3 E288.6 F2913.2 ;horizontal move
G1 X32.1 Y45.4 E288.8 F3000.0 ;horizontal move
G1 X32.7 Y46.0 E289.6 ;horizontal move
G1 X35.1 Y48.3 E293.0 F985.3 ;horizontal move
G1 Y46.3 E295.0 F2392.3 ;horizontal move
G1 X34.6 Y45.8 E295.7 F2743.1 ;horizontal move
G1 X33.7 Y44.7 E297.1 F2030.7 ;horizontal move
G1 X33.8 Y44.5 E297.3 F2159.1 ;horizontal move
G1 X34.3 Y43.4 E298.5 F1336.5 ;horizontal move
G1 X34.6 Y43.7 E298.9 F1623.2 ;horizontal move
G1 X35.1 Y44.1 E299.6 F1015.5 ;horizontal move
G1 Y42.1 E301.6 F2404.9 ;horizontal move
G1 X34.2 Y41.2 E302.9 F3000.0 ;horizontal move
G1 X34.0 Y41.0 E303.1 ;horizontal move
G1 X32.0 Y38.9 E306.0 F1500.0 ;horizontal move
G1 F18000.0; feed for start of next move
G1 E266.0; extruder retraction
G1 F1500.0; feed for start of next move
G1 X31.8 Y39.8 F2084.6 ;horizontal move
G1 X31.6 Y40.6 F1500.0 ;horizontal move
G1 F18000.0; feed for start of next move
G1 E306.0; extruder dwell
G1 F1500.0; feed for start of next move
G1 F3000.0; feed for start of next move
G1 E311.0; extruder dwell
G1 F1500.0; feed for start of next move
G1 F3000.0; feed for start of next move
G1 E316.0; extruder dwell
G1 F1500.0; feed for start of next move
G1 X31.0 Y40.9 E316.7 F1930.5 ;horizontal move
G1 X30.4 Y41.3 E317.4 F1384.5 ;horizontal move
G1 X30.3 Y41.4 E317.6 F1262.8 ;horizontal move
G1 X29.5 Y40.6 E318.7 F2065.0 ;horizontal move
G1 X28.9 Y40.0 E319.6 F1500.0 ;horizontal move
G1 F18000.0; feed for start of next move
G1 E279.6; extruder retraction
G1 F1500.0; feed for start of next move
G1 X29.6 Y39.7 F2005.4 ;horizontal move
G1 X30.2 Y39.3 F1500.0 ;horizontal move
G1 F18000.0; feed for start of next move
G1 E319.6; extruder dwell
G1 F1500.0; feed for start of next move
G1 F3000.0; feed for start of next move
G1 E324.6; extruder dwell
G1 F1500.0; feed for start of next move
G1 F3000.0; feed for start of next move
G1 E329.6; extruder dwell
G1 F1500.0; feed for start of next move
G1 X29.6 Y38.6 E330.5 F2125.0 ;horizontal move
G1 X28.9 Y37.9 E331.5 F1500.0 ;horizontal move
G1 F18000.0; feed for start of next move
G1 E291.5; extruder retraction
G1 F1500.0; feed for start of next move
G1 X31.1 Y36.9 F2837.2 ;horizontal move
G1 X33.3 Y35.9 F1500.0 ;horizontal move
G1 F18000.0; feed for start of next move
G1 E331.5; extruder dwell
G1 F1500.0; feed for start of next move
G1 F3000.0; feed for start of next move
G1 E336.5; extruder dwell
G1 F1500.0; feed for start of next move
G1 F3000.0; feed for start of next move
G1 E341.5; extruder dwell
G1 F1500.0; feed for start of next move
G1 X33.6 Y35.8 E341.8 F1739.4 ;horizontal move
G1 X33.8 Y35.5 E342.1 F1943.5 ;horizontal move
G1 X34.1 Y34.8 E342.9 F1373.2 ;horizontal move
G1 X34.5 Y35.1 E343.4 F1718.9 ;horizontal move
G1 X35.1 Y35.6 E344.2 F1027.1 ;horizontal move
G1 Y33.6 E346.2 F2409.7 ;horizontal move
G1 X34.9 Y33.3 E346.6 F2584.1 ;horizontal move
G1 X33.6 Y32.0 E348.4 F1500.0 ;horizontal move
G1 F18000.0; feed for start of next move
G1 E308.4; extruder retraction
G1 F1500.0; feed for start of next move
G1 X31.9 Y32.4 F2560.9 ;horizontal move
G1 X30.1 Y32.8 F1500.0 ;horizontal move
G1 F18000.0; feed for start of next move
G1 E348.4; extruder dwell
G1 F1500.0; feed for start of next move
G1 F3000.0; feed for start of next move
G1 E353.4; extruder dwell
G1 F1500.0; feed for start of next move
G1 F3000.0; feed for start of next move
G1 E358.4; extruder dwell
G1 F1500.0; feed for start of next move
G1 X29.7 Y32.3 E359.0 F1917.2 ;horizontal move
G1 X29.3 Y31.9 E359.6 F1500.0 ;horizontal move
G1 F18000.0; feed for start of next move
G1 E319.6; extruder retraction
G1 F1500.0; feed for start of next move
G1 X29.2 Y34.7 F3000.0 ;horizontal move
G1 X29.0 Y43.6 ;horizontal move
G1 X28.9 Y46.4 F1500.0 ;horizontal move
G1 F18000.0; feed for start of next move
G1 E359.6; extruder dwell
G1 F1500.0; feed for start of next move
G1 F3000.0; feed for start of next move
G1 E364.6; extruder dwell
G1 F1500.0; feed for start of next move
G1 F3000.0; feed for start of next move
G1 E369.6; extruder dwell
G1 F1500.0; feed for start of next move
G1 X30.3 Y47.9 E371.6 F2645.6 ;horizontal move
G1 X31.9 Y49.5 E373.9 F1250.8 ;horizontal move
G1 X30.7 Y50.0 E375.2 F2178.2 ;horizontal move
G1 X30.5 Y50.1 E375.4 F2108.3 ;horizontal move
G1 X30.3 Y49.9 E375.7 F2307.6 ;horizontal move
G1 X28.9 Y48.7 E377.6 F1001.7 ;horizontal move
G1 Y50.6 E379.5 F2399.1 ;horizontal move
G1 X29.4 Y51.2 E380.2 F2738.5 ;horizontal move
G1 X29.8 Y51.5 E380.7 F2507.8 ;horizontal move
G1 X29.7 Y51.7 E381.0 F2598.5 ;horizontal move
G1 Y52.3 E381.6 F2341.3 ;horizontal move
G1 X30.5 Y53.7 E383.2 F1245.5 ;horizontal move
G1 X30.7 Y53.9 E383.5 F969.7 ;horizontal move
G1 X30.1 E384.1 F1542.8 ;horizontal move
G1 X29.5 Y53.4 E384.8 F2049.3 ;horizontal move
G1 X28.9 Y52.8 E385.7 F1500.0 ;horizontal move
G1 F18000.0; feed for start of next move
G1 E345.7; extruder retraction
G1 F1500.0; feed for start of next move
G1 X31.6 Y52.1 F3000.0 ;horizontal move
G1 X47.2 Y48.1 ;horizontal move
G1 X49.9 Y47.4 F1500.0 ;horizontal move
G1 F18000.0; feed for start of next move
G1 E385.7; extruder dwell
G1 F1500.0; feed for start of next move
G1 F3000.0; feed for start of next move
G1 E390.7; extruder dwell
G1 F1500.0; feed for start of next move
G1 F3000.0; feed for start of next move
G1 E395.7; extruder dwell
G1 F1500.0; feed for start of next move
G1 X51.4 Y48.9 E397.8 F2700.0 ;horizontal move
G1 X52.5 Y50.1 E399.4 ;horizontal move
G1 X53.0 Y50.6 E400.1 F2356.6 ;horizontal move
G1 Y52.6 E402.1 F1015.5 ;horizontal move
G1 X52.6 Y52.2 E402.7 F1537.8 ;horizontal move
G1 X52.2 Y51.9 E403.2 F1116.3 ;horizontal move
G1 X52.1 Y52.6 E403.9 F1731.4 ;horizontal move
G1 X51.1 Y53.3 E405.1 F2424.4 ;horizontal move
G1 X50.6 Y53.5 E405.7 F2676.8 ;horizontal move
G1 X50.0 Y53.8 E406.3 F2341.8 ;horizontal move
G1 X49.3 Y53.5 E407.1 F2700.0 ;horizontal move
G1 X49.2 E407.2 ;horizontal move
G1 X48.5 Y53.2 E408.0 F2333.4 ;horizontal move
G1 X48.3 Y52.6 E408.6 F2668.2 ;horizontal move
G1 X48.0 Y51.8 E409.5 F2288.5 ;horizontal move
G1 X48.4 Y51.1 E410.3 F2697.8 ;horizontal move
G1 X48.7 Y50.5 E410.9 F2363.0 ;horizontal move
G1 X49.4 Y50.2 E411.7 F2687.7 ;horizontal move
G1 X50.0 Y50.0 E412.3 F2382.4 ;horizontal move
G1 X50.6 Y50.3 E413.0 F2700.0 ;horizontal move
G1 X51.2 Y50.6 E413.7 F2398.1 ;horizontal move
G1 X51.4 Y51.0 E414.1 F2626.7 ;horizontal move
G1 X51.7 Y51.8 E415.0 F2211.3 ;horizontal move
G1 Y52.3 E415.5 F1931.0 ;horizontal move
G1 X51.1 Y53.3 E416.6 F911.6 ;horizontal move
G1 X50.6 Y50.7 E419.3 F2700.0 ;horizontal move
G1 X50.3 Y49.5 E420.5 ;horizontal move
G1 F18000.0; feed for start of next move
G1 E380.5; extruder retraction
G1 F1500.0; feed for start of next move
G1 X49.9 Y47.4 F3000.0 ;horizontal move
G1 F1500.0; feed for start of next move
G1 X49.3 Y44.7 F3000.0 ;horizontal move
G1 X48.7 Y42.0 ;horizontal move
G1 X48.1 Y39.3 F1500.0 ;horizontal move
G1 F18000.0; feed for start of next move
G1 E420.5; extruder dwell
G1 F1500.0; feed for start of next move
G1 F3000.0; feed for start of next move
G1 E425.5; extruder dwell
G1 F1500.0; feed for start of next move
G1 F3000.0; feed for start of next move
G1 E430.5; extruder dwell
G1 F1500.0; feed for start of next move
G1 X48.8 Y40.0 E431.5 F2157.8 ;horizontal move
G1 X49.4 Y40.7 E432.4 F1574.6 ;horizontal move
G1 X49.3 Y40.8 E432.6 F1693.8 ;horizontal move
G1 X48.7 Y41.5 E433.5 F843.1 ;horizontal move
G1 X50.0 Y41.0 E434.9 F1974.4 ;horizontal move
G1 X50.9 Y41.5 E435.9 F2530.6 ;horizontal move
G1 X51.2 Y41.6 E436.2 F2398.1 ;horizontal move
G1 X51.4 Y42.2 E436.9 F2700.0 ;horizontal move
G1 X51.6 Y42.4 E437.2 ;horizontal move
G1 X51.7 Y42.8 E437.6 F2524.8 ;horizontal move
G1 Y43.1 E437.9 F2688.9 ;horizontal move
G1 Y43.3 E438.1 F2631.6 ;horizontal move
G1 X51.6 Y43.4 E438.2 F2700.0 ;horizontal move
G1 X51.4 Y43.8 E438.7 ;horizontal move
G1 X51.1 Y44.3 E439.2 F2411.1 ;horizontal move
G1 X50.6 Y44.6 E439.8 F2670.8 ;horizontal move
G1 X50.0 Y44.8 E440.5 F2341.8 ;horizontal move
G1 X49.3 Y44.5 E441.2 F2700.0 ;horizontal move
G1 X49.2 E441.3 ;horizontal move
G1 X48.5 Y44.2 E442.1 F2333.4 ;horizontal move
G1 X48.3 Y43.6 E442.7 F2668.2 ;horizontal move
G1 X48.0 Y42.8 E443.6 F2288.5 ;horizontal move
G1 X48.4 Y42.1 E444.4 F2700.0 ;horizontal move
G1 X48.7 Y41.5 E445.0 F2376.5 ;horizontal move
G1 X48.6 Y41.1 E445.5 F2576.6 ;horizontal move
G1 F18000.0; feed for start of next move
G1 E405.5; extruder retraction
G1 F1500.0; feed for start of next move
G1 X48.1 Y39.3 F3000.0 ;horizontal move
G1 F1500.0; feed for start of next move
G1 X49.0 Y39.1 F2112.5 ;horizontal move
G1 X49.9 Y38.9 F1500.0 ;horizontal move
G1 F18000.0; feed for start of next move
G1 E445.5; extruder dwell
G1 F1500.0; feed for start of next move
G1 F3000.0; feed for start of next move
G1 E450.5; extruder dwell
G1 F1500.0; feed for start of next move
G1 F3000.0; feed for start of next move
G1 E455.5; extruder dwell
G1 F1500.0; feed for start of next move
G1 X48.4 Y37.4 E457.6 F2700.0 ;horizontal move
G1 X47.3 Y36.3 E459.1 ;horizontal move
G1 X46.8 Y35.8 E459.8 F2360.6 ;horizontal move
G1 Y35.7 E459.9 F2376.8 ;horizontal move
G1 Y33.8 E461.8 F987.0 ;horizontal move
G1 X47.8 Y34.7 E463.2 F2032.8 ;horizontal move
G1 X48.0 Y35.4 E463.9 F2451.2 ;horizontal move
G1 X48.1 Y35.5 E464.1 F2424.6 ;horizontal move
G1 X48.6 Y35.7 E464.6 F2700.0 ;horizontal move
G1 X48.9 Y36.0 E465.0 ;horizontal move
G1 X49.0 E465.1 F2660.4 ;horizontal move
G1 X49.1 Y36.1 E465.3 F2700.0 ;horizontal move
G1 X51.1 Y38.0 E468.0 ;horizontal move
G1 X53.0 Y39.8 E470.6 F977.9 ;horizontal move
G1 Y37.9 E472.5 F2381.9 ;horizontal move
G1 X52.6 Y37.5 E473.1 F2613.7 ;horizontal move
G1 X51.1 Y35.9 E475.3 F1226.2 ;horizontal move
G1 X51.3 Y35.8 E475.5 F1418.9 ;horizontal move
G1 X51.4 E475.6 F1321.9 ;horizontal move
G1 X51.1 Y35.3 E476.2 F1728.1 ;horizontal move
G1 X50.1 Y35.8 E477.3 F2391.5 ;horizontal move
G1 X50.0 E477.4 F2341.8 ;horizontal move
G1 X49.3 Y35.5 E478.2 F2700.0 ;horizontal move
G1 X49.2 E478.3 ;horizontal move
G1 X48.5 Y35.2 E479.0 F2333.4 ;horizontal move
G1 X48.3 Y34.6 E479.7 F2668.2 ;horizontal move
G1 X48.0 Y33.8 E480.5 F2288.5 ;horizontal move
G1 X48.4 Y33.1 E481.3 F2697.8 ;horizontal move
G1 X48.7 Y32.5 E482.0 F2363.0 ;horizontal move
G1 X49.4 Y32.2 E482.8 F2687.7 ;horizontal move
G1 X50.0 Y32.0 E483.4 F2382.4 ;horizontal move
G1 X50.6 Y32.3 E484.1 F2700.0 ;horizontal move
G1 X51.2 Y32.6 E484.7 F2398.1 ;horizontal move
G1 X51.4 Y33.2 E485.4 F2700.0 ;horizontal move
G1 X51.6 Y33.4 E485.7 ;horizontal move
G1 X51.7 Y33.8 E486.1 F2524.8 ;horizontal move
G1 Y34.1 E486.4 F2688.9 ;horizontal move
G1 Y34.3 E486.6 F2631.6 ;horizontal move
G1 X51.6 Y34.4 E486.7 F2700.0 ;horizontal move
G1 X51.1 Y35.3 E487.7 ;horizontal move
G1 Y35.4 E487.8 ;horizontal move
G1 X50.6 Y37.0 E489.5 ;horizontal move
G1 F18000.0; feed for start of next move
G1 E449.5; extruder retraction
G1 F1500.0; feed for start of next move
G1 X49.9 Y38.9 F3000.0 ;horizontal move
G1 F1500.0; feed for start of next move
G1 X48.9 Y36.3 F3000.0 ;horizontal move
G1 X48.2 Y34.5 ;horizontal move
G1 X47.2 Y31.9 F1500.0 ;horizontal move
G1 F18000.0; feed for start of next move
G1 E489.5; extruder dwell
G1 F1500.0; feed for start of next move
G1 F3000.0; feed for start of next move
G1 E494.5; extruder dwell
G1 F1500.0; feed for start of next move
G1 F3000.0; feed for start of next move
G1 E499.5; extruder dwell
G1 F1500.0; feed for start of next move
G1 X47.0 Y31.8 E499.7 F1625.9 ;horizontal move
G1 X46.3 Y31.4 E500.5 F845.7 ;horizontal move
G1 X49.1 Y31.5 E503.3 F2700.0 ;horizontal move
G1 X51.4 E505.6 ;horizontal move
G1 X53.5 E507.7 F1506.9 ;horizontal move
G1 Y33.6 E509.8 F2700.0 ;horizontal move
G1 X53.4 Y52.3 E528.5 ;horizontal move
G1 Y54.4 E530.6 F1495.6 ;horizontal move
G1 X51.3 E532.7 F2700.0 ;horizontal move
G1 X48.4 E535.6 ;horizontal move
G1 X46.3 E537.7 F1510.2 ;horizontal move
G1 Y52.3 E539.8 F2700.0 ;horizontal move
G1 Y33.9 E558.2 ;horizontal move
G1 Y31.4 E560.7 F1127.9 ;horizontal move
G1 X46.9 Y31.8 E561.5 F1709.4 ;horizontal move
G1 F18000.0; feed for start of next move
G1 E521.5; extruder retraction
G1 F1500.0; feed for start of next move
G1 X47.2 Y31.9 F3000.0 ;horizontal move
G1 F18000.0; feed for start of next move
G1 E561.5; extruder dwell
G1 F1500.0; feed for start of next move
G1 F3000.0; feed for start of next move
G1 E566.5; extruder dwell
G1 F1500.0; feed for start of next move
G1 F3000.0; feed for start of next move
G1 E571.5; extruder dwell
G1 F1500.0; feed for start of next move
G1 X47.6 Y32.3 E572.0 F1909.4 ;horizontal move
G1 X47.9 Y32.7 E572.5 F1547.3 ;horizontal move
G1 X48.0 E572.6 F1500.0 ;horizontal move
G1 F18000.0; feed for start of next move
G1 E532.6; extruder retraction
G1 F1500.0; feed for start of next move
G1 X49.8 Y32.4 F2556.0 ;horizontal move
G1 X51.5 Y32.0 F1500.0 ;horizontal move
G1 F18000.0; feed for start of next move
G1 E572.6; extruder dwell
G1 F1500.0; feed for start of next move
G1 F3000.0; feed for start of next move
G1 E577.6; extruder dwell
G1 F1500.0; feed for start of next move
G1 F3000.0; feed for start of next move
G1 E582.6; extruder dwell
G1 F1500.0; feed for start of next move
G1 X52.7 Y33.3 E584.4 F2580.0 ;horizontal move
G1 X53.0 Y33.6 E584.8 F2400.9 ;horizontal move
G1 Y35.6 E586.8 F1006.1 ;horizontal move
G1 X52.4 Y35.0 E587.7 F1721.1 ;horizontal move
G1 X52.0 Y34.7 E588.2 F1360.5 ;horizontal move
G1 X51.7 Y35.3 E588.8 F1862.9 ;horizontal move
G1 X51.4 Y35.8 E589.4 F1500.0 ;horizontal move
G1 F18000.0; feed for start of next move
G1 E549.4; extruder retraction
G1 F1500.0; feed for start of next move
G1 X50.7 Y37.3 F2526.4 ;horizontal move
G1 X49.9 Y38.9 F1500.0 ;horizontal move
G1 F18000.0; feed for start of next move
G1 E589.4; extruder dwell
G1 F1500.0; feed for start of next move
G1 F3000.0; feed for start of next move
G1 E594.4; extruder dwell
G1 F1500.0; feed for start of next move
G1 F3000.0; feed for start of next move
G1 E599.4; extruder dwell
G1 F1500.0; feed for start of next move
G1 X51.8 Y41.0 E602.3 F3000.0 ;horizontal move
G1 X52.0 Y41.2 E602.5 ;horizontal move
G1 X53.0 Y42.1 E603.9 F2403.3 ;horizontal move
G1 Y44.1 E605.9 F1011.9 ;horizontal move
G1 X52.4 Y43.6 E606.7 F1645.7 ;horizontal move
G1 X52.1 Y43.4 E607.0 F1318.1 ;horizontal move
G1 X51.6 Y44.5 E608.2 F2167.4 ;horizontal move
G1 X51.5 Y44.7 E608.5 F2028.7 ;horizontal move
G1 X52.5 Y45.8 E609.9 F2751.1 ;horizontal move
G1 X53.0 Y46.3 E610.7 F2392.3 ;horizontal move
G1 Y48.3 E612.7 F985.3 ;horizontal move
G1 X50.5 Y46.0 E616.1 F3000.0 ;horizontal move
G1 X50.0 Y45.4 E616.8 ;horizontal move
G1 X49.8 Y45.3 E617.1 F2915.1 ;horizontal move
G1 X49.6 Y45.2 E617.3 F3000.0 ;horizontal move
G1 X49.1 Y45.0 E617.8 ;horizontal move
G1 X48.2 Y44.6 E618.8 F2574.7 ;horizontal move
G1 X48.1 Y44.4 E619.0 F2654.6 ;horizontal move
G1 X47.6 Y43.1 E620.4 F1894.1 ;horizontal move
G1 X46.8 Y42.3 E621.6 F969.7 ;horizontal move
G1 Y44.3 E623.6 F2385.8 ;horizontal move
G1 X47.8 Y45.3 E625.0 F3000.0 ;horizontal move
G1 X47.9 Y45.4 E625.1 ;horizontal move
G1 X49.9 Y47.4 E627.9 F1500.0 ;horizontal move
G1 F18000.0; feed for start of next move
G1 E587.9; extruder retraction
G1 F1500.0; feed for start of next move
G1 X48.3 Y46.9 F2481.7 ;horizontal move
G1 X46.8 Y46.4 F1500.0 ;horizontal move
G1 F18000.0; feed for start of next move
G1 E627.9; extruder dwell
G1 F1500.0; feed for start of next move
G1 F3000.0; feed for start of next move
G1 E632.9; extruder dwell
G1 F1500.0; feed for start of next move
G1 F3000.0; feed for start of next move
G1 E637.9; extruder dwell
G1 F1500.0; feed for start of next move
G1 X48.2 Y47.9 E640.0 F2656.0 ;horizontal move
G1 X49.8 Y49.6 E642.3 F1212.9 ;horizontal move
G1 X48.5 Y50.1 E643.7 F2211.8 ;horizontal move
G1 X48.4 E643.8 F2180.9 ;horizontal move
G1 X48.2 Y49.9 E644.1 F2341.1 ;horizontal move
G1 X46.8 Y48.7 E645.9 F1001.7 ;horizontal move
G1 Y50.6 E647.8 F2399.1 ;horizontal move
G1 X47.4 Y51.3 E648.8 F2808.1 ;horizontal move
G1 X47.6 Y51.5 E649.0 F2675.3 ;horizontal move
G1 Y52.4 E649.9 F2266.3 ;horizontal move
G1 X48.2 Y53.6 E651.3 F1406.5 ;horizontal move
G1 X48.5 Y53.9 E651.7 F923.8 ;horizontal move
G1 X47.9 E652.3 F1514.4 ;horizontal move
G1 X47.4 Y53.3 E653.1 F2038.7 ;horizontal move
G1 X46.8 Y52.8 E653.9 F1500.0 ;horizontal move
G1 F18000.0; feed for start of next move
G1 E613.9; extruder retraction
G1 F1500.0; feed for start of next move
G1 X49.5 Y52.7 F2935.1 ;horizontal move
G1 X52.1 Y52.6 F1500.0 ;horizontal move
G1 F18000.0; feed for start of next move
G1 E653.9; extruder dwell
G1 F1500.0; feed for start of next move
G1 F3000.0; feed for start of next move
G1 E658.9; extruder dwell
G1 F1500.0; feed for start of next move
G1 F3000.0; feed for start of next move
G1 E663.9; extruder dwell
G1 F1500.0; feed for start of next move
G1 X51.7 Y53.3 E664.7 F2034.2 ;horizontal move
G1 X52.2 Y53.9 E665.5 F1500.0 ;horizontal move
G1 F18000.0; feed for start of next move
G1 E625.5; extruder retraction
G1 F1500.0; feed for start of next move
G1 X51.6 Y51.1 F3000.0 ;horizontal move
G1 X50.0 Y43.5 ;horizontal move
G1 X49.4 Y40.7 F1500.0 ;horizontal move
G1 F18000.0; feed for start of next move
G1 E665.5; extruder dwell
G1 F1500.0; feed for start of next move
G1 F3000.0; feed for start of next move
G1 E670.5; extruder dwell
G1 F1500.0; feed for start of next move
G1 F3000.0; feed for start of next move
G1 E675.5; extruder dwell
G1 F1500.0; feed for start of next move
G1 X48.8 Y40.9 E676.1 F1951.0 ;horizontal move
G1 X48.3 Y41.2 E676.7 F1547.3 ;horizontal move
G1 X48.2 Y41.3 E676.8 F1369.3 ;horizontal move
G1 X47.4 Y40.6 E677.9 F2086.6 ;horizontal move
G1 X46.8 Y40.0 E678.7 F1500.0 ;horizontal move
G1 F18000.0; feed for start of next move
G1 E638.7; extruder retraction
G1 F1500.0; feed for start of next move
G1 X47.5 Y39.7 F2005.4 ;horizontal move
G1 X48.1 Y39.3 F1500.0 ;horizontal move
G1 F18000.0; feed for start of next move
G1 E678.7; extruder dwell
G1 F1500.0; feed for start of next move
G1 F3000.0; feed for start of next move
G1 E683.7; extruder dwell
G1 F1500.0; feed for start of next move
G1 F3000.0; feed for start of next move
G1 E688.7; extruder dwell
G1 F1500.0; feed for start of next move
G1 X47.5 Y38.6 E689.7 F2131.1 ;horizontal move
G1 X46.8 Y37.9 E690.6 F1500.0 ;horizontal move
G1 F18000.0; feed for start of next move
G1 E650.6; extruder retraction
G1 F1500.0; feed for start of next move
M106 ;cooler on
G28 X0 ;set x 0
G28 Y0 ;set x 0
G92 E0 ;zero the extruded length
;#!LAYER: 4/3
G28 X0 ;set x 0
G28 Y0 ;set x 0
M107 ;cooler off
G1 F5.0; feed for start of next move
G1 Z0.8256 F30.4 ;z move
G1 Z0.9756 F5.0 ;z move
M107 ;cooler off
G1 X0.1 Y2.8 F3000.0 ;horizontal move
G1 X9.9 Y187.2 ;horizontal move
G1 X10.0 Y190.0 F1500.0 ;horizontal move
M113 S0.0 ;shut extruder stepper down
M104 S0.0 ;set temperature and return
