; GCode generated by RepRap Java Host Software
; Created: 2011-03-31:18-09-52
;#!RECTANGLE: <BOX x:[l:19.698789596557617, h:110.69878959655762], y:[l:24.0, h:95.01393699645996]>
M110 ; Reset the line numbers
G21 ;metric is good!
G90 ;absolute positioning
M140 S65.0 ;set bed temperature and return
T0; select new extruder
M113; set extruder to use pot for PWM
G92 E0 ;zero the extruded length
G28 X0 ;set x 0
G28 Y0 ;set y 0
G1 F1500.0; feed for start of next move
G1 X4.2 Y0.1 F3500.0 ;horizontal move
G1 X138.8 Y4.9 ;horizontal move
G1 X143.0 Y5.0 F1500.0 ;horizontal move
G28 Z0 ;set z 0
M109 S205.0 ;set temperature and wait
G1 F3500.0; feed for start of next move
G1 E1750.0; extruder dwell
G1 F1500.0; feed for start of next move
G1 F18000.0; feed for start of next move
G1 E1690.0; extruder retraction
G1 F1500.0; feed for start of next move
G92 E0 ;zero the extruded length
;#!LAYER: 1/3
G92 E0 ;zero the extruded length
G92 E0 ;zero the extruded length
G92 E0 ;zero the extruded length
T1; select new extruder
M113; set extruder to use pot for PWM
G92 E0 ;zero the extruded length
T0; select new extruder
M113; set extruder to use pot for PWM
G1 F50.0; feed for start of next move
G1 Z0.2256 ;z move
T0; select new extruder
M113; set extruder to use pot for PWM
G1 F1500.0; feed for start of next move
G1 X27.0 Y73.0 F3500.0 ;horizontal move
G1 X23.1 Y31.1 ;horizontal move
G1 X22.7 Y27.0 F1500.0 ;horizontal move
G1 F18000.0; feed for start of next move
G1 E60.0; extruder dwell
G1 F1500.0; feed for start of next move
G1 F3500.0; feed for start of next move
G1 E85.0; extruder dwell
G1 F1500.0; feed for start of next move
G1 Y31.2 E89.2 F3500.0 ;horizontal move
G1 Y32.8 E90.8 ;horizontal move
G1 Y37.0 E95.0 F1500.0 ;horizontal move
G1 X21.7 E96.0 F2156.4 ;horizontal move
G1 X20.7 E97.0 F1500.0 ;horizontal move
G1 Y32.8 E101.2 F3500.0 ;horizontal move
G1 Y29.2 E104.8 ;horizontal move
G1 Y25.0 E109.0 F1500.0 ;horizontal move
G1 X24.9 E113.2 F3500.0 ;horizontal move
G1 X38.5 E126.8 ;horizontal move
G1 X42.7 E131.0 F1500.0 ;horizontal move
G1 Y26.0 E132.0 F2156.4 ;horizontal move
G1 Y27.0 E133.0 F1500.0 ;horizontal move
G1 X38.5 E137.2 F3500.0 ;horizontal move
G1 X26.9 E148.8 ;horizontal move
G1 X22.7 E153.0 F1500.0 ;horizontal move
G1 F18000.0; feed for start of next move
G1 E93.0; extruder retraction
G1 F1500.0; feed for start of next move
G1 X26.3 Y29.1 F3500.0 ;horizontal move
G1 X26.7 Y29.4 ;horizontal move
G1 X30.3 Y31.5 F1500.0 ;horizontal move
G1 F18000.0; feed for start of next move
G1 E153.0; extruder dwell
G1 F1500.0; feed for start of next move
G1 X30.0 Y31.3 E153.4 F1763.1 ;horizontal move
G1 X29.8 Y31.1 E153.6 F1560.9 ;horizontal move
G1 X29.2 E154.2 F998.3 ;horizontal move
G1 X29.5 Y31.4 E154.7 F1467.1 ;horizontal move
G1 X29.8 Y31.7 E155.1 F1170.7 ;horizontal move
G1 X29.3 Y31.8 E155.6 F1555.3 ;horizontal move
G1 X28.6 Y31.2 E156.5 F2163.2 ;horizontal move
G1 X28.4 Y31.1 E156.7 F2014.9 ;horizontal move
G1 X28.1 E157.0 F1823.6 ;horizontal move
G1 Y31.3 E157.2 F1938.4 ;horizontal move
G1 X28.7 Y32.1 E158.2 F2491.9 ;horizontal move
G1 Y33.0 E159.1 F2893.0 ;horizontal move
G1 X28.6 Y33.6 E159.8 F3140.1 ;horizontal move
G1 X28.4 Y34.0 E160.2 F2989.5 ;horizontal move
G1 X28.5 Y34.2 E160.4 F3102.4 ;horizontal move
G1 Y34.4 E160.6 F3048.8 ;horizontal move
G1 X28.6 Y34.5 E160.8 F3092.8 ;horizontal move
G1 X28.9 Y35.2 E161.5 F2776.5 ;horizontal move
G1 X29.2 Y35.3 E161.8 F2918.2 ;horizontal move
G1 X29.9 Y35.6 E162.6 F2583.7 ;horizontal move
G1 X30.6 Y35.3 E163.4 F2888.5 ;horizontal move
G1 X31.1 Y35.0 E164.0 F2606.0 ;horizontal move
G1 X31.3 Y34.4 E164.6 F2884.3 ;horizontal move
G1 X31.4 Y33.9 E165.1 F2675.3 ;horizontal move
G1 X31.2 Y33.4 E165.6 F2917.9 ;horizontal move
G1 X30.8 Y32.8 E166.4 F2627.9 ;horizontal move
G1 X29.9 Y32.5 E167.3 F2140.0 ;horizontal move
G1 X28.7 Y33.0 E168.6 F1192.2 ;horizontal move
G1 Y32.1 E169.5 F1892.5 ;horizontal move
G1 X28.4 Y31.7 E170.0 F2212.6 ;horizontal move
G1 X28.1 Y31.3 E170.5 F1938.4 ;horizontal move
G1 Y31.1 E170.7 F1823.6 ;horizontal move
G1 X28.4 E171.0 F2014.9 ;horizontal move
G1 X28.6 Y31.2 E171.2 F2163.2 ;horizontal move
G1 X29.3 Y31.8 E172.1 F1555.3 ;horizontal move
G1 X29.8 Y31.7 E172.7 F1170.7 ;horizontal move
G1 X29.5 Y31.4 E173.1 F1467.1 ;horizontal move
G1 X29.2 Y31.1 E173.5 F998.3 ;horizontal move
G1 X29.8 E174.1 F1560.9 ;horizontal move
G1 X30.0 Y31.3 E174.4 F1763.1 ;horizontal move
G1 F18000.0; feed for start of next move
G1 E114.4; extruder retraction
G1 F1500.0; feed for start of next move
G1 X30.3 Y31.5 F3500.0 ;horizontal move
G1 F1500.0; feed for start of next move
G1 X33.4 Y31.7 F3096.1 ;horizontal move
G1 X36.4 Y31.9 F1500.0 ;horizontal move
G1 F18000.0; feed for start of next move
G1 E174.4; extruder dwell
G1 F1500.0; feed for start of next move
G1 X37.2 Y32.4 E175.3 F2150.9 ;horizontal move
G1 X37.4 Y32.6 E175.6 F1950.8 ;horizontal move
G1 X37.0 Y34.0 E177.1 F2678.9 ;horizontal move
G1 Y34.3 E177.4 F2835.6 ;horizontal move
G1 X37.2 Y34.8 E177.9 F3056.6 ;horizontal move
G1 X37.5 Y35.5 E178.7 F2760.1 ;horizontal move
G1 X38.3 Y35.8 E179.5 F3109.0 ;horizontal move
G1 X38.8 Y36.1 E180.1 F2869.4 ;horizontal move
G1 X39.2 Y36.0 E180.5 F3018.2 ;horizontal move
G1 X39.5 Y35.8 E180.9 F3150.0 ;horizontal move
G1 X39.6 E181.0 ;horizontal move
G1 X40.4 Y35.3 E181.9 F2745.6 ;horizontal move
G1 X40.7 Y34.8 E182.5 F2990.2 ;horizontal move
G1 X41.0 Y34.0 E183.4 F2605.4 ;horizontal move
G1 X40.5 Y33.1 E184.4 F3022.2 ;horizontal move
G1 X40.3 Y32.5 E185.0 F2759.6 ;horizontal move
G1 X39.4 Y32.1 E186.0 F3150.0 ;horizontal move
G1 X39.3 E186.1 ;horizontal move
G1 X39.0 Y32.0 E186.4 F3016.6 ;horizontal move
G1 X38.7 E186.7 F2901.1 ;horizontal move
G1 X37.4 Y32.6 E188.2 F2236.6 ;horizontal move
G1 F18000.0; feed for start of next move
G1 E128.2; extruder retraction
G1 F1500.0; feed for start of next move
G1 X36.4 Y31.9 F3500.0 ;horizontal move
G1 F1500.0; feed for start of next move
G1 X34.9 Y34.4 F3030.9 ;horizontal move
G1 X33.5 Y36.9 F1500.0 ;horizontal move
G1 F18000.0; feed for start of next move
G1 E188.2; extruder dwell
G1 F1500.0; feed for start of next move
G1 X32.7 Y36.1 E189.3 F2247.0 ;horizontal move
G1 X31.9 Y35.3 E190.4 F1515.5 ;horizontal move
G1 X31.4 E190.9 F1130.7 ;horizontal move
G1 X32.0 Y34.0 E192.4 F2198.9 ;horizontal move
G1 X31.4 Y32.7 E193.8 F2841.3 ;horizontal move
G1 X31.3 Y32.6 E193.9 F2764.0 ;horizontal move
G1 X30.5 Y32.2 E194.8 F3150.0 ;horizontal move
G1 X30.3 Y32.1 E195.0 ;horizontal move
G1 X30.0 Y32.0 E195.4 F3002.1 ;horizontal move
G1 X29.9 E195.5 F3041.7 ;horizontal move
G1 X29.7 E195.7 F2961.6 ;horizontal move
G1 X29.3 Y32.2 E196.1 F3128.7 ;horizontal move
G1 X28.4 Y32.6 E197.1 F2719.0 ;horizontal move
G1 X28.1 Y33.6 E198.1 F3150.0 ;horizontal move
G1 X28.0 Y33.7 E198.3 ;horizontal move
G1 Y34.0 E198.6 F3050.7 ;horizontal move
G1 Y34.1 E198.7 F3091.7 ;horizontal move
G1 Y34.3 E198.9 F2991.2 ;horizontal move
G1 X28.1 Y34.6 E199.2 F3129.9 ;horizontal move
G1 X28.5 Y35.5 E200.2 F2760.1 ;horizontal move
G1 X29.3 Y35.8 E201.0 F3109.0 ;horizontal move
G1 X29.8 Y36.1 E201.6 F2869.4 ;horizontal move
G1 X30.2 Y36.0 E202.0 F3018.2 ;horizontal move
G1 X30.5 Y35.8 E202.4 F3150.0 ;horizontal move
G1 X31.4 Y35.3 E203.4 F2720.0 ;horizontal move
G1 X31.9 E203.9 F2525.9 ;horizontal move
G1 X32.1 Y35.5 E204.2 F2662.9 ;horizontal move
G1 F18000.0; feed for start of next move
G1 E144.2; extruder retraction
G1 F1500.0; feed for start of next move
G1 X33.5 Y36.9 F3500.0 ;horizontal move
G1 F1500.0; feed for start of next move
G1 X30.8 Y39.1 F3257.1 ;horizontal move
G1 X28.1 Y41.3 F1500.0 ;horizontal move
G1 F18000.0; feed for start of next move
G1 E204.2; extruder dwell
G1 F1500.0; feed for start of next move
G1 X28.0 Y41.0 E204.5 F1721.0 ;horizontal move
G1 X27.8 Y40.1 E205.4 F919.0 ;horizontal move
G1 X29.1 Y41.1 E207.1 F2179.8 ;horizontal move
G1 Y42.2 E208.2 F1465.9 ;horizontal move
G1 X28.4 Y42.1 E208.9 F1974.9 ;horizontal move
G1 X27.8 E209.5 F1574.9 ;horizontal move
G1 Y41.5 E210.1 F1979.0 ;horizontal move
G1 Y40.1 E211.5 F774.7 ;horizontal move
G1 X28.0 Y41.0 E212.4 F1685.1 ;horizontal move
G1 F18000.0; feed for start of next move
G1 E152.4; extruder retraction
G1 F1500.0; feed for start of next move
G1 X28.1 Y41.3 F3500.0 ;horizontal move
G1 F1500.0; feed for start of next move
G1 X31.8 Y39.4 F3500.0 ;horizontal move
G1 X38.9 Y35.8 ;horizontal move
G1 X42.6 Y33.9 F1500.0 ;horizontal move
G1 F18000.0; feed for start of next move
G1 E212.4; extruder dwell
G1 F1500.0; feed for start of next move
G1 X43.8 Y35.1 E214.1 F2542.2 ;horizontal move
G1 X45.2 Y36.6 E216.2 F1229.2 ;horizontal move
G1 X44.8 Y36.8 E216.6 F1614.8 ;horizontal move
G1 X43.1 Y35.1 E219.0 F2888.6 ;horizontal move
G1 X40.8 Y32.9 E222.2 F799.1 ;horizontal move
G1 X41.2 Y33.8 E223.2 F1738.5 ;horizontal move
G1 X42.6 Y35.3 E225.2 F2820.7 ;horizontal move
G1 X44.3 Y37.1 E227.7 F1445.3 ;horizontal move
G1 X44.0 Y37.3 E228.1 F1735.1 ;horizontal move
G1 X42.8 Y36.2 E229.7 F2635.5 ;horizontal move
G1 X41.1 Y34.6 E232.0 F1186.4 ;horizontal move
G1 X41.0 Y35.0 E232.4 F1522.6 ;horizontal move
G1 X42.3 Y36.4 E234.4 F2644.8 ;horizontal move
G1 X43.6 Y37.7 E236.2 F1613.9 ;horizontal move
G1 X43.4 Y38.2 E236.7 F1228.0 ;horizontal move
G1 X41.2 Y36.0 E239.8 F2973.7 ;horizontal move
G1 X40.1 Y35.0 E241.3 F2298.4 ;horizontal move
G1 X40.4 Y34.1 E242.3 F2750.5 ;horizontal move
G1 Y33.9 E242.5 F2675.3 ;horizontal move
G1 X40.1 Y33.3 E243.1 F2987.4 ;horizontal move
G1 X39.8 Y32.8 E243.7 F2779.7 ;horizontal move
G1 X39.5 Y32.7 E244.0 F2919.9 ;horizontal move
G1 X38.9 Y32.5 E244.7 F2645.6 ;horizontal move
G1 X38.4 Y32.7 E245.2 F2906.2 ;horizontal move
G1 X37.7 Y33.0 E246.0 F2595.1 ;horizontal move
G1 X37.5 Y33.9 E246.9 F3007.1 ;horizontal move
G1 X37.4 Y34.0 E247.0 F2989.5 ;horizontal move
G1 X37.5 Y34.2 E247.3 F3102.4 ;horizontal move
G1 Y34.4 E247.5 F3048.8 ;horizontal move
G1 X37.6 Y34.5 E247.6 F3092.8 ;horizontal move
G1 X37.9 Y35.2 E248.4 F2776.5 ;horizontal move
G1 X38.2 Y35.3 E248.7 F2918.2 ;horizontal move
G1 X38.9 Y35.6 E249.4 F2583.7 ;horizontal move
G1 X39.1 Y35.5 E249.7 F2649.7 ;horizontal move
G1 X40.1 Y35.0 E250.8 F2036.4 ;horizontal move
G1 X41.4 Y36.2 E252.6 F2876.7 ;horizontal move
G1 X43.4 Y38.2 E255.4 F1228.0 ;horizontal move
G1 X43.6 Y37.7 E255.9 F1613.9 ;horizontal move
G1 X42.3 Y36.4 E257.8 F2644.8 ;horizontal move
G1 X41.0 Y35.0 E259.7 F1522.6 ;horizontal move
G1 X41.1 Y34.6 E260.1 F1186.4 ;horizontal move
G1 X42.8 Y36.2 E262.4 F2635.5 ;horizontal move
G1 X44.0 Y37.3 E264.0 F1735.0 ;horizontal move
G1 X44.3 Y37.1 E264.4 F1445.3 ;horizontal move
G1 X42.6 Y35.3 E266.9 F2820.7 ;horizontal move
G1 X41.2 Y33.8 E268.9 F1738.5 ;horizontal move
G1 X40.8 Y32.9 E269.9 F799.1 ;horizontal move
G1 X43.1 Y35.1 E273.1 F2888.6 ;horizontal move
G1 X44.8 Y36.8 E275.5 F1614.8 ;horizontal move
G1 X45.2 Y36.6 E276.0 F1229.2 ;horizontal move
G1 X43.8 Y35.1 E278.0 F2542.2 ;horizontal move
G1 F18000.0; feed for start of next move
G1 E218.0; extruder retraction
G1 F1500.0; feed for start of next move
G1 X42.6 Y33.9 F3500.0 ;horizontal move
G1 F1500.0; feed for start of next move
G1 X44.4 Y33.2 F2602.6 ;horizontal move
G1 X46.1 Y32.5 F1500.0 ;horizontal move
G1 F18000.0; feed for start of next move
G1 E278.0; extruder dwell
G1 F1500.0; feed for start of next move
G1 X46.7 Y33.0 E278.8 F2023.4 ;horizontal move
G1 X46.4 Y34.0 E279.8 F2551.1 ;horizontal move
G1 X46.5 Y34.4 E280.2 F2743.4 ;horizontal move
G1 X46.7 Y34.8 E280.7 F2946.3 ;horizontal move
G1 X46.9 Y35.2 E281.1 F2776.5 ;horizontal move
G1 X47.2 Y35.3 E281.5 F2918.2 ;horizontal move
G1 X47.9 Y35.6 E282.2 F2583.7 ;horizontal move
G1 X48.6 Y35.3 E283.0 F2888.5 ;horizontal move
G1 X49.1 Y35.0 E283.6 F2606.0 ;horizontal move
G1 X49.3 Y34.4 E284.2 F2884.3 ;horizontal move
G1 X49.4 Y33.9 E284.7 F2675.3 ;horizontal move
G1 X49.1 Y33.3 E285.4 F2987.4 ;horizontal move
G1 X48.8 Y32.8 E286.0 F2779.7 ;horizontal move
G1 X48.5 Y32.7 E286.3 F2919.9 ;horizontal move
G1 X47.9 Y32.5 E286.9 F2645.6 ;horizontal move
G1 X47.7 Y32.6 E287.1 F2759.4 ;horizontal move
G1 X46.7 Y33.0 E288.2 F2252.0 ;horizontal move
G1 F18000.0; feed for start of next move
G1 E228.2; extruder retraction
G1 F1500.0; feed for start of next move
G1 X46.1 Y32.5 F3500.0 ;horizontal move
G1 F1500.0; feed for start of next move
G1 X47.8 Y34.2 F2801.8 ;horizontal move
G1 X49.4 Y35.8 F1500.0 ;horizontal move
G1 F18000.0; feed for start of next move
G1 E288.2; extruder dwell
G1 F1500.0; feed for start of next move
G1 Y35.3 E288.7 F1805.0 ;horizontal move
G1 X50.0 Y34.0 E290.1 F2610.5 ;horizontal move
G1 X49.6 Y33.1 E291.1 F3010.5 ;horizontal move
G1 X49.3 Y32.6 E291.7 F2764.0 ;horizontal move
G1 X48.5 Y32.2 E292.6 F3150.0 ;horizontal move
G1 X48.3 Y32.1 E292.8 ;horizontal move
G1 X48.0 Y32.0 E293.1 F3002.1 ;horizontal move
G1 X47.9 E293.2 F3041.7 ;horizontal move
G1 X47.7 E293.4 F2961.6 ;horizontal move
G1 X47.3 Y32.2 E293.9 F3128.7 ;horizontal move
G1 X46.4 Y32.6 E294.9 F2719.0 ;horizontal move
G1 X46.1 Y33.6 E295.9 F3150.0 ;horizontal move
G1 X46.0 Y33.7 E296.1 ;horizontal move
G1 Y34.0 E296.4 F3050.7 ;horizontal move
G1 Y34.1 E296.5 F3091.7 ;horizontal move
G1 Y34.3 E296.7 F2991.2 ;horizontal move
G1 X46.1 Y34.6 E297.0 F3129.9 ;horizontal move
G1 X46.5 Y35.5 E298.0 F2760.1 ;horizontal move
G1 X46.8 Y35.6 E298.3 F2890.9 ;horizontal move
G1 X47.8 Y36.1 E299.4 F2370.0 ;horizontal move
G1 X48.2 Y36.0 E299.8 F2177.3 ;horizontal move
G1 X49.4 Y35.3 E301.2 F1152.0 ;horizontal move
G1 Y35.7 E301.6 F1514.1 ;horizontal move
G1 F18000.0; feed for start of next move
G1 E241.6; extruder retraction
G1 F1500.0; feed for start of next move
G1 Y35.8 F3500.0 ;horizontal move
G1 F1500.0; feed for start of next move
G1 X48.9 Y36.2 F1946.0 ;horizontal move
G1 X48.4 Y36.6 F1500.0 ;horizontal move
G1 F18000.0; feed for start of next move
G1 E301.6; extruder dwell
G1 F1500.0; feed for start of next move
G1 X49.0 Y36.7 E302.2 F904.0 ;horizontal move
G1 X48.6 Y36.3 E302.8 F1464.5 ;horizontal move
G1 X48.5 Y36.2 E302.9 F1352.9 ;horizontal move
G1 X48.9 Y36.0 E303.4 F1672.2 ;horizontal move
G1 X49.5 Y36.5 E304.1 F2164.4 ;horizontal move
G1 X49.7 Y36.7 E304.4 F1979.3 ;horizontal move
G1 X50.0 Y38.0 E305.8 F899.5 ;horizontal move
G1 X49.0 Y37.1 E307.1 F2045.3 ;horizontal move
G1 X47.9 Y36.7 E308.3 F2629.7 ;horizontal move
G1 X46.6 E309.6 F3150.0 ;horizontal move
G1 X46.4 E309.8 ;horizontal move
G1 X46.2 E310.0 F3085.4 ;horizontal move
G1 X46.0 E310.2 F3150.0 ;horizontal move
G1 X45.6 Y36.8 E310.6 ;horizontal move
G1 X45.5 E310.7 F3084.3 ;horizontal move
G1 X45.3 Y36.9 E310.9 F3150.0 ;horizontal move
G1 X44.3 Y37.6 E312.1 ;horizontal move
G1 X44.0 Y37.7 E312.4 F3051.1 ;horizontal move
G1 X43.9 Y37.8 E312.6 F3119.1 ;horizontal move
G1 X43.7 Y38.0 E312.9 F3004.0 ;horizontal move
G1 X43.6 Y38.4 E313.3 F3136.6 ;horizontal move
G1 X43.4 Y39.1 E314.0 F2821.6 ;horizontal move
G1 X43.7 Y39.7 E314.7 F3071.5 ;horizontal move
G1 X43.9 Y40.2 E315.2 F2850.6 ;horizontal move
G1 Y40.3 E315.3 F2891.0 ;horizontal move
G1 X45.1 Y41.0 E316.7 F2226.0 ;horizontal move
G1 Y42.2 E317.9 F1489.7 ;horizontal move
G1 X42.9 Y42.1 E320.1 F2743.2 ;horizontal move
G1 X40.7 E322.3 F1522.6 ;horizontal move
G1 Y41.0 E323.4 F2248.2 ;horizontal move
G1 X41.9 Y40.3 E324.8 F2868.0 ;horizontal move
G1 X42.0 Y40.2 E324.9 F2799.9 ;horizontal move
G1 X42.3 Y39.4 E325.8 F3150.0 ;horizontal move
G1 Y39.3 E325.9 ;horizontal move
G1 X42.4 Y39.1 E326.1 F3048.3 ;horizontal move
G1 Y39.0 E326.2 F3065.6 ;horizontal move
G1 Y38.6 E326.6 F2914.9 ;horizontal move
G1 X42.1 Y38.1 E327.2 F3150.0 ;horizontal move
G1 X42.0 Y37.9 E327.4 ;horizontal move
G1 X41.9 Y37.7 E327.6 F3057.9 ;horizontal move
G1 X41.7 Y37.6 E327.9 F3150.0 ;horizontal move
G1 X41.4 Y37.3 E328.3 ;horizontal move
G1 X41.2 Y37.1 E328.6 F3036.6 ;horizontal move
G1 X40.9 Y37.0 E328.9 F3150.0 ;horizontal move
G1 X40.1 Y36.8 E329.7 ;horizontal move
G1 X39.9 Y36.7 E329.9 F3065.3 ;horizontal move
G1 X39.7 E330.1 F3150.0 ;horizontal move
G1 X38.2 E331.6 ;horizontal move
G1 X37.7 E332.1 F2975.8 ;horizontal move
G1 X37.3 Y36.9 E332.6 F3150.0 ;horizontal move
G1 X36.5 Y37.3 E333.5 ;horizontal move
G1 X36.3 Y37.4 E333.7 F3065.3 ;horizontal move
G1 X36.1 Y37.6 E334.0 F3150.0 ;horizontal move
G1 X36.0 Y37.8 E334.2 ;horizontal move
G1 X35.8 Y38.0 E334.5 F3032.0 ;horizontal move
G1 X35.6 Y38.3 E334.9 F3150.0 ;horizontal move
G1 X35.4 Y38.8 E335.4 F2935.5 ;horizontal move
G1 Y39.2 E335.8 F3084.9 ;horizontal move
G1 X35.5 Y39.4 E336.0 F3018.6 ;horizontal move
G1 X35.6 Y39.7 E336.3 F3150.0 ;horizontal move
G1 X36.0 Y40.3 E337.1 F2856.1 ;horizontal move
G1 X37.1 Y41.1 E338.4 F2200.5 ;horizontal move
G1 Y42.2 E339.5 F1500.0 ;horizontal move
G1 X35.0 E341.6 F2739.7 ;horizontal move
G1 X32.8 E343.8 F1500.0 ;horizontal move
G1 Y41.0 E345.0 F2251.5 ;horizontal move
G1 X33.5 Y40.6 E345.8 F2634.4 ;horizontal move
G1 X34.0 Y40.1 E346.5 F2949.6 ;horizontal move
G1 X34.1 E346.6 F2919.4 ;horizontal move
G1 X34.3 Y39.5 E347.3 F3150.0 ;horizontal move
G1 X34.4 Y39.1 E347.7 F3010.9 ;horizontal move
G1 X34.3 Y38.8 E348.0 F3135.4 ;horizontal move
G1 Y38.6 E348.2 F3048.3 ;horizontal move
G1 X34.2 Y38.3 E348.5 F3150.0 ;horizontal move
G1 X34.1 Y38.1 E348.7 ;horizontal move
G1 X33.9 Y37.7 E349.2 F2984.7 ;horizontal move
G1 X33.6 Y37.5 E349.5 F3150.0 ;horizontal move
G1 X33.3 Y37.3 E349.9 ;horizontal move
G1 X33.1 Y37.1 E350.2 F3051.3 ;horizontal move
G1 X32.9 E350.4 F3150.0 ;horizontal move
G1 X32.0 Y36.8 E351.3 ;horizontal move
G1 X31.8 Y36.7 E351.6 F3058.2 ;horizontal move
G1 X31.6 E351.8 F3150.0 ;horizontal move
G1 X31.1 E352.3 ;horizontal move
G1 X29.6 Y36.8 E353.8 F2480.7 ;horizontal move
G1 X28.4 Y37.4 E355.1 F1712.9 ;horizontal move
G1 X27.8 Y37.9 E355.9 F998.3 ;horizontal move
G1 Y34.2 E359.6 F3150.0 ;horizontal move
G1 Y34.0 E359.8 ;horizontal move
G1 Y30.8 E363.0 F1496.0 ;horizontal move
G1 X31.0 E366.2 F3150.0 ;horizontal move
G1 X46.9 Y30.9 E382.1 ;horizontal move
G1 X50.0 E385.2 F1508.9 ;horizontal move
G1 Y34.1 E388.4 F3150.0 ;horizontal move
G1 Y38.0 E392.3 F770.4 ;horizontal move
G1 X49.7 Y36.7 E393.6 F1924.1 ;horizontal move
G1 X49.5 Y36.5 E393.9 F2139.3 ;horizontal move
G1 X48.9 Y36.0 E394.7 F1672.2 ;horizontal move
G1 X48.5 Y36.2 E395.1 F1352.9 ;horizontal move
G1 X48.6 Y36.3 E395.3 F1464.5 ;horizontal move
G1 X49.0 Y36.7 E395.8 F904.0 ;horizontal move
G1 X48.4 Y36.6 E396.4 F1493.9 ;horizontal move
G1 F18000.0; feed for start of next move
G1 E336.4; extruder retraction
G1 F1500.0; feed for start of next move
G1 X48.8 Y38.9 F2802.3 ;horizontal move
G1 X49.2 Y41.2 F1500.0 ;horizontal move
G1 F18000.0; feed for start of next move
G1 E396.4; extruder dwell
G1 F1500.0; feed for start of next move
G1 X48.7 Y41.0 E397.0 F917.1 ;horizontal move
G1 X49.3 Y40.8 E397.6 F1485.6 ;horizontal move
G1 X49.5 Y40.6 E397.9 F1686.8 ;horizontal move
G1 X50.0 Y40.1 E398.6 F1015.5 ;horizontal move
G1 Y41.4 E399.9 F2022.0 ;horizontal move
G1 Y42.2 E400.7 F1500.0 ;horizontal move
G1 X49.4 E401.3 F1958.1 ;horizontal move
G1 X48.7 E402.0 F1500.0 ;horizontal move
G1 Y41.7 E402.5 F1824.7 ;horizontal move
G1 Y41.0 E403.2 F1236.7 ;horizontal move
G1 X49.1 Y41.1 E403.6 F1554.2 ;horizontal move
G1 F18000.0; feed for start of next move
G1 E343.6; extruder retraction
G1 F1500.0; feed for start of next move
G1 X49.2 Y41.2 F3500.0 ;horizontal move
G1 F1500.0; feed for start of next move
G1 X49.5 F1691.7 ;horizontal move
G1 X49.7 Y41.1 F1500.0 ;horizontal move
G1 F18000.0; feed for start of next move
G1 E403.6; extruder dwell
G1 F1500.0; feed for start of next move
G1 Y41.3 E403.8 F1686.3 ;horizontal move
G1 X50.0 Y41.7 E404.3 F1971.6 ;horizontal move
G1 X50.5 Y42.7 E405.4 F1118.5 ;horizontal move
G1 X49.2 E406.7 F2118.1 ;horizontal move
G1 X48.2 E407.7 F1500.0 ;horizontal move
G1 Y41.3 E409.1 F2354.5 ;horizontal move
G1 Y40.6 E409.8 F1985.2 ;horizontal move
G1 X49.0 Y40.4 E410.7 F2428.9 ;horizontal move
G1 X49.6 Y39.9 E411.4 F2762.9 ;horizontal move
G1 Y39.7 E411.6 F2849.4 ;horizontal move
G1 X50.0 Y38.9 E412.5 F2467.6 ;horizontal move
G1 X49.4 Y37.9 E413.7 F2986.6 ;horizontal move
G1 X49.0 Y37.7 E414.1 F3150.0 ;horizontal move
G1 X48.9 Y37.6 E414.3 ;horizontal move
G1 X48.7 Y37.4 E414.6 F3030.7 ;horizontal move
G1 X48.4 E414.9 F3150.0 ;horizontal move
G1 X47.3 Y37.2 E416.0 ;horizontal move
G1 X47.2 Y37.1 E416.1 F3115.3 ;horizontal move
G1 X47.1 E416.2 F3150.0 ;horizontal move
G1 X46.5 E416.8 ;horizontal move
G1 X46.3 E417.0 F3065.3 ;horizontal move
G1 X46.1 Y37.2 E417.3 F3150.0 ;horizontal move
G1 X45.3 Y37.5 E418.1 ;horizontal move
G1 X45.2 E418.2 F3115.0 ;horizontal move
G1 X45.1 E418.3 F3150.0 ;horizontal move
G1 X44.7 Y37.8 E418.8 ;horizontal move
G1 X44.5 Y37.9 E419.0 F3051.1 ;horizontal move
G1 X44.3 Y38.1 E419.3 F3121.5 ;horizontal move
G1 X44.2 Y38.3 E419.5 F3009.0 ;horizontal move
G1 X44.1 Y38.4 E419.7 F3043.8 ;horizontal move
G1 X43.9 Y39.1 E420.4 F2716.3 ;horizontal move
G1 X44.2 Y39.7 E421.1 F2990.5 ;horizontal move
G1 X44.3 Y40.0 E421.4 F2872.9 ;horizontal move
G1 X44.4 E421.5 F2925.1 ;horizontal move
G1 X45.6 Y40.7 E422.9 F2318.6 ;horizontal move
G1 Y41.0 E423.2 F2485.2 ;horizontal move
G1 Y42.7 E424.9 F1491.6 ;horizontal move
G1 X42.9 Y42.6 E427.6 F2945.1 ;horizontal move
G1 X40.3 E430.2 F1518.5 ;horizontal move
G1 Y41.4 E431.4 F2257.8 ;horizontal move
G1 Y40.6 E432.2 F1771.3 ;horizontal move
G1 X40.6 E432.5 F2003.3 ;horizontal move
G1 X41.7 Y39.8 E433.8 F2669.9 ;horizontal move
G1 X41.8 Y39.5 E434.2 F2846.9 ;horizontal move
G1 X42.0 Y38.9 E434.8 F2608.5 ;horizontal move
G1 X41.5 Y38.1 E435.7 F3037.1 ;horizontal move
G1 Y38.0 E435.8 F3000.1 ;horizontal move
G1 X41.1 Y37.8 E436.3 F3150.0 ;horizontal move
G1 X41.0 Y37.6 E436.5 ;horizontal move
G1 X40.8 Y37.5 E436.7 F3054.0 ;horizontal move
G1 X40.6 Y37.4 E437.0 F3150.0 ;horizontal move
G1 X39.9 Y37.2 E437.7 ;horizontal move
G1 X39.8 E437.8 F3083.0 ;horizontal move
G1 X39.6 E438.0 F3150.0 ;horizontal move
G1 X38.4 E439.2 ;horizontal move
G1 X37.8 E439.8 F2919.5 ;horizontal move
G1 X37.3 Y37.5 E440.4 F3150.0 ;horizontal move
G1 X37.0 Y37.7 E440.7 ;horizontal move
G1 X36.2 Y38.2 E441.7 F2746.9 ;horizontal move
G1 X36.1 Y38.5 E442.0 F2883.3 ;horizontal move
G1 X35.9 Y39.1 E442.6 F2608.5 ;horizontal move
G1 X36.3 Y39.8 E443.4 F2983.4 ;horizontal move
G1 X36.4 Y40.0 E443.6 F2890.3 ;horizontal move
G1 X37.6 Y40.7 E445.0 F2251.0 ;horizontal move
G1 Y41.1 E445.4 F2472.2 ;horizontal move
G1 Y42.7 E447.0 F1550.0 ;horizontal move
G1 X35.0 E449.6 F2943.2 ;horizontal move
G1 X32.3 E452.3 F1500.0 ;horizontal move
G1 Y41.1 E453.9 F2425.7 ;horizontal move
G1 Y40.6 E454.4 F2150.0 ;horizontal move
G1 X33.1 Y40.3 E455.3 F2610.7 ;horizontal move
G1 X33.6 Y39.8 E456.0 F2917.2 ;horizontal move
G1 X33.7 E456.1 F2910.4 ;horizontal move
G1 Y39.6 E456.3 F2999.4 ;horizontal move
G1 X33.9 Y39.0 E456.9 F2750.3 ;horizontal move
G1 X33.6 Y38.3 E457.7 F3069.6 ;horizontal move
G1 X33.5 Y38.0 E458.0 F2960.8 ;horizontal move
G1 X33.1 Y37.7 E458.5 F3150.0 ;horizontal move
G1 X32.9 Y37.6 E458.7 F3039.0 ;horizontal move
G1 X32.6 Y37.5 E459.1 F3150.0 ;horizontal move
G1 X31.9 Y37.3 E459.8 ;horizontal move
G1 X31.7 Y37.2 E460.0 F3073.4 ;horizontal move
G1 X31.5 E460.2 F3150.0 ;horizontal move
G1 X30.2 E461.5 ;horizontal move
G1 X30.1 E461.6 F3137.3 ;horizontal move
G1 X30.0 E461.7 F3150.0 ;horizontal move
G1 X29.6 Y37.3 E462.1 F3005.0 ;horizontal move
G1 X29.3 Y37.5 E462.5 F3150.0 ;horizontal move
G1 X29.0 Y37.7 E462.8 ;horizontal move
G1 X28.3 Y38.1 E463.6 F2820.0 ;horizontal move
G1 X28.1 Y38.5 E464.1 F2980.6 ;horizontal move
G1 X27.9 Y39.0 E464.6 F2736.6 ;horizontal move
G1 X28.0 Y39.4 E465.0 F2924.6 ;horizontal move
G1 X28.2 Y39.8 E465.5 F2734.4 ;horizontal move
G1 X29.1 Y40.5 E466.6 F2190.5 ;horizontal move
G1 X29.6 Y40.6 E467.1 F1900.2 ;horizontal move
G1 Y41.3 E467.8 F2312.8 ;horizontal move
G1 Y42.7 E469.2 F1480.3 ;horizontal move
G1 X28.4 Y42.6 E470.4 F2241.3 ;horizontal move
G1 X27.3 E471.5 F1543.4 ;horizontal move
G1 Y39.5 E474.6 F3150.0 ;horizontal move
G1 Y33.5 E480.6 ;horizontal move
G1 Y30.3 E483.8 F1498.1 ;horizontal move
G1 X30.5 E487.0 F3150.0 ;horizontal move
G1 X47.3 Y30.4 E503.8 ;horizontal move
G1 X50.5 E507.0 F1504.3 ;horizontal move
G1 Y33.6 E510.2 F3150.0 ;horizontal move
G1 Y38.8 E515.4 ;horizontal move
G1 Y42.7 E519.3 F854.3 ;horizontal move
G1 X49.7 Y41.3 E521.0 F2099.9 ;horizontal move
G1 F18000.0; feed for start of next move
G1 E461.0; extruder retraction
G1 F1500.0; feed for start of next move
G1 Y41.1 F3500.0 ;horizontal move
G1 F1500.0; feed for start of next move
G1 X49.1 Y38.9 F2805.5 ;horizontal move
G1 X48.4 Y36.6 F1500.0 ;horizontal move
G1 F18000.0; feed for start of next move
G1 E521.0; extruder dwell
G1 F1500.0; feed for start of next move
G1 X47.8 Y36.4 E521.6 F1914.3 ;horizontal move
G1 X47.6 E521.8 F2067.1 ;horizontal move
G1 X47.3 E522.1 F1891.5 ;horizontal move
G1 X46.9 Y36.0 E522.7 F1500.0 ;horizontal move
G1 F18000.0; feed for start of next move
G1 E462.7; extruder retraction
G1 F1500.0; feed for start of next move
G1 X46.3 Y34.7 F2384.6 ;horizontal move
G1 X45.7 Y33.4 F1500.0 ;horizontal move
G1 F18000.0; feed for start of next move
G1 E522.7; extruder dwell
G1 F1500.0; feed for start of next move
G1 X44.8 Y32.5 E523.9 F2337.6 ;horizontal move
G1 X43.4 Y31.1 E525.9 F969.7 ;horizontal move
G1 X44.0 E526.5 F1495.4 ;horizontal move
G1 X44.9 Y32.0 E527.8 F2324.1 ;horizontal move
G1 X45.9 Y32.9 E529.1 F1500.0 ;horizontal move
G1 F18000.0; feed for start of next move
G1 E469.1; extruder retraction
G1 F1500.0; feed for start of next move
G1 X46.0 Y32.7 F1669.3 ;horizontal move
G1 X46.1 Y32.5 F1500.0 ;horizontal move
G1 F18000.0; feed for start of next move
G1 E529.1; extruder dwell
G1 F1500.0; feed for start of next move
G1 X45.7 Y32.0 E529.8 F1965.1 ;horizontal move
G1 X44.9 Y31.1 E531.0 F994.3 ;horizontal move
G1 X45.4 E531.5 F1511.5 ;horizontal move
G1 X46.1 Y31.7 E532.4 F2093.8 ;horizontal move
G1 X46.6 Y32.2 E533.1 F1644.2 ;horizontal move
G1 X47.0 Y32.0 E533.5 F1318.1 ;horizontal move
G1 X46.7 Y31.7 E534.0 F1645.7 ;horizontal move
G1 X46.3 Y31.1 E534.7 F1011.9 ;horizontal move
G1 X46.9 E535.3 F1569.7 ;horizontal move
G1 X47.2 Y31.4 E535.7 F1903.2 ;horizontal move
G1 X47.6 Y31.7 E536.2 F1590.9 ;horizontal move
G1 X48.1 E536.7 F1107.7 ;horizontal move
G1 X47.9 Y31.4 E537.1 F1405.3 ;horizontal move
G1 X47.7 Y31.1 E537.4 F1039.5 ;horizontal move
G1 X48.2 E537.9 F1541.6 ;horizontal move
G1 X48.8 Y31.6 E538.7 F2022.5 ;horizontal move
G1 X49.7 Y32.5 E540.0 F1004.5 ;horizontal move
G1 Y31.9 E540.6 F1518.2 ;horizontal move
G1 X49.4 Y31.5 E541.1 F1871.8 ;horizontal move
G1 X49.1 Y31.1 E541.6 F1500.0 ;horizontal move
G1 F18000.0; feed for start of next move
G1 E481.6; extruder retraction
G1 F1500.0; feed for start of next move
G1 X45.9 F3151.2 ;horizontal move
G1 X42.7 F1500.0 ;horizontal move
G1 F18000.0; feed for start of next move
G1 E541.6; extruder dwell
G1 F1500.0; feed for start of next move
G1 X44.3 Y32.8 E543.9 F2762.5 ;horizontal move
G1 X45.7 Y34.2 E545.9 F1682.0 ;horizontal move
G1 X46.0 Y35.0 E546.8 F829.6 ;horizontal move
G1 X43.7 Y32.9 E549.9 F2871.3 ;horizontal move
G1 X41.9 Y31.1 E552.4 F1501.5 ;horizontal move
G1 X41.3 E553.0 F979.1 ;horizontal move
G1 X43.9 Y33.8 E556.8 F3120.5 ;horizontal move
G1 X46.4 Y36.4 E560.4 F1050.0 ;horizontal move
G1 X45.9 E560.9 F1504.5 ;horizontal move
G1 X43.2 Y33.8 E564.6 F3375.0 ;horizontal move
G1 X40.5 Y31.1 E568.4 F1546.5 ;horizontal move
G1 X39.9 E569.0 F975.6 ;horizontal move
G1 X41.4 Y32.7 E571.2 F2486.6 ;horizontal move
G1 X42.6 Y33.9 E572.9 F1500.0 ;horizontal move
G1 F18000.0; feed for start of next move
G1 E512.9; extruder retraction
G1 F1500.0; feed for start of next move
G1 X41.4 Y33.0 F2453.2 ;horizontal move
G1 X40.1 Y32.0 F1500.0 ;horizontal move
G1 F18000.0; feed for start of next move
G1 E572.9; extruder dwell
G1 F1500.0; feed for start of next move
G1 X39.5 Y31.6 E573.7 F2000.9 ;horizontal move
G1 X39.1 Y31.1 E574.3 F1578.9 ;horizontal move
G1 X38.4 E575.0 F949.9 ;horizontal move
G1 X38.7 Y31.4 E575.4 F1442.0 ;horizontal move
G1 X38.9 Y31.7 E575.8 F1148.5 ;horizontal move
G1 X38.5 Y31.8 E576.2 F1583.2 ;horizontal move
G1 X38.0 Y31.5 E576.8 F1946.9 ;horizontal move
G1 X37.6 Y31.1 E577.3 F1519.3 ;horizontal move
G1 X37.0 E577.9 F1006.1 ;horizontal move
G1 X37.5 Y31.7 E578.7 F1701.7 ;horizontal move
G1 X37.9 Y32.0 E579.2 F1310.7 ;horizontal move
G1 X37.5 Y32.2 E579.7 F1638.3 ;horizontal move
G1 X36.9 Y31.7 E580.4 F2138.7 ;horizontal move
G1 X36.2 Y31.1 E581.4 F1509.5 ;horizontal move
G1 X35.6 E582.0 F991.3 ;horizontal move
G1 X36.2 Y31.7 E582.8 F1700.0 ;horizontal move
G1 X36.4 Y31.9 E583.1 F1500.0 ;horizontal move
G1 F18000.0; feed for start of next move
G1 E523.1; extruder retraction
G1 F1500.0; feed for start of next move
G1 F18000.0; feed for start of next move
G1 E583.1; extruder dwell
G1 F1500.0; feed for start of next move
G1 X36.8 Y32.3 E583.7 F1931.5 ;horizontal move
G1 X37.1 Y32.6 E584.1 F1632.2 ;horizontal move
G1 X36.9 Y33.1 E584.6 F1252.0 ;horizontal move
G1 X35.7 Y32.0 E586.3 F2329.0 ;horizontal move
G1 X34.7 Y31.1 E587.6 F1499.6 ;horizontal move
G1 X34.2 E588.1 F976.1 ;horizontal move
G1 X35.6 Y32.5 E590.1 F2414.0 ;horizontal move
G1 X36.7 Y33.6 E591.6 F1500.0 ;horizontal move
G1 F18000.0; feed for start of next move
G1 E531.6; extruder retraction
G1 F1500.0; feed for start of next move
G1 X38.1 Y35.0 F2646.1 ;horizontal move
G1 X39.5 Y36.4 F1500.0 ;horizontal move
G1 F18000.0; feed for start of next move
G1 E591.6; extruder dwell
G1 F1500.0; feed for start of next move
G1 X39.4 Y36.2 E591.9 F1363.4 ;horizontal move
G1 X39.8 Y36.1 E592.3 F1719.2 ;horizontal move
G1 X40.1 Y36.4 E592.7 F2017.6 ;horizontal move
G1 X40.4 Y36.5 E593.0 F1828.0 ;horizontal move
G1 X41.4 Y37.0 E594.1 F833.3 ;horizontal move
G1 X40.7 Y36.1 E595.3 F1824.5 ;horizontal move
G1 X40.4 Y35.8 E595.7 F1477.7 ;horizontal move
G1 X40.7 Y35.5 E596.1 F1752.8 ;horizontal move
G1 X41.9 Y36.7 E597.8 F2678.8 ;horizontal move
G1 X43.4 Y38.2 E599.9 F1500.0 ;horizontal move
G1 F18000.0; feed for start of next move
G1 E539.9; extruder retraction
G1 F1500.0; feed for start of next move
G1 X43.3 Y38.5 F1701.8 ;horizontal move
G1 X43.2 Y38.7 F1500.0 ;horizontal move
G1 F18000.0; feed for start of next move
G1 E599.9; extruder dwell
G1 F1500.0; feed for start of next move
G1 X43.0 Y38.5 E600.2 F1684.8 ;horizontal move
G1 X42.4 Y37.9 E601.1 F822.0 ;horizontal move
G1 X42.7 Y38.8 E602.0 F1732.7 ;horizontal move
G1 X42.9 Y39.0 E602.3 F1883.6 ;horizontal move
G1 X43.2 Y39.4 E602.8 F1500.0 ;horizontal move
G1 F18000.0; feed for start of next move
G1 E542.8; extruder retraction
G1 F1500.0; feed for start of next move
G1 X42.9 Y39.5 F1726.2 ;horizontal move
G1 X42.6 F1500.0 ;horizontal move
G1 F18000.0; feed for start of next move
G1 E602.8; extruder dwell
G1 F1500.0; feed for start of next move
G1 X43.5 Y40.5 E604.1 F2340.8 ;horizontal move
G1 X44.8 Y41.9 E606.1 F983.8 ;horizontal move
G1 X44.3 E606.6 F1504.6 ;horizontal move
G1 X43.4 Y41.0 E607.8 F2286.5 ;horizontal move
G1 X42.4 Y40.1 E609.2 F1442.1 ;horizontal move
G1 X42.2 Y40.4 E609.5 F1732.5 ;horizontal move
G1 X42.5 Y40.8 E610.0 F2071.6 ;horizontal move
G1 X43.5 Y41.9 E611.5 F945.2 ;horizontal move
G1 X42.8 Y41.8 E612.2 F1576.1 ;horizontal move
G1 X42.1 Y41.2 E613.2 F2172.9 ;horizontal move
G1 X41.7 Y40.8 E613.7 F1813.2 ;horizontal move
G1 X41.4 Y41.0 E614.1 F1538.1 ;horizontal move
G1 X41.5 Y41.2 E614.3 F1705.1 ;horizontal move
G1 X42.0 Y41.8 E615.1 F1042.7 ;horizontal move
G1 X41.4 E615.7 F1589.7 ;horizontal move
G1 X41.3 Y41.7 E615.8 F1731.9 ;horizontal move
G1 X41.0 Y41.5 E616.2 F1500.0 ;horizontal move
G1 F18000.0; feed for start of next move
G1 E556.2; extruder retraction
G1 F1500.0; feed for start of next move
G1 X38.5 Y41.1 F2885.5 ;horizontal move
G1 X36.0 Y40.7 F1500.0 ;horizontal move
G1 F18000.0; feed for start of next move
G1 E616.2; extruder dwell
G1 F1500.0; feed for start of next move
G1 X36.7 Y41.5 E617.2 F2218.8 ;horizontal move
G1 X36.8 Y41.6 E617.4 F2129.4 ;horizontal move
G1 Y41.9 E617.7 F1985.1 ;horizontal move
G1 X36.5 E618.0 F2125.2 ;horizontal move
G1 X35.8 Y41.2 E619.0 F2616.6 ;horizontal move
G1 X34.4 Y39.9 E620.9 F1500.0 ;horizontal move
G1 F18000.0; feed for start of next move
G1 E560.9; extruder retraction
G1 F1500.0; feed for start of next move
G1 X34.3 Y40.2 F1691.7 ;horizontal move
G1 Y40.4 F1500.0 ;horizontal move
G1 F18000.0; feed for start of next move
G1 E620.9; extruder dwell
G1 F1500.0; feed for start of next move
G1 X34.8 Y40.9 E621.6 F2015.7 ;horizontal move
G1 X35.6 Y41.9 E622.9 F992.2 ;horizontal move
G1 X35.1 E623.4 F1510.1 ;horizontal move
G1 X34.5 Y41.3 E624.2 F2086.4 ;horizontal move
G1 X33.8 Y40.7 E625.1 F1500.0 ;horizontal move
G1 F18000.0; feed for start of next move
G1 E565.1; extruder retraction
G1 F1500.0; feed for start of next move
G1 X33.7 Y40.9 F1661.1 ;horizontal move
G1 X33.5 Y41.0 F1500.0 ;horizontal move
G1 F18000.0; feed for start of next move
G1 E625.1; extruder dwell
G1 F1500.0; feed for start of next move
G1 X33.7 Y41.2 E625.4 F1758.0 ;horizontal move
G1 X34.3 Y41.9 E626.4 F988.3 ;horizontal move
G1 X33.7 E627.0 F1600.2 ;horizontal move
G1 X33.4 Y41.6 E627.4 F1850.3 ;horizontal move
G1 X33.1 Y41.3 E627.8 F1500.0 ;horizontal move
G1 F18000.0; feed for start of next move
G1 E567.8; extruder retraction
G1 F1500.0; feed for start of next move
G1 X33.9 Y40.3 F2270.4 ;horizontal move
G1 X34.6 Y39.4 F1500.0 ;horizontal move
G1 F18000.0; feed for start of next move
G1 E627.8; extruder dwell
G1 F1500.0; feed for start of next move
G1 X34.9 Y39.6 E628.2 F1768.4 ;horizontal move
G1 X35.6 Y40.3 E629.2 F801.7 ;horizontal move
G1 X35.1 Y39.2 E630.4 F1915.7 ;horizontal move
G1 Y39.1 E630.5 F1944.5 ;horizontal move
G1 X34.7 Y38.6 E631.1 F1500.0 ;horizontal move
G1 F18000.0; feed for start of next move
G1 E571.1; extruder retraction
G1 F1500.0; feed for start of next move
G1 X35.0 F1691.7 ;horizontal move
G1 X35.2 Y38.5 F1500.0 ;horizontal move
G1 F18000.0; feed for start of next move
G1 E631.1; extruder dwell
G1 F1500.0; feed for start of next move
G1 X34.4 Y37.7 E632.2 F2241.8 ;horizontal move
G1 X33.5 Y36.9 E633.4 F1500.0 ;horizontal move
G1 F18000.0; feed for start of next move
G1 E573.4; extruder retraction
G1 F1500.0; feed for start of next move
G1 X33.1 Y36.8 F1799.9 ;horizontal move
G1 X32.7 Y36.7 F1500.0 ;horizontal move
G1 F18000.0; feed for start of next move
G1 E633.4; extruder dwell
G1 F1500.0; feed for start of next move
G1 X32.1 Y36.0 E634.4 F2106.8 ;horizontal move
G1 X31.6 Y35.6 E635.0 F1720.9 ;horizontal move
G1 Y35.5 E635.1 F1751.2 ;horizontal move
G1 X31.9 Y35.3 E635.5 F1500.0 ;horizontal move
G1 F18000.0; feed for start of next move
G1 E575.5; extruder retraction
G1 F1500.0; feed for start of next move
G1 X32.0 Y35.0 F1726.2 ;horizontal move
G1 Y34.7 F1500.0 ;horizontal move
G1 F18000.0; feed for start of next move
G1 E635.5; extruder dwell
G1 F1500.0; feed for start of next move
G1 X33.7 Y36.2 E637.7 F2770.0 ;horizontal move
G1 X35.5 Y37.9 E640.2 F1337.8 ;horizontal move
G1 X35.6 Y37.6 E640.5 F1621.6 ;horizontal move
G1 X33.9 Y35.8 E643.0 F2939.6 ;horizontal move
G1 X32.2 Y34.1 E645.4 F1685.1 ;horizontal move
G1 X32.3 Y34.0 E645.5 F1586.7 ;horizontal move
G1 X32.0 Y33.2 E646.4 F834.3 ;horizontal move
G1 X34.4 Y35.5 E649.7 F2934.4 ;horizontal move
G1 X36.1 Y37.2 E652.1 F1696.8 ;horizontal move
G1 X36.5 Y37.0 E652.6 F1356.7 ;horizontal move
G1 X33.7 Y34.2 E656.5 F3364.7 ;horizontal move
G1 X30.7 Y31.1 E660.8 F972.4 ;horizontal move
G1 X31.2 E661.3 F1497.2 ;horizontal move
G1 X34.2 Y34.0 E665.5 F3484.5 ;horizontal move
G1 X37.0 Y36.7 E669.4 F1609.7 ;horizontal move
G1 X37.4 Y36.5 E669.9 F1274.8 ;horizontal move
G1 X34.8 Y33.9 E673.5 F3225.8 ;horizontal move
G1 X32.1 Y31.1 E677.4 F978.6 ;horizontal move
G1 X32.6 E677.9 F1501.2 ;horizontal move
G1 X34.7 Y33.0 E680.8 F2998.6 ;horizontal move
G1 X37.1 Y35.5 E684.2 F811.7 ;horizontal move
G1 X36.7 Y34.4 E685.4 F1818.3 ;horizontal move
G1 X35.3 Y32.9 E687.4 F2894.7 ;horizontal move
G1 X33.5 Y31.1 E690.0 F1500.0 ;horizontal move
G1 F18000.0; feed for start of next move
G1 E630.0; extruder retraction
G1 F1500.0; feed for start of next move
G1 X32.4 Y33.5 F2938.9 ;horizontal move
G1 X31.2 Y35.9 F1500.0 ;horizontal move
G1 F18000.0; feed for start of next move
G1 E690.0; extruder dwell
G1 F1500.0; feed for start of next move
G1 X31.3 E690.1 F1564.0 ;horizontal move
G1 X31.7 Y36.4 E690.7 F953.0 ;horizontal move
G1 X31.0 E691.4 F1580.8 ;horizontal move
G1 X30.7 Y36.1 E691.8 F1880.7 ;horizontal move
G1 X30.6 Y36.2 E692.0 F1947.2 ;horizontal move
G1 X30.0 Y36.4 E692.6 F1518.7 ;horizontal move
G1 X29.5 Y36.2 E693.2 F969.7 ;horizontal move
G1 X29.6 Y36.5 E693.5 F1258.7 ;horizontal move
G1 X29.2 Y36.7 E693.9 F1637.4 ;horizontal move
G1 X28.9 Y36.4 E694.3 F1891.1 ;horizontal move
G1 X28.1 Y35.7 E695.4 F1001.7 ;horizontal move
G1 Y36.3 E696.0 F1563.2 ;horizontal move
G1 X28.3 Y36.6 E696.4 F1808.0 ;horizontal move
G1 X28.6 Y36.9 E696.8 F1500.0 ;horizontal move
G1 X28.3 Y37.1 E697.2 F1723.6 ;horizontal move
G1 X28.1 Y37.0 E697.4 F1500.0 ;horizontal move
G1 F18000.0; feed for start of next move
G1 E637.4; extruder retraction
G1 F1500.0; feed for start of next move
G1 X32.2 Y37.7 F3500.0 ;horizontal move
G1 X50.9 Y40.6 ;horizontal move
G1 X55.0 Y41.3 F1500.0 ;horizontal move
G1 F18000.0; feed for start of next move
G1 E697.4; extruder dwell
G1 F1500.0; feed for start of next move
G1 X54.9 Y41.0 E697.7 F1707.2 ;horizontal move
G1 X54.7 Y40.2 E698.5 F942.7 ;horizontal move
G1 X56.0 Y41.0 E700.0 F2154.9 ;horizontal move
G1 Y41.1 E700.1 F2197.5 ;horizontal move
G1 X55.9 Y42.2 E701.3 F1508.2 ;horizontal move
G1 X55.2 Y42.1 E702.0 F1974.1 ;horizontal move
G1 X54.7 E702.5 F1578.5 ;horizontal move
G1 Y41.6 E703.0 F1962.6 ;horizontal move
G1 Y40.2 E704.4 F777.4 ;horizontal move
G1 X54.9 Y41.1 E705.3 F1665.0 ;horizontal move
G1 F18000.0; feed for start of next move
G1 E645.3; extruder retraction
G1 F1500.0; feed for start of next move
G1 X55.0 Y41.3 F3500.0 ;horizontal move
G1 F1500.0; feed for start of next move
G1 X56.8 Y38.5 F3205.7 ;horizontal move
G1 X58.5 Y35.6 F1500.0 ;horizontal move
G1 F18000.0; feed for start of next move
G1 E705.3; extruder dwell
G1 F1500.0; feed for start of next move
G1 X58.3 Y35.4 E705.6 F1723.4 ;horizontal move
G1 X58.7 Y34.1 E706.9 F2491.2 ;horizontal move
G1 Y33.7 E707.3 F2712.6 ;horizontal move
G1 X58.5 Y33.1 E708.0 F2980.2 ;horizontal move
G1 X58.3 Y32.6 E708.5 F2751.1 ;horizontal move
G1 X57.4 Y32.2 E709.5 F3150.0 ;horizontal move
G1 X57.1 Y32.0 E709.8 F3044.9 ;horizontal move
G1 X56.7 E710.2 F2872.9 ;horizontal move
G1 X56.1 Y32.3 E710.9 F3123.7 ;horizontal move
G1 X55.3 Y32.6 E711.8 F2755.1 ;horizontal move
G1 X55.0 Y33.4 E712.6 F3093.6 ;horizontal move
G1 X54.8 Y33.7 E713.0 F2952.0 ;horizontal move
G1 X54.9 Y34.2 E713.5 F3143.3 ;horizontal move
G1 Y34.5 E713.8 F3028.1 ;horizontal move
G1 X55.0 Y34.7 E714.0 F3121.5 ;horizontal move
G1 X55.4 Y35.5 E714.9 F2782.5 ;horizontal move
G1 X55.9 Y35.7 E715.4 F3006.0 ;horizontal move
G1 X56.7 Y36.1 E716.3 F2617.4 ;horizontal move
G1 X57.2 Y35.8 E716.9 F2858.7 ;horizontal move
G1 X58.3 Y35.4 E718.1 F2329.9 ;horizontal move
G1 F18000.0; feed for start of next move
G1 E658.1; extruder retraction
G1 F1500.0; feed for start of next move
G1 X58.5 Y35.6 F3500.0 ;horizontal move
G1 F1500.0; feed for start of next move
G1 X56.9 Y34.0 F2801.8 ;horizontal move
G1 X55.2 Y32.3 F1500.0 ;horizontal move
G1 F18000.0; feed for start of next move
G1 E718.1; extruder dwell
G1 F1500.0; feed for start of next move
G1 X55.6 Y33.0 E718.9 F2061.7 ;horizontal move
G1 X55.3 Y34.0 E719.9 F2616.6 ;horizontal move
G1 X55.5 Y34.6 E720.6 F2900.6 ;horizontal move
G1 X55.7 Y35.2 E721.2 F2647.9 ;horizontal move
G1 X56.3 Y35.4 E721.8 F2892.2 ;horizontal move
G1 X56.8 Y35.6 E722.4 F2633.8 ;horizontal move
G1 X57.4 Y35.3 E723.1 F2910.5 ;horizontal move
G1 X58.0 Y35.0 E723.7 F2641.6 ;horizontal move
G1 X58.2 Y34.4 E724.4 F2934.2 ;horizontal move
G1 X58.3 Y34.0 E724.8 F2740.2 ;horizontal move
G1 X58.1 Y33.5 E725.3 F2930.6 ;horizontal move
G1 X57.8 Y32.8 E726.1 F2588.3 ;horizontal move
G1 X57.5 Y32.7 E726.4 F2752.5 ;horizontal move
G1 X56.8 Y32.5 E727.1 F2391.9 ;horizontal move
G1 X55.6 Y33.0 E728.4 F1641.2 ;horizontal move
G1 X55.5 Y32.7 E728.7 F1863.4 ;horizontal move
G1 F18000.0; feed for start of next move
G1 E668.7; extruder retraction
G1 F1500.0; feed for start of next move
G1 X55.2 Y32.3 F3500.0 ;horizontal move
G1 F1500.0; feed for start of next move
G1 X59.2 Y32.1 F3444.1 ;horizontal move
G1 X63.2 Y31.9 F1500.0 ;horizontal move
G1 F18000.0; feed for start of next move
G1 E728.7; extruder dwell
G1 F1500.0; feed for start of next move
G1 X64.0 Y32.4 E729.7 F2101.3 ;horizontal move
G1 X64.3 Y32.6 E730.0 F1839.5 ;horizontal move
G1 X63.8 Y33.7 E731.2 F2494.1 ;horizontal move
G1 X63.9 Y34.5 E732.0 F2845.7 ;horizontal move
G1 X64.1 Y34.9 E732.5 F3034.5 ;horizontal move
G1 X64.4 Y35.5 E733.2 F2782.5 ;horizontal move
G1 X64.9 Y35.7 E733.7 F3006.0 ;horizontal move
G1 X65.7 Y36.1 E734.6 F2617.4 ;horizontal move
G1 X66.5 Y35.7 E735.5 F2991.2 ;horizontal move
G1 X67.3 Y35.4 E736.3 F2641.8 ;horizontal move
G1 X67.7 Y34.3 E737.5 F3119.9 ;horizontal move
G1 Y34.1 E737.7 F3041.9 ;horizontal move
G1 Y33.9 E737.9 F3118.7 ;horizontal move
G1 Y33.7 E738.1 F3007.8 ;horizontal move
G1 X67.6 Y33.4 E738.4 F3118.6 ;horizontal move
G1 X67.3 Y32.6 E739.3 F2751.1 ;horizontal move
G1 X66.4 Y32.2 E740.3 F3150.0 ;horizontal move
G1 X66.1 Y32.0 E740.6 F3044.9 ;horizontal move
G1 X65.7 E741.0 F2872.9 ;horizontal move
G1 X65.6 E741.1 F2929.9 ;horizontal move
G1 X64.3 Y32.6 E742.6 F2289.9 ;horizontal move
G1 F18000.0; feed for start of next move
G1 E682.6; extruder retraction
G1 F1500.0; feed for start of next move
G1 X63.2 Y31.9 F3500.0 ;horizontal move
G1 F1500.0; feed for start of next move
G1 X65.5 Y34.2 F3157.9 ;horizontal move
G1 X67.8 Y36.4 F1500.0 ;horizontal move
G1 F18000.0; feed for start of next move
G1 E742.6; extruder dwell
G1 F1500.0; feed for start of next move
G1 X67.5 Y36.1 E743.0 F1780.8 ;horizontal move
G1 X67.2 Y35.8 E743.4 F1451.3 ;horizontal move
G1 X67.3 Y35.7 E743.6 F1589.6 ;horizontal move
G1 X67.6 Y35.5 E743.9 F1350.0 ;horizontal move
G1 X67.0 Y35.0 E744.7 F1914.9 ;horizontal move
G1 X67.3 Y34.0 E745.7 F2529.6 ;horizontal move
G1 X67.1 Y33.3 E746.5 F2834.3 ;horizontal move
G1 X66.8 Y32.8 E747.1 F2588.3 ;horizontal move
G1 X66.2 Y32.6 E747.7 F2887.4 ;horizontal move
G1 X65.8 Y32.5 E748.1 F2691.3 ;horizontal move
G1 X65.2 Y32.7 E748.7 F2946.1 ;horizontal move
G1 X64.6 Y33.0 E749.4 F2662.4 ;horizontal move
G1 X64.4 Y33.6 E750.0 F2923.0 ;horizontal move
G1 X64.3 Y34.0 E750.4 F2720.9 ;horizontal move
G1 X64.5 Y34.5 E751.0 F2948.2 ;horizontal move
G1 X64.7 Y35.2 E751.7 F2647.9 ;horizontal move
G1 X65.2 Y35.3 E752.2 F2871.1 ;horizontal move
G1 X65.8 Y35.6 E752.9 F2587.3 ;horizontal move
G1 X67.0 Y35.0 E754.2 F1914.9 ;horizontal move
G1 X67.6 Y35.5 E755.0 F1350.0 ;horizontal move
G1 X67.3 Y35.7 E755.4 F1589.6 ;horizontal move
G1 X67.2 Y35.8 E755.5 F1451.3 ;horizontal move
G1 X67.5 Y36.1 E755.9 F1780.8 ;horizontal move
G1 F18000.0; feed for start of next move
G1 E695.9; extruder retraction
G1 F1500.0; feed for start of next move
G1 X67.8 Y36.4 F3500.0 ;horizontal move
G1 F1500.0; feed for start of next move
G1 X70.4 Y34.5 F3170.2 ;horizontal move
G1 X73.0 Y32.5 F1500.0 ;horizontal move
G1 F18000.0; feed for start of next move
G1 E755.9; extruder dwell
G1 F1500.0; feed for start of next move
G1 X73.6 Y33.0 E756.7 F2023.4 ;horizontal move
G1 X73.3 Y34.0 E757.8 F2586.5 ;horizontal move
G1 X73.5 Y34.7 E758.5 F2887.1 ;horizontal move
G1 X73.7 Y35.2 E759.0 F2647.9 ;horizontal move
G1 X74.3 Y35.4 E759.7 F2892.2 ;horizontal move
G1 X74.8 Y35.6 E760.2 F2633.8 ;horizontal move
G1 X75.4 Y35.3 E760.9 F2910.5 ;horizontal move
G1 X76.0 Y35.0 E761.5 F2641.6 ;horizontal move
G1 X76.2 Y34.4 E762.2 F2934.2 ;horizontal move
G1 X76.3 Y34.0 E762.6 F2740.2 ;horizontal move
G1 X76.1 Y33.5 E763.1 F2930.6 ;horizontal move
G1 X75.8 Y32.8 E763.9 F2588.3 ;horizontal move
G1 X75.2 Y32.6 E764.5 F2887.4 ;horizontal move
G1 X74.8 Y32.5 E764.9 F2691.3 ;horizontal move
G1 X74.6 E765.1 F2758.0 ;horizontal move
G1 X73.6 Y33.0 E766.3 F2223.2 ;horizontal move
G1 F18000.0; feed for start of next move
G1 E706.3; extruder retraction
G1 F1500.0; feed for start of next move
G1 X73.0 Y32.5 F3500.0 ;horizontal move
G1 F1500.0; feed for start of next move
G1 X74.7 Y34.2 F2801.8 ;horizontal move
G1 X76.3 Y35.8 F1500.0 ;horizontal move
G1 F18000.0; feed for start of next move
G1 E766.3; extruder dwell
G1 F1500.0; feed for start of next move
G1 Y35.4 E766.7 F1768.0 ;horizontal move
G1 X76.7 Y34.1 E768.0 F2522.3 ;horizontal move
G1 Y33.7 E768.4 F2741.2 ;horizontal move
G1 X76.5 Y33.1 E769.0 F2993.2 ;horizontal move
G1 X76.3 Y32.6 E769.6 F2751.1 ;horizontal move
G1 X75.4 Y32.2 E770.6 F3150.0 ;horizontal move
G1 X75.1 Y32.0 E770.9 F3044.9 ;horizontal move
G1 X74.7 E771.3 F2872.9 ;horizontal move
G1 X74.1 Y32.3 E772.0 F3123.7 ;horizontal move
G1 X73.3 Y32.6 E772.9 F2755.1 ;horizontal move
G1 X73.0 Y33.4 E773.7 F3093.6 ;horizontal move
G1 X72.8 Y33.7 E774.1 F2952.0 ;horizontal move
G1 X72.9 Y34.2 E774.6 F3143.3 ;horizontal move
G1 Y34.5 E774.9 F3028.1 ;horizontal move
G1 X73.0 Y34.7 E775.1 F3121.5 ;horizontal move
G1 X73.4 Y35.5 E776.0 F2782.5 ;horizontal move
G1 X73.7 Y35.6 E776.3 F2919.2 ;horizontal move
G1 X74.7 Y36.1 E777.4 F2412.8 ;horizontal move
G1 X76.3 Y35.4 E779.2 F1325.3 ;horizontal move
G1 Y35.7 E779.5 F1562.4 ;horizontal move
G1 F18000.0; feed for start of next move
G1 E719.5; extruder retraction
G1 F1500.0; feed for start of next move
G1 Y35.8 F3500.0 ;horizontal move
G1 F1500.0; feed for start of next move
G1 Y36.1 F1726.2 ;horizontal move
G1 X76.2 Y36.4 F1500.0 ;horizontal move
G1 F18000.0; feed for start of next move
G1 E779.5; extruder dwell
G1 F1500.0; feed for start of next move
G1 X76.6 Y36.7 E780.0 F1891.5 ;horizontal move
G1 Y36.8 E780.1 F1911.6 ;horizontal move
G1 X76.9 Y37.9 E781.2 F949.6 ;horizontal move
G1 X75.6 Y37.0 E782.8 F2157.9 ;horizontal move
G1 X74.6 Y36.7 E783.8 F2659.1 ;horizontal move
G1 X73.5 Y36.8 E784.9 F3150.0 ;horizontal move
G1 X72.8 E785.6 ;horizontal move
G1 X72.5 E785.9 F3038.4 ;horizontal move
G1 X72.3 Y36.9 E786.2 F3150.0 ;horizontal move
G1 X71.6 Y37.2 E786.9 ;horizontal move
G1 X71.4 Y37.3 E787.2 F3078.1 ;horizontal move
G1 X71.3 Y37.4 E787.3 F3150.0 ;horizontal move
G1 X71.1 Y37.5 E787.5 ;horizontal move
G1 X70.7 Y37.9 E788.1 F2951.5 ;horizontal move
G1 X70.5 Y38.3 E788.5 F3150.0 ;horizontal move
G1 X70.4 Y38.5 E788.8 ;horizontal move
G1 X70.3 Y38.8 E789.1 F3032.0 ;horizontal move
G1 Y39.0 E789.3 F3121.6 ;horizontal move
G1 Y39.4 E789.7 F2975.8 ;horizontal move
G1 X70.5 Y39.8 E790.1 F3150.0 ;horizontal move
G1 X70.7 Y40.2 E790.6 F2958.3 ;horizontal move
G1 X70.8 E790.7 F2966.2 ;horizontal move
G1 X72.0 Y41.1 E792.2 F2264.7 ;horizontal move
G1 X71.9 Y42.2 E793.3 F1591.5 ;horizontal move
G1 X69.9 E795.3 F2742.3 ;horizontal move
G1 X67.6 E797.6 F1462.5 ;horizontal move
G1 X67.7 Y41.0 E798.8 F2241.1 ;horizontal move
G1 X68.3 Y40.6 E799.5 F2612.8 ;horizontal move
G1 X68.9 Y40.0 E800.3 F2976.5 ;horizontal move
G1 X69.1 Y39.7 E800.7 F3117.8 ;horizontal move
G1 X69.3 Y38.9 E801.5 F2802.4 ;horizontal move
G1 X69.1 Y38.3 E802.2 F3065.5 ;horizontal move
G1 X68.9 Y37.9 E802.6 F2888.7 ;horizontal move
G1 X68.4 Y37.5 E803.3 F3150.0 ;horizontal move
G1 X68.2 Y37.3 E803.5 ;horizontal move
G1 X67.9 Y37.1 E803.9 F3003.8 ;horizontal move
G1 X67.5 Y37.0 E804.3 F3150.0 ;horizontal move
G1 X66.3 Y36.7 E805.5 ;horizontal move
G1 X66.1 E805.7 F3069.5 ;horizontal move
G1 X65.9 E805.9 F3150.0 ;horizontal move
G1 X64.8 Y36.8 E807.0 ;horizontal move
G1 X64.6 E807.2 F3052.2 ;horizontal move
G1 X64.3 Y36.9 E807.6 F3150.0 ;horizontal move
G1 X63.5 Y37.3 E808.5 ;horizontal move
G1 X63.4 E808.6 F3097.9 ;horizontal move
G1 X63.3 Y37.4 E808.7 F3150.0 ;horizontal move
G1 X63.0 Y37.6 E809.1 ;horizontal move
G1 X62.8 Y37.8 E809.3 F3015.8 ;horizontal move
G1 X62.6 Y38.1 E809.7 F3150.0 ;horizontal move
G1 X62.5 Y38.3 E809.9 ;horizontal move
G1 X62.3 Y38.7 E810.4 F2955.9 ;horizontal move
G1 Y39.0 E810.7 F3064.7 ;horizontal move
G1 Y39.2 E810.9 F2958.3 ;horizontal move
G1 X62.5 Y39.7 E811.4 F3144.3 ;horizontal move
G1 X62.8 Y40.3 E812.1 F2872.7 ;horizontal move
G1 X63.5 Y40.9 E813.0 F2450.1 ;horizontal move
G1 X64.0 Y41.1 E813.5 F2200.5 ;horizontal move
G1 Y42.2 E814.6 F1500.0 ;horizontal move
G1 X61.8 E816.8 F2739.7 ;horizontal move
G1 X59.6 E819.0 F1500.0 ;horizontal move
G1 Y41.0 E820.2 F2251.5 ;horizontal move
G1 X60.3 Y40.6 E821.1 F2634.4 ;horizontal move
G1 X60.9 Y40.0 E821.9 F3018.9 ;horizontal move
G1 X61.0 E822.0 F3007.8 ;horizontal move
G1 X61.1 Y39.6 E822.4 F3150.0 ;horizontal move
G1 X61.3 Y39.2 E822.9 F2965.2 ;horizontal move
G1 X61.2 Y38.8 E823.3 F3128.7 ;horizontal move
G1 Y38.6 E823.5 F3079.1 ;horizontal move
G1 X61.1 Y38.5 E823.6 F3150.0 ;horizontal move
G1 X60.8 Y37.8 E824.4 F2862.6 ;horizontal move
G1 X60.2 Y37.4 E825.1 F3150.0 ;horizontal move
G1 X59.8 Y37.1 E825.6 ;horizontal move
G1 X59.5 Y37.0 E825.9 F3026.1 ;horizontal move
G1 X59.2 Y36.9 E826.2 F3150.0 ;horizontal move
G1 X58.0 Y36.7 E827.4 ;horizontal move
G1 X57.8 E827.6 F3073.0 ;horizontal move
G1 X56.6 E828.8 F2561.2 ;horizontal move
G1 X55.3 Y37.3 E830.3 F1754.9 ;horizontal move
G1 X54.7 Y37.8 E831.1 F1058.9 ;horizontal move
G1 Y34.1 E834.8 F3150.0 ;horizontal move
G1 Y34.0 E834.9 ;horizontal move
G1 Y30.8 E838.1 F1498.0 ;horizontal move
G1 X57.9 E841.3 F3150.0 ;horizontal move
G1 X73.7 E857.1 ;horizontal move
G1 X76.9 E860.3 F1504.4 ;horizontal move
G1 Y34.0 E863.5 F3139.4 ;horizontal move
G1 Y37.9 E867.4 F774.7 ;horizontal move
G1 X76.6 Y36.7 E868.6 F1851.8 ;horizontal move
G1 F18000.0; feed for start of next move
G1 E808.6; extruder retraction
G1 F1500.0; feed for start of next move
G1 X76.2 Y36.4 F3500.0 ;horizontal move
G1 F1500.0; feed for start of next move
G1 X76.4 Y38.8 F2812.5 ;horizontal move
G1 X76.6 Y41.1 F1500.0 ;horizontal move
G1 F18000.0; feed for start of next move
G1 E868.6; extruder dwell
G1 F1500.0; feed for start of next move
G1 Y41.3 E868.8 F1686.3 ;horizontal move
G1 X76.8 Y41.7 E869.2 F1971.6 ;horizontal move
G1 X77.4 Y42.7 E870.4 F1118.5 ;horizontal move
G1 X76.1 E871.7 F2118.1 ;horizontal move
G1 X75.1 E872.7 F1500.0 ;horizontal move
G1 Y41.3 E874.1 F2333.1 ;horizontal move
G1 Y40.6 E874.8 F1934.1 ;horizontal move
G1 X75.8 Y40.4 E875.5 F2320.1 ;horizontal move
G1 X76.6 Y39.8 E876.5 F2799.1 ;horizontal move
G1 X76.7 Y39.5 E876.9 F2926.0 ;horizontal move
G1 X76.9 Y38.9 E877.5 F2673.4 ;horizontal move
G1 X76.6 Y38.4 E878.1 F2924.1 ;horizontal move
G1 X76.4 Y38.0 E878.5 F2751.3 ;horizontal move
G1 X75.5 Y37.6 E879.5 F3150.0 ;horizontal move
G1 X74.9 Y37.4 E880.1 ;horizontal move
G1 X74.6 Y37.2 E880.5 F3003.8 ;horizontal move
G1 X74.2 E880.9 F3150.0 ;horizontal move
G1 X73.1 E882.0 ;horizontal move
G1 X73.0 E882.1 F3100.7 ;horizontal move
G1 X72.9 E882.2 F3150.0 ;horizontal move
G1 X72.5 Y37.3 E882.6 ;horizontal move
G1 X72.3 Y37.4 E882.8 F3074.6 ;horizontal move
G1 X72.1 Y37.5 E883.1 F3150.0 ;horizontal move
G1 X71.8 Y37.7 E883.4 ;horizontal move
G1 X71.2 Y38.0 E884.1 F2878.0 ;horizontal move
G1 X71.1 Y38.2 E884.3 F2959.8 ;horizontal move
G1 X70.7 Y39.1 E885.3 F2555.8 ;horizontal move
G1 X71.1 Y39.8 E886.1 F2924.3 ;horizontal move
G1 X71.2 Y40.0 E886.3 F2861.4 ;horizontal move
G1 X71.3 E886.4 F2926.8 ;horizontal move
G1 X72.5 Y40.7 E887.8 F2294.6 ;horizontal move
G1 Y41.1 E888.2 F2478.2 ;horizontal move
G1 X72.4 Y42.7 E889.8 F1551.5 ;horizontal move
G1 X69.8 E892.4 F2938.0 ;horizontal move
G1 X67.1 E895.1 F1478.0 ;horizontal move
G1 X67.2 Y41.1 E896.7 F2432.2 ;horizontal move
G1 Y40.6 E897.2 F2179.1 ;horizontal move
G1 X67.9 Y40.3 E898.0 F2573.0 ;horizontal move
G1 X68.5 Y39.9 E898.7 F2897.4 ;horizontal move
G1 Y39.8 E898.8 F2885.3 ;horizontal move
G1 X68.6 Y39.6 E899.0 F2990.0 ;horizontal move
G1 X68.8 Y38.9 E899.8 F2697.8 ;horizontal move
G1 X68.5 Y38.3 E900.4 F3010.8 ;horizontal move
G1 X68.4 Y38.0 E900.7 F2910.0 ;horizontal move
G1 X67.9 Y37.7 E901.3 F3150.0 ;horizontal move
G1 X67.7 Y37.6 E901.5 ;horizontal move
G1 X67.5 Y37.4 E901.8 F3071.5 ;horizontal move
G1 X67.3 E902.0 F3150.0 ;horizontal move
G1 X66.8 Y37.2 E902.6 ;horizontal move
G1 X66.7 E902.7 F3086.5 ;horizontal move
G1 X66.5 E902.9 F3150.0 ;horizontal move
G1 X65.3 E904.1 ;horizontal move
G1 X65.2 E904.2 F3110.7 ;horizontal move
G1 X65.1 E904.3 F3150.0 ;horizontal move
G1 X64.4 Y37.4 E905.0 ;horizontal move
G1 X64.1 E905.3 F3046.8 ;horizontal move
G1 X63.9 Y37.6 E905.6 F3150.0 ;horizontal move
G1 X63.8 Y37.7 E905.7 ;horizontal move
G1 X63.1 Y38.1 E906.5 F2846.7 ;horizontal move
G1 X63.0 Y38.3 E906.7 F2943.0 ;horizontal move
G1 X62.8 Y39.0 E907.5 F2625.2 ;horizontal move
G1 X63.1 Y39.8 E908.3 F3006.8 ;horizontal move
G1 X63.2 Y40.0 E908.6 F2912.7 ;horizontal move
G1 X63.5 Y40.2 E908.9 F3028.7 ;horizontal move
G1 X64.0 Y40.5 E909.5 F2790.2 ;horizontal move
G1 X64.3 Y40.6 E909.8 F2628.5 ;horizontal move
G1 X64.4 E909.9 F2672.7 ;horizontal move
G1 Y40.7 E910.0 F2618.8 ;horizontal move
G1 Y42.7 E912.0 F1500.0 ;horizontal move
G1 X61.8 E914.6 F2936.9 ;horizontal move
G1 X59.1 E917.3 F1478.0 ;horizontal move
G1 Y41.1 E918.9 F2439.0 ;horizontal move
G1 X59.2 Y40.6 E919.4 F2194.3 ;horizontal move
G1 X60.0 Y40.3 E920.3 F2647.3 ;horizontal move
G1 X60.6 Y39.6 E921.2 F3018.8 ;horizontal move
G1 X60.7 Y39.5 E921.3 F2960.8 ;horizontal move
G1 Y39.4 E921.4 F2998.3 ;horizontal move
G1 X60.8 Y38.9 E922.0 F2808.2 ;horizontal move
G1 X60.5 Y38.4 E922.5 F3044.3 ;horizontal move
G1 X60.4 Y38.0 E922.9 F2875.1 ;horizontal move
G1 X59.8 Y37.7 E923.6 F3150.0 ;horizontal move
G1 X59.5 Y37.5 E924.0 ;horizontal move
G1 X59.3 Y37.4 E924.2 F3030.2 ;horizontal move
G1 X59.0 Y37.3 E924.5 F3150.0 ;horizontal move
G1 X57.9 Y37.2 E925.6 ;horizontal move
G1 X57.8 Y37.1 E925.8 F3111.0 ;horizontal move
G1 X57.7 E925.9 F3150.0 ;horizontal move
G1 X57.1 Y37.2 E926.5 ;horizontal move
G1 X56.7 E926.9 F3012.5 ;horizontal move
G1 X56.4 Y37.4 E927.2 F3150.0 ;horizontal move
G1 X55.6 Y37.8 E928.1 ;horizontal move
G1 X55.4 Y37.9 E928.4 F3065.3 ;horizontal move
G1 X55.3 Y38.0 E928.5 F3135.7 ;horizontal move
G1 X55.0 Y38.2 E928.9 F3007.8 ;horizontal move
G1 X54.7 Y39.0 E929.7 F2673.5 ;horizontal move
G1 X55.0 Y39.6 E930.4 F2960.4 ;horizontal move
G1 X55.1 Y40.0 E930.8 F2804.5 ;horizontal move
G1 X55.3 E931.0 F2873.8 ;horizontal move
G1 X56.5 Y40.7 E932.4 F2245.9 ;horizontal move
G1 X56.4 Y41.1 E932.8 F2456.0 ;horizontal move
G1 Y42.7 E934.4 F1505.4 ;horizontal move
G1 X55.3 Y42.6 E935.5 F2234.0 ;horizontal move
G1 X54.2 E936.6 F1544.6 ;horizontal move
G1 Y39.5 E939.7 F3150.0 ;horizontal move
G1 Y33.5 E945.7 ;horizontal move
G1 Y30.3 E948.9 F1498.1 ;horizontal move
G1 X57.4 E952.1 F3150.0 ;horizontal move
G1 X74.2 Y30.4 E968.9 ;horizontal move
G1 X77.4 E972.1 F1504.3 ;horizontal move
G1 Y33.6 E975.3 F3150.0 ;horizontal move
G1 Y38.8 E980.5 ;horizontal move
G1 Y42.7 E984.4 F854.3 ;horizontal move
G1 X76.6 Y41.3 E986.0 F2099.9 ;horizontal move
G1 F18000.0; feed for start of next move
G1 E926.0; extruder retraction
G1 F1500.0; feed for start of next move
G1 Y41.1 F3500.0 ;horizontal move
G1 F1500.0; feed for start of next move
G1 X76.4 Y41.2 F1691.7 ;horizontal move
G1 X76.1 F1500.0 ;horizontal move
G1 F18000.0; feed for start of next move
G1 E986.0; extruder dwell
G1 F1500.0; feed for start of next move
G1 X75.6 Y41.0 E986.5 F1029.4 ;horizontal move
G1 X76.3 Y40.6 E987.4 F1724.4 ;horizontal move
G1 X76.9 Y40.2 E988.1 F1099.1 ;horizontal move
G1 Y41.4 E989.3 F2021.6 ;horizontal move
G1 Y42.2 E990.1 F1487.0 ;horizontal move
G1 X76.2 Y42.1 E990.8 F1966.0 ;horizontal move
G1 X75.6 E991.4 F1578.5 ;horizontal move
G1 Y41.8 E991.7 F1838.1 ;horizontal move
G1 Y41.0 E992.5 F1236.7 ;horizontal move
G1 X76.0 Y41.1 E992.9 F1582.7 ;horizontal move
G1 F18000.0; feed for start of next move
G1 E932.9; extruder retraction
G1 F1500.0; feed for start of next move
G1 X76.1 Y41.2 F3500.0 ;horizontal move
G1 F1500.0; feed for start of next move
G1 Y39.1 F2722.1 ;horizontal move
G1 Y36.9 F1500.0 ;horizontal move
G1 F18000.0; feed for start of next move
G1 E992.9; extruder dwell
G1 F1500.0; feed for start of next move
G1 X75.8 Y36.6 E993.3 F1770.4 ;horizontal move
G1 X75.4 Y36.2 E993.9 F1294.0 ;horizontal move
G1 X75.8 Y36.0 E994.3 F1624.9 ;horizontal move
G1 X75.9 Y36.1 E994.5 F1763.2 ;horizontal move
G1 X76.2 Y36.4 E994.9 F1500.0 ;horizontal move
G1 F18000.0; feed for start of next move
G1 E934.9; extruder retraction
G1 F1500.0; feed for start of next move
G1 X74.0 Y36.6 F2769.7 ;horizontal move
G1 X71.7 Y36.8 F1500.0 ;horizontal move
G1 F18000.0; feed for start of next move
G1 E994.9; extruder dwell
G1 F1500.0; feed for start of next move
G1 X70.0 Y35.1 E997.3 F2829.1 ;horizontal move
G1 X67.8 Y33.0 E1000.3 F850.2 ;horizontal move
G1 X68.0 Y33.8 E1001.2 F1679.1 ;horizontal move
G1 X69.5 Y35.3 E1003.3 F2798.5 ;horizontal move
G1 X71.2 Y37.1 E1005.8 F1431.3 ;horizontal move
G1 X70.9 Y37.3 E1006.1 F1723.5 ;horizontal move
G1 X69.6 Y36.2 E1007.8 F2644.5 ;horizontal move
G1 X67.9 Y34.6 E1010.2 F1156.6 ;horizontal move
G1 X67.8 Y35.0 E1010.6 F1544.7 ;horizontal move
G1 X69.1 Y36.3 E1012.4 F2617.2 ;horizontal move
G1 X70.4 Y37.7 E1014.3 F1500.0 ;horizontal move
G1 F18000.0; feed for start of next move
G1 E954.3; extruder retraction
G1 F1500.0; feed for start of next move
G1 X70.3 Y37.9 F1669.3 ;horizontal move
G1 X70.2 Y38.1 F1500.0 ;horizontal move
G1 F18000.0; feed for start of next move
G1 E1014.3; extruder dwell
G1 F1500.0; feed for start of next move
G1 X68.9 Y36.8 E1016.2 F2584.5 ;horizontal move
G1 X67.6 Y35.5 E1018.0 F1500.0 ;horizontal move
G1 F18000.0; feed for start of next move
G1 E958.0; extruder retraction
G1 F1500.0; feed for start of next move
G1 X67.7 Y35.9 F1832.0 ;horizontal move
G1 X67.8 Y36.4 F1500.0 ;horizontal move
G1 F18000.0; feed for start of next move
G1 E1018.0; extruder dwell
G1 F1500.0; feed for start of next move
G1 Y36.5 E1018.1 F1563.3 ;horizontal move
G1 X68.3 Y37.0 E1018.8 F807.1 ;horizontal move
G1 X67.3 Y36.5 E1019.9 F1867.6 ;horizontal move
G1 X67.0 Y36.4 E1020.2 F2035.6 ;horizontal move
G1 X66.7 Y36.1 E1020.7 F1719.2 ;horizontal move
G1 X66.2 Y36.2 E1021.2 F1363.4 ;horizontal move
G1 X66.3 Y36.4 E1021.4 F1521.2 ;horizontal move
G1 X66.4 E1021.5 F1500.0 ;horizontal move
G1 F18000.0; feed for start of next move
G1 E961.5; extruder retraction
G1 F1500.0; feed for start of next move
G1 X65.7 F1982.4 ;horizontal move
G1 X65.0 F1500.0 ;horizontal move
G1 F18000.0; feed for start of next move
G1 E1021.5; extruder dwell
G1 F1500.0; feed for start of next move
G1 X62.5 Y33.9 E1025.0 F3264.6 ;horizontal move
G1 X59.6 Y31.1 E1029.1 F969.7 ;horizontal move
G1 X60.2 E1029.7 F1542.8 ;horizontal move
G1 X61.7 Y32.5 E1031.7 F2677.6 ;horizontal move
G1 X63.5 Y34.3 E1034.3 F979.6 ;horizontal move
G1 Y33.7 E1034.9 F1501.9 ;horizontal move
G1 X62.5 Y32.6 E1036.4 F2438.6 ;horizontal move
G1 X61.1 Y31.1 E1038.4 F988.7 ;horizontal move
G1 X61.6 E1038.9 F1507.8 ;horizontal move
G1 X62.6 Y32.0 E1040.2 F2331.7 ;horizontal move
G1 X63.8 Y33.1 E1041.9 F1252.0 ;horizontal move
G1 X64.0 Y32.6 E1042.4 F1632.2 ;horizontal move
G1 X63.7 Y32.3 E1042.8 F1931.5 ;horizontal move
G1 X63.2 Y31.9 E1043.5 F1500.0 ;horizontal move
G1 F18000.0; feed for start of next move
G1 E983.5; extruder retraction
G1 F1500.0; feed for start of next move
G1 F18000.0; feed for start of next move
G1 E1043.5; extruder dwell
G1 F1500.0; feed for start of next move
G1 X63.1 Y31.7 E1043.7 F1700.0 ;horizontal move
G1 X62.5 Y31.1 E1044.6 F991.3 ;horizontal move
G1 X63.1 E1045.2 F1509.5 ;horizontal move
G1 X63.8 Y31.7 E1046.1 F2138.7 ;horizontal move
G1 X64.4 Y32.2 E1046.9 F1638.3 ;horizontal move
G1 X64.7 Y32.0 E1047.2 F1310.7 ;horizontal move
G1 X64.4 Y31.7 E1047.6 F1701.7 ;horizontal move
G1 X63.9 Y31.1 E1048.4 F1006.1 ;horizontal move
G1 X64.4 E1048.9 F1519.3 ;horizontal move
G1 X64.9 Y31.5 E1049.6 F1946.9 ;horizontal move
G1 X65.3 Y31.8 E1050.1 F1583.2 ;horizontal move
G1 X65.8 Y31.7 E1050.6 F1148.5 ;horizontal move
G1 X65.4 Y31.2 E1051.2 F1659.3 ;horizontal move
G1 X65.3 Y31.1 E1051.4 F1500.0 ;horizontal move
G1 F18000.0; feed for start of next move
G1 E991.4; extruder retraction
G1 F1500.0; feed for start of next move
G1 X66.1 Y31.6 F2110.2 ;horizontal move
G1 X66.9 Y32.0 F1500.0 ;horizontal move
G1 F18000.0; feed for start of next move
G1 E1051.4; extruder dwell
G1 F1500.0; feed for start of next move
G1 X66.7 Y31.8 E1051.6 F1738.0 ;horizontal move
G1 X66.1 Y31.1 E1052.6 F969.7 ;horizontal move
G1 X66.7 E1053.2 F1542.8 ;horizontal move
G1 X69.5 Y33.9 E1057.1 F3432.3 ;horizontal move
G1 X72.2 Y36.6 E1060.9 F1563.7 ;horizontal move
G1 X72.7 Y36.5 E1061.4 F1121.5 ;horizontal move
G1 X70.2 Y33.9 E1065.1 F3172.7 ;horizontal move
G1 X67.5 Y31.1 E1068.9 F975.7 ;horizontal move
G1 X68.0 E1069.4 F1499.3 ;horizontal move
G1 X70.8 Y33.8 E1073.3 F3370.4 ;horizontal move
G1 X73.5 Y36.4 E1077.1 F1497.2 ;horizontal move
G1 X74.0 E1077.6 F1039.5 ;horizontal move
G1 X73.6 Y35.9 E1078.2 F1583.1 ;horizontal move
G1 X73.0 Y35.3 E1079.1 F2131.3 ;horizontal move
G1 X71.5 Y33.8 E1081.2 F3119.2 ;horizontal move
G1 X68.9 Y31.1 E1084.9 F981.4 ;horizontal move
G1 X69.5 E1085.5 F1503.1 ;horizontal move
G1 X70.8 Y32.4 E1087.4 F2581.6 ;horizontal move
G1 X72.5 Y34.0 E1089.7 F1043.5 ;horizontal move
G1 Y33.5 E1090.2 F1546.9 ;horizontal move
G1 X71.6 Y32.5 E1091.6 F2356.1 ;horizontal move
G1 X70.3 Y31.1 E1093.5 F983.8 ;horizontal move
G1 X70.9 E1094.1 F1504.6 ;horizontal move
G1 X71.8 Y32.0 E1095.3 F2327.0 ;horizontal move
G1 X72.8 Y32.9 E1096.7 F1500.0 ;horizontal move
G1 F18000.0; feed for start of next move
G1 E1036.7; extruder retraction
G1 F1500.0; feed for start of next move
G1 X72.9 Y32.7 F1669.3 ;horizontal move
G1 X73.0 Y32.5 F1500.0 ;horizontal move
G1 F18000.0; feed for start of next move
G1 E1096.7; extruder dwell
G1 F1500.0; feed for start of next move
G1 X72.6 Y32.0 E1097.3 F1965.1 ;horizontal move
G1 X71.8 Y31.1 E1098.5 F994.3 ;horizontal move
G1 X72.3 E1099.0 F1511.5 ;horizontal move
G1 X73.0 Y31.7 E1100.0 F2093.8 ;horizontal move
G1 X73.5 Y32.2 E1100.7 F1644.2 ;horizontal move
G1 X73.9 Y32.0 E1101.1 F1318.1 ;horizontal move
G1 X73.6 Y31.7 E1101.5 F1645.7 ;horizontal move
G1 X73.1 Y31.1 E1102.3 F1011.9 ;horizontal move
G1 X73.7 E1102.9 F1569.7 ;horizontal move
G1 X74.1 Y31.4 E1103.4 F1903.2 ;horizontal move
G1 X74.5 Y31.7 E1103.9 F1590.9 ;horizontal move
G1 X75.0 E1104.4 F1107.7 ;horizontal move
G1 X74.8 Y31.4 E1104.8 F1405.3 ;horizontal move
G1 X74.6 Y31.1 E1105.1 F1039.5 ;horizontal move
G1 X75.1 E1105.6 F1541.6 ;horizontal move
G1 X75.7 Y31.6 E1106.4 F2022.5 ;horizontal move
G1 X76.6 Y32.5 E1107.7 F1004.5 ;horizontal move
G1 Y31.9 E1108.3 F1518.2 ;horizontal move
G1 X76.3 Y31.5 E1108.8 F1871.8 ;horizontal move
G1 X76.0 Y31.1 E1109.3 F1500.0 ;horizontal move
G1 F18000.0; feed for start of next move
G1 E1049.3; extruder retraction
G1 F1500.0; feed for start of next move
G1 X73.4 Y34.4 F3500.0 ;horizontal move
G1 X72.6 Y35.3 ;horizontal move
G1 X70.0 Y38.6 F1500.0 ;horizontal move
G1 F18000.0; feed for start of next move
G1 E1109.3; extruder dwell
G1 F1500.0; feed for start of next move
G1 X69.9 Y38.5 E1109.4 F1635.1 ;horizontal move
G1 X69.3 Y38.0 E1110.2 F867.9 ;horizontal move
G1 X69.5 Y38.9 E1111.1 F1728.8 ;horizontal move
G1 X69.7 Y39.0 E1111.4 F1853.1 ;horizontal move
G1 X70.0 Y39.4 E1111.9 F1500.0 ;horizontal move
G1 F18000.0; feed for start of next move
G1 E1051.9; extruder retraction
G1 F1500.0; feed for start of next move
G1 X69.8 Y39.5 F1691.7 ;horizontal move
G1 X69.5 F1500.0 ;horizontal move
G1 F18000.0; feed for start of next move
G1 E1111.9; extruder dwell
G1 F1500.0; feed for start of next move
G1 X70.4 Y40.5 E1113.2 F2340.8 ;horizontal move
G1 X71.7 Y41.9 E1115.1 F983.8 ;horizontal move
G1 X71.2 E1115.6 F1504.6 ;horizontal move
G1 X70.3 Y41.0 E1116.9 F2288.6 ;horizontal move
G1 X69.2 Y40.1 E1118.3 F1376.7 ;horizontal move
G1 X69.0 Y40.4 E1118.7 F1712.8 ;horizontal move
G1 X69.4 Y40.9 E1119.3 F2074.7 ;horizontal move
G1 X70.3 Y41.9 E1120.7 F993.2 ;horizontal move
G1 X69.8 E1121.2 F1510.8 ;horizontal move
G1 X69.2 Y41.3 E1122.0 F2050.3 ;horizontal move
G1 X68.6 Y40.8 E1122.8 F1500.0 ;horizontal move
G1 F18000.0; feed for start of next move
G1 E1062.8; extruder retraction
G1 F1500.0; feed for start of next move
G1 X68.4 Y41.0 F1688.2 ;horizontal move
G1 X68.2 Y41.1 F1500.0 ;horizontal move
G1 F18000.0; feed for start of next move
G1 E1122.8; extruder dwell
G1 F1500.0; feed for start of next move
G1 X68.4 Y41.3 E1123.1 F1700.0 ;horizontal move
G1 X68.9 Y41.9 E1123.8 F991.3 ;horizontal move
G1 X68.3 E1124.4 F1556.5 ;horizontal move
G1 X68.2 Y41.7 E1124.7 F1746.2 ;horizontal move
G1 X67.9 Y41.5 E1125.0 F1500.0 ;horizontal move
G1 F18000.0; feed for start of next move
G1 E1065.0; extruder retraction
G1 F1500.0; feed for start of next move
G1 X66.2 Y39.0 F3094.2 ;horizontal move
G1 X64.4 Y36.5 F1500.0 ;horizontal move
G1 F18000.0; feed for start of next move
G1 E1125.0; extruder dwell
G1 F1500.0; feed for start of next move
G1 X61.6 Y33.8 E1128.9 F3418.9 ;horizontal move
G1 X58.8 Y31.1 E1132.8 F1546.4 ;horizontal move
G1 X58.2 E1133.4 F975.3 ;horizontal move
G1 X61.1 Y34.0 E1137.5 F3276.3 ;horizontal move
G1 X63.8 Y36.8 E1141.4 F1171.7 ;horizontal move
G1 X63.4 Y36.9 E1141.8 F1511.2 ;horizontal move
G1 X60.4 Y34.0 E1146.0 F3500.0 ;horizontal move
G1 Y33.9 E1146.1 ;horizontal move
G1 X57.4 Y31.1 E1150.2 F1556.5 ;horizontal move
G1 X56.8 E1150.8 F991.3 ;horizontal move
G1 X57.2 Y31.4 E1151.3 F1469.2 ;horizontal move
G1 X57.5 Y31.9 E1151.9 F887.1 ;horizontal move
G1 X56.7 Y31.7 E1152.7 F1687.8 ;horizontal move
G1 X56.4 Y31.4 E1153.1 F1926.8 ;horizontal move
G1 X56.0 Y31.1 E1153.6 F1525.6 ;horizontal move
G1 X55.4 E1154.2 F1015.5 ;horizontal move
G1 X55.9 Y31.6 E1154.9 F1617.6 ;horizontal move
G1 X56.1 Y31.9 E1155.3 F1322.7 ;horizontal move
G1 X55.7 Y32.0 E1155.7 F1647.9 ;horizontal move
G1 X55.6 Y31.9 E1155.8 F1755.7 ;horizontal move
G1 X55.0 Y31.4 E1156.6 F1042.7 ;horizontal move
G1 Y32.0 E1157.2 F1589.7 ;horizontal move
G1 Y32.1 E1157.3 F1672.1 ;horizontal move
G1 X55.2 Y32.3 E1157.6 F1500.0 ;horizontal move
G1 F18000.0; feed for start of next move
G1 E1097.6; extruder retraction
G1 F1500.0; feed for start of next move
G1 X57.0 Y32.7 F2583.7 ;horizontal move
G1 X58.8 Y33.1 F1500.0 ;horizontal move
G1 F18000.0; feed for start of next move
G1 E1157.6; extruder dwell
G1 F1500.0; feed for start of next move
G1 X60.8 Y35.1 E1160.4 F3038.9 ;horizontal move
G1 X62.9 Y37.3 E1163.5 F1437.5 ;horizontal move
G1 X62.6 Y37.5 E1163.8 F1751.2 ;horizontal move
G1 Y37.6 E1163.9 F1715.4 ;horizontal move
G1 X61.1 Y36.1 E1166.1 F2834.8 ;horizontal move
G1 X59.0 Y34.1 E1169.0 F1147.1 ;horizontal move
G1 X58.9 Y34.6 E1169.5 F1537.6 ;horizontal move
G1 X60.6 Y36.3 E1171.9 F2848.0 ;horizontal move
G1 X62.3 Y38.0 E1174.3 F1500.0 ;horizontal move
G1 F18000.0; feed for start of next move
G1 E1114.3; extruder retraction
G1 F1500.0; feed for start of next move
G1 X62.2 Y38.6 F1902.2 ;horizontal move
G1 X62.0 Y39.1 F1500.0 ;horizontal move
G1 F18000.0; feed for start of next move
G1 E1174.3; extruder dwell
G1 F1500.0; feed for start of next move
G1 Y38.5 E1174.9 F1885.2 ;horizontal move
G1 X60.6 Y37.0 E1176.9 F2924.6 ;horizontal move
G1 X58.7 Y35.2 E1179.5 F1500.0 ;horizontal move
G1 F18000.0; feed for start of next move
G1 E1119.5; extruder retraction
G1 F1500.0; feed for start of next move
G1 X58.6 Y35.4 F1669.3 ;horizontal move
G1 X58.5 Y35.6 F1500.0 ;horizontal move
G1 F18000.0; feed for start of next move
G1 E1179.5; extruder dwell
G1 F1500.0; feed for start of next move
G1 X58.8 Y35.9 E1180.0 F1787.6 ;horizontal move
G1 X59.5 Y36.6 E1181.0 F883.0 ;horizontal move
G1 X58.6 Y36.4 E1181.9 F1685.6 ;horizontal move
G1 X58.3 Y36.1 E1182.3 F2001.5 ;horizontal move
G1 X58.0 Y35.9 E1182.7 F1798.2 ;horizontal move
G1 X57.7 Y36.1 E1183.0 F1505.8 ;horizontal move
G1 X57.8 Y36.4 E1183.3 F1221.5 ;horizontal move
G1 X57.3 E1183.8 F1631.9 ;horizontal move
G1 X57.1 E1184.0 F1500.0 ;horizontal move
G1 F18000.0; feed for start of next move
G1 E1124.0; extruder retraction
G1 F1500.0; feed for start of next move
G1 X56.7 Y36.3 F1832.0 ;horizontal move
G1 X56.2 Y36.2 F1500.0 ;horizontal move
G1 F18000.0; feed for start of next move
G1 E1184.0; extruder dwell
G1 F1500.0; feed for start of next move
G1 X56.3 E1184.1 F1559.2 ;horizontal move
G1 X56.5 Y36.5 E1184.5 F1300.1 ;horizontal move
G1 X56.0 Y36.7 E1185.0 F1669.4 ;horizontal move
G1 X55.8 Y36.4 E1185.4 F1905.0 ;horizontal move
G1 X55.0 Y35.7 E1186.5 F1001.7 ;horizontal move
G1 Y36.3 E1187.1 F1563.2 ;horizontal move
G1 X55.1 Y36.5 E1187.3 F1767.2 ;horizontal move
G1 X55.4 Y36.9 E1187.8 F1399.6 ;horizontal move
G1 X55.2 Y37.1 E1188.1 F1658.9 ;horizontal move
G1 X55.1 E1188.2 F1644.8 ;horizontal move
G1 X55.0 Y37.0 E1188.3 F1500.0 ;horizontal move
G1 F18000.0; feed for start of next move
G1 E1128.3; extruder retraction
G1 F1500.0; feed for start of next move
G1 X57.5 Y39.1 F3161.4 ;horizontal move
G1 X59.9 Y41.2 F1500.0 ;horizontal move
G1 F18000.0; feed for start of next move
G1 E1188.3; extruder dwell
G1 F1500.0; feed for start of next move
G1 X60.3 Y41.6 E1188.9 F1877.6 ;horizontal move
G1 X60.5 Y41.9 E1189.2 F1600.2 ;horizontal move
G1 X61.2 E1189.9 F988.3 ;horizontal move
G1 X60.6 Y41.2 E1190.9 F1787.9 ;horizontal move
G1 X60.4 Y41.0 E1191.1 F1568.9 ;horizontal move
G1 X60.5 Y40.8 E1191.4 F1735.5 ;horizontal move
G1 X60.7 Y40.7 E1191.6 F1595.1 ;horizontal move
G1 X61.3 Y41.3 E1192.4 F2152.8 ;horizontal move
G1 X62.0 Y41.9 E1193.4 F1563.2 ;horizontal move
G1 X62.6 E1194.0 F1001.7 ;horizontal move
G1 X61.6 Y40.8 E1195.4 F2105.9 ;horizontal move
G1 X61.1 Y40.3 E1196.2 F1632.3 ;horizontal move
G1 X61.3 Y40.0 E1196.5 F1350.8 ;horizontal move
G1 X62.7 Y41.2 E1198.4 F2516.6 ;horizontal move
G1 X63.4 Y41.9 E1199.3 F2003.1 ;horizontal move
G1 X63.6 E1199.5 F1892.2 ;horizontal move
G1 X63.7 Y41.6 E1199.9 F2077.2 ;horizontal move
G1 X62.9 Y40.8 E1201.0 F2636.2 ;horizontal move
G1 X61.6 Y39.4 E1202.9 F1500.0 ;horizontal move
G1 F18000.0; feed for start of next move
G1 E1142.9; extruder retraction
G1 F1500.0; feed for start of next move
G1 X65.7 Y39.8 F3500.0 ;horizontal move
G1 X77.7 Y40.9 ;horizontal move
G1 X81.8 Y41.3 F1500.0 ;horizontal move
G1 F18000.0; feed for start of next move
G1 E1202.9; extruder dwell
G1 F1500.0; feed for start of next move
G1 Y41.1 E1203.1 F1722.1 ;horizontal move
G1 X81.5 Y40.2 E1204.1 F923.1 ;horizontal move
G1 X82.8 Y41.1 E1205.6 F2137.4 ;horizontal move
G1 Y41.2 E1205.7 F2202.0 ;horizontal move
G1 X82.7 Y42.2 E1206.7 F1591.5 ;horizontal move
G1 X82.2 E1207.2 F1957.4 ;horizontal move
G1 X81.5 E1207.9 F1500.0 ;horizontal move
G1 Y41.5 E1208.6 F1949.6 ;horizontal move
G1 Y40.2 E1209.9 F774.7 ;horizontal move
G1 X81.8 Y41.1 E1210.9 F1685.1 ;horizontal move
G1 F18000.0; feed for start of next move
G1 E1150.9; extruder retraction
G1 F1500.0; feed for start of next move
G1 Y41.3 F3500.0 ;horizontal move
G1 F1500.0; feed for start of next move
G1 X83.6 Y38.5 F3205.7 ;horizontal move
G1 X85.3 Y35.6 F1500.0 ;horizontal move
G1 F18000.0; feed for start of next move
G1 E1210.9; extruder dwell
G1 F1500.0; feed for start of next move
G1 X85.0 Y35.5 E1211.2 F1321.9 ;horizontal move
G1 X85.3 Y35.0 E1211.8 F1728.1 ;horizontal move
G1 X85.6 Y34.1 E1212.7 F2323.8 ;horizontal move
G1 Y33.6 E1213.2 F2559.7 ;horizontal move
G1 X85.2 Y32.9 E1214.0 F2932.6 ;horizontal move
G1 X85.0 Y32.5 E1214.5 F2771.8 ;horizontal move
G1 X84.4 Y32.3 E1215.1 F3028.0 ;horizontal move
G1 X83.6 Y32.0 E1216.0 F2664.3 ;horizontal move
G1 X82.9 Y32.3 E1216.7 F3000.4 ;horizontal move
G1 X82.1 Y32.6 E1217.6 F2640.6 ;horizontal move
G1 X81.7 Y33.8 E1218.9 F3134.5 ;horizontal move
G1 Y34.0 E1219.1 F3050.7 ;horizontal move
G1 Y34.3 E1219.4 F2960.1 ;horizontal move
G1 X81.9 Y34.7 E1219.8 F3139.7 ;horizontal move
G1 X82.3 Y35.5 E1220.7 F2803.8 ;horizontal move
G1 X83.0 Y35.8 E1221.5 F3145.2 ;horizontal move
G1 X83.6 Y36.1 E1222.1 F2905.8 ;horizontal move
G1 X83.9 Y36.0 E1222.5 F3055.6 ;horizontal move
G1 X84.1 E1222.7 F3011.4 ;horizontal move
G1 X85.0 Y35.5 E1223.7 F2534.8 ;horizontal move
G1 F18000.0; feed for start of next move
G1 E1163.7; extruder retraction
G1 F1500.0; feed for start of next move
G1 X85.3 Y35.6 F3500.0 ;horizontal move
G1 F1500.0; feed for start of next move
G1 X83.7 Y34.0 F2801.8 ;horizontal move
G1 X82.0 Y32.3 F1500.0 ;horizontal move
G1 F18000.0; feed for start of next move
G1 E1223.7; extruder dwell
G1 F1500.0; feed for start of next move
G1 X82.4 Y33.0 E1224.5 F2061.7 ;horizontal move
G1 X82.1 Y34.0 E1225.5 F2581.5 ;horizontal move
G1 X82.4 Y34.7 E1226.3 F2910.1 ;horizontal move
G1 X82.6 Y35.1 E1226.7 F2702.7 ;horizontal move
G1 X83.1 Y35.3 E1227.3 F2912.7 ;horizontal move
G1 X83.7 Y35.6 E1227.9 F2612.8 ;horizontal move
G1 X84.3 Y35.3 E1228.6 F2885.3 ;horizontal move
G1 X84.7 Y35.2 E1229.0 F2703.3 ;horizontal move
G1 X84.8 Y34.7 E1229.5 F2906.8 ;horizontal move
G1 X85.2 Y33.9 E1230.4 F2510.1 ;horizontal move
G1 X84.8 Y33.1 E1231.3 F2914.8 ;horizontal move
G1 X84.6 Y32.8 E1231.7 F2779.7 ;horizontal move
G1 X84.4 E1231.9 F2849.8 ;horizontal move
G1 X83.7 Y32.5 E1232.7 F2487.8 ;horizontal move
G1 X82.4 Y33.0 E1234.0 F1702.7 ;horizontal move
G1 X82.3 Y32.8 E1234.3 F1890.7 ;horizontal move
G1 F18000.0; feed for start of next move
G1 E1174.3; extruder retraction
G1 F1500.0; feed for start of next move
G1 X82.0 Y32.3 F3500.0 ;horizontal move
G1 F1500.0; feed for start of next move
G1 X86.1 Y32.1 F3461.5 ;horizontal move
G1 X90.1 Y31.9 F1500.0 ;horizontal move
G1 F18000.0; feed for start of next move
G1 E1234.3; extruder dwell
G1 F1500.0; feed for start of next move
G1 X90.9 Y32.4 E1235.2 F2150.9 ;horizontal move
G1 X91.1 Y32.6 E1235.5 F1950.8 ;horizontal move
G1 X90.7 Y34.0 E1237.0 F2678.9 ;horizontal move
G1 Y34.3 E1237.3 F2835.6 ;horizontal move
G1 X90.9 Y34.9 E1237.9 F3081.7 ;horizontal move
G1 X91.3 Y35.5 E1238.6 F2803.8 ;horizontal move
G1 X92.0 Y35.8 E1239.4 F3145.2 ;horizontal move
G1 X92.6 Y36.1 E1240.0 F2905.8 ;horizontal move
G1 X93.0 Y36.0 E1240.4 F3063.5 ;horizontal move
G1 X93.1 E1240.5 F3027.3 ;horizontal move
G1 X93.3 Y35.8 E1240.8 F3150.0 ;horizontal move
G1 X93.7 Y35.7 E1241.2 ;horizontal move
G1 X94.0 Y35.5 E1241.6 F2994.1 ;horizontal move
G1 X94.2 Y35.2 E1242.0 F3131.6 ;horizontal move
G1 X94.3 Y35.0 E1242.2 F3067.6 ;horizontal move
G1 X94.4 Y34.8 E1242.4 F3150.0 ;horizontal move
G1 X94.6 Y34.3 E1243.0 ;horizontal move
G1 Y34.1 E1243.2 F3074.9 ;horizontal move
G1 Y34.0 E1243.3 F3103.6 ;horizontal move
G1 Y33.6 E1243.7 F2942.4 ;horizontal move
G1 X94.4 Y33.2 E1244.1 F3106.9 ;horizontal move
G1 X94.0 Y32.5 E1244.9 F2771.8 ;horizontal move
G1 X93.4 Y32.3 E1245.5 F3028.0 ;horizontal move
G1 X92.6 Y32.0 E1246.4 F2664.3 ;horizontal move
G1 X92.2 Y32.2 E1246.8 F2871.0 ;horizontal move
G1 X91.1 Y32.6 E1248.0 F2335.3 ;horizontal move
G1 F18000.0; feed for start of next move
G1 E1188.0; extruder retraction
G1 F1500.0; feed for start of next move
G1 X90.1 Y31.9 F3500.0 ;horizontal move
G1 F1500.0; feed for start of next move
G1 X93.2 Y32.9 F3172.9 ;horizontal move
G1 X96.3 Y33.9 F1500.0 ;horizontal move
G1 F18000.0; feed for start of next move
G1 E1248.0; extruder dwell
G1 F1500.0; feed for start of next move
G1 X97.5 Y35.1 E1249.7 F2542.2 ;horizontal move
G1 X98.9 Y36.6 E1251.8 F1229.2 ;horizontal move
G1 X98.5 Y36.8 E1252.2 F1614.8 ;horizontal move
G1 X96.9 Y35.2 E1254.5 F2856.1 ;horizontal move
G1 X94.6 Y33.0 E1257.7 F819.5 ;horizontal move
G1 X94.9 Y33.8 E1258.5 F1636.2 ;horizontal move
G1 X96.4 Y35.3 E1260.6 F2789.9 ;horizontal move
G1 X98.0 Y37.1 E1263.0 F1445.3 ;horizontal move
G1 X97.7 Y37.3 E1263.4 F1726.2 ;horizontal move
G1 X96.5 Y36.1 E1265.1 F2650.5 ;horizontal move
G1 X94.8 Y34.6 E1267.4 F1236.3 ;horizontal move
G1 X94.6 Y35.0 E1267.8 F1620.2 ;horizontal move
G1 X96.0 Y36.4 E1269.8 F2727.3 ;horizontal move
G1 X97.3 Y37.7 E1271.6 F1727.5 ;horizontal move
G1 X97.1 Y38.2 E1272.2 F1350.3 ;horizontal move
G1 X95.0 Y36.4 E1274.9 F2897.2 ;horizontal move
G1 X93.7 Y35.2 E1276.7 F2011.5 ;horizontal move
G1 X94.1 Y34.1 E1277.9 F2611.2 ;horizontal move
G1 X94.2 Y33.9 E1278.1 F2510.1 ;horizontal move
G1 X93.8 Y33.1 E1279.0 F2914.8 ;horizontal move
G1 X93.6 Y32.8 E1279.3 F2779.7 ;horizontal move
G1 X93.3 Y32.7 E1279.7 F2929.5 ;horizontal move
G1 X92.7 Y32.5 E1280.3 F2666.7 ;horizontal move
G1 X92.2 Y32.7 E1280.8 F2917.2 ;horizontal move
G1 X91.4 Y33.0 E1281.7 F2572.7 ;horizontal move
G1 X91.2 Y33.7 E1282.4 F2885.6 ;horizontal move
G1 X91.1 Y34.0 E1282.7 F2760.5 ;horizontal move
G1 X91.4 Y34.5 E1283.3 F2991.1 ;horizontal move
G1 X91.6 Y35.1 E1283.9 F2702.7 ;horizontal move
G1 X92.1 Y35.3 E1284.5 F2912.7 ;horizontal move
G1 X92.7 Y35.6 E1285.2 F2612.8 ;horizontal move
G1 X92.8 Y35.5 E1285.3 F2663.0 ;horizontal move
G1 X93.7 Y35.2 E1286.2 F2200.3 ;horizontal move
G1 X94.9 Y36.2 E1287.8 F2965.0 ;horizontal move
G1 X97.1 Y38.2 E1290.8 F1350.3 ;horizontal move
G1 X97.3 Y37.7 E1291.3 F1727.5 ;horizontal move
G1 X96.0 Y36.4 E1293.2 F2727.3 ;horizontal move
G1 X94.6 Y35.0 E1295.1 F1620.2 ;horizontal move
G1 X94.8 Y34.6 E1295.6 F1236.3 ;horizontal move
G1 X96.5 Y36.1 E1297.9 F2650.5 ;horizontal move
G1 X97.7 Y37.3 E1299.6 F1717.1 ;horizontal move
G1 X98.0 Y37.1 E1299.9 F1445.3 ;horizontal move
G1 X96.4 Y35.3 E1302.3 F2789.9 ;horizontal move
G1 X94.9 Y33.8 E1304.4 F1636.2 ;horizontal move
G1 X94.6 Y33.0 E1305.3 F819.5 ;horizontal move
G1 X96.9 Y35.2 E1308.5 F2856.1 ;horizontal move
G1 X98.5 Y36.8 E1310.7 F1614.8 ;horizontal move
G1 X98.9 Y36.6 E1311.2 F1229.2 ;horizontal move
G1 X97.5 Y35.1 E1313.2 F2542.2 ;horizontal move
G1 F18000.0; feed for start of next move
G1 E1253.2; extruder retraction
G1 F1500.0; feed for start of next move
G1 X96.3 Y33.9 F3500.0 ;horizontal move
G1 F1500.0; feed for start of next move
G1 X98.1 Y33.2 F2602.6 ;horizontal move
G1 X99.8 Y32.5 F1500.0 ;horizontal move
G1 F18000.0; feed for start of next move
G1 E1313.2; extruder dwell
G1 F1500.0; feed for start of next move
G1 X100.4 Y33.0 E1314.0 F2023.4 ;horizontal move
G1 X100.1 Y34.0 E1315.1 F2551.1 ;horizontal move
G1 X100.4 Y34.7 E1315.8 F2896.7 ;horizontal move
G1 X100.6 Y35.1 E1316.3 F2702.7 ;horizontal move
G1 X101.1 Y35.3 E1316.8 F2912.7 ;horizontal move
G1 X101.7 Y35.6 E1317.5 F2612.8 ;horizontal move
G1 X102.3 Y35.3 E1318.2 F2885.3 ;horizontal move
G1 X102.7 Y35.2 E1318.6 F2703.3 ;horizontal move
G1 X102.8 Y34.7 E1319.1 F2906.8 ;horizontal move
G1 X103.2 Y33.9 E1320.0 F2510.1 ;horizontal move
G1 X102.8 Y33.1 E1320.9 F2914.8 ;horizontal move
G1 X102.6 Y32.8 E1321.2 F2779.7 ;horizontal move
G1 X102.3 Y32.7 E1321.5 F2929.5 ;horizontal move
G1 X101.7 Y32.5 E1322.2 F2666.7 ;horizontal move
G1 X101.4 Y32.6 E1322.5 F2792.1 ;horizontal move
G1 X100.4 Y33.0 E1323.6 F2278.2 ;horizontal move
G1 F18000.0; feed for start of next move
G1 E1263.6; extruder retraction
G1 F1500.0; feed for start of next move
G1 X99.8 Y32.5 F3500.0 ;horizontal move
G1 F1500.0; feed for start of next move
G1 X101.4 Y34.2 F2801.8 ;horizontal move
G1 X103.1 Y35.8 F1500.0 ;horizontal move
G1 F18000.0; feed for start of next move
G1 E1323.6; extruder dwell
G1 F1500.0; feed for start of next move
G1 X103.0 Y35.5 E1323.9 F1739.4 ;horizontal move
G1 X103.3 Y35.0 E1324.5 F2065.0 ;horizontal move
G1 X103.6 Y34.1 E1325.4 F2584.2 ;horizontal move
G1 Y33.6 E1325.9 F2798.2 ;horizontal move
G1 X103.3 Y33.1 E1326.5 F3039.6 ;horizontal move
G1 X103.0 Y32.5 E1327.2 F2771.8 ;horizontal move
G1 X102.4 Y32.3 E1327.8 F3028.0 ;horizontal move
G1 X101.6 Y32.0 E1328.7 F2664.3 ;horizontal move
G1 X100.9 Y32.3 E1329.4 F3000.4 ;horizontal move
G1 X100.1 Y32.6 E1330.3 F2640.6 ;horizontal move
G1 X99.7 Y33.8 E1331.5 F3134.5 ;horizontal move
G1 Y34.0 E1331.7 F3050.7 ;horizontal move
G1 Y34.3 E1332.0 F2960.1 ;horizontal move
G1 X99.9 Y34.7 E1332.5 F3139.7 ;horizontal move
G1 X100.3 Y35.5 E1333.4 F2803.8 ;horizontal move
G1 X100.5 Y35.6 E1333.6 F2924.9 ;horizontal move
G1 X101.6 Y36.1 E1334.8 F2401.7 ;horizontal move
G1 X102.1 Y36.0 E1335.3 F2146.5 ;horizontal move
G1 X103.0 Y35.5 E1336.4 F1401.4 ;horizontal move
G1 X103.1 Y35.7 E1336.6 F1579.4 ;horizontal move
G1 F18000.0; feed for start of next move
G1 E1276.6; extruder retraction
G1 F1500.0; feed for start of next move
G1 Y35.8 F3500.0 ;horizontal move
G1 F1500.0; feed for start of next move
G1 X102.7 Y36.2 F1922.2 ;horizontal move
G1 X102.2 Y36.6 F1500.0 ;horizontal move
G1 F18000.0; feed for start of next move
G1 E1336.6; extruder dwell
G1 F1500.0; feed for start of next move
G1 X102.7 Y36.8 E1337.1 F856.1 ;horizontal move
G1 X102.4 Y36.4 E1337.6 F1425.1 ;horizontal move
G1 X102.2 Y36.2 E1337.9 F1262.8 ;horizontal move
G1 X102.7 Y36.1 E1338.4 F1640.6 ;horizontal move
G1 X103.2 Y36.5 E1339.0 F2100.4 ;horizontal move
G1 X103.4 Y36.7 E1339.3 F1918.3 ;horizontal move
G1 X103.7 Y37.9 E1340.6 F940.3 ;horizontal move
G1 X102.5 Y37.0 E1342.1 F2069.4 ;horizontal move
G1 X101.6 Y36.7 E1343.0 F2587.8 ;horizontal move
G1 X100.2 E1344.4 F3150.0 ;horizontal move
G1 X100.1 E1344.5 ;horizontal move
G1 X99.9 E1344.7 F3085.4 ;horizontal move
G1 X99.7 E1344.9 F3150.0 ;horizontal move
G1 X99.3 Y36.8 E1345.3 ;horizontal move
G1 X99.2 E1345.4 F3084.3 ;horizontal move
G1 X99.0 Y36.9 E1345.7 F3150.0 ;horizontal move
G1 X98.1 Y37.5 E1346.7 ;horizontal move
G1 X97.7 Y37.7 E1347.2 F2982.3 ;horizontal move
G1 X97.5 Y38.0 E1347.5 F3134.1 ;horizontal move
G1 X97.4 Y38.2 E1347.8 F3032.0 ;horizontal move
G1 X97.3 Y38.4 E1348.0 F3092.1 ;horizontal move
G1 X97.1 Y39.4 E1349.0 F2670.9 ;horizontal move
G1 X97.6 Y40.0 E1349.8 F3002.6 ;horizontal move
G1 X97.8 Y40.4 E1350.2 F2825.2 ;horizontal move
G1 X98.8 Y41.1 E1351.5 F2232.8 ;horizontal move
G1 Y42.2 E1352.6 F1545.7 ;horizontal move
G1 X96.6 Y42.1 E1354.8 F2734.0 ;horizontal move
G1 X94.4 E1357.0 F1479.2 ;horizontal move
G1 X94.5 Y41.0 E1358.1 F2187.2 ;horizontal move
G1 X95.7 Y40.2 E1359.5 F2844.6 ;horizontal move
G1 X96.0 Y39.4 E1360.4 F3150.0 ;horizontal move
G1 Y39.3 E1360.5 ;horizontal move
G1 X96.1 Y39.1 E1360.7 F3048.3 ;horizontal move
G1 Y39.0 E1360.8 F3069.1 ;horizontal move
G1 Y38.6 E1361.2 F2922.2 ;horizontal move
G1 X95.8 Y38.1 E1361.8 F3150.0 ;horizontal move
G1 X95.7 Y38.0 E1361.9 ;horizontal move
G1 X95.5 Y37.6 E1362.4 F2975.0 ;horizontal move
G1 X95.1 Y37.4 E1362.8 F3150.0 ;horizontal move
G1 X94.8 Y37.1 E1363.2 ;horizontal move
G1 X94.5 Y37.0 E1363.5 F3021.3 ;horizontal move
G1 X94.2 Y36.9 E1363.9 F3150.0 ;horizontal move
G1 X92.9 Y36.7 E1365.2 ;horizontal move
G1 X92.8 E1365.3 F3109.5 ;horizontal move
G1 X92.7 E1365.4 F3150.0 ;horizontal move
G1 X91.8 E1366.3 ;horizontal move
G1 X91.5 E1366.6 F3031.6 ;horizontal move
G1 X91.2 Y36.8 E1366.9 F3150.0 ;horizontal move
G1 X90.3 Y37.3 E1367.9 ;horizontal move
G1 X90.2 E1368.0 F3099.5 ;horizontal move
G1 X90.1 Y37.4 E1368.2 F3150.0 ;horizontal move
G1 X90.0 Y37.5 E1368.3 ;horizontal move
G1 X89.6 Y37.8 E1368.8 F2935.5 ;horizontal move
G1 X89.5 Y38.1 E1369.1 F3057.3 ;horizontal move
G1 X89.1 Y39.0 E1370.1 F2641.1 ;horizontal move
G1 X89.5 Y39.9 E1371.1 F3050.6 ;horizontal move
G1 X89.7 Y40.3 E1371.5 F2856.1 ;horizontal move
G1 X90.8 Y41.1 E1372.9 F2200.5 ;horizontal move
G1 Y42.2 E1374.0 F1500.0 ;horizontal move
G1 X88.7 E1376.1 F2730.0 ;horizontal move
G1 X86.5 E1378.3 F1464.3 ;horizontal move
G1 Y40.9 E1379.6 F2274.1 ;horizontal move
G1 X87.2 Y40.6 E1380.4 F2665.3 ;horizontal move
G1 X87.7 Y40.1 E1381.1 F2938.4 ;horizontal move
G1 X87.9 Y39.6 E1381.6 F3150.0 ;horizontal move
G1 X88.0 Y39.5 E1381.7 ;horizontal move
G1 X88.1 Y39.2 E1382.1 F3032.0 ;horizontal move
G1 Y39.1 E1382.2 F3104.3 ;horizontal move
G1 Y38.6 E1382.7 F2914.9 ;horizontal move
G1 X87.8 Y38.1 E1383.2 F3150.0 ;horizontal move
G1 X87.7 Y37.9 E1383.5 ;horizontal move
G1 X87.5 Y37.7 E1383.8 F3035.5 ;horizontal move
G1 X87.3 Y37.5 E1384.0 F3150.0 ;horizontal move
G1 X87.0 Y37.3 E1384.4 ;horizontal move
G1 X86.8 Y37.1 E1384.7 F3033.9 ;horizontal move
G1 X86.5 Y37.0 E1385.0 F3150.0 ;horizontal move
G1 X85.7 Y36.8 E1385.8 ;horizontal move
G1 X85.5 Y36.7 E1386.0 F3086.5 ;horizontal move
G1 X85.3 E1386.2 F3150.0 ;horizontal move
G1 X84.9 E1386.6 ;horizontal move
G1 X83.7 E1387.8 F2641.2 ;horizontal move
G1 X83.1 Y36.8 E1388.5 F2346.8 ;horizontal move
G1 X82.1 Y37.4 E1389.6 F1654.5 ;horizontal move
G1 X81.5 Y37.9 E1390.4 F1001.7 ;horizontal move
G1 Y34.1 E1394.2 F3150.0 ;horizontal move
G1 Y34.0 E1394.3 ;horizontal move
G1 Y30.8 E1397.5 F1495.9 ;horizontal move
G1 X84.7 E1400.7 F3150.0 ;horizontal move
G1 X100.5 Y30.9 E1416.5 ;horizontal move
G1 X103.7 E1419.7 F1497.6 ;horizontal move
G1 Y34.0 E1422.8 F3125.4 ;horizontal move
G1 Y37.9 E1426.7 F767.4 ;horizontal move
G1 X103.4 Y36.7 E1427.9 F1839.8 ;horizontal move
G1 X103.2 Y36.5 E1428.2 F2065.0 ;horizontal move
G1 X102.7 Y36.1 E1428.9 F1640.6 ;horizontal move
G1 X102.2 Y36.2 E1429.4 F1262.8 ;horizontal move
G1 X102.4 Y36.4 E1429.7 F1425.1 ;horizontal move
G1 X102.7 Y36.8 E1430.2 F856.1 ;horizontal move
G1 X102.2 Y36.6 E1430.7 F1472.2 ;horizontal move
G1 F18000.0; feed for start of next move
G1 E1370.7; extruder retraction
G1 F1500.0; feed for start of next move
G1 X102.6 Y38.9 F2777.6 ;horizontal move
G1 X102.9 Y41.1 F1500.0 ;horizontal move
G1 F18000.0; feed for start of next move
G1 E1430.7; extruder dwell
G1 F1500.0; feed for start of next move
G1 X102.4 Y41.0 E1431.2 F966.1 ;horizontal move
G1 X103.1 Y40.6 E1432.0 F1706.0 ;horizontal move
G1 X103.7 Y40.2 E1432.7 F1099.1 ;horizontal move
G1 Y41.4 E1433.9 F2021.6 ;horizontal move
G1 Y42.2 E1434.7 F1487.0 ;horizontal move
G1 X103.0 Y42.1 E1435.4 F1966.0 ;horizontal move
G1 X102.4 E1436.0 F1578.5 ;horizontal move
G1 Y41.7 E1436.4 F1866.1 ;horizontal move
G1 Y41.0 E1437.1 F1318.1 ;horizontal move
G1 X102.7 Y41.1 E1437.4 F1588.3 ;horizontal move
G1 F18000.0; feed for start of next move
G1 E1377.4; extruder retraction
G1 F1500.0; feed for start of next move
G1 X102.9 F3500.0 ;horizontal move
G1 F1500.0; feed for start of next move
G1 X103.2 F1688.2 ;horizontal move
G1 X103.4 F1500.0 ;horizontal move
G1 F18000.0; feed for start of next move
G1 E1437.4; extruder dwell
G1 F1500.0; feed for start of next move
G1 Y41.3 E1437.6 F1686.3 ;horizontal move
G1 X103.7 Y41.7 E1438.1 F1971.6 ;horizontal move
G1 X104.2 Y42.7 E1439.3 F1118.5 ;horizontal move
G1 X102.9 E1440.6 F2118.1 ;horizontal move
G1 X101.9 E1441.6 F1500.0 ;horizontal move
G1 Y41.2 E1443.1 F2409.3 ;horizontal move
G1 Y40.6 E1443.7 F2112.8 ;horizontal move
G1 X102.8 Y40.3 E1444.6 F2605.8 ;horizontal move
G1 X103.4 Y39.8 E1445.4 F2903.8 ;horizontal move
G1 X103.7 Y39.0 E1446.3 F2536.2 ;horizontal move
G1 X103.3 Y38.1 E1447.2 F2973.5 ;horizontal move
G1 X103.2 Y38.0 E1447.4 F2912.3 ;horizontal move
G1 X102.7 Y37.7 E1448.0 F3150.0 ;horizontal move
G1 X102.5 Y37.6 E1448.2 ;horizontal move
G1 X102.3 Y37.4 E1448.5 F3042.1 ;horizontal move
G1 X102.0 E1448.8 F3150.0 ;horizontal move
G1 X100.9 Y37.2 E1449.9 ;horizontal move
G1 X100.6 Y37.1 E1450.2 F3048.0 ;horizontal move
G1 X100.4 Y37.2 E1450.4 F3150.0 ;horizontal move
G1 X99.5 Y37.3 E1451.3 ;horizontal move
G1 X98.9 Y37.4 E1451.9 F2933.5 ;horizontal move
G1 X98.5 Y37.8 E1452.5 F3150.0 ;horizontal move
G1 X97.9 Y38.3 E1453.3 F2810.7 ;horizontal move
G1 X97.6 Y39.1 E1454.1 F2455.2 ;horizontal move
G1 X98.1 Y39.9 E1455.1 F2897.3 ;horizontal move
G1 X98.2 Y40.0 E1455.2 F2836.1 ;horizontal move
G1 X99.3 Y40.6 E1456.5 F2225.2 ;horizontal move
G1 Y41.1 E1457.0 F2468.8 ;horizontal move
G1 X99.2 Y42.7 E1458.6 F1529.8 ;horizontal move
G1 X96.6 Y42.6 E1461.2 F2942.8 ;horizontal move
G1 X94.0 E1463.8 F1518.7 ;horizontal move
G1 Y41.4 E1465.0 F2257.9 ;horizontal move
G1 Y40.6 E1465.8 F1771.3 ;horizontal move
G1 X94.3 E1466.1 F2003.3 ;horizontal move
G1 X95.4 Y39.8 E1467.4 F2669.9 ;horizontal move
G1 X95.5 Y39.4 E1467.9 F2873.7 ;horizontal move
G1 X95.7 Y38.9 E1468.4 F2666.7 ;horizontal move
G1 X95.3 Y38.2 E1469.2 F3004.3 ;horizontal move
G1 X95.2 Y38.0 E1469.4 F2892.0 ;horizontal move
G1 X94.7 Y37.6 E1470.1 F3150.0 ;horizontal move
G1 X94.5 E1470.3 ;horizontal move
G1 X94.3 Y37.4 E1470.5 F3049.7 ;horizontal move
G1 X94.1 E1470.7 F3150.0 ;horizontal move
G1 X92.9 Y37.2 E1472.0 ;horizontal move
G1 X92.8 Y37.1 E1472.1 F3083.5 ;horizontal move
G1 X92.6 Y37.2 E1472.3 F3150.0 ;horizontal move
G1 X91.9 E1473.0 ;horizontal move
G1 X91.5 Y37.3 E1473.4 F3011.8 ;horizontal move
G1 X91.2 Y37.4 E1473.8 F3150.0 ;horizontal move
G1 X90.9 Y37.6 E1474.1 ;horizontal move
G1 X89.9 Y38.2 E1475.3 F2645.9 ;horizontal move
G1 X89.7 Y38.8 E1475.9 F2932.7 ;horizontal move
G1 X89.6 Y39.1 E1476.2 F2822.4 ;horizontal move
G1 X89.8 Y39.4 E1476.6 F2980.2 ;horizontal move
G1 X90.0 Y40.0 E1477.2 F2733.2 ;horizontal move
G1 X90.2 Y40.1 E1477.4 F2830.3 ;horizontal move
G1 X91.3 Y40.6 E1478.7 F2237.9 ;horizontal move
G1 Y41.1 E1479.2 F2465.2 ;horizontal move
G1 Y42.7 E1480.8 F1500.0 ;horizontal move
G1 X88.6 E1483.5 F2942.4 ;horizontal move
G1 X86.0 E1486.1 F1500.0 ;horizontal move
G1 Y41.0 E1487.8 F2489.0 ;horizontal move
G1 Y40.6 E1488.2 F2290.1 ;horizontal move
G1 X87.0 Y40.0 E1489.3 F2854.0 ;horizontal move
G1 X87.3 Y39.9 E1489.6 F2727.2 ;horizontal move
G1 X87.4 Y39.5 E1490.1 F2891.8 ;horizontal move
G1 X87.7 Y38.9 E1490.7 F2586.9 ;horizontal move
G1 X87.2 Y38.0 E1491.8 F3013.4 ;horizontal move
G1 X87.1 Y37.9 E1491.9 F2970.8 ;horizontal move
G1 X86.7 Y37.7 E1492.3 F3150.0 ;horizontal move
G1 Y37.6 E1492.4 ;horizontal move
G1 X86.4 Y37.4 E1492.8 F3004.7 ;horizontal move
G1 X86.0 E1493.2 F3150.0 ;horizontal move
G1 X84.7 Y37.2 E1494.5 ;horizontal move
G1 X84.6 Y37.1 E1494.7 F3094.5 ;horizontal move
G1 X84.5 Y37.2 E1494.8 F3150.0 ;horizontal move
G1 X83.8 E1495.5 ;horizontal move
G1 X83.3 Y37.3 E1496.0 F2969.8 ;horizontal move
G1 X83.0 Y37.5 E1496.4 F3150.0 ;horizontal move
G1 X82.3 Y37.9 E1497.2 ;horizontal move
G1 X82.0 Y38.1 E1497.5 F3004.3 ;horizontal move
G1 X81.8 Y38.4 E1497.9 F2846.7 ;horizontal move
G1 X81.7 Y39.0 E1498.5 F3076.1 ;horizontal move
G1 Y39.4 E1498.9 F2892.8 ;horizontal move
G1 Y39.5 E1499.0 F2909.1 ;horizontal move
G1 X82.0 Y40.0 E1499.6 F2659.9 ;horizontal move
G1 X82.8 Y40.5 E1500.5 F2190.5 ;horizontal move
G1 X83.3 Y40.6 E1501.0 F1900.2 ;horizontal move
G1 Y41.4 E1501.8 F2319.1 ;horizontal move
G1 Y42.7 E1503.1 F1500.0 ;horizontal move
G1 X82.2 E1504.2 F2216.8 ;horizontal move
G1 X81.1 E1505.3 F1500.0 ;horizontal move
G1 Y39.5 E1508.5 F3150.0 ;horizontal move
G1 Y33.5 E1514.5 ;horizontal move
G1 Y30.3 E1517.7 F1498.1 ;horizontal move
G1 X84.3 E1520.9 F3150.0 ;horizontal move
G1 X101.0 Y30.4 E1537.6 ;horizontal move
G1 X104.2 E1540.8 F1504.3 ;horizontal move
G1 Y33.6 E1544.0 F3150.0 ;horizontal move
G1 Y38.8 E1549.2 ;horizontal move
G1 Y42.7 E1553.1 F854.3 ;horizontal move
G1 X103.4 Y41.3 E1554.8 F2099.9 ;horizontal move
G1 F18000.0; feed for start of next move
G1 E1494.8; extruder retraction
G1 F1500.0; feed for start of next move
G1 Y41.1 F3500.0 ;horizontal move
G1 F1500.0; feed for start of next move
G1 X102.8 Y38.9 F2799.8 ;horizontal move
G1 X102.2 Y36.6 F1500.0 ;horizontal move
G1 F18000.0; feed for start of next move
G1 E1554.8; extruder dwell
G1 F1500.0; feed for start of next move
G1 X101.6 Y36.4 E1555.4 F1919.5 ;horizontal move
G1 X101.3 E1555.7 F2111.0 ;horizontal move
G1 X101.0 E1556.0 F1944.4 ;horizontal move
G1 X100.5 Y35.9 E1556.7 F1500.0 ;horizontal move
G1 F18000.0; feed for start of next move
G1 E1496.7; extruder retraction
G1 F1500.0; feed for start of next move
G1 X100.0 Y34.7 F2351.1 ;horizontal move
G1 X99.4 Y33.4 F1500.0 ;horizontal move
G1 F18000.0; feed for start of next move
G1 E1556.7; extruder dwell
G1 F1500.0; feed for start of next move
G1 X98.5 Y32.5 E1558.0 F2337.6 ;horizontal move
G1 X97.1 Y31.1 E1559.9 F969.7 ;horizontal move
G1 X97.7 E1560.5 F1495.4 ;horizontal move
G1 X98.6 Y32.0 E1561.8 F2324.1 ;horizontal move
G1 X99.6 Y32.9 E1563.2 F1500.0 ;horizontal move
G1 F18000.0; feed for start of next move
G1 E1503.2; extruder retraction
G1 F1500.0; feed for start of next move
G1 X99.7 Y32.7 F1669.3 ;horizontal move
G1 X99.8 Y32.5 F1500.0 ;horizontal move
G1 F18000.0; feed for start of next move
G1 E1563.2; extruder dwell
G1 F1500.0; feed for start of next move
G1 X99.4 Y32.0 E1563.8 F1965.1 ;horizontal move
G1 X98.6 Y31.1 E1565.0 F994.3 ;horizontal move
G1 X99.1 E1565.5 F1511.5 ;horizontal move
G1 X99.8 Y31.7 E1566.4 F2093.8 ;horizontal move
G1 X100.3 Y32.2 E1567.1 F1644.2 ;horizontal move
G1 X100.7 Y32.0 E1567.6 F1318.1 ;horizontal move
G1 X100.4 Y31.7 E1568.0 F1645.7 ;horizontal move
G1 X100.0 Y31.1 E1568.7 F1011.9 ;horizontal move
G1 X100.6 E1569.3 F1569.7 ;horizontal move
G1 X100.9 Y31.4 E1569.8 F1903.2 ;horizontal move
G1 X101.3 Y31.7 E1570.3 F1590.9 ;horizontal move
G1 X101.8 E1570.8 F1107.7 ;horizontal move
G1 X101.6 Y31.4 E1571.1 F1405.3 ;horizontal move
G1 X101.4 Y31.1 E1571.5 F1039.5 ;horizontal move
G1 X101.9 E1572.0 F1541.6 ;horizontal move
G1 X102.5 Y31.6 E1572.8 F2022.5 ;horizontal move
G1 X103.4 Y32.5 E1574.0 F1004.5 ;horizontal move
G1 Y31.9 E1574.6 F1518.2 ;horizontal move
G1 X103.1 Y31.5 E1575.1 F1871.8 ;horizontal move
G1 X102.8 Y31.1 E1575.6 F1500.0 ;horizontal move
G1 F18000.0; feed for start of next move
G1 E1515.6; extruder retraction
G1 F1500.0; feed for start of next move
G1 X99.6 F3151.2 ;horizontal move
G1 X96.4 F1500.0 ;horizontal move
G1 F18000.0; feed for start of next move
G1 E1575.6; extruder dwell
G1 F1500.0; feed for start of next move
G1 X98.0 Y32.8 E1578.0 F2777.5 ;horizontal move
G1 X99.4 Y34.2 E1579.9 F1730.5 ;horizontal move
G1 X99.7 Y35.1 E1580.9 F817.4 ;horizontal move
G1 X97.4 Y32.9 E1584.1 F2887.2 ;horizontal move
G1 X95.6 Y31.1 E1586.6 F1501.5 ;horizontal move
G1 X95.0 E1587.2 F979.1 ;horizontal move
G1 X97.6 Y33.8 E1591.0 F3120.5 ;horizontal move
G1 X100.1 Y36.4 E1594.6 F1050.0 ;horizontal move
G1 X99.6 E1595.1 F1504.5 ;horizontal move
G1 X96.9 Y33.8 E1598.8 F3375.0 ;horizontal move
G1 X94.2 Y31.1 E1602.6 F1546.5 ;horizontal move
G1 X93.6 E1603.2 F975.6 ;horizontal move
G1 X95.1 Y32.7 E1605.4 F2486.6 ;horizontal move
G1 X96.3 Y33.9 E1607.1 F1500.0 ;horizontal move
G1 F18000.0; feed for start of next move
G1 E1547.1; extruder retraction
G1 F1500.0; feed for start of next move
G1 X95.0 Y33.0 F2472.7 ;horizontal move
G1 X93.7 Y32.0 F1500.0 ;horizontal move
G1 F18000.0; feed for start of next move
G1 E1607.1; extruder dwell
G1 F1500.0; feed for start of next move
G1 X93.2 Y31.5 E1607.8 F1975.4 ;horizontal move
G1 X92.8 Y31.1 E1608.4 F1578.9 ;horizontal move
G1 X92.1 E1609.1 F949.9 ;horizontal move
G1 X92.4 Y31.4 E1609.5 F1442.0 ;horizontal move
G1 X92.6 Y31.7 E1609.9 F1148.5 ;horizontal move
G1 X92.2 Y31.8 E1610.3 F1583.2 ;horizontal move
G1 X91.7 Y31.5 E1610.9 F1946.9 ;horizontal move
G1 X91.3 Y31.1 E1611.5 F1519.3 ;horizontal move
G1 X90.7 E1612.1 F1006.1 ;horizontal move
G1 X91.2 Y31.7 E1612.8 F1701.7 ;horizontal move
G1 X91.6 Y32.0 E1613.3 F1310.7 ;horizontal move
G1 X91.2 Y32.2 E1613.8 F1638.3 ;horizontal move
G1 X90.6 Y31.7 E1614.6 F2138.7 ;horizontal move
G1 X89.9 Y31.1 E1615.5 F1509.5 ;horizontal move
G1 X89.3 E1616.1 F991.3 ;horizontal move
G1 X89.9 Y31.7 E1616.9 F1700.0 ;horizontal move
G1 X90.1 Y31.9 E1617.2 F1500.0 ;horizontal move
G1 F18000.0; feed for start of next move
G1 E1557.2; extruder retraction
G1 F1500.0; feed for start of next move
G1 F18000.0; feed for start of next move
G1 E1617.2; extruder dwell
G1 F1500.0; feed for start of next move
G1 X90.5 Y32.3 E1617.8 F1931.5 ;horizontal move
G1 X90.8 Y32.6 E1618.2 F1632.2 ;horizontal move
G1 X90.6 Y33.1 E1618.7 F1252.0 ;horizontal move
G1 X89.4 Y32.0 E1620.4 F2329.0 ;horizontal move
G1 X88.4 Y31.1 E1621.7 F1499.6 ;horizontal move
G1 X87.9 E1622.2 F976.1 ;horizontal move
G1 X89.3 Y32.5 E1624.2 F2414.0 ;horizontal move
G1 X90.4 Y33.6 E1625.8 F1500.0 ;horizontal move
G1 F18000.0; feed for start of next move
G1 E1565.8; extruder retraction
G1 F1500.0; feed for start of next move
G1 X91.7 Y35.0 F2614.4 ;horizontal move
G1 X93.0 Y36.4 F1500.0 ;horizontal move
G1 F18000.0; feed for start of next move
G1 E1625.8; extruder dwell
G1 F1500.0; feed for start of next move
G1 X93.5 Y36.1 E1626.3 F1915.3 ;horizontal move
G1 X93.8 Y36.3 E1626.7 F2078.3 ;horizontal move
G1 X94.2 Y36.6 E1627.2 F1735.5 ;horizontal move
G1 X95.1 Y37.0 E1628.2 F828.1 ;horizontal move
G1 X94.3 Y36.0 E1629.5 F1915.0 ;horizontal move
G1 X94.1 Y35.8 E1629.7 F1725.6 ;horizontal move
G1 X94.3 Y35.5 E1630.1 F1433.8 ;horizontal move
G1 X95.7 Y36.9 E1632.1 F2595.4 ;horizontal move
G1 X97.1 Y38.2 E1634.0 F1500.0 ;horizontal move
G1 F18000.0; feed for start of next move
G1 E1574.0; extruder retraction
G1 F1500.0; feed for start of next move
G1 X97.0 Y38.4 F1669.3 ;horizontal move
G1 X96.9 Y38.6 F1500.0 ;horizontal move
G1 F18000.0; feed for start of next move
G1 E1634.0; extruder dwell
G1 F1500.0; feed for start of next move
G1 X96.8 Y38.5 E1634.1 F1647.2 ;horizontal move
G1 X96.1 Y38.0 E1635.0 F851.2 ;horizontal move
G1 X96.4 Y38.8 E1635.9 F1692.7 ;horizontal move
G1 X96.6 Y39.0 E1636.1 F1838.1 ;horizontal move
G1 X96.8 Y39.4 E1636.6 F1500.0 ;horizontal move
G1 F18000.0; feed for start of next move
G1 E1576.6; extruder retraction
G1 F1500.0; feed for start of next move
G1 X96.6 Y39.5 F1691.7 ;horizontal move
G1 X96.3 F1500.0 ;horizontal move
G1 F18000.0; feed for start of next move
G1 E1636.6; extruder dwell
G1 F1500.0; feed for start of next move
G1 X97.2 Y40.5 E1637.9 F2340.8 ;horizontal move
G1 X98.5 Y41.9 E1639.8 F983.8 ;horizontal move
G1 X98.0 E1640.3 F1504.6 ;horizontal move
G1 X97.1 Y41.0 E1641.6 F2286.5 ;horizontal move
G1 X96.1 Y40.1 E1643.0 F1442.1 ;horizontal move
G1 X95.9 Y40.4 E1643.3 F1732.5 ;horizontal move
G1 X96.2 Y40.8 E1643.8 F2071.6 ;horizontal move
G1 X97.2 Y41.9 E1645.3 F945.2 ;horizontal move
G1 X96.5 Y41.8 E1646.0 F1576.1 ;horizontal move
G1 X95.8 Y41.2 E1646.9 F2172.9 ;horizontal move
G1 X95.4 Y40.8 E1647.5 F1813.2 ;horizontal move
G1 X95.1 Y41.0 E1647.9 F1538.1 ;horizontal move
G1 X95.2 Y41.2 E1648.1 F1705.1 ;horizontal move
G1 X95.7 Y41.8 E1648.9 F1042.7 ;horizontal move
G1 X95.1 E1649.5 F1589.7 ;horizontal move
G1 X95.0 Y41.7 E1649.6 F1731.9 ;horizontal move
G1 X94.7 Y41.5 E1650.0 F1500.0 ;horizontal move
G1 F18000.0; feed for start of next move
G1 E1590.0; extruder retraction
G1 F1500.0; feed for start of next move
G1 X90.8 Y41.4 F3425.4 ;horizontal move
G1 X86.8 Y41.3 F1500.0 ;horizontal move
G1 F18000.0; feed for start of next move
G1 E1650.0; extruder dwell
G1 F1500.0; feed for start of next move
G1 X87.1 Y41.6 E1650.4 F1850.3 ;horizontal move
G1 X87.4 Y41.9 E1650.8 F1600.2 ;horizontal move
G1 X88.0 E1651.4 F988.3 ;horizontal move
G1 X87.4 Y41.3 E1652.3 F1734.0 ;horizontal move
G1 X87.2 Y41.0 E1652.6 F1442.9 ;horizontal move
G1 X87.5 Y40.7 E1653.0 F1733.2 ;horizontal move
G1 X88.0 Y41.2 E1653.8 F2178.5 ;horizontal move
G1 X88.8 Y41.9 E1654.8 F1517.3 ;horizontal move
G1 X89.3 E1655.3 F1003.1 ;horizontal move
G1 X88.4 Y40.8 E1656.7 F2079.4 ;horizontal move
G1 X88.0 Y40.3 E1657.4 F1625.6 ;horizontal move
G1 X88.1 Y40.0 E1657.7 F1294.9 ;horizontal move
G1 X89.6 Y41.3 E1659.7 F2551.7 ;horizontal move
G1 X90.2 Y41.9 E1660.5 F2125.2 ;horizontal move
G1 X90.5 E1660.8 F1985.1 ;horizontal move
G1 Y41.6 E1661.1 F2129.4 ;horizontal move
G1 X89.7 Y40.8 E1662.3 F2708.2 ;horizontal move
G1 X88.4 Y39.4 E1664.2 F1611.3 ;horizontal move
G1 Y38.7 E1664.9 F1006.1 ;horizontal move
G1 X88.6 Y38.9 E1665.2 F1358.5 ;horizontal move
G1 X88.9 Y39.1 E1665.5 F1071.5 ;horizontal move
G1 Y38.6 E1666.0 F1565.9 ;horizontal move
G1 X87.3 Y36.9 E1668.3 F2853.7 ;horizontal move
G1 X85.6 Y35.1 E1670.8 F1524.8 ;horizontal move
G1 X85.7 Y34.7 E1671.2 F1189.2 ;horizontal move
G1 X87.5 Y36.4 E1673.7 F2686.1 ;horizontal move
G1 X89.2 Y37.9 E1676.0 F1344.7 ;horizontal move
G1 X89.3 Y37.6 E1676.3 F1627.2 ;horizontal move
G1 X87.6 Y35.8 E1678.8 F2929.9 ;horizontal move
G1 X85.9 Y34.1 E1681.2 F1645.5 ;horizontal move
G1 X85.8 Y33.3 E1682.0 F902.0 ;horizontal move
G1 X88.1 Y35.5 E1685.2 F2927.0 ;horizontal move
G1 X89.8 Y37.2 E1687.6 F1696.8 ;horizontal move
G1 X90.2 Y37.0 E1688.0 F1356.7 ;horizontal move
G1 X87.4 Y34.2 E1692.0 F3364.7 ;horizontal move
G1 X84.4 Y31.1 E1696.3 F972.4 ;horizontal move
G1 X84.9 E1696.8 F1497.2 ;horizontal move
G1 X87.9 Y34.0 E1701.0 F3485.7 ;horizontal move
G1 X90.7 Y36.7 E1704.9 F1614.8 ;horizontal move
G1 X91.1 Y36.5 E1705.3 F1229.2 ;horizontal move
