; GCode generated by RepRap Java Host Software
; Created: 2013-01-11:13-48-51
;#!RECTANGLE: <BOX x:[l:52.0, h:76.89999961853027], y:[l:53.0, h:77.89999961853027]>, height: 67.44999694824219
M110
G21
G90
G10 P0 X0 Y0 Z0 S205.0 R205.0
M83
G92 E0
G28 X0
G28 Y0
G28 Z0
T0
T0
G1 X52.0 Y53.0 F2500.0
G1 F5612.6
G1 E3.118
G1 F2500.0
G1 F78.0
G1 E0.065
G1 F2500.0
G1 X76.9 E0.776
G1 Y77.9 E0.776
G1 X52.0 E0.776
G1 Y53.0 E0.776
G1 F5612.6
G1 E-3.118
G1 F2500.0
;#!LAYER: 1/269
G92 E0
G1 Z0.25 F200.0
G1 X64.62 Y59.22 F15000.0
T0
G1 F5612.6
G1 E3.118
G1 F2500.0
G1 F78.0
G1 E0.065
G1 F2500.0
G1 X65.43 Y59.28 E0.025 F2250.0
G1 X65.79 Y59.31 E0.011
G1 X66.75 Y59.61 E0.031
G1 X67.68 Y60.09 E0.033
G1 X68.4 Y60.57 E0.027
G1 X69.51 Y61.74 E0.05
G1 X69.96 Y62.46 E0.026
G1 X70.5 Y63.78 E0.044
G1 X70.71 Y65.01 E0.039
G1 X70.65 Y66.54 E0.048
G1 X70.35 Y67.62 E0.035
G1 X69.87 Y68.64 E0.035
G1 X68.97 Y69.81 E0.046
G1 X67.74 Y70.8 E0.049
G1 X66.66 Y71.31 E0.037
G1 X65.61 Y71.61 E0.034
G1 X64.62 Y71.73 E0.031
G1 X63.45 Y71.64 E0.037
G1 X62.97 Y71.55 E0.015
G1 X61.89 Y71.16 E0.036
G1 X60.93 Y70.65 E0.034
G1 X59.67 Y69.54 E0.052
G1 X58.92 Y68.43 E0.042
G1 X58.44 Y67.26 E0.039
G1 X58.17 Y65.82 E0.046
G1 X58.29 Y64.29 E0.048
G1 X58.56 Y63.33 E0.031
G1 X59.25 Y61.95 E0.048
G1 X59.79 Y61.23 E0.028
G1 X60.69 Y60.42 E0.038
G1 X61.44 Y59.97 E0.027
G1 X62.28 Y59.58 E0.029
G1 X63.57 Y59.25 E0.042
G1 X64.62 Y59.22 E0.033
G1 X64.59 Y59.46 E0.008
G1 X63.39 Y59.55 E0.038
G1 X62.49 Y59.79 E0.029
G1 X61.56 Y60.21 E0.032
G1 X60.54 Y60.93 E0.039
G1 X59.64 Y61.92 E0.042
G1 X59.19 Y62.64 E0.026
G1 X58.83 Y63.45 E0.028
G1 X58.53 Y64.74 E0.041
G1 X58.5 Y65.94 E0.037
G1 X58.56 Y66.48 E0.017
G1 X58.8 Y67.41 E0.03
G1 X59.28 Y68.43 E0.035
G1 X60.03 Y69.45 E0.039
G1 X60.72 Y70.11 E0.03
G1 X62.1 Y70.95 E0.05
G1 X62.97 Y71.25 E0.029
G1 X64.38 Y71.43 E0.044
G1 X65.88 Y71.25 E0.047
G1 X66.69 Y71.01 E0.026
G1 X67.74 Y70.44 E0.037
G1 X68.4 Y69.93 E0.026
G1 X69.03 Y69.3 E0.028
G1 X69.48 Y68.67 E0.024
G1 X69.99 Y67.71 E0.034
G1 X70.41 Y65.88 E0.059
G1 X70.38 Y64.8 E0.034
G1 X70.29 Y64.2 E0.019
G1 X69.72 Y62.67 E0.051
G1 X68.91 Y61.5 E0.044
G1 X67.95 Y60.63 E0.04
G1 X66.72 Y59.91 E0.044
G1 X65.58 Y59.58 E0.037
G1 X64.59 Y59.46 E0.031
G1 F5612.6
G1 E-3.118
G1 F2500.0
G1 X64.62 Y59.22
;#!LAYER: 2/269
G92 E0
G1 Z0.5 F200.0
G1 X64.62 Y59.22 F15000.0
T0
G1 F5612.6
G1 E3.118
G1 F2500.0
G1 F78.0
G1 E0.065
G1 F2500.0
G1 X65.43 Y59.28 E0.025 F2250.0
G1 X65.79 Y59.31 E0.011
G1 X66.75 Y59.61 E0.031
G1 X67.68 Y60.09 E0.033
G1 X68.4 Y60.57 E0.027
G1 X69.51 Y61.74 E0.05
G1 X69.96 Y62.46 E0.026
G1 X70.5 Y63.78 E0.044
G1 X70.71 Y65.01 E0.039
G1 X70.65 Y66.54 E0.048
G1 X70.35 Y67.62 E0.035
G1 X69.87 Y68.64 E0.035
G1 X68.97 Y69.81 E0.046
G1 X67.74 Y70.8 E0.049
G1 X66.66 Y71.31 E0.037
G1 X65.61 Y71.61 E0.034
G1 X64.62 Y71.73 E0.031
G1 X63.69 Y71.67 E0.029
G1 X62.37 Y71.37 E0.042
G1 X61.44 Y70.95 E0.032
G1 X60.18 Y70.05 E0.048
G1 X59.67 Y69.54 E0.022
G1 X58.92 Y68.43 E0.042
G1 X58.44 Y67.26 E0.039
G1 X58.17 Y65.82 E0.046
G1 X58.29 Y64.29 E0.048
G1 X58.56 Y63.33 E0.031
G1 X59.25 Y61.95 E0.048
G1 X59.79 Y61.23 E0.028
G1 X60.69 Y60.42 E0.038
G1 X61.44 Y59.97 E0.027
G1 X62.28 Y59.58 E0.029
G1 X63.57 Y59.25 E0.042
G1 X64.62 Y59.22 E0.033
G1 X64.59 Y59.46 E0.008
G1 X63.72 Y59.52 E0.027
G1 X62.25 Y59.88 E0.047
G1 X61.23 Y60.42 E0.036
G1 X60.48 Y60.99 E0.029
G1 X59.64 Y61.92 E0.039
G1 X59.16 Y62.7 E0.029
G1 X58.71 Y63.75 E0.036
G1 X58.5 Y65.94 E0.069
G1 X58.56 Y66.48 E0.017
G1 X58.8 Y67.41 E0.03
G1 X59.28 Y68.43 E0.035
G1 X60.03 Y69.45 E0.039
G1 X60.72 Y70.11 E0.03
G1 X62.1 Y70.95 E0.05
G1 X62.97 Y71.25 E0.029
G1 X64.38 Y71.43 E0.044
G1 X65.88 Y71.25 E0.047
G1 X66.69 Y71.01 E0.026
G1 X67.74 Y70.44 E0.037
G1 X68.4 Y69.93 E0.026
G1 X69.03 Y69.3 E0.028
G1 X69.48 Y68.67 E0.024
G1 X69.99 Y67.71 E0.034
G1 X70.41 Y65.88 E0.059
G1 X70.38 Y64.8 E0.034
G1 X70.29 Y64.2 E0.019
G1 X69.72 Y62.67 E0.051
G1 X68.91 Y61.5 E0.044
G1 X67.95 Y60.63 E0.04
G1 X67.65 Y60.39 E0.012
G1 X65.88 Y59.64 E0.06
G1 X64.59 Y59.46 E0.041
G1 F5612.6
G1 E-3.118
G1 F2500.0
G1 X64.62 Y59.22
;#!LAYER: 3/269
G92 E0
G1 Z0.75 F200.0
G1 X61.44 Y59.97 F15000.0
T0
G1 F5612.6
G1 E3.118
G1 F2500.0
G1 F78.0
G1 E0.065
G1 F2500.0
G1 X62.28 Y59.58 E0.029 F2250.0
G1 X63.57 Y59.25 E0.042
G1 X64.62 Y59.22 E0.033
G1 X65.43 Y59.28 E0.025
G1 X65.79 Y59.31 E0.011
G1 X66.75 Y59.61 E0.031
G1 X67.68 Y60.09 E0.033
G1 X68.4 Y60.57 E0.027
G1 X69.51 Y61.74 E0.05
G1 X69.96 Y62.46 E0.026
G1 X70.5 Y63.78 E0.044
G1 X70.71 Y65.01 E0.039
G1 X70.65 Y66.54 E0.048
G1 X70.35 Y67.62 E0.035
G1 X69.87 Y68.64 E0.035
G1 X68.97 Y69.81 E0.046
G1 X67.74 Y70.8 E0.049
G1 X66.66 Y71.31 E0.037
G1 X65.61 Y71.61 E0.034
G1 X64.62 Y71.73 E0.031
G1 X63.69 Y71.67 E0.029
G1 X62.37 Y71.37 E0.042
G1 X61.44 Y70.95 E0.032
G1 X60.18 Y70.05 E0.048
G1 X59.67 Y69.54 E0.022
G1 X58.92 Y68.43 E0.042
G1 X58.44 Y67.26 E0.039
G1 X58.17 Y65.82 E0.046
G1 X58.29 Y64.29 E0.048
G1 X58.56 Y63.33 E0.031
G1 X59.25 Y61.95 E0.048
G1 X59.79 Y61.23 E0.028
G1 X60.69 Y60.42 E0.038
G1 X61.44 Y59.97 E0.027
G1 X61.62 Y60.18 E0.009
G1 X60.33 Y61.14 E0.05
G1 X59.46 Y62.16 E0.042
G1 X58.71 Y63.81 E0.057
G1 X58.5 Y65.94 E0.067
G1 X58.56 Y66.48 E0.017
G1 X58.8 Y67.41 E0.03
G1 X59.28 Y68.43 E0.035
G1 X60.03 Y69.45 E0.039
G1 X60.72 Y70.11 E0.03
G1 X62.1 Y70.95 E0.05
G1 X62.97 Y71.25 E0.029
G1 X64.38 Y71.43 E0.044
G1 X65.88 Y71.25 E0.047
G1 X66.69 Y71.01 E0.026
G1 X67.74 Y70.44 E0.037
G1 X68.4 Y69.93 E0.026
G1 X69.03 Y69.3 E0.028
G1 X69.48 Y68.67 E0.024
G1 X69.99 Y67.71 E0.034
G1 X70.41 Y65.88 E0.059
G1 X70.38 Y64.68 E0.037
G1 X70.08 Y63.51 E0.038
G1 X69.72 Y62.67 E0.028
G1 X68.91 Y61.5 E0.044
G1 X68.37 Y60.93 E0.024
G1 X67.17 Y60.15 E0.045
G1 X66.36 Y59.79 E0.028
G1 X64.92 Y59.49 E0.046
G1 X63.72 Y59.52 E0.037
G1 X62.46 Y59.82 E0.04
G1 X61.62 Y60.18 E0.028
G1 F5612.6
G1 E-3.118
G1 F2500.0
G1 X61.44 Y59.97
;#!LAYER: 4/269
G92 E0
G1 Z1.0 F200.0
G1 X61.44 Y59.97 F15000.0
T0
G1 F5612.6
G1 E3.118
G1 F2500.0
G1 F78.0
G1 E0.065
G1 F2500.0
G1 X62.28 Y59.58 E0.029 F2250.0
G1 X63.57 Y59.25 E0.042
G1 X64.62 Y59.22 E0.033
G1 X65.43 Y59.28 E0.025
G1 X65.79 Y59.31 E0.011
G1 X66.75 Y59.61 E0.031
G1 X67.68 Y60.09 E0.033
G1 X68.4 Y60.57 E0.027
G1 X69.51 Y61.74 E0.05
G1 X69.96 Y62.46 E0.026
G1 X70.5 Y63.78 E0.044
G1 X70.71 Y65.01 E0.039
G1 X70.65 Y66.54 E0.048
G1 X70.35 Y67.62 E0.035
G1 X69.87 Y68.64 E0.035
G1 X68.97 Y69.81 E0.046
G1 X67.74 Y70.8 E0.049
G1 X66.66 Y71.31 E0.037
G1 X65.61 Y71.61 E0.034
G1 X64.62 Y71.73 E0.031
G1 X63.69 Y71.67 E0.029
G1 X62.37 Y71.37 E0.042
G1 X61.44 Y70.95 E0.032
G1 X60.18 Y70.05 E0.048
G1 X59.67 Y69.54 E0.022
G1 X58.92 Y68.43 E0.042
G1 X58.44 Y67.26 E0.039
G1 X58.17 Y65.76 E0.048
G1 X58.29 Y64.29 E0.046
G1 X58.56 Y63.33 E0.031
G1 X59.25 Y61.95 E0.048
G1 X59.79 Y61.23 E0.028
G1 X60.69 Y60.42 E0.038
G1 X61.44 Y59.97 E0.027
G1 X61.62 Y60.18 E0.009
G1 X60.33 Y61.14 E0.05
G1 X59.46 Y62.16 E0.042
G1 X58.71 Y63.81 E0.057
G1 X58.5 Y65.94 E0.067
G1 X58.56 Y66.48 E0.017
G1 X58.8 Y67.41 E0.03
G1 X59.28 Y68.43 E0.035
G1 X60.03 Y69.45 E0.039
G1 X60.72 Y70.11 E0.03
G1 X62.1 Y70.95 E0.05
G1 X62.97 Y71.25 E0.029
G1 X64.38 Y71.43 E0.044
G1 X65.88 Y71.25 E0.047
G1 X66.69 Y71.01 E0.026
G1 X67.74 Y70.44 E0.037
G1 X68.4 Y69.93 E0.026
G1 X69.03 Y69.3 E0.028
G1 X69.48 Y68.67 E0.024
G1 X69.99 Y67.71 E0.034
G1 X70.41 Y65.88 E0.059
G1 X70.38 Y64.68 E0.037
G1 X70.08 Y63.51 E0.038
G1 X69.72 Y62.67 E0.028
G1 X68.91 Y61.5 E0.044
G1 X68.37 Y60.93 E0.024
G1 X67.17 Y60.15 E0.045
G1 X65.97 Y59.67 E0.04
G1 X64.89 Y59.49 E0.034
G1 X63.3 Y59.58 E0.05
G1 X62.46 Y59.82 E0.027
G1 X61.62 Y60.18 E0.028
G1 F5612.6
G1 E-3.118
G1 F2500.0
G1 X61.44 Y59.97
;#!LAYER: 5/269
G92 E0
G1 Z1.25 F200.0
G1 X61.44 Y59.97 F15000.0
T0
G1 F5612.6
G1 E3.118
G1 F2500.0
G1 F78.0
G1 E0.065
G1 F2500.0
G1 X62.28 Y59.58 E0.029 F2250.0
G1 X63.57 Y59.25 E0.042
G1 X64.62 Y59.22 E0.033
G1 X65.43 Y59.28 E0.025
G1 X65.79 Y59.31 E0.011
G1 X66.75 Y59.61 E0.031
G1 X67.68 Y60.09 E0.033
G1 X68.4 Y60.57 E0.027
G1 X69.51 Y61.74 E0.05
G1 X69.96 Y62.46 E0.026
G1 X70.5 Y63.78 E0.044
G1 X70.71 Y65.01 E0.039
G1 X70.65 Y66.54 E0.048
G1 X70.35 Y67.62 E0.035
G1 X69.87 Y68.64 E0.035
G1 X68.97 Y69.81 E0.046
G1 X67.74 Y70.8 E0.049
G1 X66.66 Y71.31 E0.037
G1 X65.61 Y71.61 E0.034
G1 X64.32 Y71.7 E0.04
G1 X63.06 Y71.58 E0.039
G1 X62.01 Y71.22 E0.035
G1 X61.11 Y70.74 E0.032
G1 X60.06 Y69.93 E0.041
G1 X59.28 Y69.0 E0.038
G1 X58.89 Y68.34 E0.024
G1 X58.41 Y67.11 E0.041
G1 X58.17 Y65.76 E0.043
G1 X58.29 Y64.29 E0.046
G1 X58.56 Y63.33 E0.031
G1 X59.25 Y61.95 E0.048
G1 X59.79 Y61.23 E0.028
G1 X60.69 Y60.42 E0.038
G1 X61.44 Y59.97 E0.027
G1 X61.62 Y60.18 E0.009
G1 X60.33 Y61.14 E0.05
G1 X59.46 Y62.16 E0.042
G1 X58.71 Y63.81 E0.057
G1 X58.5 Y65.94 E0.067
G1 X58.56 Y66.48 E0.017
G1 X58.8 Y67.41 E0.03
G1 X59.28 Y68.43 E0.035
G1 X60.03 Y69.45 E0.039
G1 X60.72 Y70.11 E0.03
G1 X62.1 Y70.95 E0.05
G1 X62.97 Y71.25 E0.029
G1 X64.38 Y71.43 E0.044
G1 X65.88 Y71.25 E0.047
G1 X66.69 Y71.01 E0.026
G1 X67.74 Y70.44 E0.037
G1 X68.4 Y69.93 E0.026
G1 X69.03 Y69.3 E0.028
G1 X69.48 Y68.67 E0.024
G1 X69.99 Y67.71 E0.034
G1 X70.41 Y65.88 E0.059
G1 X70.38 Y64.68 E0.037
G1 X70.08 Y63.51 E0.038
G1 X69.69 Y62.61 E0.031
G1 X68.97 Y61.56 E0.04
G1 X68.22 Y60.81 E0.033
G1 X67.35 Y60.21 E0.033
G1 X65.76 Y59.61 E0.053
G1 X64.23 Y59.46 E0.048
G1 X63.18 Y59.61 E0.033
G1 X62.46 Y59.82 E0.023
G1 X61.62 Y60.18 E0.028
G1 F5612.6
G1 E-3.118
G1 F2500.0
G1 X61.44 Y59.97
;#!LAYER: 6/269
G92 E0
G1 Z1.5 F200.0
G1 X64.32 Y71.7 F15000.0
T0
G1 F5612.6
G1 E3.118
G1 F2500.0
G1 F78.0
G1 E0.065
G1 F2500.0
G1 X63.06 Y71.58 E0.039 F2250.0
G1 X62.01 Y71.22 E0.035
G1 X61.11 Y70.74 E0.032
G1 X60.06 Y69.93 E0.041
G1 X59.28 Y69.0 E0.038
G1 X58.86 Y68.28 E0.026
G1 X58.41 Y67.17 E0.037
G1 X58.17 Y65.76 E0.045
G1 X58.29 Y64.29 E0.046
G1 X58.56 Y63.33 E0.031
G1 X59.25 Y61.95 E0.048
G1 X59.79 Y61.23 E0.028
G1 X60.69 Y60.42 E0.038
G1 X61.44 Y59.97 E0.027
G1 X62.28 Y59.58 E0.029
G1 X63.57 Y59.25 E0.042
G1 X64.62 Y59.22 E0.033
G1 X65.43 Y59.28 E0.025
G1 X65.79 Y59.31 E0.011
G1 X66.75 Y59.61 E0.031
G1 X67.68 Y60.09 E0.033
G1 X68.4 Y60.57 E0.027
G1 X69.51 Y61.74 E0.05
G1 X69.96 Y62.46 E0.026
G1 X70.5 Y63.78 E0.044
G1 X70.71 Y65.01 E0.039
G1 X70.65 Y66.54 E0.048
G1 X70.35 Y67.62 E0.035
G1 X69.87 Y68.64 E0.035
G1 X68.97 Y69.81 E0.046
G1 X67.74 Y70.8 E0.049
G1 X66.66 Y71.31 E0.037
G1 X65.61 Y71.61 E0.034
G1 X64.32 Y71.7 E0.04
G1 X64.38 Y71.43 E0.009
G1 X65.88 Y71.25 E0.047
G1 X66.69 Y71.01 E0.026
G1 X67.74 Y70.44 E0.037
G1 X68.4 Y69.93 E0.026
G1 X69.03 Y69.3 E0.028
G1 X69.48 Y68.67 E0.024
G1 X69.99 Y67.71 E0.034
G1 X70.41 Y65.88 E0.059
G1 X70.38 Y64.68 E0.037
G1 X70.08 Y63.51 E0.038
G1 X69.69 Y62.61 E0.031
G1 X68.97 Y61.56 E0.04
G1 X68.4 Y60.96 E0.026
G1 X67.14 Y60.12 E0.047
G1 X65.82 Y59.64 E0.044
G1 X64.44 Y59.46 E0.043
G1 X63.39 Y59.55 E0.033
G1 X62.46 Y59.82 E0.03
G1 X61.71 Y60.15 E0.026
G1 X60.45 Y61.02 E0.048
G1 X59.88 Y61.59 E0.025
G1 X59.1 Y62.79 E0.045
G1 X58.68 Y63.96 E0.039
G1 X58.5 Y65.94 E0.062
G1 X58.56 Y66.48 E0.017
G1 X58.8 Y67.41 E0.03
G1 X59.28 Y68.43 E0.035
G1 X60.03 Y69.45 E0.039
G1 X60.72 Y70.11 E0.03
G1 X62.1 Y70.95 E0.05
G1 X62.97 Y71.25 E0.029
G1 X64.38 Y71.43 E0.044
G1 F5612.6
G1 E-3.118
G1 F2500.0
G1 X64.32 Y71.7
;#!LAYER: 7/269
G92 E0
G1 Z1.75 F200.0
G1 X64.62 Y59.22 F15000.0
T0
G1 F5612.6
G1 E3.118
G1 F2500.0
G1 F78.0
G1 E0.065
G1 F2500.0
G1 X65.43 Y59.28 E0.025 F2250.0
G1 X65.79 Y59.31 E0.011
G1 X66.75 Y59.61 E0.031
G1 X67.68 Y60.09 E0.033
G1 X68.4 Y60.57 E0.027
G1 X69.51 Y61.74 E0.05
G1 X69.96 Y62.46 E0.026
G1 X70.5 Y63.78 E0.044
G1 X70.71 Y65.01 E0.039
G1 X70.65 Y66.54 E0.048
G1 X70.35 Y67.62 E0.035
G1 X69.87 Y68.64 E0.035
G1 X68.97 Y69.81 E0.046
G1 X68.13 Y70.53 E0.034
G1 X67.35 Y71.01 E0.029
G1 X66.24 Y71.46 E0.037
G1 X64.92 Y71.7 E0.042
G1 X63.6 Y71.64 E0.041
G1 X63.06 Y71.58 E0.017
G1 X62.01 Y71.22 E0.035
G1 X61.11 Y70.74 E0.032
G1 X60.06 Y69.93 E0.041
G1 X59.28 Y69.0 E0.038
G1 X58.86 Y68.28 E0.026
G1 X58.41 Y67.17 E0.037
G1 X58.17 Y65.76 E0.045
G1 X58.29 Y64.29 E0.046
G1 X58.56 Y63.33 E0.031
G1 X59.25 Y61.95 E0.048
G1 X59.79 Y61.23 E0.028
G1 X60.69 Y60.42 E0.038
G1 X61.44 Y59.97 E0.027
G1 X62.28 Y59.58 E0.029
G1 X63.57 Y59.25 E0.042
G1 X64.62 Y59.22 E0.033
G1 X64.59 Y59.46 E0.008
G1 X63.3 Y59.58 E0.04
G1 X62.07 Y59.97 E0.04
G1 X61.29 Y60.39 E0.028
G1 X60.27 Y61.2 E0.041
G1 X59.46 Y62.19 E0.04
G1 X59.13 Y62.73 E0.02
G1 X58.71 Y63.81 E0.036
G1 X58.5 Y65.94 E0.067
G1 X58.56 Y66.48 E0.017
G1 X58.8 Y67.41 E0.03
G1 X59.28 Y68.43 E0.035
G1 X60.03 Y69.45 E0.039
G1 X60.72 Y70.11 E0.03
G1 X62.1 Y70.95 E0.05
G1 X62.97 Y71.25 E0.029
G1 X64.38 Y71.43 E0.044
G1 X65.88 Y71.25 E0.047
G1 X66.69 Y71.01 E0.026
G1 X67.74 Y70.44 E0.037
G1 X68.4 Y69.93 E0.026
G1 X69.03 Y69.3 E0.028
G1 X69.48 Y68.67 E0.024
G1 X69.99 Y67.71 E0.034
G1 X70.41 Y65.88 E0.059
G1 X70.38 Y64.71 E0.036
G1 X70.14 Y63.66 E0.034
G1 X69.66 Y62.58 E0.037
G1 X69.03 Y61.62 E0.036
G1 X68.07 Y60.69 E0.042
G1 X67.14 Y60.12 E0.034
G1 X65.82 Y59.64 E0.044
G1 X64.59 Y59.46 E0.039
G1 F5612.6
G1 E-3.118
G1 F2500.0
G1 X64.62 Y59.22
;#!LAYER: 8/269
G92 E0
G1 Z2.0 F200.0
G1 X70.68 Y65.97 F15000.0
T0
G1 F5612.6
G1 E3.118
G1 F2500.0
G1 F78.0
G1 E0.065
G1 F2500.0
G1 X70.62 Y66.57 E0.019 F2250.0
G1 X70.38 Y67.5 E0.03
G1 X69.87 Y68.64 E0.039
G1 X68.97 Y69.81 E0.046
G1 X68.13 Y70.53 E0.034
G1 X67.35 Y71.01 E0.029
G1 X66.24 Y71.46 E0.037
G1 X64.92 Y71.7 E0.042
G1 X63.48 Y71.64 E0.045
G1 X62.49 Y71.4 E0.032
G1 X61.62 Y71.04 E0.029
G1 X60.39 Y70.23 E0.046
G1 X59.67 Y69.54 E0.031
G1 X59.13 Y68.76 E0.03
G1 X58.62 Y67.77 E0.035
G1 X58.26 Y66.42 E0.044
G1 X58.17 Y65.31 E0.035
G1 X58.29 Y64.29 E0.032
G1 X58.56 Y63.33 E0.031
G1 X59.25 Y61.95 E0.048
G1 X59.79 Y61.23 E0.028
G1 X60.69 Y60.42 E0.038
G1 X61.44 Y59.97 E0.027
G1 X62.28 Y59.58 E0.029
G1 X63.57 Y59.25 E0.042
G1 X64.62 Y59.22 E0.033
G1 X65.43 Y59.28 E0.025
G1 X65.79 Y59.31 E0.011
G1 X66.75 Y59.61 E0.031
G1 X67.68 Y60.09 E0.033
G1 X68.4 Y60.57 E0.027
G1 X69.51 Y61.74 E0.05
G1 X69.96 Y62.46 E0.026
G1 X70.5 Y63.78 E0.044
G1 X70.71 Y65.01 E0.039
G1 X70.68 Y65.97 E0.03
G1 X70.41 Y65.88 E0.009
G1 X70.38 Y64.71 E0.036
G1 X70.14 Y63.66 E0.034
G1 X69.66 Y62.58 E0.037
G1 X69.03 Y61.62 E0.036
G1 X68.04 Y60.69 E0.042
G1 X67.08 Y60.09 E0.035
G1 X65.82 Y59.64 E0.042
G1 X64.23 Y59.46 E0.05
G1 X62.88 Y59.67 E0.043
G1 X62.07 Y59.97 E0.027
G1 X61.29 Y60.39 E0.028
G1 X60.27 Y61.2 E0.041
G1 X59.46 Y62.19 E0.04
G1 X59.13 Y62.73 E0.02
G1 X58.71 Y63.81 E0.036
G1 X58.5 Y65.94 E0.067
G1 X58.56 Y66.48 E0.017
G1 X58.8 Y67.41 E0.03
G1 X59.28 Y68.43 E0.035
G1 X60.03 Y69.45 E0.039
G1 X60.72 Y70.11 E0.03
G1 X62.1 Y70.95 E0.05
G1 X62.97 Y71.25 E0.029
G1 X64.38 Y71.43 E0.044
G1 X65.88 Y71.25 E0.047
G1 X66.69 Y71.01 E0.026
G1 X67.74 Y70.44 E0.037
G1 X68.4 Y69.93 E0.026
G1 X69.03 Y69.3 E0.028
G1 X69.48 Y68.67 E0.024
G1 X69.99 Y67.71 E0.034
G1 X70.41 Y65.88 E0.059
G1 F5612.6
G1 E-3.118
G1 F2500.0
G1 X70.68 Y65.97
;#!LAYER: 9/269
G92 E0
G1 Z2.25 F200.0
G1 X60.54 Y70.35 F15000.0
T0
G1 F5612.6
G1 E3.118
G1 F2500.0
G1 F78.0
G1 E0.065
G1 F2500.0
G1 X59.55 Y69.36 E0.044 F2250.0
G1 X59.34 Y69.12 E0.01
G1 X58.68 Y67.89 E0.044
G1 X58.32 Y66.78 E0.036
G1 X58.2 Y66.03 E0.024
G1 X58.32 Y64.08 E0.061
G1 X58.71 Y62.94 E0.038
G1 X59.22 Y61.98 E0.034
G1 X59.82 Y61.2 E0.031
G1 X60.6 Y60.51 E0.032
G1 X61.62 Y59.85 E0.038
G1 X62.97 Y59.37 E0.045
G1 X64.26 Y59.19 E0.041
G1 X65.31 Y59.25 E0.033
G1 X65.88 Y59.34 E0.018
G1 X67.14 Y59.79 E0.042
G1 X67.98 Y60.27 E0.03
G1 X69.27 Y61.41 E0.054
G1 X69.84 Y62.22 E0.031
G1 X70.47 Y63.66 E0.049
G1 X70.68 Y64.74 E0.034
G1 X70.65 Y66.36 E0.051
G1 X70.41 Y67.44 E0.034
G1 X69.96 Y68.43 E0.034
G1 X69.54 Y69.12 E0.025
G1 X68.58 Y70.2 E0.045
G1 X67.2 Y71.07 E0.051
G1 X66.48 Y71.37 E0.024
G1 X65.58 Y71.61 E0.029
G1 X64.2 Y71.7 E0.043
G1 X63.27 Y71.61 E0.029
G1 X62.49 Y71.4 E0.025
G1 X61.62 Y71.04 E0.029
G1 X60.54 Y70.35 E0.04
G1 X60.72 Y70.11 E0.009
G1 X62.1 Y70.95 E0.05
G1 X62.97 Y71.25 E0.029
G1 X64.38 Y71.43 E0.044
G1 X65.88 Y71.25 E0.047
G1 X66.69 Y71.01 E0.026
G1 X67.74 Y70.44 E0.037
G1 X68.4 Y69.93 E0.026
G1 X69.03 Y69.3 E0.028
G1 X69.48 Y68.67 E0.024
G1 X69.99 Y67.71 E0.034
G1 X70.41 Y65.88 E0.059
G1 X70.44 Y65.4 E0.015
G1 X70.29 Y64.26 E0.036
G1 X69.75 Y62.73 E0.051
G1 X69.39 Y62.1 E0.023
G1 X68.49 Y61.08 E0.042
G1 X68.04 Y60.69 E0.019
G1 X67.2 Y60.15 E0.031
G1 X65.88 Y59.64 E0.044
G1 X64.8 Y59.49 E0.034
G1 X63.36 Y59.58 E0.045
G1 X62.49 Y59.79 E0.028
G1 X61.65 Y60.18 E0.029
G1 X60.6 Y60.9 E0.04
G1 X59.88 Y61.59 E0.031
G1 X59.16 Y62.67 E0.04
G1 X58.71 Y63.81 E0.038
G1 X58.5 Y65.13 E0.042
G1 X58.56 Y66.48 E0.042
G1 X58.8 Y67.41 E0.03
G1 X59.28 Y68.43 E0.035
G1 X60.03 Y69.45 E0.039
G1 X60.72 Y70.11 E0.03
G1 F5612.6
G1 E-3.118
G1 F2500.0
G1 X60.54 Y70.35
;#!LAYER: 10/269
G92 E0
G1 Z2.5 F200.0
G1 X70.68 Y65.97 F15000.0
T0
G1 F5612.6
G1 E3.118
G1 F2500.0
G1 F78.0
G1 E0.065
G1 F2500.0
G1 X70.62 Y66.57 E0.019 F2250.0
G1 X70.38 Y67.5 E0.03
G1 X69.87 Y68.61 E0.038
G1 X69.09 Y69.69 E0.042
G1 X68.58 Y70.2 E0.022
G1 X67.2 Y71.07 E0.051
G1 X66.48 Y71.37 E0.024
G1 X65.58 Y71.61 E0.029
G1 X64.2 Y71.7 E0.043
G1 X63.27 Y71.61 E0.029
G1 X62.49 Y71.4 E0.025
G1 X61.62 Y71.04 E0.029
G1 X60.54 Y70.35 E0.04
G1 X59.55 Y69.36 E0.044
G1 X59.34 Y69.12 E0.01
G1 X58.68 Y67.89 E0.044
G1 X58.32 Y66.78 E0.036
G1 X58.2 Y66.03 E0.024
G1 X58.32 Y64.08 E0.061
G1 X58.71 Y62.94 E0.038
G1 X59.22 Y61.98 E0.034
G1 X59.82 Y61.2 E0.031
G1 X60.6 Y60.51 E0.032
G1 X61.62 Y59.85 E0.038
G1 X62.97 Y59.37 E0.045
G1 X64.26 Y59.19 E0.041
G1 X65.31 Y59.25 E0.033
G1 X65.88 Y59.34 E0.018
G1 X67.14 Y59.79 E0.042
G1 X67.98 Y60.27 E0.03
G1 X69.27 Y61.41 E0.054
G1 X69.84 Y62.22 E0.031
G1 X70.47 Y63.66 E0.049
G1 X70.68 Y64.74 E0.034
G1 Y65.97 E0.038
G1 X70.41 Y65.88 E0.009
G1 Y65.25 E0.02
G1 X70.26 Y64.02 E0.039
G1 X69.81 Y62.82 E0.04
G1 X69.39 Y62.1 E0.026
G1 X68.58 Y61.14 E0.039
G1 X67.47 Y60.3 E0.043
G1 X66.09 Y59.7 E0.047
G1 X64.8 Y59.49 E0.041
G1 X63.36 Y59.58 E0.045
G1 X62.49 Y59.79 E0.028
G1 X61.65 Y60.18 E0.029
G1 X60.6 Y60.9 E0.04
G1 X59.88 Y61.59 E0.031
G1 X59.16 Y62.67 E0.04
G1 X58.71 Y63.81 E0.038
G1 X58.5 Y65.13 E0.042
G1 X58.56 Y66.48 E0.042
G1 X58.8 Y67.41 E0.03
G1 X59.28 Y68.43 E0.035
G1 X60.03 Y69.45 E0.039
G1 X60.72 Y70.11 E0.03
G1 X62.1 Y70.95 E0.05
G1 X62.97 Y71.25 E0.029
G1 X64.38 Y71.43 E0.044
G1 X65.88 Y71.25 E0.047
G1 X66.69 Y71.01 E0.026
G1 X67.74 Y70.44 E0.037
G1 X68.4 Y69.93 E0.026
G1 X69.03 Y69.3 E0.028
G1 X69.48 Y68.67 E0.024
G1 X69.99 Y67.71 E0.034
G1 X70.41 Y65.88 E0.059
G1 F5612.6
G1 E-3.118
G1 F2500.0
G1 X70.68 Y65.97
;#!LAYER: 11/269
G92 E0
G1 Z2.75 F200.0
G1 X70.68 Y65.97 F15000.0
T0
G1 F5612.6
G1 E3.118
G1 F2500.0
G1 F78.0
G1 E0.065
G1 F2500.0
G1 X70.62 Y66.57 E0.019 F2250.0
G1 X70.38 Y67.5 E0.03
G1 X69.87 Y68.61 E0.038
G1 X69.09 Y69.69 E0.042
G1 X68.58 Y70.2 E0.022
G1 X67.2 Y71.07 E0.051
G1 X66.48 Y71.37 E0.024
G1 X65.58 Y71.61 E0.029
G1 X64.59 Y71.73 E0.031
G1 X63.66 Y71.67 E0.029
G1 X62.85 Y71.52 E0.026
G1 X61.68 Y71.07 E0.039
G1 X60.9 Y70.62 E0.028
G1 X60.24 Y70.11 E0.026
G1 X59.28 Y69.0 E0.046
G1 X58.62 Y67.74 E0.044
G1 X58.26 Y66.45 E0.042
G1 X58.32 Y64.08 E0.074
G1 X58.71 Y62.94 E0.038
G1 X59.22 Y61.98 E0.034
G1 X59.82 Y61.2 E0.031
G1 X60.6 Y60.51 E0.032
G1 X61.62 Y59.85 E0.038
G1 X62.97 Y59.37 E0.045
G1 X64.26 Y59.19 E0.041
G1 X65.31 Y59.25 E0.033
G1 X65.88 Y59.34 E0.018
G1 X67.14 Y59.79 E0.042
G1 X67.98 Y60.27 E0.03
G1 X69.27 Y61.41 E0.054
G1 X69.84 Y62.22 E0.031
G1 X70.47 Y63.66 E0.049
G1 X70.68 Y64.74 E0.034
G1 Y65.97 E0.038
G1 X70.41 Y65.88 E0.009
G1 Y65.25 E0.02
G1 X70.26 Y64.02 E0.039
G1 X69.87 Y62.97 E0.035
G1 X69.42 Y62.16 E0.029
G1 X68.58 Y61.14 E0.041
G1 X68.04 Y60.69 E0.022
G1 X67.2 Y60.15 E0.031
G1 X65.88 Y59.64 E0.044
G1 X64.44 Y59.46 E0.045
G1 X63.6 Y59.52 E0.026
G1 X62.46 Y59.82 E0.037
G1 X61.71 Y60.15 E0.026
G1 X60.45 Y61.02 E0.048
G1 X59.88 Y61.59 E0.025
G1 X59.16 Y62.67 E0.04
G1 X58.65 Y64.08 E0.047
G1 X58.5 Y66.15 E0.065
G1 X58.62 Y66.81 E0.021
G1 X59.04 Y67.98 E0.039
G1 X59.82 Y69.21 E0.045
G1 X60.99 Y70.32 E0.05
G1 X62.07 Y70.95 E0.039
G1 X63.12 Y71.28 E0.034
G1 X64.38 Y71.43 E0.04
G1 X65.88 Y71.25 E0.047
G1 X66.69 Y71.01 E0.026
G1 X67.74 Y70.44 E0.037
G1 X68.4 Y69.93 E0.026
G1 X69.03 Y69.3 E0.028
G1 X69.48 Y68.67 E0.024
G1 X69.99 Y67.71 E0.034
G1 X70.41 Y65.88 E0.059
G1 F5612.6
G1 E-3.118
G1 F2500.0
G1 X70.68 Y65.97
;#!LAYER: 12/269
G92 E0
G1 Z3.0 F200.0
G1 X70.68 Y65.97 F15000.0
T0
G1 F5612.6
G1 E3.118
G1 F2500.0
G1 F78.0
G1 E0.065
G1 F2500.0
G1 X70.62 Y66.57 E0.019 F2250.0
G1 X70.38 Y67.5 E0.03
G1 X69.87 Y68.61 E0.038
G1 X69.0 Y69.78 E0.045
G1 X68.31 Y70.41 E0.029
G1 X67.44 Y70.95 E0.032
G1 X66.51 Y71.37 E0.032
G1 X64.92 Y71.7 E0.051
G1 X63.66 Y71.67 E0.039
G1 X62.85 Y71.52 E0.026
G1 X61.68 Y71.07 E0.039
G1 X60.9 Y70.62 E0.028
G1 X60.24 Y70.11 E0.026
G1 X59.28 Y69.0 E0.046
G1 X58.62 Y67.74 E0.044
G1 X58.26 Y66.45 E0.042
G1 X58.32 Y64.08 E0.074
G1 X58.71 Y62.94 E0.038
G1 X59.22 Y61.98 E0.034
G1 X59.82 Y61.2 E0.031
G1 X60.6 Y60.51 E0.032
G1 X61.62 Y59.85 E0.038
G1 X62.97 Y59.37 E0.045
G1 X64.26 Y59.19 E0.041
G1 X65.31 Y59.25 E0.033
G1 X65.88 Y59.34 E0.018
G1 X67.14 Y59.79 E0.042
G1 X67.98 Y60.27 E0.03
G1 X69.27 Y61.41 E0.054
G1 X69.84 Y62.22 E0.031
G1 X70.47 Y63.66 E0.049
G1 X70.68 Y64.74 E0.034
G1 Y65.97 E0.038
G1 X70.41 Y65.88 E0.009
G1 X70.26 Y64.02 E0.058
G1 X69.9 Y63.09 E0.031
G1 X69.42 Y62.13 E0.033
G1 X68.46 Y61.05 E0.045
G1 X67.53 Y60.36 E0.036
G1 X67.2 Y60.15 E0.012
G1 X65.88 Y59.64 E0.044
G1 X64.44 Y59.46 E0.045
G1 X63.6 Y59.52 E0.026
G1 X62.46 Y59.82 E0.037
G1 X61.71 Y60.15 E0.026
G1 X60.45 Y61.02 E0.048
G1 X59.88 Y61.59 E0.025
G1 X59.16 Y62.67 E0.04
G1 X58.74 Y63.75 E0.036
G1 X58.5 Y66.15 E0.075
G1 X58.62 Y66.81 E0.021
G1 X59.04 Y67.98 E0.039
G1 X59.82 Y69.21 E0.045
G1 X60.99 Y70.32 E0.05
G1 X62.07 Y70.95 E0.039
G1 X63.12 Y71.28 E0.034
G1 X64.38 Y71.43 E0.04
G1 X65.88 Y71.25 E0.047
G1 X66.69 Y71.01 E0.026
G1 X67.74 Y70.44 E0.037
G1 X68.4 Y69.93 E0.026
G1 X69.03 Y69.3 E0.028
G1 X69.48 Y68.67 E0.024
G1 X69.99 Y67.71 E0.034
G1 X70.41 Y65.88 E0.059
G1 F5612.6
G1 E-3.118
G1 F2500.0
G1 X70.68 Y65.97
;#!LAYER: 13/269
G92 E0
G1 Z3.25 F200.0
G1 X64.26 Y59.19 F15000.0
T0
G1 F5612.6
G1 E3.118
G1 F2500.0
G1 F78.0
G1 E0.065
G1 F2500.0
G1 X65.31 Y59.25 E0.033 F2250.0
G1 X65.88 Y59.34 E0.018
G1 X67.14 Y59.79 E0.042
G1 X67.98 Y60.27 E0.03
G1 X69.27 Y61.41 E0.054
G1 X69.84 Y62.22 E0.031
G1 X70.47 Y63.66 E0.049
G1 X70.68 Y64.74 E0.034
G1 Y66.3 E0.049
G1 X70.44 Y67.38 E0.034
G1 X69.96 Y68.43 E0.036
G1 X69.45 Y69.24 E0.03
G1 X68.55 Y70.2 E0.041
G1 X67.98 Y70.65 E0.023
G1 X66.48 Y71.37 E0.052
G1 X65.58 Y71.61 E0.029
G1 X64.59 Y71.73 E0.031
G1 X63.66 Y71.67 E0.029
G1 X62.85 Y71.52 E0.026
G1 X61.68 Y71.07 E0.039
G1 X60.9 Y70.62 E0.028
G1 X60.24 Y70.11 E0.026
G1 X59.28 Y69.0 E0.046
G1 X58.62 Y67.74 E0.044
G1 X58.26 Y66.45 E0.042
G1 X58.32 Y64.08 E0.074
G1 X58.71 Y62.94 E0.038
G1 X59.22 Y61.98 E0.034
G1 X59.82 Y61.2 E0.031
G1 X60.6 Y60.51 E0.032
G1 X61.62 Y59.85 E0.038
G1 X62.97 Y59.37 E0.045
G1 X64.26 Y59.19 E0.041
G1 X64.38 Y59.46 E0.009
G1 X63.36 Y59.58 E0.032
G1 X62.37 Y59.85 E0.032
G1 X61.53 Y60.24 E0.029
G1 X60.33 Y61.14 E0.047
G1 X59.82 Y61.68 E0.023
G1 X59.16 Y62.67 E0.037
G1 X58.74 Y63.75 E0.036
G1 X58.5 Y66.15 E0.075
G1 X58.62 Y66.81 E0.021
G1 X59.04 Y67.98 E0.039
G1 X59.82 Y69.21 E0.045
G1 X60.99 Y70.32 E0.05
G1 X62.07 Y70.95 E0.039
G1 X63.12 Y71.28 E0.034
G1 X64.38 Y71.43 E0.04
G1 X65.88 Y71.25 E0.047
G1 X66.69 Y71.01 E0.026
G1 X67.74 Y70.44 E0.037
G1 X68.4 Y69.93 E0.026
G1 X69.03 Y69.3 E0.028
G1 X69.48 Y68.67 E0.024
G1 X69.99 Y67.71 E0.034
G1 X70.41 Y65.88 E0.059
G1 X70.38 Y64.77 E0.035
G1 X70.29 Y64.17 E0.019
G1 X69.9 Y63.0 E0.038
G1 X69.15 Y61.77 E0.045
G1 X68.25 Y60.84 E0.04
G1 X67.2 Y60.15 E0.039
G1 X65.88 Y59.64 E0.044
G1 X64.38 Y59.46 E0.047
G1 F5612.6
G1 E-3.118
G1 F2500.0
G1 X64.26 Y59.19
;#!LAYER: 14/269
G92 E0
G1 Z3.5 F200.0
G1 X58.71 Y62.94 F15000.0
T0
G1 F5612.6
G1 E3.118
G1 F2500.0
G1 F78.0
G1 E0.065
G1 F2500.0
G1 X59.22 Y61.98 E0.034 F2250.0
G1 X59.82 Y61.2 E0.031
G1 X60.6 Y60.51 E0.032
G1 X61.62 Y59.85 E0.038
G1 X62.97 Y59.37 E0.045
G1 X64.26 Y59.19 E0.041
G1 X65.31 Y59.25 E0.033
G1 X65.88 Y59.34 E0.018
G1 X67.14 Y59.79 E0.042
G1 X67.98 Y60.27 E0.03
G1 X69.27 Y61.41 E0.054
G1 X69.84 Y62.22 E0.031
G1 X70.47 Y63.66 E0.049
G1 X70.68 Y64.74 E0.034
G1 Y66.3 E0.049
G1 X70.44 Y67.38 E0.034
G1 X69.96 Y68.43 E0.036
G1 X69.45 Y69.24 E0.03
G1 X68.55 Y70.2 E0.041
G1 X67.89 Y70.71 E0.026
G1 X67.14 Y71.1 E0.026
G1 X66.15 Y71.49 E0.033
G1 X64.89 Y71.7 E0.04
G1 X63.27 Y71.61 E0.051
G1 X62.55 Y71.43 E0.023
G1 X61.74 Y71.1 E0.027
G1 X60.39 Y70.23 E0.05
G1 X59.34 Y69.12 E0.048
G1 X58.68 Y67.89 E0.044
G1 X58.32 Y66.78 E0.036
G1 X58.2 Y66.03 E0.024
G1 X58.32 Y64.08 E0.061
G1 X58.71 Y62.94 E0.038
G1 X58.98 Y63.06 E0.009
G1 X58.65 Y64.08 E0.033
G1 X58.5 Y66.15 E0.065
G1 X58.62 Y66.81 E0.021
G1 X59.04 Y67.98 E0.039
G1 X59.82 Y69.21 E0.045
G1 X60.99 Y70.32 E0.05
G1 X62.07 Y70.95 E0.039
G1 X63.12 Y71.28 E0.034
G1 X64.38 Y71.43 E0.04
G1 X65.88 Y71.25 E0.047
G1 X66.69 Y71.01 E0.026
G1 X67.74 Y70.44 E0.037
G1 X68.4 Y69.93 E0.026
G1 X69.03 Y69.3 E0.028
G1 X69.48 Y68.67 E0.024
G1 X69.99 Y67.71 E0.034
G1 X70.41 Y65.88 E0.059
G1 X70.38 Y64.77 E0.035
G1 X70.29 Y64.17 E0.019
G1 X69.9 Y63.0 E0.038
G1 X69.3 Y61.98 E0.037
G1 X68.64 Y61.2 E0.032
G1 X68.1 Y60.72 E0.023
G1 X67.14 Y60.12 E0.035
G1 X65.97 Y59.67 E0.039
G1 X64.41 Y59.46 E0.049
G1 X62.88 Y59.67 E0.048
G1 X62.07 Y59.97 E0.027
G1 X61.2 Y60.45 E0.031
G1 X60.3 Y61.17 E0.036
G1 X59.34 Y62.37 E0.048
G1 X58.98 Y63.06 E0.024
G1 F5612.6
G1 E-3.118
G1 F2500.0
G1 X58.71 Y62.94
;#!LAYER: 15/269
G92 E0
G1 Z3.75 F200.0
G1 X62.97 Y59.37 F15000.0
T0
G1 F5612.6
G1 E3.118
G1 F2500.0
G1 F78.0
G1 E0.065
G1 F2500.0
G1 X64.26 Y59.19 E0.041 F2250.0
G1 X65.31 Y59.25 E0.033
G1 X65.88 Y59.34 E0.018
G1 X67.14 Y59.79 E0.042
G1 X67.98 Y60.27 E0.03
G1 X69.27 Y61.41 E0.054
G1 X69.84 Y62.22 E0.031
G1 X70.47 Y63.66 E0.049
G1 X70.68 Y64.74 E0.034
G1 Y66.3 E0.049
G1 X70.44 Y67.38 E0.034
G1 X69.96 Y68.43 E0.036
G1 X69.45 Y69.24 E0.03
G1 X68.55 Y70.2 E0.041
G1 X67.38 Y70.98 E0.044
G1 X66.12 Y71.49 E0.042
G1 X64.92 Y71.7 E0.038
G1 X63.12 Y71.58 E0.056
G1 X62.16 Y71.28 E0.031
G1 X60.75 Y70.53 E0.05
G1 X60.09 Y69.96 E0.027
G1 X59.34 Y69.09 E0.036
G1 X58.62 Y67.77 E0.047
G1 X58.35 Y66.93 E0.028
G1 X58.2 Y66.0 E0.029
G1 X58.32 Y64.08 E0.06
G1 X58.71 Y62.94 E0.038
G1 X59.22 Y61.98 E0.034
G1 X59.82 Y61.2 E0.031
G1 X60.6 Y60.51 E0.032
G1 X61.62 Y59.85 E0.038
G1 X62.97 Y59.37 E0.045
G1 X63.06 Y59.64 E0.009
G1 X62.22 Y59.91 E0.028
G1 X60.96 Y60.63 E0.045
G1 X60.12 Y61.38 E0.035
G1 X59.31 Y62.4 E0.041
G1 X58.83 Y63.48 E0.037
G1 X58.53 Y64.89 E0.045
G1 X58.5 Y66.15 E0.039
G1 X58.62 Y66.81 E0.021
G1 X59.04 Y67.98 E0.039
G1 X59.82 Y69.21 E0.045
G1 X60.99 Y70.32 E0.05
G1 X62.07 Y70.95 E0.039
G1 X63.12 Y71.28 E0.034
G1 X64.38 Y71.43 E0.04
G1 X65.88 Y71.25 E0.047
G1 X66.69 Y71.01 E0.026
G1 X67.74 Y70.44 E0.037
G1 X68.4 Y69.93 E0.026
G1 X69.03 Y69.3 E0.028
G1 X69.48 Y68.67 E0.024
G1 X69.99 Y67.71 E0.034
G1 X70.41 Y65.88 E0.059
G1 X70.38 Y64.77 E0.035
G1 X70.29 Y64.17 E0.019
G1 X69.9 Y63.0 E0.038
G1 X69.09 Y61.71 E0.047
G1 X68.31 Y60.9 E0.035
G1 X67.14 Y60.12 E0.044
G1 X65.97 Y59.67 E0.039
G1 X64.47 Y59.46 E0.047
G1 X63.6 Y59.55 E0.027
G1 X63.06 Y59.64 E0.017
G1 F5612.6
G1 E-3.118
G1 F2500.0
G1 X62.97 Y59.37
;#!LAYER: 16/269
G92 E0
G1 Z4.0 F200.0
G1 X62.97 Y59.37 F15000.0
T0
G1 F5612.6
G1 E3.118
G1 F2500.0
G1 F78.0
G1 E0.065
G1 F2500.0
G1 X64.26 Y59.19 E0.041 F2250.0
G1 X65.31 Y59.25 E0.033
G1 X65.88 Y59.34 E0.018
G1 X67.14 Y59.79 E0.042
G1 X67.98 Y60.27 E0.03
G1 X69.27 Y61.41 E0.054
G1 X69.84 Y62.22 E0.031
G1 X70.47 Y63.66 E0.049
G1 X70.68 Y64.74 E0.034
G1 Y66.3 E0.049
G1 X70.44 Y67.38 E0.034
G1 X69.96 Y68.43 E0.036
G1 X69.21 Y69.51 E0.041
G1 X68.58 Y70.2 E0.029
G1 X67.41 Y70.98 E0.044
G1 X66.24 Y71.46 E0.039
G1 X64.95 Y71.7 E0.041
G1 X63.45 Y71.64 E0.047
G1 X62.97 Y71.55 E0.015
G1 X61.89 Y71.16 E0.036
G1 X60.75 Y70.53 E0.041
G1 X60.09 Y69.96 E0.027
G1 X59.34 Y69.09 E0.036
G1 X58.86 Y68.28 E0.029
G1 X58.44 Y67.2 E0.036
G1 X58.23 Y66.3 E0.029
G1 X58.32 Y64.08 E0.069
G1 X58.71 Y62.94 E0.038
G1 X59.22 Y61.98 E0.034
G1 X59.82 Y61.2 E0.031
G1 X60.6 Y60.51 E0.032
G1 X61.62 Y59.85 E0.038
G1 X62.97 Y59.37 E0.045
G1 X63.09 Y59.61 E0.008
G1 X62.1 Y59.97 E0.033
G1 X61.38 Y60.33 E0.025
G1 X60.27 Y61.2 E0.044
G1 X59.91 Y61.56 E0.016
G1 X59.31 Y62.43 E0.033
G1 X58.92 Y63.24 E0.028
G1 X58.65 Y64.05 E0.027
G1 X58.5 Y66.15 E0.066
G1 X58.62 Y66.81 E0.021
G1 X59.04 Y67.98 E0.039
G1 X59.82 Y69.21 E0.045
G1 X60.99 Y70.32 E0.05
G1 X62.07 Y70.95 E0.039
G1 X63.12 Y71.28 E0.034
G1 X64.38 Y71.43 E0.04
G1 X65.88 Y71.25 E0.047
G1 X66.69 Y71.01 E0.026
G1 X67.74 Y70.44 E0.037
G1 X68.4 Y69.93 E0.026
G1 X69.03 Y69.3 E0.028
G1 X69.48 Y68.67 E0.024
G1 X69.99 Y67.71 E0.034
G1 X70.41 Y65.88 E0.059
G1 X70.38 Y64.77 E0.035
G1 X70.29 Y64.17 E0.019
G1 X69.93 Y63.12 E0.035
G1 X69.24 Y61.89 E0.044
G1 X68.22 Y60.81 E0.046
G1 X67.23 Y60.15 E0.037
G1 X66.15 Y59.73 E0.036
G1 X65.4 Y59.55 E0.024
G1 X64.26 Y59.46 E0.036
G1 X63.09 Y59.61 E0.037
G1 F5612.6
G1 E-3.118
G1 F2500.0
G1 X62.97 Y59.37
;#!LAYER: 17/269
G92 E0
G1 Z4.25 F200.0
G1 X69.21 Y69.51 F15000.0
T0
G1 F5612.6
G1 E3.118
G1 F2500.0
G1 F78.0
G1 E0.065
G1 F2500.0
G1 X68.58 Y70.2 E0.029 F2250.0
G1 X67.41 Y70.98 E0.044
G1 X66.24 Y71.46 E0.039
G1 X64.95 Y71.7 E0.041
G1 X63.75 Y71.67 E0.037
G1 X62.88 Y71.52 E0.028
G1 X61.68 Y71.07 E0.04
G1 X60.72 Y70.5 E0.035
G1 X59.79 Y69.63 E0.04
G1 X59.25 Y68.94 E0.027
G1 X58.86 Y68.28 E0.024
G1 X58.44 Y67.2 E0.036
G1 X58.23 Y66.3 E0.029
G1 X58.32 Y64.08 E0.069
G1 X58.71 Y62.94 E0.038
G1 X59.22 Y61.98 E0.034
G1 X59.82 Y61.2 E0.031
G1 X60.6 Y60.51 E0.032
G1 X61.62 Y59.85 E0.038
G1 X62.97 Y59.37 E0.045
G1 X64.26 Y59.19 E0.041
G1 X65.31 Y59.25 E0.033
G1 X65.88 Y59.34 E0.018
G1 X67.14 Y59.79 E0.042
G1 X67.98 Y60.27 E0.03
G1 X69.27 Y61.41 E0.054
G1 X69.84 Y62.22 E0.031
G1 X70.47 Y63.66 E0.049
G1 X70.68 Y64.74 E0.034
G1 Y66.3 E0.049
G1 X70.44 Y67.38 E0.034
G1 X69.96 Y68.43 E0.036
G1 X69.21 Y69.51 E0.041
G1 X69.03 Y69.3 E0.009
G1 X69.48 Y68.67 E0.024
G1 X69.99 Y67.71 E0.034
G1 X70.41 Y65.88 E0.059
G1 X70.32 Y64.32 E0.049
G1 X70.05 Y63.36 E0.031
G1 X69.27 Y61.95 E0.05
G1 X68.22 Y60.81 E0.048
G1 X67.23 Y60.15 E0.037
G1 X66.15 Y59.73 E0.036
G1 X65.4 Y59.55 E0.024
G1 X64.5 Y59.46 E0.028
G1 X63.39 Y59.58 E0.035
G1 X62.16 Y59.94 E0.04
G1 X61.44 Y60.3 E0.025
G1 X60.36 Y61.11 E0.042
G1 X59.52 Y62.1 E0.04
G1 X59.07 Y62.88 E0.028
G1 X58.74 Y63.69 E0.027
G1 X58.5 Y66.15 E0.077
G1 X58.62 Y66.81 E0.021
G1 X59.04 Y67.98 E0.039
G1 X59.82 Y69.21 E0.045
G1 X60.99 Y70.32 E0.05
G1 X62.07 Y70.95 E0.039
G1 X63.12 Y71.28 E0.034
G1 X64.38 Y71.43 E0.04
G1 X65.88 Y71.25 E0.047
G1 X66.69 Y71.01 E0.026
G1 X67.74 Y70.44 E0.037
G1 X68.4 Y69.93 E0.026
G1 X69.03 Y69.3 E0.028
G1 F5612.6
G1 E-3.118
G1 F2500.0
G1 X69.21 Y69.51
;#!LAYER: 18/269
G92 E0
G1 Z4.5 F200.0
G1 X62.97 Y59.37 F15000.0
T0
G1 F5612.6
G1 E3.118
G1 F2500.0
G1 F78.0
G1 E0.065
G1 F2500.0
G1 X64.26 Y59.19 E0.041 F2250.0
G1 X65.31 Y59.25 E0.033
G1 X65.88 Y59.34 E0.018
G1 X67.14 Y59.79 E0.042
G1 X67.98 Y60.27 E0.03
G1 X69.27 Y61.41 E0.054
G1 X69.84 Y62.22 E0.031
G1 X70.47 Y63.66 E0.049
G1 X70.68 Y64.74 E0.034
G1 Y66.3 E0.049
G1 X70.44 Y67.38 E0.034
G1 X69.96 Y68.43 E0.036
G1 X69.06 Y69.72 E0.049
G1 X68.28 Y70.41 E0.032
G1 X67.2 Y71.07 E0.039
G1 X66.48 Y71.37 E0.024
G1 X65.22 Y71.67 E0.04
G1 X64.11 Y71.7 E0.035
G1 X63.3 Y71.61 E0.025
G1 X62.4 Y71.37 E0.029
G1 X61.17 Y70.8 E0.042
G1 X60.06 Y69.93 E0.044
G1 X59.34 Y69.12 E0.034
G1 X58.53 Y67.53 E0.056
G1 X58.23 Y66.3 E0.039
G1 X58.32 Y64.08 E0.069
G1 X58.71 Y62.94 E0.038
G1 X59.22 Y61.98 E0.034
G1 X59.82 Y61.2 E0.031
G1 X60.6 Y60.51 E0.032
G1 X61.62 Y59.85 E0.038
G1 X62.97 Y59.37 E0.045
G1 Y59.67 E0.009
G1 X62.16 Y59.94 E0.027
G1 X60.9 Y60.66 E0.045
G1 X60.03 Y61.47 E0.037
G1 X59.37 Y62.31 E0.033
G1 X59.01 Y63.0 E0.024
G1 X58.65 Y64.05 E0.035
G1 X58.5 Y66.15 E0.066
G1 X58.62 Y66.81 E0.021
G1 X59.04 Y67.98 E0.039
G1 X59.82 Y69.21 E0.045
G1 X60.99 Y70.32 E0.05
G1 X62.07 Y70.95 E0.039
G1 X63.12 Y71.28 E0.034
G1 X64.38 Y71.43 E0.04
G1 X65.88 Y71.25 E0.047
G1 X66.69 Y71.01 E0.026
G1 X67.74 Y70.44 E0.037
G1 X68.4 Y69.93 E0.026
G1 X69.03 Y69.3 E0.028
G1 X69.48 Y68.67 E0.024
G1 X69.99 Y67.71 E0.034
G1 X70.41 Y65.88 E0.059
G1 X70.38 Y64.8 E0.034
G1 X70.14 Y63.63 E0.037
G1 X69.69 Y62.58 E0.036
G1 X69.21 Y61.86 E0.027
G1 X68.31 Y60.9 E0.041
G1 X67.14 Y60.12 E0.044
G1 X66.24 Y59.76 E0.03
G1 X64.83 Y59.49 E0.045
G1 X63.96 E0.027
G1 X62.97 Y59.67 E0.031
G1 F5612.6
G1 E-3.118
G1 F2500.0
G1 Y59.37
;#!LAYER: 19/269
G92 E0
G1 Z4.75 F200.0
G1 X67.86 Y70.71 F15000.0
T0
G1 F5612.6
G1 E3.118
G1 F2500.0
G1 F78.0
G1 E0.065
G1 F2500.0
G1 X66.48 Y71.37 E0.048 F2250.0
G1 X65.22 Y71.67 E0.04
G1 X64.11 Y71.7 E0.035
G1 X63.42 Y71.64 E0.022
G1 X62.31 Y71.34 E0.036
G1 X60.9 Y70.62 E0.049
G1 X60.06 Y69.93 E0.034
G1 X59.34 Y69.12 E0.034
G1 X58.53 Y67.53 E0.056
G1 X58.23 Y66.3 E0.039
G1 X58.32 Y64.08 E0.069
G1 X58.71 Y62.94 E0.038
G1 X59.22 Y61.98 E0.034
G1 X59.82 Y61.2 E0.031
G1 X60.6 Y60.51 E0.032
G1 X61.62 Y59.85 E0.038
G1 X62.97 Y59.37 E0.045
G1 X64.26 Y59.19 E0.041
G1 X65.31 Y59.25 E0.033
G1 X65.88 Y59.34 E0.018
G1 X67.14 Y59.79 E0.042
G1 X67.98 Y60.27 E0.03
G1 X69.27 Y61.41 E0.054
G1 X69.84 Y62.22 E0.031
G1 X70.47 Y63.66 E0.049
G1 X70.68 Y64.74 E0.034
G1 Y66.03 E0.04
G1 X70.56 Y66.84 E0.026
G1 X70.05 Y68.25 E0.047
G1 X69.66 Y68.94 E0.025
G1 X68.88 Y69.9 E0.039
G1 X67.86 Y70.71 E0.041
G1 X67.74 Y70.44 E0.009
G1 X68.4 Y69.93 E0.026
G1 X69.03 Y69.3 E0.028
G1 X69.48 Y68.67 E0.024
G1 X69.99 Y67.71 E0.034
G1 X70.41 Y65.88 E0.059
G1 X70.38 Y64.8 E0.034
G1 X70.14 Y63.63 E0.037
G1 X69.69 Y62.58 E0.036
G1 X69.21 Y61.86 E0.027
G1 X68.31 Y60.9 E0.041
G1 X67.14 Y60.12 E0.044
G1 X66.24 Y59.76 E0.03
G1 X64.83 Y59.49 E0.045
G1 X63.84 E0.031
G1 X62.97 Y59.67 E0.028
G1 X62.16 Y59.94 E0.027
G1 X61.44 Y60.3 E0.025
G1 X60.81 Y60.72 E0.024
G1 X59.94 Y61.56 E0.038
G1 X59.13 Y62.73 E0.044
G1 X58.71 Y63.84 E0.037
G1 X58.5 Y66.15 E0.072
G1 X58.62 Y66.81 E0.021
G1 X59.04 Y67.98 E0.039
G1 X59.82 Y69.21 E0.045
G1 X60.99 Y70.32 E0.05
G1 X62.07 Y70.95 E0.039
G1 X63.12 Y71.28 E0.034
G1 X64.38 Y71.43 E0.04
G1 X65.88 Y71.25 E0.047
G1 X66.69 Y71.01 E0.026
G1 X67.74 Y70.44 E0.037
G1 F5612.6
G1 E-3.118
G1 F2500.0
G1 X67.86 Y70.71
;#!LAYER: 20/269
G92 E0
G1 Z5.0 F200.0
G1 X67.86 Y70.71 F15000.0
T0
G1 F5612.6
G1 E3.118
G1 F2500.0
G1 F78.0
G1 E0.065
G1 F2500.0
G1 X66.48 Y71.37 E0.048 F2250.0
G1 X65.58 Y71.61 E0.029
G1 X64.95 Y71.7 E0.02
G1 X63.48 Y71.64 E0.046
G1 X61.83 Y71.13 E0.054
G1 X60.87 Y70.59 E0.034
G1 X60.09 Y69.96 E0.031
G1 X59.34 Y69.09 E0.036
G1 X58.89 Y68.34 E0.027
G1 X58.56 Y67.59 E0.026
G1 X58.29 Y66.66 E0.03
G1 X58.17 Y65.28 E0.043
G1 X58.32 Y64.08 E0.038
G1 X58.71 Y62.94 E0.038
G1 X59.22 Y61.98 E0.034
G1 X59.82 Y61.2 E0.031
G1 X60.6 Y60.51 E0.032
G1 X61.62 Y59.85 E0.038
G1 X62.97 Y59.37 E0.045
G1 X64.26 Y59.19 E0.041
G1 X65.31 Y59.25 E0.033
G1 X65.88 Y59.34 E0.018
G1 X67.14 Y59.79 E0.042
G1 X67.98 Y60.27 E0.03
G1 X69.27 Y61.41 E0.054
G1 X69.84 Y62.22 E0.031
G1 X70.47 Y63.66 E0.049
G1 X70.68 Y64.74 E0.034
G1 Y66.03 E0.04
G1 X70.56 Y66.84 E0.026
G1 X70.05 Y68.25 E0.047
G1 X69.66 Y68.94 E0.025
G1 X68.88 Y69.9 E0.039
G1 X67.86 Y70.71 E0.041
G1 X67.74 Y70.44 E0.009
G1 X68.4 Y69.93 E0.026
G1 X69.03 Y69.3 E0.028
G1 X69.48 Y68.67 E0.024
G1 X69.99 Y67.71 E0.034
G1 X70.41 Y65.88 E0.059
G1 X70.38 Y64.8 E0.034
G1 X70.14 Y63.63 E0.037
G1 X69.69 Y62.58 E0.036
G1 X69.21 Y61.86 E0.027
G1 X68.31 Y60.9 E0.041
G1 X67.14 Y60.12 E0.044
G1 X66.24 Y59.76 E0.03
G1 X64.83 Y59.49 E0.045
G1 X63.9 E0.029
G1 X62.55 Y59.79 E0.043
G1 X61.71 Y60.15 E0.028
G1 X60.81 Y60.72 E0.033
G1 X59.94 Y61.56 E0.038
G1 X59.46 Y62.19 E0.025
G1 X58.86 Y63.45 E0.044
G1 X58.71 Y63.81 E0.012
G1 X58.5 Y66.15 E0.073
G1 X58.62 Y66.81 E0.021
G1 X59.04 Y67.98 E0.039
G1 X59.82 Y69.21 E0.045
G1 X60.99 Y70.32 E0.05
G1 X62.07 Y70.95 E0.039
G1 X63.12 Y71.28 E0.034
G1 X64.38 Y71.43 E0.04
G1 X65.88 Y71.25 E0.047
G1 X66.69 Y71.01 E0.026
G1 X67.74 Y70.44 E0.037
G1 F5612.6
G1 E-3.118
G1 F2500.0
G1 X67.86 Y70.71
;#!LAYER: 21/269
G92 E0
G1 Z5.25 F200.0
G1 X64.26 Y59.19 F15000.0
T0
G1 F5612.6
G1 E3.118
G1 F2500.0
G1 F78.0
G1 E0.065
G1 F2500.0
G1 X65.31 Y59.25 E0.033 F2250.0
G1 X65.88 Y59.34 E0.018
G1 X67.14 Y59.79 E0.042
G1 X67.98 Y60.27 E0.03
G1 X69.27 Y61.41 E0.054
G1 X69.84 Y62.22 E0.031
G1 X70.47 Y63.66 E0.049
G1 X70.68 Y64.74 E0.034
G1 Y66.03 E0.04
G1 X70.56 Y66.84 E0.026
G1 X70.05 Y68.25 E0.047
G1 X69.66 Y68.94 E0.025
G1 X68.88 Y69.9 E0.039
G1 X67.86 Y70.71 E0.041
G1 X66.48 Y71.37 E0.048
G1 X65.58 Y71.61 E0.029
G1 X64.95 Y71.7 E0.02
G1 X63.51 Y71.64 E0.045
G1 X63.03 Y71.55 E0.015
G1 X61.56 Y71.01 E0.049
G1 X60.33 Y70.17 E0.046
G1 X59.34 Y69.06 E0.046
G1 X58.89 Y68.37 E0.026
G1 X58.5 Y67.44 E0.031
G1 X58.2 Y66.09 E0.043
G1 X58.32 Y64.08 E0.063
G1 X58.71 Y62.94 E0.038
G1 X59.22 Y61.98 E0.034
G1 X59.82 Y61.2 E0.031
G1 X60.6 Y60.51 E0.032
G1 X61.62 Y59.85 E0.038
G1 X62.97 Y59.37 E0.045
G1 X64.26 Y59.19 E0.041
G1 X64.23 Y59.46 E0.008
G1 X63.33 Y59.58 E0.028
G1 X62.46 Y59.82 E0.028
G1 X61.62 Y60.18 E0.028
G1 X60.75 Y60.75 E0.032
G1 X59.88 Y61.59 E0.038
G1 X59.43 Y62.22 E0.024
G1 X58.8 Y63.57 E0.046
G1 X58.5 Y65.01 E0.046
G1 Y65.94 E0.029
G1 X58.56 Y66.48 E0.017
G1 X58.8 Y67.41 E0.03
G1 X59.28 Y68.43 E0.035
G1 X60.03 Y69.45 E0.039
G1 X60.72 Y70.11 E0.03
G1 X62.1 Y70.95 E0.05
G1 X62.97 Y71.25 E0.029
G1 X64.38 Y71.43 E0.044
G1 X65.88 Y71.25 E0.047
G1 X66.69 Y71.01 E0.026
G1 X67.74 Y70.44 E0.037
G1 X68.4 Y69.93 E0.026
G1 X69.03 Y69.3 E0.028
G1 X69.48 Y68.67 E0.024
G1 X69.99 Y67.71 E0.034
G1 X70.41 Y65.88 E0.059
G1 X70.38 Y64.77 E0.035
G1 X70.02 Y63.3 E0.047
G1 X69.21 Y61.83 E0.052
G1 X68.34 Y60.9 E0.04
G1 X67.77 Y60.48 E0.022
G1 X66.9 Y60.0 E0.031
G1 X65.64 Y59.58 E0.041
G1 X64.23 Y59.46 E0.044
G1 F5612.6
G1 E-3.118
G1 F2500.0
G1 X64.26 Y59.19
;#!LAYER: 22/269
G92 E0
G1 Z5.5 F200.0
G1 X64.26 Y59.19 F15000.0
T0
G1 F5612.6
G1 E3.118
G1 F2500.0
G1 F78.0
G1 E0.065
G1 F2500.0
G1 X65.31 Y59.25 E0.033 F2250.0
G1 X65.88 Y59.34 E0.018
G1 X67.14 Y59.79 E0.042
G1 X67.98 Y60.27 E0.03
G1 X69.27 Y61.41 E0.054
G1 X69.84 Y62.22 E0.031
G1 X70.47 Y63.66 E0.049
G1 X70.68 Y64.74 E0.034
G1 Y66.03 E0.04
G1 X70.56 Y66.84 E0.026
G1 X70.05 Y68.25 E0.047
G1 X69.66 Y68.94 E0.025
G1 X68.88 Y69.9 E0.039
G1 X67.98 Y70.65 E0.037
G1 X66.48 Y71.37 E0.052
G1 X65.43 Y71.64 E0.034
G1 X63.87 Y71.7 E0.049
G1 X63.03 Y71.55 E0.027
G1 X61.56 Y71.01 E0.049
G1 X60.33 Y70.17 E0.046
G1 X59.34 Y69.06 E0.046
G1 X58.89 Y68.37 E0.026
G1 X58.5 Y67.44 E0.031
G1 X58.2 Y66.09 E0.043
G1 X58.32 Y64.08 E0.063
G1 X58.71 Y62.94 E0.038
G1 X59.22 Y61.98 E0.034
G1 X59.82 Y61.2 E0.031
G1 X60.6 Y60.51 E0.032
G1 X61.62 Y59.85 E0.038
G1 X62.97 Y59.37 E0.045
G1 X64.26 Y59.19 E0.041
G1 X64.23 Y59.46 E0.008
G1 X63.33 Y59.58 E0.028
G1 X62.46 Y59.82 E0.028
G1 X61.62 Y60.18 E0.028
G1 X60.75 Y60.75 E0.032
G1 X59.88 Y61.59 E0.038
G1 X59.43 Y62.22 E0.024
G1 X58.8 Y63.57 E0.046
G1 X58.5 Y65.01 E0.046
G1 Y65.94 E0.029
G1 X58.56 Y66.48 E0.017
G1 X58.8 Y67.41 E0.03
G1 X59.28 Y68.43 E0.035
G1 X60.03 Y69.45 E0.039
G1 X60.72 Y70.11 E0.03
G1 X62.1 Y70.95 E0.05
G1 X62.97 Y71.25 E0.029
G1 X64.38 Y71.43 E0.044
G1 X65.88 Y71.25 E0.047
G1 X66.69 Y71.01 E0.026
G1 X67.74 Y70.44 E0.037
G1 X68.4 Y69.93 E0.026
G1 X69.03 Y69.3 E0.028
G1 X69.48 Y68.67 E0.024
G1 X69.99 Y67.71 E0.034
G1 X70.41 Y65.88 E0.059
G1 X70.38 Y64.77 E0.035
G1 X70.02 Y63.3 E0.047
G1 X69.21 Y61.83 E0.052
G1 X68.34 Y60.9 E0.04
G1 X67.77 Y60.48 E0.022
G1 X66.9 Y60.0 E0.031
G1 X65.64 Y59.58 E0.041
G1 X64.23 Y59.46 E0.044
G1 F5612.6
G1 E-3.118
G1 F2500.0
G1 X64.26 Y59.19
;#!LAYER: 23/269
G92 E0
G1 Z5.75 F200.0
G1 X64.26 Y59.19 F15000.0
T0
G1 F5612.6
G1 E3.118
G1 F2500.0
G1 F78.0
G1 E0.065
G1 F2500.0
G1 X65.31 Y59.25 E0.033 F2250.0
G1 X65.88 Y59.34 E0.018
G1 X67.14 Y59.79 E0.042
G1 X67.98 Y60.27 E0.03
G1 X69.27 Y61.41 E0.054
G1 X69.84 Y62.22 E0.031
G1 X70.47 Y63.66 E0.049
G1 X70.68 Y64.74 E0.034
G1 Y66.03 E0.04
G1 X70.56 Y66.84 E0.026
G1 X70.05 Y68.25 E0.047
G1 X69.66 Y68.94 E0.025
G1 X68.73 Y70.02 E0.044
G1 X68.46 Y70.29 E0.012
G1 X67.65 Y70.83 E0.03
G1 X66.09 Y71.49 E0.053
G1 X64.98 Y71.7 E0.035
G1 X63.75 Y71.67 E0.038
G1 X63.03 Y71.55 E0.023
G1 X61.56 Y71.01 E0.049
G1 X60.33 Y70.17 E0.046
G1 X59.34 Y69.06 E0.046
G1 X58.89 Y68.37 E0.026
G1 X58.5 Y67.44 E0.031
G1 X58.2 Y66.09 E0.043
G1 X58.32 Y64.08 E0.063
G1 X58.71 Y62.94 E0.038
G1 X59.22 Y61.98 E0.034
G1 X59.82 Y61.2 E0.031
G1 X60.6 Y60.51 E0.032
G1 X61.62 Y59.85 E0.038
G1 X62.97 Y59.37 E0.045
G1 X64.26 Y59.19 E0.041
G1 X64.23 Y59.46 E0.008
G1 X63.33 Y59.58 E0.028
G1 X62.46 Y59.82 E0.028
G1 X61.62 Y60.18 E0.028
G1 X60.75 Y60.75 E0.032
G1 X59.88 Y61.59 E0.038
G1 X59.43 Y62.22 E0.024
G1 X58.8 Y63.57 E0.046
G1 X58.5 Y65.01 E0.046
G1 Y65.94 E0.029
G1 X58.56 Y66.48 E0.017
G1 X58.8 Y67.41 E0.03
G1 X59.28 Y68.43 E0.035
G1 X60.03 Y69.45 E0.039
G1 X60.72 Y70.11 E0.03
G1 X62.1 Y70.95 E0.05
G1 X62.97 Y71.25 E0.029
G1 X64.38 Y71.43 E0.044
G1 X65.88 Y71.25 E0.047
G1 X66.69 Y71.01 E0.026
G1 X67.74 Y70.44 E0.037
G1 X68.4 Y69.93 E0.026
G1 X69.03 Y69.3 E0.028
G1 X69.48 Y68.67 E0.024
G1 X69.99 Y67.71 E0.034
G1 X70.41 Y65.88 E0.059
G1 X70.38 Y64.77 E0.035
G1 X70.02 Y63.3 E0.047
G1 X69.21 Y61.83 E0.052
G1 X68.34 Y60.9 E0.04
G1 X67.77 Y60.48 E0.022
G1 X66.9 Y60.0 E0.031
G1 X65.64 Y59.58 E0.041
G1 X64.23 Y59.46 E0.044
G1 F5612.6
G1 E-3.118
G1 F2500.0
G1 X64.26 Y59.19
;#!LAYER: 24/269
G92 E0
G1 Z6.0 F200.0
G1 X67.98 Y60.27 F15000.0
T0
G1 F5612.6
G1 E3.118
G1 F2500.0
G1 F78.0
G1 E0.065
G1 F2500.0
G1 X69.27 Y61.41 E0.054 F2250.0
G1 X69.84 Y62.22 E0.031
G1 X70.47 Y63.66 E0.049
G1 X70.68 Y64.74 E0.034
G1 Y66.03 E0.04
G1 X70.56 Y66.84 E0.026
G1 X70.05 Y68.25 E0.047
G1 X69.66 Y68.94 E0.025
G1 X68.73 Y70.02 E0.044
G1 X68.46 Y70.29 E0.012
G1 X67.65 Y70.83 E0.03
G1 X66.09 Y71.49 E0.053
G1 X64.98 Y71.7 E0.035
G1 X63.75 Y71.67 E0.038
G1 X62.4 Y71.37 E0.043
G1 X61.17 Y70.8 E0.042
G1 X60.12 Y69.99 E0.041
G1 X59.28 Y69.0 E0.04
G1 X58.83 Y68.22 E0.028
G1 X58.44 Y67.23 E0.033
G1 X58.2 Y65.97 E0.04
G1 X58.32 Y64.08 E0.059
G1 X58.71 Y62.94 E0.038
G1 X59.22 Y61.98 E0.034
G1 X59.82 Y61.2 E0.031
G1 X60.6 Y60.51 E0.032
G1 X61.62 Y59.85 E0.038
G1 X62.97 Y59.37 E0.045
G1 X64.26 Y59.19 E0.041
G1 X65.31 Y59.25 E0.033
G1 X65.88 Y59.34 E0.018
G1 X67.14 Y59.79 E0.042
G1 X67.98 Y60.27 E0.03
G1 X67.8 Y60.48 E0.009
G1 X66.66 Y59.88 E0.04
G1 X65.43 Y59.55 E0.04
G1 X64.68 Y59.46 E0.024
G1 X63.27 Y59.58 E0.044
G1 X62.46 Y59.82 E0.026
G1 X61.62 Y60.18 E0.028
G1 X60.24 Y61.23 E0.054
G1 X59.58 Y62.01 E0.032
G1 X58.95 Y63.15 E0.041
G1 X58.71 Y63.81 E0.022
G1 X58.5 Y65.19 E0.044
G1 X58.56 Y66.48 E0.04
G1 X58.8 Y67.41 E0.03
G1 X59.28 Y68.43 E0.035
G1 X60.03 Y69.45 E0.039
G1 X60.72 Y70.11 E0.03
G1 X62.1 Y70.95 E0.05
G1 X62.97 Y71.25 E0.029
G1 X64.38 Y71.43 E0.044
G1 X65.88 Y71.25 E0.047
G1 X66.69 Y71.01 E0.026
G1 X67.74 Y70.44 E0.037
G1 X68.4 Y69.93 E0.026
G1 X69.03 Y69.3 E0.028
G1 X69.48 Y68.67 E0.024
G1 X69.9 Y67.86 E0.028
G1 X70.2 Y67.05 E0.027
G1 X70.41 Y65.88 E0.037
G1 X70.38 Y64.62 E0.039
G1 X69.99 Y63.21 E0.046
G1 X69.42 Y62.13 E0.038
G1 X68.34 Y60.9 E0.051
G1 X67.8 Y60.48 E0.021
G1 F5612.6
G1 E-3.118
G1 F2500.0
G1 X67.98 Y60.27
;#!LAYER: 25/269
G92 E0
G1 Z6.25 F200.0
G1 X64.26 Y59.19 F15000.0
T0
G1 F5612.6
G1 E3.118
G1 F2500.0
G1 F78.0
G1 E0.065
G1 F2500.0
G1 X65.31 Y59.25 E0.033 F2250.0
G1 X65.88 Y59.34 E0.018
G1 X67.14 Y59.79 E0.042
G1 X67.98 Y60.27 E0.03
G1 X69.27 Y61.41 E0.054
G1 X69.84 Y62.22 E0.031
G1 X70.47 Y63.66 E0.049
G1 X70.71 Y64.95 E0.041
G1 X70.62 Y66.54 E0.05
G1 X70.41 Y67.41 E0.028
G1 X70.05 Y68.25 E0.028
G1 X69.24 Y69.48 E0.046
G1 X68.49 Y70.23 E0.033
G1 X68.07 Y70.59 E0.017
G1 X66.9 Y71.22 E0.041
G1 X66.09 Y71.49 E0.027
G1 X64.98 Y71.7 E0.035
G1 X63.63 Y71.64 E0.042
G1 X63.06 Y71.55 E0.018
G1 X61.59 Y71.04 E0.049
G1 X60.18 Y70.05 E0.054
G1 X59.67 Y69.54 E0.022
G1 X58.86 Y68.25 E0.047
G1 X58.47 Y67.35 E0.031
G1 X58.2 Y66.0 E0.043
G1 X58.32 Y64.08 E0.06
G1 X58.71 Y62.94 E0.038
G1 X59.22 Y61.98 E0.034
G1 X59.82 Y61.2 E0.031
G1 X60.6 Y60.51 E0.032
G1 X61.62 Y59.85 E0.038
G1 X62.97 Y59.37 E0.045
G1 X64.26 Y59.19 E0.041
G1 X64.23 Y59.46 E0.008
G1 X63.33 Y59.58 E0.028
G1 X62.46 Y59.82 E0.028
G1 X61.62 Y60.18 E0.028
G1 X60.75 Y60.75 E0.032
G1 X59.88 Y61.59 E0.038
G1 X59.43 Y62.22 E0.024
G1 X58.8 Y63.57 E0.046
G1 X58.5 Y65.01 E0.046
G1 Y65.94 E0.029
G1 X58.56 Y66.48 E0.017
G1 X58.8 Y67.41 E0.03
G1 X59.28 Y68.43 E0.035
G1 X60.03 Y69.45 E0.039
G1 X60.72 Y70.11 E0.03
G1 X62.1 Y70.95 E0.05
G1 X62.97 Y71.25 E0.029
G1 X64.38 Y71.43 E0.044
G1 X65.88 Y71.25 E0.047
G1 X66.69 Y71.01 E0.026
G1 X67.74 Y70.44 E0.037
G1 X68.4 Y69.93 E0.026
G1 X69.03 Y69.3 E0.028
G1 X69.48 Y68.67 E0.024
G1 X69.99 Y67.71 E0.034
G1 X70.41 Y65.88 E0.059
G1 X70.38 Y64.77 E0.035
G1 X70.02 Y63.3 E0.047
G1 X69.21 Y61.83 E0.052
G1 X68.34 Y60.9 E0.04
G1 X67.77 Y60.48 E0.022
G1 X66.9 Y60.0 E0.031
G1 X65.64 Y59.58 E0.041
G1 X64.23 Y59.46 E0.044
G1 F5612.6
G1 E-3.118
G1 F2500.0
G1 X64.26 Y59.19
;#!LAYER: 26/269
G92 E0
G1 Z6.5 F200.0
G1 X64.26 Y59.19 F15000.0
T0
G1 F5612.6
G1 E3.118
G1 F2500.0
G1 F78.0
G1 E0.065
G1 F2500.0
G1 X65.31 Y59.25 E0.033 F2250.0
G1 X65.88 Y59.34 E0.018
G1 X67.14 Y59.79 E0.042
G1 X67.98 Y60.27 E0.03
G1 X69.27 Y61.41 E0.054
G1 X69.84 Y62.22 E0.031
G1 X70.47 Y63.66 E0.049
G1 X70.71 Y64.95 E0.041
G1 X70.62 Y66.54 E0.05
G1 X70.41 Y67.41 E0.028
G1 X70.05 Y68.25 E0.028
G1 X69.24 Y69.48 E0.046
G1 X68.49 Y70.23 E0.033
G1 X68.07 Y70.59 E0.017
G1 X66.9 Y71.22 E0.041
G1 X65.52 Y71.61 E0.045
G1 X64.89 Y71.7 E0.02
G1 X63.57 Y71.64 E0.041
G1 X62.28 Y71.31 E0.042
G1 X61.23 Y70.83 E0.036
G1 X60.12 Y69.99 E0.043
G1 X59.28 Y69.0 E0.04
G1 X58.83 Y68.22 E0.028
G1 X58.44 Y67.23 E0.033
G1 X58.2 Y65.97 E0.04
G1 X58.32 Y64.08 E0.059
G1 X58.71 Y62.94 E0.038
G1 X59.22 Y61.98 E0.034
G1 X59.82 Y61.2 E0.031
G1 X60.6 Y60.51 E0.032
G1 X61.62 Y59.85 E0.038
G1 X62.97 Y59.37 E0.045
G1 X64.26 Y59.19 E0.041
G1 X64.23 Y59.46 E0.008
G1 X63.33 Y59.58 E0.028
G1 X62.46 Y59.82 E0.028
G1 X61.62 Y60.18 E0.028
G1 X60.75 Y60.75 E0.032
G1 X59.88 Y61.59 E0.038
G1 X59.43 Y62.22 E0.024
G1 X58.8 Y63.57 E0.046
G1 X58.5 Y65.01 E0.046
G1 Y65.94 E0.029
G1 X58.56 Y66.48 E0.017
G1 X58.8 Y67.41 E0.03
G1 X59.28 Y68.43 E0.035
G1 X60.03 Y69.45 E0.039
G1 X60.72 Y70.11 E0.03
G1 X62.1 Y70.95 E0.05
G1 X62.97 Y71.25 E0.029
G1 X64.38 Y71.43 E0.044
G1 X65.88 Y71.25 E0.047
G1 X66.69 Y71.01 E0.026
G1 X67.74 Y70.44 E0.037
G1 X68.4 Y69.93 E0.026
G1 X69.03 Y69.3 E0.028
G1 X69.48 Y68.67 E0.024
G1 X69.99 Y67.71 E0.034
G1 X70.41 Y65.88 E0.059
G1 X70.38 Y64.77 E0.035
G1 X70.02 Y63.3 E0.047
G1 X69.21 Y61.83 E0.052
G1 X68.34 Y60.9 E0.04
G1 X67.77 Y60.48 E0.022
G1 X66.9 Y60.0 E0.031
G1 X65.64 Y59.58 E0.041
G1 X64.23 Y59.46 E0.044
G1 F5612.6
G1 E-3.118
G1 F2500.0
G1 X64.26 Y59.19
;#!LAYER: 27/269
G92 E0
G1 Z6.75 F200.0
G1 X64.26 Y59.19 F15000.0
T0
G1 F5612.6
G1 E3.118
G1 F2500.0
G1 F78.0
G1 E0.065
G1 F2500.0
G1 X65.31 Y59.25 E0.033 F2250.0
G1 X65.88 Y59.34 E0.018
G1 X67.14 Y59.79 E0.042
G1 X67.98 Y60.27 E0.03
G1 X69.27 Y61.41 E0.054
G1 X69.84 Y62.22 E0.031
G1 X70.47 Y63.66 E0.049
G1 X70.71 Y64.95 E0.041
G1 X70.62 Y66.54 E0.05
G1 X70.41 Y67.41 E0.028
G1 X70.05 Y68.25 E0.028
G1 X69.24 Y69.48 E0.046
G1 X68.49 Y70.23 E0.033
G1 X68.07 Y70.59 E0.017
G1 X66.9 Y71.22 E0.041
G1 X65.52 Y71.61 E0.045
G1 X64.89 Y71.7 E0.02
G1 X63.57 Y71.64 E0.041
G1 X62.28 Y71.31 E0.042
G1 X61.23 Y70.83 E0.036
G1 X60.12 Y69.99 E0.043
G1 X59.28 Y69.0 E0.04
G1 X58.83 Y68.22 E0.028
G1 X58.44 Y67.23 E0.033
G1 X58.2 Y65.97 E0.04
G1 X58.32 Y64.08 E0.059
G1 X58.71 Y62.94 E0.038
G1 X59.22 Y61.98 E0.034
G1 X59.82 Y61.2 E0.031
G1 X60.6 Y60.51 E0.032
G1 X61.62 Y59.85 E0.038
G1 X62.97 Y59.37 E0.045
G1 X64.26 Y59.19 E0.041
G1 X64.23 Y59.46 E0.008
G1 X63.33 Y59.58 E0.028
G1 X62.46 Y59.82 E0.028
G1 X61.62 Y60.18 E0.028
G1 X60.75 Y60.75 E0.032
G1 X59.88 Y61.59 E0.038
G1 X59.43 Y62.22 E0.024
G1 X58.8 Y63.57 E0.046
G1 X58.5 Y65.01 E0.046
G1 Y65.94 E0.029
G1 X58.56 Y66.48 E0.017
G1 X58.8 Y67.41 E0.03
G1 X59.28 Y68.43 E0.035
G1 X60.03 Y69.45 E0.039
G1 X60.72 Y70.11 E0.03
G1 X62.1 Y70.95 E0.05
G1 X62.97 Y71.25 E0.029
G1 X64.38 Y71.43 E0.044
G1 X65.88 Y71.25 E0.047
G1 X66.69 Y71.01 E0.026
G1 X67.74 Y70.44 E0.037
G1 X68.4 Y69.93 E0.026
G1 X69.03 Y69.3 E0.028
G1 X69.48 Y68.67 E0.024
G1 X69.99 Y67.71 E0.034
G1 X70.41 Y65.88 E0.059
G1 X70.38 Y64.77 E0.035
G1 X70.02 Y63.3 E0.047
G1 X69.21 Y61.83 E0.052
G1 X68.34 Y60.9 E0.04
G1 X67.77 Y60.48 E0.022
G1 X66.9 Y60.0 E0.031
G1 X65.64 Y59.58 E0.041
G1 X64.23 Y59.46 E0.044
G1 F5612.6
G1 E-3.118
G1 F2500.0
G1 X64.26 Y59.19
;#!LAYER: 28/269
G92 E0
G1 Z7.0 F200.0
G1 X64.26 Y59.19 F15000.0
T0
G1 F5612.6
G1 E3.118
G1 F2500.0
G1 F78.0
G1 E0.065
G1 F2500.0
G1 X65.31 Y59.25 E0.033 F2250.0
G1 X65.88 Y59.34 E0.018
G1 X67.14 Y59.79 E0.042
G1 X67.98 Y60.27 E0.03
G1 X69.27 Y61.41 E0.054
G1 X69.84 Y62.22 E0.031
G1 X70.47 Y63.66 E0.049
G1 X70.71 Y64.95 E0.041
G1 X70.62 Y66.54 E0.05
G1 X70.41 Y67.41 E0.028
G1 X70.05 Y68.25 E0.028
G1 X69.24 Y69.48 E0.046
G1 X68.67 Y70.08 E0.026
G1 X67.86 Y70.71 E0.032
G1 X66.48 Y71.37 E0.048
G1 X65.55 Y71.61 E0.03
G1 X64.86 Y71.7 E0.022
G1 X63.48 Y71.64 E0.043
G1 X62.04 Y71.22 E0.047
G1 X60.99 Y70.68 E0.037
G1 X60.06 Y69.93 E0.037
G1 X59.28 Y69.0 E0.038
G1 X58.83 Y68.22 E0.028
G1 X58.44 Y67.23 E0.033
G1 X58.2 Y65.94 E0.041
G1 X58.32 Y64.08 E0.058
G1 X58.71 Y62.94 E0.038
G1 X59.22 Y61.98 E0.034
G1 X59.82 Y61.2 E0.031
G1 X60.6 Y60.51 E0.032
G1 X61.62 Y59.85 E0.038
G1 X62.97 Y59.37 E0.045
G1 X64.26 Y59.19 E0.041
G1 X64.23 Y59.46 E0.008
G1 X63.33 Y59.58 E0.028
G1 X62.46 Y59.82 E0.028
G1 X61.62 Y60.18 E0.028
G1 X60.75 Y60.75 E0.032
G1 X59.88 Y61.59 E0.038
G1 X59.43 Y62.22 E0.024
G1 X58.8 Y63.57 E0.046
G1 X58.5 Y65.01 E0.046
G1 Y65.94 E0.029
G1 X58.56 Y66.48 E0.017
G1 X58.8 Y67.41 E0.03
G1 X59.28 Y68.43 E0.035
G1 X60.03 Y69.45 E0.039
G1 X60.72 Y70.11 E0.03
G1 X62.1 Y70.95 E0.05
G1 X62.97 Y71.25 E0.029
G1 X64.38 Y71.43 E0.044
G1 X65.88 Y71.25 E0.047
G1 X66.69 Y71.01 E0.026
G1 X67.74 Y70.44 E0.037
G1 X68.4 Y69.93 E0.026
G1 X69.03 Y69.3 E0.028
G1 X69.48 Y68.67 E0.024
G1 X69.99 Y67.71 E0.034
G1 X70.41 Y65.88 E0.059
G1 X70.38 Y64.77 E0.035
G1 X70.02 Y63.3 E0.047
G1 X69.21 Y61.83 E0.052
G1 X68.34 Y60.9 E0.04
G1 X67.77 Y60.48 E0.022
G1 X66.9 Y60.0 E0.031
G1 X65.64 Y59.58 E0.041
G1 X64.23 Y59.46 E0.044
G1 F5612.6
G1 E-3.118
G1 F2500.0
G1 X64.26 Y59.19
;#!LAYER: 29/269
G92 E0
G1 Z7.25 F200.0
G1 X64.26 Y59.19 F15000.0
T0
G1 F5612.6
G1 E3.118
G1 F2500.0
G1 F78.0
G1 E0.065
G1 F2500.0
G1 X65.31 Y59.25 E0.033 F2250.0
G1 X65.88 Y59.34 E0.018
G1 X67.14 Y59.79 E0.042
G1 X67.98 Y60.27 E0.03
G1 X69.27 Y61.41 E0.054
G1 X69.84 Y62.22 E0.031
G1 X70.47 Y63.66 E0.049
G1 X70.71 Y64.95 E0.041
G1 X70.65 Y66.45 E0.047
G1 X70.41 Y67.41 E0.031
G1 X70.05 Y68.25 E0.028
G1 X69.24 Y69.48 E0.046
G1 X68.67 Y70.08 E0.026
G1 X67.86 Y70.71 E0.032
G1 X66.48 Y71.37 E0.048
G1 X65.55 Y71.61 E0.03
G1 X64.86 Y71.7 E0.022
G1 X63.48 Y71.64 E0.043
G1 X62.04 Y71.22 E0.047
G1 X60.99 Y70.68 E0.037
G1 X60.03 Y69.9 E0.039
G1 X59.25 Y68.94 E0.039
G1 X58.77 Y68.1 E0.03
G1 X58.32 Y66.78 E0.043
G1 X58.17 Y65.28 E0.047
G1 X58.32 Y64.08 E0.038
G1 X58.71 Y62.94 E0.038
G1 X59.22 Y61.98 E0.034
G1 X59.82 Y61.2 E0.031
G1 X60.6 Y60.51 E0.032
G1 X61.62 Y59.85 E0.038
G1 X62.97 Y59.37 E0.045
G1 X64.26 Y59.19 E0.041
G1 X64.23 Y59.46 E0.008
G1 X63.33 Y59.58 E0.028
G1 X62.46 Y59.82 E0.028
G1 X61.62 Y60.18 E0.028
G1 X60.75 Y60.75 E0.032
G1 X59.88 Y61.59 E0.038
G1 X59.43 Y62.22 E0.024
G1 X58.8 Y63.57 E0.046
G1 X58.5 Y65.01 E0.046
G1 Y65.94 E0.029
G1 X58.56 Y66.48 E0.017
G1 X58.8 Y67.41 E0.03
G1 X59.28 Y68.43 E0.035
G1 X60.03 Y69.45 E0.039
G1 X60.72 Y70.11 E0.03
G1 X62.1 Y70.95 E0.05
G1 X62.97 Y71.25 E0.029
G1 X64.38 Y71.43 E0.044
G1 X65.88 Y71.25 E0.047
G1 X66.69 Y71.01 E0.026
G1 X67.74 Y70.44 E0.037
G1 X68.4 Y69.93 E0.026
G1 X69.03 Y69.3 E0.028
G1 X69.48 Y68.67 E0.024
G1 X69.99 Y67.71 E0.034
G1 X70.41 Y65.88 E0.059
G1 X70.38 Y64.77 E0.035
G1 X70.02 Y63.3 E0.047
G1 X69.21 Y61.83 E0.052
G1 X68.34 Y60.9 E0.04
G1 X67.77 Y60.48 E0.022
G1 X66.9 Y60.0 E0.031
G1 X65.64 Y59.58 E0.041
G1 X64.23 Y59.46 E0.044
G1 F5612.6
G1 E-3.118
G1 F2500.0
G1 X64.26 Y59.19
;#!LAYER: 30/269
G92 E0
G1 Z7.5 F200.0
G1 X64.26 Y59.19 F15000.0
T0
G1 F5612.6
G1 E3.118
G1 F2500.0
G1 F78.0
G1 E0.065
G1 F2500.0
G1 X65.31 Y59.25 E0.033 F2250.0
G1 X65.88 Y59.34 E0.018
G1 X67.14 Y59.79 E0.042
G1 X67.98 Y60.27 E0.03
G1 X69.27 Y61.41 E0.054
G1 X69.84 Y62.22 E0.031
G1 X70.47 Y63.66 E0.049
G1 X70.71 Y64.95 E0.041
G1 X70.65 Y66.45 E0.047
G1 X70.41 Y67.41 E0.031
G1 X70.05 Y68.25 E0.028
G1 X69.24 Y69.48 E0.046
G1 X68.67 Y70.08 E0.026
G1 X67.86 Y70.71 E0.032
G1 X66.48 Y71.37 E0.048
G1 X65.55 Y71.61 E0.03
G1 X64.86 Y71.7 E0.022
G1 X63.48 Y71.64 E0.043
G1 X62.04 Y71.22 E0.047
G1 X60.99 Y70.68 E0.037
G1 X60.03 Y69.9 E0.039
G1 X59.25 Y68.94 E0.039
G1 X58.77 Y68.1 E0.03
G1 X58.32 Y66.78 E0.043
G1 X58.17 Y65.28 E0.047
G1 X58.32 Y64.08 E0.038
G1 X58.71 Y62.94 E0.038
G1 X59.22 Y61.98 E0.034
G1 X59.82 Y61.2 E0.031
G1 X60.6 Y60.51 E0.032
G1 X61.62 Y59.85 E0.038
G1 X62.97 Y59.37 E0.045
G1 X64.26 Y59.19 E0.041
G1 X64.23 Y59.46 E0.008
G1 X63.33 Y59.58 E0.028
G1 X62.46 Y59.82 E0.028
G1 X61.62 Y60.18 E0.028
G1 X60.75 Y60.75 E0.032
G1 X59.88 Y61.59 E0.038
G1 X59.43 Y62.22 E0.024
G1 X58.8 Y63.57 E0.046
G1 X58.5 Y65.01 E0.046
G1 Y65.94 E0.029
G1 X58.56 Y66.48 E0.017
G1 X58.8 Y67.41 E0.03
G1 X59.28 Y68.43 E0.035
G1 X60.03 Y69.45 E0.039
G1 X60.72 Y70.11 E0.03
G1 X62.1 Y70.95 E0.05
G1 X62.97 Y71.25 E0.029
G1 X64.38 Y71.43 E0.044
G1 X65.88 Y71.25 E0.047
G1 X66.69 Y71.01 E0.026
G1 X67.74 Y70.44 E0.037
G1 X68.4 Y69.93 E0.026
G1 X69.03 Y69.3 E0.028
G1 X69.48 Y68.67 E0.024
G1 X69.99 Y67.71 E0.034
G1 X70.41 Y65.88 E0.059
G1 X70.38 Y64.77 E0.035
G1 X70.02 Y63.3 E0.047
G1 X69.21 Y61.83 E0.052
G1 X68.34 Y60.9 E0.04
G1 X67.77 Y60.48 E0.022
G1 X66.9 Y60.0 E0.031
G1 X65.64 Y59.58 E0.041
G1 X64.23 Y59.46 E0.044
G1 F5612.6
G1 E-3.118
G1 F2500.0
G1 X64.26 Y59.19
;#!LAYER: 31/269
G92 E0
G1 Z7.75 F200.0
G1 X64.26 Y59.19 F15000.0
T0
G1 F5612.6
G1 E3.118
G1 F2500.0
G1 F78.0
G1 E0.065
G1 F2500.0
G1 X65.31 Y59.25 E0.033 F2250.0
G1 X65.88 Y59.34 E0.018
G1 X67.14 Y59.79 E0.042
G1 X67.98 Y60.27 E0.03
G1 X69.27 Y61.41 E0.054
G1 X69.84 Y62.22 E0.031
G1 X70.47 Y63.66 E0.049
G1 X70.71 Y64.95 E0.041
G1 X70.65 Y66.45 E0.047
G1 X70.41 Y67.41 E0.031
G1 X70.05 Y68.25 E0.028
G1 X69.24 Y69.48 E0.046
G1 X68.4 Y70.32 E0.037
G1 X68.01 Y70.62 E0.015
G1 X66.84 Y71.25 E0.041
G1 X65.55 Y71.61 E0.042
G1 X64.86 Y71.7 E0.022
G1 X63.48 Y71.64 E0.043
G1 X62.04 Y71.22 E0.047
G1 X60.99 Y70.68 E0.037
G1 X60.03 Y69.9 E0.039
G1 X59.25 Y68.94 E0.039
G1 X58.77 Y68.1 E0.03
G1 X58.32 Y66.78 E0.043
G1 X58.17 Y65.28 E0.047
G1 X58.32 Y64.08 E0.038
G1 X58.71 Y62.94 E0.038
G1 X59.22 Y61.98 E0.034
G1 X59.82 Y61.2 E0.031
G1 X60.6 Y60.51 E0.032
G1 X61.62 Y59.85 E0.038
G1 X62.97 Y59.37 E0.045
G1 X64.26 Y59.19 E0.041
G1 X64.23 Y59.46 E0.008
G1 X63.33 Y59.58 E0.028
G1 X62.46 Y59.82 E0.028
G1 X61.62 Y60.18 E0.028
G1 X60.75 Y60.75 E0.032
G1 X59.88 Y61.59 E0.038
G1 X59.43 Y62.22 E0.024
G1 X58.8 Y63.57 E0.046
G1 X58.5 Y65.01 E0.046
G1 Y65.94 E0.029
G1 X58.56 Y66.48 E0.017
G1 X58.8 Y67.41 E0.03
G1 X59.28 Y68.43 E0.035
G1 X60.03 Y69.45 E0.039
G1 X60.72 Y70.11 E0.03
G1 X62.1 Y70.95 E0.05
G1 X62.97 Y71.25 E0.029
G1 X64.38 Y71.43 E0.044
G1 X65.88 Y71.25 E0.047
G1 X66.69 Y71.01 E0.026
G1 X67.74 Y70.44 E0.037
G1 X68.4 Y69.93 E0.026
G1 X69.03 Y69.3 E0.028
G1 X69.48 Y68.67 E0.024
G1 X69.99 Y67.71 E0.034
G1 X70.41 Y65.88 E0.059
G1 X70.38 Y64.77 E0.035
G1 X70.02 Y63.3 E0.047
G1 X69.21 Y61.83 E0.052
G1 X68.34 Y60.9 E0.04
G1 X67.77 Y60.48 E0.022
G1 X66.9 Y60.0 E0.031
G1 X65.64 Y59.58 E0.041
G1 X64.23 Y59.46 E0.044
G1 F5612.6
G1 E-3.118
G1 F2500.0
G1 X64.26 Y59.19
;#!LAYER: 32/269
G92 E0
G1 Z8.0 F200.0
G1 X64.26 Y59.19 F15000.0
T0
G1 F5612.6
G1 E3.118
G1 F2500.0
G1 F78.0
G1 E0.065
G1 F2500.0
G1 X65.31 Y59.25 E0.033 F2250.0
G1 X65.88 Y59.34 E0.018
G1 X67.14 Y59.79 E0.042
G1 X67.98 Y60.27 E0.03
G1 X69.27 Y61.41 E0.054
G1 X69.84 Y62.22 E0.031
G1 X70.47 Y63.66 E0.049
G1 X70.71 Y64.95 E0.041
G1 X70.65 Y66.45 E0.047
G1 X70.41 Y67.41 E0.031
G1 X70.05 Y68.25 E0.028
G1 X69.24 Y69.48 E0.046
G1 X68.4 Y70.32 E0.037
G1 X68.01 Y70.62 E0.015
G1 X66.84 Y71.25 E0.041
G1 X65.55 Y71.61 E0.042
G1 X64.86 Y71.7 E0.022
G1 X63.48 Y71.64 E0.043
G1 X62.04 Y71.22 E0.047
G1 X60.99 Y70.68 E0.037
G1 X60.03 Y69.9 E0.039
G1 X59.25 Y68.94 E0.039
G1 X58.77 Y68.1 E0.03
G1 X58.32 Y66.78 E0.043
G1 X58.17 Y65.28 E0.047
G1 X58.32 Y64.08 E0.038
G1 X58.71 Y62.94 E0.038
G1 X59.22 Y61.98 E0.034
G1 X59.82 Y61.2 E0.031
G1 X60.6 Y60.51 E0.032
G1 X61.62 Y59.85 E0.038
G1 X62.97 Y59.37 E0.045
G1 X64.26 Y59.19 E0.041
G1 X64.23 Y59.46 E0.008
G1 X63.33 Y59.58 E0.028
G1 X62.46 Y59.82 E0.028
G1 X61.62 Y60.18 E0.028
G1 X60.75 Y60.75 E0.032
G1 X59.88 Y61.59 E0.038
G1 X59.43 Y62.22 E0.024
G1 X58.8 Y63.57 E0.046
G1 X58.5 Y65.01 E0.046
G1 Y65.94 E0.029
G1 X58.56 Y66.48 E0.017
G1 X58.8 Y67.41 E0.03
G1 X59.28 Y68.43 E0.035
G1 X60.03 Y69.45 E0.039
G1 X60.72 Y70.11 E0.03
G1 X62.1 Y70.95 E0.05
G1 X62.97 Y71.25 E0.029
G1 X64.38 Y71.43 E0.044
G1 X65.88 Y71.25 E0.047
G1 X66.69 Y71.01 E0.026
G1 X67.74 Y70.44 E0.037
G1 X68.4 Y69.93 E0.026
G1 X69.03 Y69.3 E0.028
G1 X69.48 Y68.67 E0.024
G1 X69.99 Y67.71 E0.034
G1 X70.41 Y65.88 E0.059
G1 X70.38 Y64.77 E0.035
G1 X70.02 Y63.3 E0.047
G1 X69.21 Y61.83 E0.052
G1 X68.34 Y60.9 E0.04
G1 X67.77 Y60.48 E0.022
G1 X66.9 Y60.0 E0.031
G1 X65.64 Y59.58 E0.041
G1 X64.23 Y59.46 E0.044
G1 F5612.6
G1 E-3.118
G1 F2500.0
G1 X64.26 Y59.19
;#!LAYER: 33/269
G92 E0
G1 Z8.25 F200.0
G1 X64.26 Y59.19 F15000.0
T0
G1 F5612.6
G1 E3.118
G1 F2500.0
G1 F78.0
G1 E0.065
G1 F2500.0
G1 X65.31 Y59.25 E0.033 F2250.0
G1 X65.88 Y59.34 E0.018
G1 X67.14 Y59.79 E0.042
G1 X67.98 Y60.27 E0.03
G1 X69.27 Y61.41 E0.054
G1 X69.84 Y62.22 E0.031
G1 X70.47 Y63.66 E0.049
G1 X70.71 Y64.95 E0.041
G1 X70.65 Y66.45 E0.047
G1 X70.41 Y67.41 E0.031
G1 X70.05 Y68.25 E0.028
G1 X69.24 Y69.48 E0.046
G1 X68.4 Y70.32 E0.037
G1 X68.01 Y70.62 E0.015
G1 X66.84 Y71.25 E0.041
G1 X65.43 Y71.64 E0.046
G1 X64.95 Y71.7 E0.015
G1 X63.57 Y71.64 E0.043
G1 X62.28 Y71.31 E0.042
G1 X61.23 Y70.83 E0.036
G1 X60.03 Y69.9 E0.047
G1 X59.25 Y68.94 E0.039
G1 X58.77 Y68.1 E0.03
G1 X58.32 Y66.78 E0.043
G1 X58.17 Y65.28 E0.047
G1 X58.32 Y64.08 E0.038
G1 X58.71 Y62.94 E0.038
G1 X59.22 Y61.98 E0.034
G1 X59.82 Y61.2 E0.031
G1 X60.6 Y60.51 E0.032
G1 X61.62 Y59.85 E0.038
G1 X62.97 Y59.37 E0.045
G1 X64.26 Y59.19 E0.041
G1 X64.23 Y59.46 E0.008
G1 X63.33 Y59.58 E0.028
G1 X62.46 Y59.82 E0.028
G1 X61.62 Y60.18 E0.028
G1 X60.75 Y60.75 E0.032
G1 X59.88 Y61.59 E0.038
G1 X59.43 Y62.22 E0.024
G1 X58.8 Y63.57 E0.046
G1 X58.5 Y65.01 E0.046
G1 Y65.94 E0.029
G1 X58.56 Y66.48 E0.017
G1 X58.8 Y67.41 E0.03
G1 X59.28 Y68.43 E0.035
G1 X60.03 Y69.45 E0.039
G1 X60.72 Y70.11 E0.03
G1 X62.1 Y70.95 E0.05
G1 X62.97 Y71.25 E0.029
G1 X64.38 Y71.43 E0.044
G1 X65.88 Y71.25 E0.047
G1 X66.69 Y71.01 E0.026
G1 X67.74 Y70.44 E0.037
G1 X68.4 Y69.93 E0.026
G1 X69.03 Y69.3 E0.028
G1 X69.48 Y68.67 E0.024
G1 X69.99 Y67.71 E0.034
G1 X70.41 Y65.88 E0.059
G1 X70.38 Y64.77 E0.035
G1 X70.02 Y63.3 E0.047
G1 X69.21 Y61.83 E0.052
G1 X68.34 Y60.9 E0.04
G1 X67.77 Y60.48 E0.022
G1 X66.9 Y60.0 E0.031
G1 X65.64 Y59.58 E0.041
G1 X64.23 Y59.46 E0.044
G1 F5612.6
G1 E-3.118
G1 F2500.0
G1 X64.26 Y59.19
;#!LAYER: 34/269
G92 E0
G1 Z8.5 F200.0
G1 X64.26 Y59.19 F15000.0
T0
G1 F5612.6
G1 E3.118
G1 F2500.0
G1 F78.0
G1 E0.065
G1 F2500.0
G1 X65.31 Y59.25 E0.033 F2250.0
G1 X65.88 Y59.34 E0.018
G1 X67.14 Y59.79 E0.042
G1 X67.98 Y60.27 E0.03
G1 X69.27 Y61.41 E0.054
G1 X69.84 Y62.22 E0.031
G1 X70.47 Y63.66 E0.049
G1 X70.71 Y64.95 E0.041
G1 X70.65 Y66.45 E0.047
G1 X70.41 Y67.41 E0.031
G1 X70.05 Y68.25 E0.028
G1 X69.24 Y69.48 E0.046
G1 X68.34 Y70.38 E0.04
G1 X67.62 Y70.86 E0.027
G1 X66.09 Y71.49 E0.052
G1 X64.89 Y71.7 E0.038
G1 X63.57 Y71.64 E0.041
G1 X62.28 Y71.31 E0.042
G1 X61.23 Y70.83 E0.036
G1 X60.03 Y69.9 E0.047
G1 X59.25 Y68.94 E0.039
G1 X58.77 Y68.1 E0.03
G1 X58.32 Y66.78 E0.043
G1 X58.17 Y65.28 E0.047
G1 X58.32 Y64.08 E0.038
G1 X58.71 Y62.94 E0.038
G1 X59.22 Y61.98 E0.034
G1 X59.82 Y61.2 E0.031
G1 X60.6 Y60.51 E0.032
G1 X61.62 Y59.85 E0.038
G1 X62.97 Y59.37 E0.045
G1 X64.26 Y59.19 E0.041
G1 X64.23 Y59.46 E0.008
G1 X63.33 Y59.58 E0.028
G1 X62.46 Y59.82 E0.028
G1 X61.62 Y60.18 E0.028
G1 X60.75 Y60.75 E0.032
G1 X59.88 Y61.59 E0.038
G1 X59.43 Y62.22 E0.024
G1 X58.8 Y63.57 E0.046
G1 X58.5 Y65.01 E0.046
G1 Y65.94 E0.029
G1 X58.56 Y66.48 E0.017
G1 X58.8 Y67.41 E0.03
G1 X59.28 Y68.43 E0.035
G1 X60.03 Y69.45 E0.039
G1 X60.72 Y70.11 E0.03
G1 X62.1 Y70.95 E0.05
G1 X62.97 Y71.25 E0.029
G1 X64.38 Y71.43 E0.044
G1 X65.88 Y71.25 E0.047
G1 X66.69 Y71.01 E0.026
G1 X67.74 Y70.44 E0.037
G1 X68.4 Y69.93 E0.026
G1 X69.03 Y69.3 E0.028
G1 X69.48 Y68.67 E0.024
G1 X69.99 Y67.71 E0.034
G1 X70.41 Y65.88 E0.059
G1 X70.38 Y64.77 E0.035
G1 X70.02 Y63.3 E0.047
G1 X69.21 Y61.83 E0.052
G1 X68.34 Y60.9 E0.04
G1 X67.77 Y60.48 E0.022
G1 X66.9 Y60.0 E0.031
G1 X65.64 Y59.58 E0.041
G1 X64.23 Y59.46 E0.044
G1 F5612.6
G1 E-3.118
G1 F2500.0
G1 X64.26 Y59.19
;#!LAYER: 35/269
G92 E0
G1 Z8.75 F200.0
G1 X64.26 Y59.19 F15000.0
T0
G1 F5612.6
G1 E3.118
G1 F2500.0
G1 F78.0
G1 E0.065
G1 F2500.0
G1 X65.31 Y59.25 E0.033 F2250.0
G1 X65.88 Y59.34 E0.018
G1 X67.14 Y59.79 E0.042
G1 X67.98 Y60.27 E0.03
G1 X69.27 Y61.41 E0.054
G1 X69.84 Y62.22 E0.031
G1 X70.47 Y63.66 E0.049
G1 X70.71 Y64.95 E0.041
G1 X70.65 Y66.45 E0.047
G1 X70.41 Y67.41 E0.031
G1 X70.05 Y68.25 E0.028
G1 X69.24 Y69.48 E0.046
G1 X68.34 Y70.38 E0.04
G1 X67.62 Y70.86 E0.027
G1 X66.09 Y71.49 E0.052
G1 X64.89 Y71.7 E0.038
G1 X63.57 Y71.64 E0.041
G1 X62.28 Y71.31 E0.042
G1 X61.23 Y70.83 E0.036
G1 X60.03 Y69.9 E0.047
G1 X59.25 Y68.94 E0.039
G1 X58.77 Y68.1 E0.03
G1 X58.32 Y66.78 E0.043
G1 X58.17 Y65.28 E0.047
G1 X58.32 Y64.08 E0.038
G1 X58.71 Y62.94 E0.038
G1 X59.22 Y61.98 E0.034
G1 X59.82 Y61.2 E0.031
G1 X60.6 Y60.51 E0.032
G1 X61.62 Y59.85 E0.038
G1 X62.97 Y59.37 E0.045
G1 X64.26 Y59.19 E0.041
G1 X64.23 Y59.46 E0.008
G1 X63.33 Y59.58 E0.028
G1 X62.46 Y59.82 E0.028
G1 X61.62 Y60.18 E0.028
G1 X60.75 Y60.75 E0.032
G1 X59.88 Y61.59 E0.038
G1 X59.43 Y62.22 E0.024
G1 X58.8 Y63.57 E0.046
G1 X58.5 Y65.01 E0.046
G1 Y65.94 E0.029
G1 X58.56 Y66.48 E0.017
G1 X58.8 Y67.41 E0.03
G1 X59.28 Y68.43 E0.035
G1 X60.03 Y69.45 E0.039
G1 X60.72 Y70.11 E0.03
G1 X62.1 Y70.95 E0.05
G1 X62.97 Y71.25 E0.029
G1 X64.38 Y71.43 E0.044
G1 X65.88 Y71.25 E0.047
G1 X66.69 Y71.01 E0.026
G1 X67.74 Y70.44 E0.037
G1 X68.4 Y69.93 E0.026
G1 X69.03 Y69.3 E0.028
G1 X69.48 Y68.67 E0.024
G1 X69.99 Y67.71 E0.034
G1 X70.41 Y65.88 E0.059
G1 X70.38 Y64.77 E0.035
G1 X70.02 Y63.3 E0.047
G1 X69.21 Y61.83 E0.052
G1 X68.34 Y60.9 E0.04
G1 X67.77 Y60.48 E0.022
G1 X66.9 Y60.0 E0.031
G1 X65.64 Y59.58 E0.041
G1 X64.23 Y59.46 E0.044
G1 F5612.6
G1 E-3.118
G1 F2500.0
G1 X64.26 Y59.19
;#!LAYER: 36/269
G92 E0
G1 Z9.0 F200.0
G1 X64.26 Y59.19 F15000.0
T0
G1 F5612.6
G1 E3.118
G1 F2500.0
G1 F78.0
G1 E0.065
G1 F2500.0
G1 X65.31 Y59.25 E0.033 F2250.0
G1 X65.88 Y59.34 E0.018
G1 X67.14 Y59.79 E0.042
G1 X67.98 Y60.27 E0.03
G1 X69.27 Y61.41 E0.054
G1 X69.84 Y62.22 E0.031
G1 X70.47 Y63.66 E0.049
G1 X70.71 Y64.95 E0.041
G1 X70.65 Y66.45 E0.047
G1 X70.41 Y67.41 E0.031
G1 X70.05 Y68.25 E0.028
G1 X69.24 Y69.48 E0.046
G1 X68.34 Y70.38 E0.04
G1 X67.62 Y70.86 E0.027
G1 X66.09 Y71.49 E0.052
G1 X64.89 Y71.7 E0.038
G1 X63.57 Y71.64 E0.041
G1 X62.28 Y71.31 E0.042
G1 X61.23 Y70.83 E0.036
G1 X60.03 Y69.9 E0.047
G1 X59.25 Y68.94 E0.039
G1 X58.77 Y68.1 E0.03
G1 X58.32 Y66.78 E0.043
G1 X58.17 Y65.28 E0.047
G1 X58.32 Y64.08 E0.038
G1 X58.71 Y62.94 E0.038
G1 X59.22 Y61.98 E0.034
G1 X59.82 Y61.2 E0.031
G1 X60.6 Y60.51 E0.032
G1 X61.62 Y59.85 E0.038
G1 X62.97 Y59.37 E0.045
G1 X64.26 Y59.19 E0.041
G1 X64.23 Y59.46 E0.008
G1 X63.33 Y59.58 E0.028
G1 X62.46 Y59.82 E0.028
G1 X61.62 Y60.18 E0.028
G1 X60.75 Y60.75 E0.032
G1 X59.88 Y61.59 E0.038
G1 X59.43 Y62.22 E0.024
G1 X58.8 Y63.57 E0.046
G1 X58.5 Y65.01 E0.046
G1 Y65.94 E0.029
G1 X58.56 Y66.48 E0.017
G1 X58.8 Y67.41 E0.03
G1 X59.28 Y68.43 E0.035
G1 X60.03 Y69.45 E0.039
G1 X60.72 Y70.11 E0.03
G1 X62.1 Y70.95 E0.05
G1 X62.97 Y71.25 E0.029
G1 X64.38 Y71.43 E0.044
G1 X65.88 Y71.25 E0.047
G1 X66.69 Y71.01 E0.026
G1 X67.74 Y70.44 E0.037
G1 X68.4 Y69.93 E0.026
G1 X69.03 Y69.3 E0.028
G1 X69.48 Y68.67 E0.024
G1 X69.99 Y67.71 E0.034
G1 X70.41 Y65.88 E0.059
G1 X70.38 Y64.77 E0.035
G1 X70.02 Y63.3 E0.047
G1 X69.21 Y61.83 E0.052
G1 X68.34 Y60.9 E0.04
G1 X67.77 Y60.48 E0.022
G1 X66.9 Y60.0 E0.031
G1 X65.64 Y59.58 E0.041
G1 X64.23 Y59.46 E0.044
G1 F5612.6
G1 E-3.118
G1 F2500.0
G1 X64.26 Y59.19
;#!LAYER: 37/269
G92 E0
G1 Z9.25 F200.0
G1 X64.26 Y59.19 F15000.0
T0
G1 F5612.6
G1 E3.118
G1 F2500.0
G1 F78.0
G1 E0.065
G1 F2500.0
G1 X65.31 Y59.25 E0.033 F2250.0
G1 X65.88 Y59.34 E0.018
G1 X67.14 Y59.79 E0.042
G1 X67.98 Y60.27 E0.03
G1 X69.27 Y61.41 E0.054
G1 X69.84 Y62.22 E0.031
G1 X70.47 Y63.66 E0.049
G1 X70.71 Y64.95 E0.041
G1 X70.65 Y66.45 E0.047
G1 X70.41 Y67.41 E0.031
G1 X70.05 Y68.25 E0.028
G1 X69.24 Y69.48 E0.046
G1 X68.34 Y70.38 E0.04
G1 X67.62 Y70.86 E0.027
G1 X66.09 Y71.49 E0.052
G1 X64.89 Y71.7 E0.038
G1 X63.57 Y71.64 E0.041
G1 X62.28 Y71.31 E0.042
G1 X61.23 Y70.83 E0.036
G1 X60.03 Y69.9 E0.047
G1 X59.25 Y68.94 E0.039
G1 X58.77 Y68.1 E0.03
G1 X58.32 Y66.78 E0.043
G1 X58.17 Y65.28 E0.047
G1 X58.32 Y64.08 E0.038
G1 X58.71 Y62.94 E0.038
G1 X59.22 Y61.98 E0.034
G1 X59.82 Y61.2 E0.031
G1 X60.6 Y60.51 E0.032
G1 X61.62 Y59.85 E0.038
G1 X62.97 Y59.37 E0.045
G1 X64.26 Y59.19 E0.041
G1 X64.23 Y59.46 E0.008
G1 X63.33 Y59.58 E0.028
G1 X62.46 Y59.82 E0.028
G1 X61.62 Y60.18 E0.028
G1 X60.75 Y60.75 E0.032
G1 X59.88 Y61.59 E0.038
G1 X59.43 Y62.22 E0.024
G1 X58.8 Y63.57 E0.046
G1 X58.5 Y65.01 E0.046
G1 Y65.94 E0.029
G1 X58.56 Y66.48 E0.017
G1 X58.8 Y67.41 E0.03
G1 X59.28 Y68.43 E0.035
G1 X60.03 Y69.45 E0.039
G1 X60.72 Y70.11 E0.03
G1 X62.1 Y70.95 E0.05
G1 X62.97 Y71.25 E0.029
G1 X64.38 Y71.43 E0.044
G1 X65.88 Y71.25 E0.047
G1 X66.69 Y71.01 E0.026
G1 X67.74 Y70.44 E0.037
G1 X68.4 Y69.93 E0.026
G1 X69.03 Y69.3 E0.028
G1 X69.48 Y68.67 E0.024
G1 X69.99 Y67.71 E0.034
G1 X70.41 Y65.88 E0.059
G1 X70.38 Y64.77 E0.035
G1 X70.02 Y63.3 E0.047
G1 X69.21 Y61.83 E0.052
G1 X68.34 Y60.9 E0.04
G1 X67.77 Y60.48 E0.022
G1 X66.9 Y60.0 E0.031
G1 X65.64 Y59.58 E0.041
G1 X64.23 Y59.46 E0.044
G1 F5612.6
G1 E-3.118
G1 F2500.0
G1 X64.26 Y59.19
;#!LAYER: 38/269
G92 E0
G1 Z9.5 F200.0
G1 X64.26 Y59.19 F15000.0
T0
G1 F5612.6
G1 E3.118
G1 F2500.0
G1 F78.0
G1 E0.065
G1 F2500.0
G1 X65.31 Y59.25 E0.033 F2250.0
G1 X65.88 Y59.34 E0.018
G1 X67.14 Y59.79 E0.042
G1 X67.98 Y60.27 E0.03
G1 X69.27 Y61.41 E0.054
G1 X69.84 Y62.22 E0.031
G1 X70.47 Y63.66 E0.049
G1 X70.71 Y64.95 E0.041
G1 X70.65 Y66.45 E0.047
G1 X70.41 Y67.41 E0.031
G1 X70.05 Y68.25 E0.028
G1 X69.24 Y69.48 E0.046
G1 X68.34 Y70.38 E0.04
G1 X67.62 Y70.86 E0.027
G1 X66.09 Y71.49 E0.052
G1 X64.89 Y71.7 E0.038
G1 X63.24 Y71.61 E0.052
G1 X62.1 Y71.25 E0.037
G1 X60.96 Y70.65 E0.04
G1 X60.06 Y69.93 E0.036
G1 X59.16 Y68.82 E0.045
G1 X58.5 Y67.44 E0.048
G1 X58.2 Y66.03 E0.045
G1 X58.32 Y64.08 E0.061
G1 X58.71 Y62.94 E0.038
G1 X59.22 Y61.98 E0.034
G1 X59.82 Y61.2 E0.031
G1 X60.6 Y60.51 E0.032
G1 X61.62 Y59.85 E0.038
G1 X62.97 Y59.37 E0.045
G1 X64.26 Y59.19 E0.041
G1 X64.23 Y59.46 E0.008
G1 X63.33 Y59.58 E0.028
G1 X62.46 Y59.82 E0.028
G1 X61.62 Y60.18 E0.028
G1 X60.75 Y60.75 E0.032
G1 X59.88 Y61.59 E0.038
G1 X59.43 Y62.22 E0.024
G1 X58.8 Y63.57 E0.046
G1 X58.5 Y65.01 E0.046
G1 Y65.94 E0.029
G1 X58.56 Y66.48 E0.017
G1 X58.8 Y67.41 E0.03
G1 X59.28 Y68.43 E0.035
G1 X60.03 Y69.45 E0.039
G1 X60.72 Y70.11 E0.03
G1 X62.1 Y70.95 E0.05
G1 X62.97 Y71.25 E0.029
G1 X64.38 Y71.43 E0.044
G1 X65.88 Y71.25 E0.047
G1 X66.69 Y71.01 E0.026
G1 X67.74 Y70.44 E0.037
G1 X68.4 Y69.93 E0.026
G1 X69.03 Y69.3 E0.028
G1 X69.48 Y68.67 E0.024
G1 X69.99 Y67.71 E0.034
G1 X70.41 Y65.88 E0.059
G1 X70.38 Y64.77 E0.035
G1 X70.02 Y63.3 E0.047
G1 X69.21 Y61.83 E0.052
G1 X68.34 Y60.9 E0.04
G1 X67.77 Y60.48 E0.022
G1 X66.9 Y60.0 E0.031
G1 X65.64 Y59.58 E0.041
G1 X64.23 Y59.46 E0.044
G1 F5612.6
G1 E-3.118
G1 F2500.0
G1 X64.26 Y59.19
;#!LAYER: 39/269
G92 E0
G1 Z9.75 F200.0
G1 X64.26 Y59.19 F15000.0
T0
G1 F5612.6
G1 E3.118
G1 F2500.0
G1 F78.0
G1 E0.065
G1 F2500.0
G1 X65.31 Y59.25 E0.033 F2250.0
G1 X65.88 Y59.34 E0.018
G1 X67.14 Y59.79 E0.042
G1 X67.98 Y60.27 E0.03
G1 X69.27 Y61.41 E0.054
G1 X69.84 Y62.22 E0.031
G1 X70.47 Y63.66 E0.049
G1 X70.71 Y64.95 E0.041
G1 X70.65 Y66.45 E0.047
G1 X70.41 Y67.41 E0.031
G1 X70.05 Y68.25 E0.028
G1 X69.24 Y69.48 E0.046
G1 X68.34 Y70.38 E0.04
G1 X67.62 Y70.86 E0.027
G1 X66.09 Y71.49 E0.052
G1 X64.89 Y71.7 E0.038
G1 X63.24 Y71.61 E0.052
G1 X62.1 Y71.25 E0.037
G1 X60.96 Y70.65 E0.04
G1 X60.06 Y69.93 E0.036
G1 X59.16 Y68.82 E0.045
G1 X58.5 Y67.44 E0.048
G1 X58.2 Y66.03 E0.045
G1 X58.32 Y64.08 E0.061
G1 X58.71 Y62.94 E0.038
G1 X59.22 Y61.98 E0.034
G1 X59.82 Y61.2 E0.031
G1 X60.6 Y60.51 E0.032
G1 X61.62 Y59.85 E0.038
G1 X62.97 Y59.37 E0.045
G1 X64.26 Y59.19 E0.041
G1 X64.23 Y59.46 E0.008
G1 X63.33 Y59.58 E0.028
G1 X62.46 Y59.82 E0.028
G1 X61.62 Y60.18 E0.028
G1 X60.75 Y60.75 E0.032
G1 X59.88 Y61.59 E0.038
G1 X59.43 Y62.22 E0.024
G1 X58.8 Y63.57 E0.046
G1 X58.5 Y65.01 E0.046
G1 Y65.94 E0.029
G1 X58.56 Y66.48 E0.017
G1 X58.8 Y67.41 E0.03
G1 X59.28 Y68.43 E0.035
G1 X60.03 Y69.45 E0.039
G1 X60.72 Y70.11 E0.03
G1 X62.1 Y70.95 E0.05
G1 X62.97 Y71.25 E0.029
G1 X64.38 Y71.43 E0.044
G1 X65.88 Y71.25 E0.047
G1 X66.69 Y71.01 E0.026
G1 X67.74 Y70.44 E0.037
G1 X68.4 Y69.93 E0.026
G1 X69.03 Y69.3 E0.028
G1 X69.48 Y68.67 E0.024
G1 X69.99 Y67.71 E0.034
G1 X70.41 Y65.88 E0.059
G1 X70.38 Y64.77 E0.035
G1 X70.02 Y63.3 E0.047
G1 X69.21 Y61.83 E0.052
G1 X68.34 Y60.9 E0.04
G1 X67.77 Y60.48 E0.022
G1 X66.9 Y60.0 E0.031
G1 X65.64 Y59.58 E0.041
G1 X64.23 Y59.46 E0.044
G1 F5612.6
G1 E-3.118
G1 F2500.0
G1 X64.26 Y59.19
;#!LAYER: 40/269
G92 E0
G1 Z10.0 F200.0
G1 X64.26 Y59.19 F15000.0
T0
G1 F5612.6
G1 E3.118
G1 F2500.0
G1 F78.0
G1 E0.065
G1 F2500.0
G1 X65.31 Y59.25 E0.033 F2250.0
G1 X65.88 Y59.34 E0.018
G1 X67.14 Y59.79 E0.042
G1 X67.98 Y60.27 E0.03
G1 X69.27 Y61.41 E0.054
G1 X69.84 Y62.22 E0.031
G1 X70.47 Y63.66 E0.049
G1 X70.71 Y64.95 E0.041
G1 X70.65 Y66.45 E0.047
G1 X70.23 Y67.89 E0.047
G1 X69.54 Y69.12 E0.044
G1 X68.73 Y70.02 E0.038
G1 X68.34 Y70.38 E0.017
G1 X67.62 Y70.86 E0.027
G1 X66.09 Y71.49 E0.052
G1 X64.89 Y71.7 E0.038
G1 X63.09 Y71.55 E0.056
G1 X62.28 Y71.31 E0.026
G1 X61.23 Y70.83 E0.036
G1 X60.03 Y69.9 E0.047
G1 X59.37 Y69.15 E0.031
G1 X58.53 Y67.53 E0.057
G1 X58.23 Y66.3 E0.039
G1 X58.32 Y64.08 E0.069
G1 X58.71 Y62.94 E0.038
G1 X59.22 Y61.98 E0.034
G1 X59.82 Y61.2 E0.031
G1 X60.6 Y60.51 E0.032
G1 X61.62 Y59.85 E0.038
G1 X62.97 Y59.37 E0.045
G1 X64.26 Y59.19 E0.041
G1 X64.23 Y59.46 E0.008
G1 X63.33 Y59.58 E0.028
G1 X62.46 Y59.82 E0.028
G1 X61.62 Y60.18 E0.028
G1 X60.75 Y60.75 E0.032
G1 X59.88 Y61.59 E0.038
G1 X59.43 Y62.22 E0.024
G1 X58.8 Y63.57 E0.046
G1 X58.5 Y65.01 E0.046
G1 Y65.94 E0.029
G1 X58.56 Y66.48 E0.017
G1 X58.8 Y67.41 E0.03
G1 X59.28 Y68.43 E0.035
G1 X60.03 Y69.45 E0.039
G1 X60.72 Y70.11 E0.03
G1 X62.1 Y70.95 E0.05
G1 X62.97 Y71.25 E0.029
G1 X64.38 Y71.43 E0.044
G1 X65.88 Y71.25 E0.047
G1 X66.69 Y71.01 E0.026
G1 X67.74 Y70.44 E0.037
G1 X68.4 Y69.93 E0.026
G1 X69.03 Y69.3 E0.028
G1 X69.48 Y68.67 E0.024
G1 X69.99 Y67.71 E0.034
G1 X70.41 Y65.88 E0.059
G1 X70.38 Y64.77 E0.035
G1 X70.02 Y63.3 E0.047
G1 X69.21 Y61.83 E0.052
G1 X68.34 Y60.9 E0.04
G1 X67.77 Y60.48 E0.022
G1 X66.9 Y60.0 E0.031
G1 X65.64 Y59.58 E0.041
G1 X64.23 Y59.46 E0.044
G1 F5612.6
G1 E-3.118
G1 F2500.0
G1 X64.26 Y59.19
;#!LAYER: 41/269
G92 E0
G1 Z10.25 F200.0
G1 X58.53 Y67.53 F15000.0
T0
G1 F5612.6
G1 E3.118
G1 F2500.0
G1 F78.0
G1 E0.065
G1 F2500.0
G1 X58.23 Y66.3 E0.039 F2250.0
G1 X58.32 Y64.08 E0.069
G1 X58.71 Y62.94 E0.038
G1 X59.22 Y61.98 E0.034
G1 X59.82 Y61.2 E0.031
G1 X60.6 Y60.51 E0.032
G1 X61.62 Y59.85 E0.038
G1 X62.97 Y59.37 E0.045
G1 X64.26 Y59.19 E0.041
G1 X65.31 Y59.25 E0.033
G1 X65.88 Y59.34 E0.018
G1 X67.14 Y59.79 E0.042
G1 X67.98 Y60.27 E0.03
G1 X69.27 Y61.41 E0.054
G1 X69.84 Y62.22 E0.031
G1 X70.47 Y63.66 E0.049
G1 X70.71 Y64.95 E0.041
G1 X70.65 Y66.45 E0.047
G1 X70.23 Y67.89 E0.047
G1 X69.54 Y69.12 E0.044
G1 X68.73 Y70.02 E0.038
G1 X68.34 Y70.38 E0.017
G1 X67.62 Y70.86 E0.027
G1 X66.09 Y71.49 E0.052
G1 X64.89 Y71.7 E0.038
G1 X63.09 Y71.55 E0.056
G1 X62.28 Y71.31 E0.026
G1 X61.23 Y70.83 E0.036
G1 X60.03 Y69.9 E0.047
G1 X59.37 Y69.15 E0.031
G1 X58.53 Y67.53 E0.057
G1 X58.8 Y67.41 E0.009
G1 X59.28 Y68.43 E0.035
G1 X60.03 Y69.45 E0.039
G1 X60.72 Y70.11 E0.03
G1 X62.1 Y70.95 E0.05
G1 X62.97 Y71.25 E0.029
G1 X64.38 Y71.43 E0.044
G1 X65.88 Y71.25 E0.047
G1 X66.69 Y71.01 E0.026
G1 X67.74 Y70.44 E0.037
G1 X68.4 Y69.93 E0.026
G1 X69.03 Y69.3 E0.028
G1 X69.48 Y68.67 E0.024
G1 X69.99 Y67.71 E0.034
G1 X70.41 Y65.88 E0.059
G1 X70.32 Y64.41 E0.046
G1 X70.08 Y63.45 E0.031
G1 X69.27 Y61.95 E0.053
G1 X68.25 Y60.84 E0.047
G1 X67.44 Y60.27 E0.031
G1 X66.0 Y59.7 E0.048
G1 X64.77 Y59.49 E0.039
G1 X63.36 Y59.58 E0.044
G1 X62.61 Y59.76 E0.024
G1 X61.83 Y60.09 E0.026
G1 X60.75 Y60.78 E0.04
G1 X59.73 Y61.8 E0.045
G1 X59.13 Y62.73 E0.035
G1 X58.68 Y63.9 E0.039
G1 X58.5 Y65.94 E0.064
G1 X58.56 Y66.48 E0.017
G1 X58.8 Y67.41 E0.03
G1 F5612.6
G1 E-3.118
G1 F2500.0
G1 X58.53 Y67.53
;#!LAYER: 42/269
G92 E0
G1 Z10.5 F200.0
G1 X64.26 Y59.19 F15000.0
T0
G1 F5612.6
G1 E3.118
G1 F2500.0
G1 F78.0
G1 E0.065
G1 F2500.0
G1 X65.31 Y59.25 E0.033 F2250.0
G1 X65.88 Y59.34 E0.018
G1 X67.14 Y59.79 E0.042
G1 X67.98 Y60.27 E0.03
G1 X69.27 Y61.41 E0.054
G1 X69.84 Y62.22 E0.031
G1 X70.47 Y63.66 E0.049
G1 X70.71 Y64.95 E0.041
G1 X70.65 Y66.45 E0.047
G1 X70.23 Y67.89 E0.047
G1 X69.54 Y69.12 E0.044
G1 X68.73 Y70.02 E0.038
G1 X68.34 Y70.38 E0.017
G1 X67.62 Y70.86 E0.027
G1 X66.09 Y71.49 E0.052
G1 X64.89 Y71.7 E0.038
G1 X63.09 Y71.55 E0.056
G1 X62.28 Y71.31 E0.026
G1 X61.23 Y70.83 E0.036
G1 X60.03 Y69.9 E0.047
G1 X59.37 Y69.15 E0.031
G1 X58.53 Y67.53 E0.057
G1 X58.23 Y66.3 E0.039
G1 X58.32 Y64.08 E0.069
G1 X58.71 Y62.94 E0.038
G1 X59.22 Y61.98 E0.034
G1 X59.82 Y61.2 E0.031
G1 X60.6 Y60.51 E0.032
G1 X61.62 Y59.85 E0.038
G1 X62.97 Y59.37 E0.045
G1 X64.26 Y59.19 E0.041
G1 X64.23 Y59.46 E0.008
G1 X63.33 Y59.58 E0.028
G1 X62.46 Y59.82 E0.028
G1 X61.62 Y60.18 E0.028
G1 X60.75 Y60.75 E0.032
G1 X59.88 Y61.59 E0.038
G1 X59.43 Y62.22 E0.024
G1 X58.8 Y63.57 E0.046
G1 X58.5 Y65.01 E0.046
G1 Y65.94 E0.029
G1 X58.56 Y66.48 E0.017
G1 X58.8 Y67.41 E0.03
G1 X59.28 Y68.43 E0.035
G1 X60.03 Y69.45 E0.039
G1 X60.72 Y70.11 E0.03
G1 X62.1 Y70.95 E0.05
G1 X62.97 Y71.25 E0.029
G1 X64.38 Y71.43 E0.044
G1 X65.88 Y71.25 E0.047
G1 X66.69 Y71.01 E0.026
G1 X67.74 Y70.44 E0.037
G1 X68.4 Y69.93 E0.026
G1 X69.03 Y69.3 E0.028
G1 X69.48 Y68.67 E0.024
G1 X69.99 Y67.71 E0.034
G1 X70.41 Y65.88 E0.059
G1 X70.38 Y64.77 E0.035
G1 X70.02 Y63.3 E0.047
G1 X69.21 Y61.83 E0.052
G1 X68.34 Y60.9 E0.04
G1 X67.77 Y60.48 E0.022
G1 X66.9 Y60.0 E0.031
G1 X65.64 Y59.58 E0.041
G1 X64.23 Y59.46 E0.044
G1 F5612.6
G1 E-3.118
G1 F2500.0
G1 X64.26 Y59.19
;#!LAYER: 43/269
G92 E0
G1 Z10.75 F200.0
G1 X64.26 Y59.19 F15000.0
T0
G1 F5612.6
G1 E3.118
G1 F2500.0
G1 F78.0
G1 E0.065
G1 F2500.0
G1 X65.31 Y59.25 E0.033 F2250.0
G1 X65.88 Y59.34 E0.018
G1 X67.14 Y59.79 E0.042
G1 X67.98 Y60.27 E0.03
G1 X69.27 Y61.41 E0.054
G1 X69.84 Y62.22 E0.031
G1 X70.47 Y63.66 E0.049
G1 X70.71 Y64.95 E0.041
G1 X70.65 Y66.45 E0.047
G1 X70.23 Y67.89 E0.047
G1 X69.54 Y69.12 E0.044
G1 X68.73 Y70.02 E0.038
G1 X68.34 Y70.38 E0.017
G1 X67.62 Y70.86 E0.027
G1 X66.09 Y71.49 E0.052
G1 X64.89 Y71.7 E0.038
G1 X63.09 Y71.55 E0.056
G1 X62.28 Y71.31 E0.026
G1 X61.23 Y70.83 E0.036
G1 X60.03 Y69.9 E0.047
G1 X59.37 Y69.15 E0.031
G1 X58.53 Y67.53 E0.057
G1 X58.23 Y66.3 E0.039
G1 X58.32 Y64.08 E0.069
G1 X58.71 Y62.94 E0.038
G1 X59.22 Y61.98 E0.034
G1 X59.82 Y61.2 E0.031
G1 X60.6 Y60.51 E0.032
G1 X61.62 Y59.85 E0.038
G1 X62.97 Y59.37 E0.045
G1 X64.26 Y59.19 E0.041
G1 X64.23 Y59.46 E0.008
G1 X63.33 Y59.58 E0.028
G1 X62.46 Y59.82 E0.028
G1 X61.62 Y60.18 E0.028
G1 X60.75 Y60.75 E0.032
G1 X59.88 Y61.59 E0.038
G1 X59.43 Y62.22 E0.024
G1 X58.8 Y63.57 E0.046
G1 X58.5 Y65.01 E0.046
G1 Y65.94 E0.029
G1 X58.56 Y66.48 E0.017
G1 X58.8 Y67.41 E0.03
G1 X59.28 Y68.43 E0.035
G1 X60.03 Y69.45 E0.039
G1 X60.72 Y70.11 E0.03
G1 X62.1 Y70.95 E0.05
G1 X62.97 Y71.25 E0.029
G1 X64.38 Y71.43 E0.044
G1 X65.88 Y71.25 E0.047
G1 X66.69 Y71.01 E0.026
G1 X67.74 Y70.44 E0.037
G1 X68.4 Y69.93 E0.026
G1 X69.03 Y69.3 E0.028
G1 X69.48 Y68.67 E0.024
G1 X69.99 Y67.71 E0.034
G1 X70.41 Y65.88 E0.059
G1 X70.38 Y64.77 E0.035
G1 X70.02 Y63.3 E0.047
G1 X69.21 Y61.83 E0.052
G1 X68.34 Y60.9 E0.04
G1 X67.77 Y60.48 E0.022
G1 X66.9 Y60.0 E0.031
G1 X65.64 Y59.58 E0.041
G1 X64.23 Y59.46 E0.044
G1 F5612.6
G1 E-3.118
G1 F2500.0
G1 X64.26 Y59.19
;#!LAYER: 44/269
G92 E0
G1 Z11.0 F200.0
G1 X64.26 Y59.19 F15000.0
T0
G1 F5612.6
G1 E3.118
G1 F2500.0
G1 F78.0
G1 E0.065
G1 F2500.0
G1 X65.31 Y59.25 E0.033 F2250.0
G1 X65.88 Y59.34 E0.018
G1 X67.14 Y59.79 E0.042
G1 X67.98 Y60.27 E0.03
G1 X69.27 Y61.41 E0.054
G1 X69.84 Y62.22 E0.031
G1 X70.47 Y63.66 E0.049
G1 X70.71 Y64.95 E0.041
G1 X70.65 Y66.51 E0.049
G1 X70.38 Y67.5 E0.032
G1 X69.9 Y68.55 E0.036
G1 X69.39 Y69.3 E0.028
G1 X68.34 Y70.38 E0.047
G1 X67.62 Y70.86 E0.027
G1 X66.09 Y71.49 E0.052
G1 X64.89 Y71.7 E0.038
G1 X63.09 Y71.55 E0.056
G1 X62.28 Y71.31 E0.026
G1 X61.23 Y70.83 E0.036
G1 X60.03 Y69.9 E0.047
G1 X59.37 Y69.15 E0.031
G1 X58.53 Y67.53 E0.057
G1 X58.23 Y66.3 E0.039
G1 X58.32 Y64.08 E0.069
G1 X58.71 Y62.94 E0.038
G1 X59.22 Y61.98 E0.034
G1 X59.82 Y61.2 E0.031
G1 X60.6 Y60.51 E0.032
G1 X61.62 Y59.85 E0.038
G1 X62.97 Y59.37 E0.045
G1 X64.26 Y59.19 E0.041
G1 X64.23 Y59.46 E0.008
G1 X63.33 Y59.58 E0.028
G1 X62.46 Y59.82 E0.028
G1 X61.62 Y60.18 E0.028
G1 X60.75 Y60.75 E0.032
G1 X59.88 Y61.59 E0.038
G1 X59.43 Y62.22 E0.024
G1 X58.8 Y63.57 E0.046
G1 X58.5 Y65.01 E0.046
G1 Y65.94 E0.029
G1 X58.56 Y66.48 E0.017
G1 X58.8 Y67.41 E0.03
G1 X59.28 Y68.43 E0.035
G1 X60.03 Y69.45 E0.039
G1 X60.72 Y70.11 E0.03
G1 X62.1 Y70.95 E0.05
G1 X62.97 Y71.25 E0.029
G1 X64.38 Y71.43 E0.044
G1 X65.88 Y71.25 E0.047
G1 X66.69 Y71.01 E0.026
G1 X67.74 Y70.44 E0.037
G1 X68.4 Y69.93 E0.026
G1 X69.03 Y69.3 E0.028
G1 X69.48 Y68.67 E0.024
G1 X69.99 Y67.71 E0.034
G1 X70.41 Y65.88 E0.059
G1 X70.38 Y64.77 E0.035
G1 X70.02 Y63.3 E0.047
G1 X69.21 Y61.83 E0.052
G1 X68.34 Y60.9 E0.04
G1 X67.77 Y60.48 E0.022
G1 X66.9 Y60.0 E0.031
G1 X65.64 Y59.58 E0.041
G1 X64.23 Y59.46 E0.044
G1 F5612.6
G1 E-3.118
G1 F2500.0
G1 X64.26 Y59.19
;#!LAYER: 45/269
G92 E0
G1 Z11.25 F200.0
G1 X63.09 Y71.55 F15000.0
T0
G1 F5612.6
G1 E3.118
G1 F2500.0
G1 F78.0
G1 E0.065
G1 F2500.0
G1 X62.16 Y71.28 E0.03 F2250.0
G1 X60.9 Y70.62 E0.044
G1 X60.06 Y69.93 E0.034
G1 X59.49 Y69.3 E0.026
G1 X58.83 Y68.19 E0.04
G1 X58.44 Y67.26 E0.031
G1 X58.17 Y65.64 E0.051
G1 X58.32 Y64.08 E0.049
G1 X58.71 Y62.94 E0.038
G1 X59.22 Y61.98 E0.034
G1 X59.82 Y61.2 E0.031
G1 X60.6 Y60.51 E0.032
G1 X61.62 Y59.85 E0.038
G1 X62.97 Y59.37 E0.045
G1 X64.26 Y59.19 E0.041
G1 X65.31 Y59.25 E0.033
G1 X65.88 Y59.34 E0.018
G1 X67.14 Y59.79 E0.042
G1 X67.98 Y60.27 E0.03
G1 X69.27 Y61.41 E0.054
G1 X69.84 Y62.22 E0.031
G1 X70.47 Y63.66 E0.049
G1 X70.71 Y64.95 E0.041
G1 X70.65 Y66.51 E0.049
G1 X70.38 Y67.5 E0.032
G1 X69.9 Y68.55 E0.036
G1 X69.39 Y69.3 E0.028
G1 X68.34 Y70.38 E0.047
G1 X67.62 Y70.86 E0.027
G1 X66.09 Y71.49 E0.052
G1 X64.89 Y71.7 E0.038
G1 X63.09 Y71.55 E0.056
G1 X63.12 Y71.28 E0.008
G1 X64.38 Y71.43 E0.04
G1 X65.88 Y71.25 E0.047
G1 X66.69 Y71.01 E0.026
G1 X67.74 Y70.44 E0.037
G1 X68.4 Y69.93 E0.026
G1 X69.03 Y69.3 E0.028
G1 X69.48 Y68.67 E0.024
G1 X69.9 Y67.86 E0.028
G1 X70.2 Y67.05 E0.027
G1 X70.44 Y65.4 E0.052
G1 X70.26 Y64.08 E0.042
G1 X69.72 Y62.67 E0.047
G1 X69.33 Y62.01 E0.024
G1 X68.46 Y61.05 E0.04
G1 X67.77 Y60.48 E0.028
G1 X67.08 Y60.09 E0.025
G1 X65.82 Y59.64 E0.042
G1 X64.86 Y59.49 E0.03
G1 X63.36 Y59.55 E0.047
G1 X61.95 Y60.06 E0.047
G1 X60.9 Y60.66 E0.038
G1 X59.94 Y61.56 E0.041
G1 X59.34 Y62.34 E0.031
G1 X58.83 Y63.48 E0.039
G1 X58.59 Y64.32 E0.027
G1 X58.5 Y65.22 E0.028
G1 X58.59 Y66.6 E0.043
G1 X59.1 Y68.13 E0.05
G1 X60.06 Y69.48 E0.052
G1 X60.99 Y70.32 E0.039
G1 X62.07 Y70.95 E0.039
G1 X63.12 Y71.28 E0.034
G1 F5612.6
G1 E-3.118
G1 F2500.0
G1 X63.09 Y71.55
;#!LAYER: 46/269
G92 E0
G1 Z11.5 F200.0
G1 X63.09 Y71.55 F15000.0
T0
G1 F5612.6
G1 E3.118
G1 F2500.0
G1 F78.0
G1 E0.065
G1 F2500.0
G1 X62.16 Y71.28 E0.03 F2250.0
G1 X61.53 Y70.98 E0.022
G1 X60.57 Y70.38 E0.035
G1 X59.67 Y69.54 E0.038
G1 X58.86 Y68.28 E0.047
G1 X58.44 Y67.26 E0.034
G1 X58.17 Y65.64 E0.051
G1 X58.32 Y64.08 E0.049
G1 X58.71 Y62.94 E0.038
G1 X59.22 Y61.98 E0.034
G1 X59.82 Y61.2 E0.031
G1 X60.6 Y60.51 E0.032
G1 X61.62 Y59.85 E0.038
G1 X62.97 Y59.37 E0.045
G1 X64.26 Y59.19 E0.041
G1 X65.31 Y59.25 E0.033
G1 X65.88 Y59.34 E0.018
G1 X67.14 Y59.79 E0.042
G1 X67.98 Y60.27 E0.03
G1 X69.27 Y61.41 E0.054
G1 X69.84 Y62.22 E0.031
G1 X70.47 Y63.66 E0.049
G1 X70.71 Y64.95 E0.041
G1 X70.65 Y66.51 E0.049
G1 X70.38 Y67.5 E0.032
G1 X69.9 Y68.55 E0.036
G1 X69.39 Y69.3 E0.028
G1 X68.34 Y70.38 E0.047
G1 X67.62 Y70.86 E0.027
G1 X66.09 Y71.49 E0.052
G1 X64.89 Y71.7 E0.038
G1 X63.09 Y71.55 E0.056
G1 X63.12 Y71.28 E0.008
G1 X64.38 Y71.43 E0.04
G1 X65.88 Y71.25 E0.047
G1 X66.69 Y71.01 E0.026
G1 X67.74 Y70.44 E0.037
G1 X68.4 Y69.93 E0.026
G1 X69.03 Y69.3 E0.028
G1 X69.48 Y68.67 E0.024
G1 X69.9 Y67.86 E0.028
G1 X70.2 Y67.05 E0.027
G1 X70.44 Y65.4 E0.052
G1 X70.26 Y64.08 E0.042
G1 X69.72 Y62.67 E0.047
G1 X69.33 Y62.01 E0.024
G1 X68.46 Y61.05 E0.04
G1 X67.77 Y60.48 E0.028
G1 X66.45 Y59.82 E0.046
G1 X65.13 Y59.52 E0.042
G1 X64.41 Y59.49 E0.022
G1 X63.36 Y59.55 E0.033
G1 X61.95 Y60.06 E0.047
G1 X60.9 Y60.66 E0.038
G1 X59.94 Y61.56 E0.041
G1 X59.34 Y62.34 E0.031
G1 X58.83 Y63.48 E0.039
G1 X58.59 Y64.32 E0.027
G1 X58.5 Y65.22 E0.028
G1 X58.59 Y66.6 E0.043
G1 X59.1 Y68.13 E0.05
G1 X60.06 Y69.48 E0.052
G1 X60.99 Y70.32 E0.039
G1 X62.07 Y70.95 E0.039
G1 X63.12 Y71.28 E0.034
G1 F5612.6
G1 E-3.118
G1 F2500.0
G1 X63.09 Y71.55
;#!LAYER: 47/269
G92 E0
G1 Z11.75 F200.0
G1 X60.84 Y70.56 F15000.0
T0
G1 F5612.6
G1 E3.118
G1 F2500.0
G1 F78.0
G1 E0.065
G1 F2500.0
G1 X59.91 Y69.78 E0.038 F2250.0
G1 X59.37 Y69.15 E0.026
G1 X58.86 Y68.25 E0.032
G1 X58.47 Y67.35 E0.031
G1 X58.17 Y65.7 E0.052
G1 X58.32 Y64.08 E0.051
G1 X58.71 Y62.94 E0.038
G1 X59.22 Y61.98 E0.034
G1 X59.82 Y61.2 E0.031
G1 X60.6 Y60.51 E0.032
G1 X61.62 Y59.85 E0.038
G1 X62.97 Y59.37 E0.045
G1 X64.26 Y59.19 E0.041
G1 X65.31 Y59.25 E0.033
G1 X65.88 Y59.34 E0.018
G1 X67.14 Y59.79 E0.042
G1 X67.98 Y60.27 E0.03
G1 X69.27 Y61.41 E0.054
G1 X69.84 Y62.22 E0.031
G1 X70.47 Y63.66 E0.049
G1 X70.71 Y64.95 E0.041
G1 X70.65 Y66.51 E0.049
G1 X70.38 Y67.5 E0.032
G1 X69.9 Y68.55 E0.036
G1 X69.39 Y69.3 E0.028
G1 X68.85 Y69.93 E0.026
G1 X68.04 Y70.59 E0.033
G1 X67.32 Y71.01 E0.026
G1 X66.09 Y71.49 E0.041
G1 X64.89 Y71.7 E0.038
G1 X63.54 Y71.64 E0.042
G1 X62.13 Y71.25 E0.046
G1 X60.84 Y70.56 E0.046
G1 X60.99 Y70.32 E0.009
G1 X62.07 Y70.95 E0.039
G1 X63.12 Y71.28 E0.034
G1 X64.38 Y71.43 E0.04
G1 X65.88 Y71.25 E0.047
G1 X66.69 Y71.01 E0.026
G1 X67.74 Y70.44 E0.037
G1 X68.4 Y69.93 E0.026
G1 X69.03 Y69.3 E0.028
G1 X69.48 Y68.67 E0.024
G1 X69.9 Y67.86 E0.028
G1 X70.2 Y67.05 E0.027
G1 X70.44 Y65.4 E0.052
G1 X70.32 Y64.32 E0.034
G1 X70.05 Y63.36 E0.031
G1 X69.36 Y62.07 E0.046
G1 X68.31 Y60.9 E0.049
G1 X67.86 Y60.54 E0.018
G1 X66.66 Y59.91 E0.042
G1 X65.34 Y59.55 E0.043
G1 X64.74 Y59.49 E0.019
G1 X63.36 Y59.55 E0.043
G1 X61.95 Y60.06 E0.047
G1 X60.9 Y60.66 E0.038
G1 X59.94 Y61.56 E0.041
G1 X59.34 Y62.34 E0.031
G1 X58.83 Y63.48 E0.039
G1 X58.59 Y64.32 E0.027
G1 X58.53 Y66.27 E0.061
G1 X58.62 Y66.81 E0.017
G1 X59.04 Y67.98 E0.039
G1 X59.82 Y69.21 E0.045
G1 X60.99 Y70.32 E0.05
G1 F5612.6
G1 E-3.118
G1 F2500.0
G1 X60.84 Y70.56
;#!LAYER: 48/269
G92 E0
G1 Z12.0 F200.0
G1 X60.81 Y70.56 F15000.0
T0
G1 F5612.6
G1 E3.118
G1 F2500.0
G1 F78.0
G1 E0.065
G1 F2500.0
G1 X59.7 Y69.57 E0.046 F2250.0
G1 X58.86 Y68.25 E0.049
G1 X58.47 Y67.35 E0.031
G1 X58.17 Y65.7 E0.052
G1 X58.32 Y64.08 E0.051
G1 X58.71 Y62.94 E0.038
G1 X59.22 Y61.98 E0.034
G1 X59.82 Y61.2 E0.031
G1 X60.6 Y60.51 E0.032
G1 X61.62 Y59.85 E0.038
G1 X62.97 Y59.37 E0.045
G1 X64.26 Y59.19 E0.041
G1 X65.31 Y59.25 E0.033
G1 X65.88 Y59.34 E0.018
G1 X67.14 Y59.79 E0.042
G1 X67.98 Y60.27 E0.03
G1 X69.27 Y61.41 E0.054
G1 X69.84 Y62.22 E0.031
G1 X70.47 Y63.66 E0.049
G1 X70.71 Y64.95 E0.041
G1 X70.65 Y66.51 E0.049
G1 X70.38 Y67.5 E0.032
G1 X69.9 Y68.55 E0.036
G1 X69.39 Y69.3 E0.028
G1 X68.85 Y69.93 E0.026
G1 X68.04 Y70.59 E0.033
G1 X67.32 Y71.01 E0.026
G1 X66.09 Y71.49 E0.041
G1 X64.89 Y71.7 E0.038
G1 X63.54 Y71.64 E0.042
G1 X62.13 Y71.25 E0.046
G1 X60.81 Y70.56 E0.046
G1 X60.99 Y70.32 E0.009
G1 X62.07 Y70.95 E0.039
G1 X63.12 Y71.28 E0.034
G1 X64.38 Y71.43 E0.04
G1 X65.88 Y71.25 E0.047
G1 X66.69 Y71.01 E0.026
G1 X67.74 Y70.44 E0.037
G1 X68.4 Y69.93 E0.026
G1 X69.03 Y69.3 E0.028
G1 X69.48 Y68.67 E0.024
G1 X69.9 Y67.86 E0.028
G1 X70.2 Y67.05 E0.027
G1 X70.44 Y65.4 E0.052
G1 X70.32 Y64.32 E0.034
G1 X69.99 Y63.24 E0.035
G1 X69.57 Y62.4 E0.029
G1 X69.15 Y61.77 E0.024
G1 X68.46 Y61.02 E0.032
G1 X67.29 Y60.18 E0.045
G1 X65.64 Y59.58 E0.055
G1 X64.35 Y59.49 E0.04
G1 X63.36 Y59.55 E0.031
G1 X61.95 Y60.06 E0.047
G1 X60.9 Y60.66 E0.038
G1 X59.94 Y61.53 E0.04
G1 X59.34 Y62.37 E0.032
G1 X58.83 Y63.42 E0.036
G1 X58.5 Y65.01 E0.051
G1 X58.53 Y66.27 E0.039
G1 X58.62 Y66.81 E0.017
G1 X59.04 Y67.98 E0.039
G1 X59.82 Y69.21 E0.045
G1 X60.99 Y70.32 E0.05
G1 F5612.6
G1 E-3.118
G1 F2500.0
G1 X60.81 Y70.56
;#!LAYER: 49/269
G92 E0
G1 Z12.25 F200.0
G1 X58.86 Y68.25 F15000.0
T0
G1 F5612.6
G1 E3.118
G1 F2500.0
G1 F78.0
G1 E0.065
G1 F2500.0
G1 X58.47 Y67.35 E0.031 F2250.0
G1 X58.17 Y65.7 E0.052
G1 X58.32 Y64.08 E0.051
G1 X58.71 Y62.94 E0.038
G1 X59.22 Y61.98 E0.034
G1 X59.82 Y61.2 E0.031
G1 X60.6 Y60.51 E0.032
G1 X61.62 Y59.85 E0.038
G1 X62.97 Y59.37 E0.045
G1 X64.26 Y59.19 E0.041
G1 X65.31 Y59.25 E0.033
G1 X65.88 Y59.34 E0.018
G1 X67.14 Y59.79 E0.042
G1 X67.98 Y60.27 E0.03
G1 X69.27 Y61.41 E0.054
G1 X69.84 Y62.22 E0.031
G1 X70.47 Y63.66 E0.049
G1 X70.71 Y64.95 E0.041
G1 X70.65 Y66.51 E0.049
G1 X70.38 Y67.5 E0.032
G1 X69.9 Y68.55 E0.036
G1 X69.39 Y69.3 E0.028
G1 X68.61 Y70.14 E0.036
G1 X68.07 Y70.59 E0.022
G1 X66.9 Y71.22 E0.041
G1 X65.37 Y71.64 E0.049
G1 X63.93 Y71.7 E0.045
G1 X63.09 Y71.58 E0.026
G1 X62.04 Y71.22 E0.035
G1 X60.87 Y70.59 E0.041
G1 X59.7 Y69.57 E0.048
G1 X58.86 Y68.25 E0.049
G1 X59.1 Y68.13 E0.008
G1 X60.06 Y69.48 E0.052
G1 X60.99 Y70.32 E0.039
G1 X62.07 Y70.95 E0.039
G1 X63.12 Y71.28 E0.034
G1 X64.38 Y71.43 E0.04
G1 X65.88 Y71.25 E0.047
G1 X66.69 Y71.01 E0.026
G1 X67.74 Y70.44 E0.037
G1 X68.4 Y69.93 E0.026
G1 X69.03 Y69.3 E0.028
G1 X69.48 Y68.67 E0.024
G1 X69.9 Y67.86 E0.028
G1 X70.2 Y67.05 E0.027
G1 X70.44 Y65.4 E0.052
G1 X70.32 Y64.32 E0.034
G1 X69.99 Y63.24 E0.035
G1 X69.57 Y62.4 E0.029
G1 X69.15 Y61.77 E0.024
G1 X68.46 Y61.02 E0.032
G1 X67.29 Y60.18 E0.045
G1 X65.64 Y59.58 E0.055
G1 X64.41 Y59.49 E0.038
G1 X63.72 Y59.52 E0.022
G1 X62.79 Y59.73 E0.03
G1 X61.98 Y60.0 E0.027
G1 X61.2 Y60.45 E0.028
G1 X60.15 Y61.32 E0.043
G1 X59.49 Y62.13 E0.033
G1 X59.22 Y62.58 E0.016
G1 X58.74 Y63.69 E0.038
G1 X58.5 Y65.22 E0.048
G1 X58.59 Y66.6 E0.043
G1 X59.1 Y68.13 E0.05
G1 F5612.6
G1 E-3.118
G1 F2500.0
G1 X58.86 Y68.25
;#!LAYER: 50/269
G92 E0
G1 Z12.5 F200.0
G1 X62.04 Y71.22 F15000.0
T0
G1 F5612.6
G1 E3.118
G1 F2500.0
G1 F78.0
G1 E0.065
G1 F2500.0
G1 X60.87 Y70.59 E0.041 F2250.0
G1 X60.03 Y69.9 E0.034
G1 X59.13 Y68.76 E0.045
G1 X58.47 Y67.35 E0.049
G1 X58.17 Y65.7 E0.052
G1 X58.32 Y64.08 E0.051
G1 X58.71 Y62.94 E0.038
G1 X59.22 Y61.98 E0.034
G1 X59.82 Y61.2 E0.031
G1 X60.6 Y60.51 E0.032
G1 X61.62 Y59.85 E0.038
G1 X62.97 Y59.37 E0.045
G1 X64.26 Y59.19 E0.041
G1 X65.31 Y59.25 E0.033
G1 X65.88 Y59.34 E0.018
G1 X67.14 Y59.79 E0.042
G1 X67.98 Y60.27 E0.03
G1 X69.27 Y61.41 E0.054
G1 X69.84 Y62.22 E0.031
G1 X70.47 Y63.66 E0.049
G1 X70.71 Y64.95 E0.041
G1 X70.68 Y66.27 E0.041
G1 X70.47 Y67.17 E0.029
G1 X69.96 Y68.4 E0.042
G1 X69.15 Y69.6 E0.045
G1 X68.07 Y70.59 E0.046
G1 X66.9 Y71.22 E0.041
G1 X65.37 Y71.64 E0.049
G1 X63.93 Y71.7 E0.045
G1 X63.09 Y71.58 E0.026
G1 X62.04 Y71.22 E0.035
G1 X62.07 Y70.95 E0.008
G1 X63.12 Y71.28 E0.034
G1 X64.38 Y71.43 E0.04
G1 X65.88 Y71.25 E0.047
G1 X66.69 Y71.01 E0.026
G1 X67.74 Y70.44 E0.037
G1 X68.4 Y69.93 E0.026
G1 X69.03 Y69.3 E0.028
G1 X69.48 Y68.67 E0.024
G1 X69.9 Y67.86 E0.028
G1 X70.2 Y67.05 E0.027
G1 X70.44 Y65.58 E0.046
G1 X70.32 Y64.32 E0.039
G1 X69.99 Y63.24 E0.035
G1 X69.27 Y61.92 E0.047
G1 X68.04 Y60.66 E0.055
G1 X66.66 Y59.91 E0.049
G1 X65.34 Y59.55 E0.043
G1 X64.26 Y59.49 E0.034
G1 X63.36 Y59.55 E0.028
G1 X62.04 Y59.97 E0.043
G1 X61.23 Y60.42 E0.029
G1 X60.33 Y61.14 E0.036
G1 X59.64 Y61.92 E0.032
G1 X59.25 Y62.52 E0.022
G1 X58.68 Y64.02 E0.05
G1 X58.5 Y65.22 E0.038
G1 X58.59 Y66.6 E0.043
G1 X59.1 Y68.13 E0.05
G1 X60.06 Y69.48 E0.052
G1 X60.99 Y70.32 E0.039
G1 X62.07 Y70.95 E0.039
G1 F5612.6
G1 E-3.118
G1 F2500.0
G1 X62.04 Y71.22
;#!LAYER: 51/269
G92 E0
G1 Z12.75 F200.0
G1 X62.04 Y71.22 F15000.0
T0
G1 F5612.6
G1 E3.118
G1 F2500.0
G1 F78.0
G1 E0.065
G1 F2500.0
G1 X60.87 Y70.59 E0.041 F2250.0
G1 X60.03 Y69.9 E0.034
G1 X59.13 Y68.76 E0.045
G1 X58.47 Y67.35 E0.049
G1 X58.17 Y65.7 E0.052
G1 X58.32 Y64.08 E0.051
G1 X58.71 Y62.94 E0.038
G1 X59.22 Y61.98 E0.034
G1 X59.82 Y61.2 E0.031
G1 X60.6 Y60.51 E0.032
G1 X61.62 Y59.85 E0.038
G1 X62.97 Y59.37 E0.045
G1 X64.26 Y59.19 E0.041
G1 X65.31 Y59.25 E0.033
G1 X65.88 Y59.34 E0.018
G1 X67.14 Y59.79 E0.042
G1 X67.98 Y60.27 E0.03
G1 X69.27 Y61.41 E0.054
G1 X69.84 Y62.22 E0.031
G1 X70.47 Y63.66 E0.049
G1 X70.71 Y64.95 E0.041
G1 X70.68 Y66.27 E0.041
G1 X70.47 Y67.17 E0.029
G1 X69.96 Y68.4 E0.042
G1 X69.15 Y69.6 E0.045
G1 X68.07 Y70.59 E0.046
G1 X66.9 Y71.22 E0.041
G1 X65.37 Y71.64 E0.049
G1 X63.93 Y71.7 E0.045
G1 X63.09 Y71.58 E0.026
G1 X62.04 Y71.22 E0.035
G1 X62.07 Y70.95 E0.008
G1 X63.12 Y71.28 E0.034
G1 X64.38 Y71.43 E0.04
G1 X65.88 Y71.25 E0.047
G1 X66.69 Y71.01 E0.026
G1 X67.74 Y70.44 E0.037
G1 X68.4 Y69.93 E0.026
G1 X69.03 Y69.3 E0.028
G1 X69.48 Y68.67 E0.024
G1 X69.9 Y67.86 E0.028
G1 X70.2 Y67.05 E0.027
G1 X70.44 Y65.4 E0.052
G1 X70.32 Y64.32 E0.034
G1 X69.99 Y63.24 E0.035
G1 X69.57 Y62.4 E0.029
G1 X69.15 Y61.77 E0.024
G1 X68.25 Y60.84 E0.04
G1 X67.26 Y60.18 E0.037
G1 X66.45 Y59.82 E0.028
G1 X65.13 Y59.52 E0.042
G1 X64.2 Y59.49 E0.029
G1 X63.36 Y59.55 E0.026
G1 X62.04 Y59.97 E0.043
G1 X61.23 Y60.42 E0.029
G1 X60.42 Y61.05 E0.032
G1 X59.64 Y61.95 E0.037
G1 X58.92 Y63.21 E0.045
G1 X58.56 Y64.47 E0.041
G1 X58.5 Y65.22 E0.023
G1 X58.59 Y66.6 E0.043
G1 X59.1 Y68.13 E0.05
G1 X60.06 Y69.48 E0.052
G1 X60.99 Y70.32 E0.039
G1 X62.07 Y70.95 E0.039
G1 F5612.6
G1 E-3.118
G1 F2500.0
G1 X62.04 Y71.22
;#!LAYER: 52/269
G92 E0
G1 Z13.0 F200.0
G1 X58.86 Y68.25 F15000.0
T0
G1 F5612.6
G1 E3.118
G1 F2500.0
G1 F78.0
G1 E0.065
G1 F2500.0
G1 X58.47 Y67.35 E0.031 F2250.0
G1 X58.2 Y65.88 E0.047
G1 X58.32 Y64.08 E0.056
G1 X58.71 Y62.94 E0.038
G1 X59.22 Y61.98 E0.034
G1 X59.82 Y61.2 E0.031
G1 X60.6 Y60.51 E0.032
G1 X61.62 Y59.85 E0.038
G1 X62.97 Y59.37 E0.045
G1 X64.26 Y59.19 E0.041
G1 X65.31 Y59.25 E0.033
G1 X65.88 Y59.34 E0.018
G1 X67.14 Y59.79 E0.042
G1 X67.98 Y60.27 E0.03
G1 X69.27 Y61.41 E0.054
G1 X69.84 Y62.22 E0.031
G1 X70.47 Y63.66 E0.049
G1 X70.71 Y64.95 E0.041
G1 X70.68 Y66.27 E0.041
G1 X70.47 Y67.17 E0.029
G1 X69.96 Y68.4 E0.042
G1 X69.15 Y69.6 E0.045
G1 X68.07 Y70.59 E0.046
G1 X66.9 Y71.22 E0.041
G1 X65.37 Y71.64 E0.049
G1 X63.93 Y71.7 E0.045
G1 X62.73 Y71.46 E0.038
G1 X61.47 Y70.95 E0.042
G1 X60.36 Y70.2 E0.042
G1 X59.73 Y69.57 E0.028
G1 X59.22 Y68.88 E0.027
G1 X58.86 Y68.25 E0.023
G1 X59.1 Y68.13 E0.008
G1 X60.06 Y69.48 E0.052
G1 X60.99 Y70.32 E0.039
G1 X62.07 Y70.95 E0.039
G1 X63.12 Y71.28 E0.034
G1 X64.38 Y71.43 E0.04
G1 X65.88 Y71.25 E0.047
G1 X66.69 Y71.01 E0.026
G1 X67.74 Y70.44 E0.037
G1 X68.4 Y69.93 E0.026
G1 X69.03 Y69.3 E0.028
G1 X69.48 Y68.67 E0.024
G1 X69.9 Y67.86 E0.028
G1 X70.2 Y67.05 E0.027
G1 X70.44 Y65.4 E0.052
G1 X70.32 Y64.32 E0.034
G1 X69.99 Y63.24 E0.035
G1 X69.57 Y62.4 E0.029
G1 X69.15 Y61.77 E0.024
G1 X68.25 Y60.84 E0.04
G1 X67.26 Y60.18 E0.037
G1 X66.45 Y59.82 E0.028
G1 X65.13 Y59.52 E0.042
G1 X64.2 Y59.49 E0.029
G1 X63.36 Y59.55 E0.026
G1 X62.49 Y59.82 E0.028
G1 X61.65 Y60.18 E0.028
G1 X60.66 Y60.87 E0.038
G1 X59.85 Y61.65 E0.035
G1 X59.28 Y62.46 E0.031
G1 X58.83 Y63.45 E0.034
G1 X58.53 Y64.8 E0.043
G1 X58.59 Y66.6 E0.056
G1 X59.1 Y68.13 E0.05
G1 F5612.6
G1 E-3.118
G1 F2500.0
G1 X58.86 Y68.25
;#!LAYER: 53/269
G92 E0
G1 Z13.25 F200.0
G1 X58.86 Y68.25 F15000.0
T0
G1 F5612.6
G1 E3.118
G1 F2500.0
G1 F78.0
G1 E0.065
G1 F2500.0
G1 X58.47 Y67.35 E0.031 F2250.0
G1 X58.2 Y65.88 E0.047
G1 X58.32 Y64.08 E0.056
G1 X58.71 Y62.94 E0.038
G1 X59.22 Y61.98 E0.034
G1 X59.82 Y61.2 E0.031
G1 X60.6 Y60.51 E0.032
G1 X61.62 Y59.85 E0.038
G1 X62.97 Y59.37 E0.045
G1 X64.26 Y59.19 E0.041
G1 X65.31 Y59.25 E0.033
G1 X65.88 Y59.34 E0.018
G1 X67.14 Y59.79 E0.042
G1 X67.98 Y60.27 E0.03
G1 X69.27 Y61.41 E0.054
G1 X69.84 Y62.22 E0.031
G1 X70.47 Y63.66 E0.049
G1 X70.71 Y64.95 E0.041
G1 X70.62 Y66.6 E0.052
G1 X70.56 Y66.96 E0.011
G1 X70.11 Y68.16 E0.04
G1 X69.15 Y69.6 E0.054
G1 X68.07 Y70.59 E0.046
G1 X66.9 Y71.22 E0.041
G1 X65.37 Y71.64 E0.049
G1 X63.93 Y71.7 E0.045
G1 X62.73 Y71.46 E0.038
G1 X61.47 Y70.95 E0.042
G1 X60.36 Y70.2 E0.042
G1 X59.73 Y69.57 E0.028
G1 X59.22 Y68.88 E0.027
G1 X58.86 Y68.25 E0.023
G1 X59.1 Y68.13 E0.008
G1 X60.06 Y69.48 E0.052
G1 X60.99 Y70.32 E0.039
G1 X62.07 Y70.95 E0.039
G1 X63.12 Y71.28 E0.034
G1 X64.38 Y71.43 E0.04
G1 X65.88 Y71.25 E0.047
G1 X66.69 Y71.01 E0.026
G1 X67.74 Y70.44 E0.037
G1 X68.4 Y69.93 E0.026
G1 X69.03 Y69.3 E0.028
G1 X69.48 Y68.67 E0.024
G1 X69.9 Y67.86 E0.028
G1 X70.2 Y67.05 E0.027
G1 X70.44 Y65.4 E0.052
G1 X70.32 Y64.32 E0.034
G1 X69.99 Y63.24 E0.035
G1 X69.57 Y62.4 E0.029
G1 X69.15 Y61.77 E0.024
G1 X68.25 Y60.84 E0.04
G1 X67.26 Y60.18 E0.037
G1 X66.6 Y59.88 E0.023
G1 X65.73 Y59.61 E0.028
G1 X64.5 Y59.46 E0.039
G1 X63.33 Y59.58 E0.037
G1 X62.58 Y59.76 E0.024
G1 X61.41 Y60.33 E0.041
G1 X60.39 Y61.08 E0.039
G1 X59.85 Y61.65 E0.024
G1 X59.28 Y62.46 E0.031
G1 X58.83 Y63.45 E0.034
G1 X58.53 Y64.8 E0.043
G1 X58.59 Y66.6 E0.056
G1 X59.1 Y68.13 E0.05
G1 F5612.6
G1 E-3.118
G1 F2500.0
G1 X58.86 Y68.25
;#!LAYER: 54/269
G92 E0
G1 Z13.5 F200.0
G1 X66.78 Y71.25 F15000.0
T0
G1 F5612.6
G1 E3.118
G1 F2500.0
G1 F78.0
G1 E0.065
G1 F2500.0
G1 X65.34 Y71.64 E0.047 F2250.0
G1 X64.83 Y71.7 E0.016
G1 X63.12 Y71.58 E0.053
G1 X62.04 Y71.22 E0.035
G1 X60.87 Y70.59 E0.041
G1 X60.03 Y69.9 E0.034
G1 X59.22 Y68.88 E0.041
G1 X58.86 Y68.25 E0.023
G1 X58.47 Y67.35 E0.031
G1 X58.2 Y65.88 E0.047
G1 X58.32 Y64.08 E0.056
G1 X58.71 Y62.94 E0.038
G1 X59.22 Y61.98 E0.034
G1 X59.82 Y61.2 E0.031
G1 X60.6 Y60.51 E0.032
G1 X61.62 Y59.85 E0.038
G1 X62.97 Y59.37 E0.045
G1 X64.26 Y59.19 E0.041
G1 X65.31 Y59.25 E0.033
G1 X65.88 Y59.34 E0.018
G1 X67.14 Y59.79 E0.042
G1 X67.98 Y60.27 E0.03
G1 X69.27 Y61.41 E0.054
G1 X69.84 Y62.22 E0.031
G1 X70.47 Y63.66 E0.049
G1 X70.71 Y64.95 E0.041
G1 X70.62 Y66.6 E0.052
G1 X70.56 Y66.96 E0.011
G1 X70.11 Y68.16 E0.04
G1 X69.15 Y69.6 E0.054
G1 X68.4 Y70.32 E0.032
G1 X67.71 Y70.8 E0.026
G1 X66.78 Y71.25 E0.032
G1 X66.69 Y71.01 E0.008
G1 X67.74 Y70.44 E0.037
G1 X68.4 Y69.93 E0.026
G1 X69.03 Y69.3 E0.028
G1 X69.48 Y68.67 E0.024
G1 X69.9 Y67.86 E0.028
G1 X70.2 Y67.05 E0.027
G1 X70.44 Y65.55 E0.047
G1 X70.29 Y64.17 E0.043
G1 X69.9 Y63.0 E0.038
G1 X69.06 Y61.68 E0.049
G1 X68.13 Y60.75 E0.041
G1 X67.35 Y60.21 E0.03
G1 X65.97 Y59.67 E0.046
G1 X64.59 Y59.46 E0.044
G1 X63.33 Y59.58 E0.039
G1 X62.58 Y59.76 E0.024
G1 X61.62 Y60.18 E0.033
G1 X60.39 Y61.08 E0.048
G1 X59.67 Y61.89 E0.034
G1 X59.28 Y62.49 E0.022
G1 X58.89 Y63.3 E0.028
G1 X58.5 Y64.83 E0.049
G1 X58.59 Y66.6 E0.055
G1 X59.1 Y68.13 E0.05
G1 X60.06 Y69.48 E0.052
G1 X60.99 Y70.32 E0.039
G1 X62.07 Y70.95 E0.039
G1 X63.12 Y71.28 E0.034
G1 X64.38 Y71.43 E0.04
G1 X65.88 Y71.25 E0.047
G1 X66.69 Y71.01 E0.026
G1 F5612.6
G1 E-3.118
G1 F2500.0
G1 X66.78 Y71.25
;#!LAYER: 55/269
G92 E0
G1 Z13.75 F200.0
G1 X66.78 Y71.25 F15000.0
T0
G1 F5612.6
G1 E3.118
G1 F2500.0
G1 F78.0
G1 E0.065
G1 F2500.0
G1 X65.73 Y71.58 E0.034 F2250.0
G1 X64.83 Y71.7 E0.028
G1 X63.12 Y71.58 E0.053
G1 X62.04 Y71.22 E0.035
G1 X60.87 Y70.59 E0.041
G1 X60.03 Y69.9 E0.034
G1 X59.22 Y68.88 E0.041
G1 X58.86 Y68.25 E0.023
G1 X58.47 Y67.35 E0.031
G1 X58.2 Y65.88 E0.047
G1 X58.32 Y64.08 E0.056
G1 X58.71 Y62.94 E0.038
G1 X59.22 Y61.98 E0.034
G1 X59.82 Y61.2 E0.031
G1 X60.6 Y60.51 E0.032
G1 X61.62 Y59.85 E0.038
G1 X62.97 Y59.37 E0.045
G1 X64.26 Y59.19 E0.041
G1 X65.31 Y59.25 E0.033
G1 X65.88 Y59.34 E0.018
G1 X67.14 Y59.79 E0.042
G1 X67.98 Y60.27 E0.03
G1 X69.27 Y61.41 E0.054
G1 X69.84 Y62.22 E0.031
G1 X70.47 Y63.66 E0.049
G1 X70.71 Y64.95 E0.041
G1 X70.62 Y66.6 E0.052
G1 X70.56 Y66.96 E0.011
G1 X70.11 Y68.16 E0.04
G1 X69.15 Y69.6 E0.054
G1 X68.4 Y70.32 E0.032
G1 X67.71 Y70.8 E0.026
G1 X66.78 Y71.25 E0.032
G1 X66.69 Y71.01 E0.008
G1 X67.74 Y70.44 E0.037
G1 X68.4 Y69.93 E0.026
G1 X69.03 Y69.3 E0.028
G1 X69.48 Y68.67 E0.024
G1 X69.9 Y67.86 E0.028
G1 X70.2 Y67.05 E0.027
G1 X70.44 Y65.55 E0.047
G1 X70.29 Y64.17 E0.043
G1 X69.9 Y63.0 E0.038
G1 X69.06 Y61.68 E0.049
G1 X68.13 Y60.75 E0.041
G1 X67.14 Y60.12 E0.037
G1 X65.79 Y59.64 E0.045
G1 X64.59 Y59.46 E0.038
G1 X63.36 Y59.55 E0.038
G1 X62.49 Y59.82 E0.028
G1 X61.56 Y60.21 E0.031
G1 X60.42 Y61.05 E0.044
G1 X59.61 Y61.98 E0.038
G1 X58.86 Y63.36 E0.049
G1 X58.62 Y64.17 E0.026
G1 X58.5 Y65.22 E0.033
G1 X58.59 Y66.6 E0.043
G1 X59.1 Y68.13 E0.05
G1 X60.06 Y69.48 E0.052
G1 X60.99 Y70.32 E0.039
G1 X62.07 Y70.95 E0.039
G1 X63.12 Y71.28 E0.034
G1 X64.38 Y71.43 E0.04
G1 X65.88 Y71.25 E0.047
G1 X66.69 Y71.01 E0.026
G1 F5612.6
G1 E-3.118
G1 F2500.0
G1 X66.78 Y71.25
;#!LAYER: 56/269
G92 E0
G1 Z14.0 F200.0
G1 X66.78 Y71.25 F15000.0
T0
G1 F5612.6
G1 E3.118
G1 F2500.0
G1 F78.0
G1 E0.065
G1 F2500.0
G1 X65.73 Y71.58 E0.034 F2250.0
G1 X64.83 Y71.7 E0.028
G1 X63.54 Y71.64 E0.04
G1 X62.4 Y71.37 E0.037
G1 X61.53 Y70.98 E0.03
G1 X60.36 Y70.2 E0.044
G1 X59.73 Y69.57 E0.028
G1 X59.22 Y68.88 E0.027
G1 X58.86 Y68.25 E0.023
G1 X58.47 Y67.35 E0.031
G1 X58.2 Y65.88 E0.047
G1 X58.32 Y64.08 E0.056
G1 X58.71 Y62.94 E0.038
G1 X59.22 Y61.98 E0.034
G1 X59.82 Y61.2 E0.031
G1 X60.6 Y60.51 E0.032
G1 X61.62 Y59.85 E0.038
G1 X62.97 Y59.37 E0.045
G1 X64.26 Y59.19 E0.041
G1 X65.31 Y59.25 E0.033
G1 X65.88 Y59.34 E0.018
G1 X67.14 Y59.79 E0.042
G1 X67.98 Y60.27 E0.03
G1 X69.27 Y61.41 E0.054
G1 X69.84 Y62.22 E0.031
G1 X70.47 Y63.66 E0.049
G1 X70.71 Y64.95 E0.041
G1 X70.62 Y66.6 E0.052
G1 X70.56 Y66.96 E0.011
G1 X70.11 Y68.16 E0.04
G1 X69.15 Y69.6 E0.054
G1 X68.4 Y70.32 E0.032
G1 X67.71 Y70.8 E0.026
G1 X66.78 Y71.25 E0.032
G1 X66.69 Y71.01 E0.008
G1 X67.74 Y70.44 E0.037
G1 X68.4 Y69.93 E0.026
G1 X69.03 Y69.3 E0.028
G1 X69.48 Y68.67 E0.024
G1 X69.9 Y67.86 E0.028
G1 X70.2 Y67.05 E0.027
G1 X70.44 Y65.55 E0.047
G1 X70.29 Y64.17 E0.043
G1 X69.9 Y63.0 E0.038
G1 X69.06 Y61.68 E0.049
G1 X68.4 Y60.96 E0.03
G1 X67.77 Y60.48 E0.025
G1 X66.9 Y60.0 E0.031
G1 X66.0 Y59.67 E0.03
G1 X64.86 Y59.49 E0.036
G1 X63.81 Y59.52 E0.033
G1 X63.12 Y59.61 E0.022
G1 X62.28 Y59.88 E0.028
G1 X60.81 Y60.72 E0.053
G1 X59.91 Y61.59 E0.039
G1 X59.13 Y62.73 E0.043
G1 X58.74 Y63.72 E0.033
G1 X58.5 Y65.22 E0.047
G1 X58.59 Y66.6 E0.043
G1 X59.1 Y68.13 E0.05
G1 X60.06 Y69.48 E0.052
G1 X60.99 Y70.32 E0.039
G1 X62.07 Y70.95 E0.039
G1 X63.12 Y71.28 E0.034
G1 X64.38 Y71.43 E0.04
G1 X65.88 Y71.25 E0.047
G1 X66.69 Y71.01 E0.026
G1 F5612.6
G1 E-3.118
G1 F2500.0
G1 X66.78 Y71.25
;#!LAYER: 57/269
G92 E0
G1 Z14.25 F200.0
G1 X66.78 Y71.25 F15000.0
T0
G1 F5612.6
G1 E3.118
G1 F2500.0
G1 F78.0
G1 E0.065
G1 F2500.0
G1 X65.73 Y71.58 E0.034 F2250.0
G1 X64.83 Y71.7 E0.028
G1 X63.54 Y71.64 E0.04
G1 X62.4 Y71.37 E0.037
G1 X61.53 Y70.98 E0.03
G1 X60.36 Y70.2 E0.044
G1 X59.55 Y69.33 E0.037
G1 X59.25 Y68.97 E0.015
G1 X58.53 Y67.53 E0.05
G1 X58.29 Y66.63 E0.029
G1 X58.17 Y65.28 E0.042
G1 X58.32 Y64.08 E0.038
G1 X58.71 Y62.94 E0.038
G1 X59.22 Y61.98 E0.034
G1 X59.82 Y61.2 E0.031
G1 X60.6 Y60.51 E0.032
G1 X61.62 Y59.85 E0.038
G1 X62.97 Y59.37 E0.045
G1 X64.26 Y59.19 E0.041
G1 X65.31 Y59.25 E0.033
G1 X65.88 Y59.34 E0.018
G1 X67.14 Y59.79 E0.042
G1 X67.98 Y60.27 E0.03
G1 X69.27 Y61.41 E0.054
G1 X69.84 Y62.22 E0.031
G1 X70.47 Y63.66 E0.049
G1 X70.71 Y64.95 E0.041
G1 X70.62 Y66.6 E0.052
G1 X70.56 Y66.96 E0.011
G1 X70.11 Y68.16 E0.04
G1 X69.15 Y69.6 E0.054
G1 X68.4 Y70.32 E0.032
G1 X67.71 Y70.8 E0.026
G1 X66.78 Y71.25 E0.032
G1 X66.69 Y71.01 E0.008
G1 X67.74 Y70.44 E0.037
G1 X68.4 Y69.93 E0.026
G1 X69.03 Y69.3 E0.028
G1 X69.48 Y68.67 E0.024
G1 X69.9 Y67.86 E0.028
G1 X70.2 Y67.05 E0.027
G1 X70.41 Y65.88 E0.037
G1 X70.38 Y64.86 E0.032
G1 X70.23 Y63.96 E0.028
G1 X69.69 Y62.61 E0.045
G1 X69.24 Y61.89 E0.026
G1 X68.31 Y60.9 E0.042
G1 X67.29 Y60.18 E0.039
G1 X66.09 Y59.7 E0.04
G1 X64.86 Y59.49 E0.039
G1 X63.81 Y59.52 E0.033
G1 X63.12 Y59.61 E0.022
G1 X62.28 Y59.88 E0.028
G1 X61.38 Y60.33 E0.031
G1 X60.42 Y61.05 E0.037
G1 X59.7 Y61.83 E0.033
G1 X59.19 Y62.64 E0.03
G1 X58.68 Y63.99 E0.045
G1 X58.5 Y65.88 E0.059
G1 X58.56 Y66.48 E0.019
G1 X58.8 Y67.41 E0.03
G1 X59.28 Y68.43 E0.035
G1 X60.03 Y69.45 E0.039
G1 X60.72 Y70.11 E0.03
G1 X62.1 Y70.95 E0.05
