; GCode generated by RepRap Java Host Software
; Created: 2013-03-09:17-14-05
;#!RECTANGLE: <BOX x:[l:28.301998138427734, h:113.69800186157227], y:[l:26.301998138427734, h:111.69800186157227]>, height: 3.1300010681152353
M110
G21
G90
G10 P0 X0 Y0 Z0 S205.0 R205.0
M83
G92 E0
G28 X0
G28 Y0
G28 Z0
T0
G1 Z0.25 F200.0
T0
G1 X28.3 Y26.3 F2500.0
G1 F5612.6
G1 E3.118
G1 F2500.0
G1 F78.0
G1 E0.065
G1 F2500.0
G1 X113.7 E2.663
G1 Y111.7 E2.663
G1 X28.3 E2.663
G1 Y26.3 E2.663
G1 F5612.6
G1 E-3.118
G1 F2500.0
;#!LAYER: 1/12
G92 E0
G1 Z0.25 F200.0
G1 X28.3 Y26.3
G1 X51.75 Y37.98 F15000.0
T0
G1 F5612.6
G1 E3.118
G1 F2500.0
G1 F78.0
G1 E0.065
G1 F2500.0
G1 X53.61 Y36.9 E0.067 F2250.0
G1 X55.95 Y35.76 E0.081
G1 X59.19 Y34.47 E0.109
G1 X62.55 Y33.48 E0.109
G1 X65.97 Y32.85 E0.108
G1 X68.88 Y32.55 E0.091
G1 X71.58 Y32.52 E0.084
G1 X73.74 Y32.61 E0.067
G1 X75.87 Y32.82 E0.067
G1 X79.59 Y33.51 E0.118
G1 X81.99 Y34.2 E0.078
G1 X84.0 Y34.89 E0.066
G1 X86.55 Y35.97 E0.086
G1 X88.86 Y37.17 E0.081
G1 X91.29 Y38.64 E0.089
G1 X94.23 Y40.83 E0.114
G1 X96.69 Y43.05 E0.103
G1 X98.64 Y45.15 E0.089
G1 X100.74 Y47.79 E0.105
G1 X102.21 Y50.04 E0.084
G1 X103.38 Y52.14 E0.075
G1 X104.46 Y54.36 E0.077
G1 X105.54 Y57.15 E0.093
G1 X106.2 Y59.28 E0.07
G1 X106.95 Y62.58 E0.106
G1 X107.31 Y65.19 E0.082
G1 X107.49 Y68.16 E0.093
G1 X107.37 Y72.27 E0.128
G1 X107.07 Y74.73 E0.077
G1 X106.47 Y77.73 E0.095
G1 X105.81 Y80.04 E0.075
G1 X105.12 Y82.02 E0.065
G1 X104.31 Y83.97 E0.066
G1 X102.48 Y87.48 E0.123
G1 X101.01 Y89.76 E0.085
G1 X100.11 Y91.05 E0.049
G1 X97.86 Y93.72 E0.109
G1 X95.7 Y95.88 E0.095
G1 X94.41 Y97.02 E0.054
G1 X92.79 Y98.31 E0.065
G1 X91.38 Y99.3 E0.054
G1 X88.32 Y101.13 E0.111
G1 X85.95 Y102.3 E0.082
G1 X82.2 Y103.74 E0.125
G1 X80.85 Y104.16 E0.044
G1 X77.1 Y105.0 E0.12
G1 X73.56 Y105.42 E0.111
G1 X70.59 Y105.51 E0.093
G1 X67.89 Y105.36 E0.084
G1 X65.79 Y105.12 E0.066
G1 X62.79 Y104.58 E0.095
G1 X59.49 Y103.65 E0.107
G1 X56.85 Y102.66 E0.088
G1 X54.54 Y101.58 E0.08
G1 X52.29 Y100.35 E0.08
G1 X49.86 Y98.76 E0.091
G1 X47.1 Y96.6 E0.109
G1 X45.0 Y94.65 E0.089
G1 X42.87 Y92.28 E0.099
G1 X41.4 Y90.39 E0.075
G1 X40.26 Y88.71 E0.063
G1 X39.24 Y87.03 E0.061
G1 X38.04 Y84.72 E0.081
G1 X36.78 Y81.78 E0.1
G1 X35.94 Y79.17 E0.085
G1 X35.31 Y76.65 E0.081
G1 X34.71 Y73.11 E0.112
G1 X34.5 Y70.23 E0.09
G1 X34.77 Y64.5 E0.179
G1 X35.07 Y62.43 E0.065
G1 X35.76 Y59.49 E0.094
G1 X36.21 Y57.87 E0.052
G1 X37.38 Y54.75 E0.104
G1 X39.15 Y51.15 E0.125
G1 X40.08 Y49.59 E0.057
G1 X41.67 Y47.28 E0.087
G1 X43.56 Y44.91 E0.095
G1 X45.99 Y42.39 E0.109
G1 X48.39 Y40.32 E0.099
G1 X49.86 Y39.24 E0.057
G1 X51.75 Y37.98 E0.071
G1 X51.9 Y38.22 E0.009
G1 X53.97 Y37.05 E0.074
G1 X56.1 Y36.0 E0.074
G1 X57.99 Y35.22 E0.064
G1 X59.94 Y34.53 E0.064
G1 X62.7 Y33.75 E0.089
G1 X66.03 Y33.15 E0.106
G1 X68.55 Y32.88 E0.079
G1 X71.46 Y32.79 E0.091
G1 X73.71 Y32.91 E0.07
G1 X76.47 Y33.21 E0.087
G1 X79.56 Y33.81 E0.098
G1 X81.84 Y34.47 E0.074
G1 X84.03 Y35.22 E0.072
G1 X86.49 Y36.27 E0.083
G1 X88.77 Y37.47 E0.08
G1 X91.14 Y38.91 E0.086
G1 X93.87 Y40.92 E0.106
G1 X96.24 Y43.02 E0.099
G1 X98.67 Y45.66 E0.112
G1 X100.62 Y48.18 E0.099
G1 X101.97 Y50.25 E0.077
G1 X103.08 Y52.2 E0.07
G1 X104.1 Y54.33 E0.074
G1 X105.3 Y57.42 E0.103
G1 X105.96 Y59.52 E0.069
G1 X106.59 Y62.25 E0.087
G1 X107.1 Y65.97 E0.117
G1 X107.19 Y67.71 E0.054
G1 X107.16 Y70.92 E0.1
G1 X106.83 Y74.28 E0.105
G1 X106.29 Y77.13 E0.09
G1 X105.63 Y79.62 E0.08
G1 X105.0 Y81.51 E0.062
G1 X104.13 Y83.61 E0.071
G1 X102.36 Y87.09 E0.122
G1 X100.47 Y90.03 E0.109
G1 X98.58 Y92.46 E0.096
G1 X96.57 Y94.62 E0.092
G1 X94.62 Y96.45 E0.083
G1 X92.28 Y98.28 E0.093
G1 X90.96 Y99.21 E0.05
G1 X88.38 Y100.77 E0.094
G1 X85.77 Y102.06 E0.091
G1 X83.52 Y102.96 E0.076
G1 X80.34 Y103.98 E0.104
G1 X77.01 Y104.7 E0.106
G1 X73.68 Y105.09 E0.105
G1 X71.61 Y105.21 E0.065
G1 X67.62 Y105.03 E0.125
G1 X65.49 Y104.76 E0.067
G1 X62.67 Y104.22 E0.09
G1 X60.51 Y103.65 E0.07
G1 X57.03 Y102.39 E0.115
G1 X54.84 Y101.4 E0.075
G1 X52.32 Y100.02 E0.09
G1 X49.5 Y98.13 E0.106
G1 X46.77 Y95.91 E0.11
G1 X44.64 Y93.84 E0.093
G1 X42.78 Y91.71 E0.088
G1 X41.28 Y89.7 E0.078
G1 X39.42 Y86.73 E0.109
G1 X38.22 Y84.39 E0.082
G1 X36.99 Y81.42 E0.1
G1 X35.94 Y78.06 E0.11
G1 X35.19 Y74.34 E0.118
G1 X34.95 Y72.39 E0.061
G1 X34.8 Y70.29 E0.066
G1 X35.04 Y64.98 E0.166
G1 X35.34 Y62.64 E0.074
G1 X35.61 Y61.26 E0.044
G1 X36.39 Y58.32 E0.095
G1 X37.65 Y54.87 E0.115
G1 X38.58 Y52.86 E0.069
G1 X40.17 Y50.04 E0.101
G1 X41.73 Y47.67 E0.088
G1 X43.83 Y45.06 E0.104
G1 X46.08 Y42.72 E0.101
G1 X48.57 Y40.56 E0.103
G1 X51.9 Y38.22 E0.127
G1 F5612.6
G1 E-3.118
G1 F2500.0
G1 X51.75 Y37.98
G1 X66.96 Y35.28 F15000.0
G1 F5612.6
G1 E3.118
G1 F2500.0
G1 F78.0
G1 E0.065
G1 F2500.0
G1 X66.84 Y35.52 E0.008 F2250.0
G1 X66.81 Y38.58 E0.095
G1 X66.9 Y38.73 E0.005
G1 X67.11 Y38.79 E0.007
G1 X75.03 E0.247
G1 X75.18 Y38.52 E0.01
G1 X75.12 Y35.43 E0.096
G1 X75.06 Y35.31 E0.004
G1 X66.96 Y35.28 E0.253
G1 X66.9 Y35.01 E0.009
G1 X66.63 Y35.19 E0.01
G1 X66.54 Y38.67 E0.109
G1 X66.66 Y38.91 E0.008
G1 X66.81 Y39.03 E0.006
G1 X67.14 Y39.09 E0.01
G1 X75.06 E0.247
G1 X75.36 Y38.88 E0.011
G1 X75.45 Y38.61 E0.009
G1 X75.39 Y35.25 E0.105
G1 X75.24 Y35.07 E0.007
G1 X75.03 Y34.98 E0.007
G1 X66.9 Y35.01 E0.254
G1 F5612.6
G1 E-3.118
G1 F2500.0
G1 X66.96 Y35.28
G1 X51.48 Y61.56 F15000.0
G1 F5612.6
G1 E3.118
G1 F2500.0
G1 F78.0
G1 E0.065
G1 F2500.0
G1 X50.79 Y63.81 E0.073 F2250.0
G1 X50.34 Y66.06 E0.072
G1 X50.19 Y70.38 E0.135
G1 X50.37 Y72.3 E0.06
G1 X50.85 Y74.43 E0.068
G1 X51.42 Y76.23 E0.059
G1 X52.14 Y77.94 E0.058
G1 X53.37 Y80.16 E0.079
G1 X54.54 Y81.87 E0.065
G1 X55.77 Y83.28 E0.058
G1 X58.08 Y85.41 E0.098
G1 X60.03 Y86.79 E0.074
G1 X62.1 Y87.9 E0.073
G1 X64.62 Y88.89 E0.084
G1 X66.78 Y89.46 E0.07
G1 X67.98 Y89.67 E0.038
G1 X70.17 Y89.88 E0.069
G1 X72.45 Y89.85 E0.071
G1 X73.92 Y89.7 E0.046
G1 X75.84 Y89.34 E0.061
G1 X77.85 Y88.74 E0.065
G1 X79.56 Y88.05 E0.057
G1 X81.15 Y87.24 E0.056
G1 X83.61 Y85.62 E0.092
G1 X85.59 Y83.94 E0.081
G1 X87.3 Y82.05 E0.079
G1 X88.74 Y79.98 E0.079
G1 X89.22 Y79.2 E0.029
G1 X90.45 Y76.56 E0.091
G1 X91.14 Y74.46 E0.069
G1 X91.65 Y72.06 E0.077
G1 X91.86 Y69.99 E0.065
G1 Y67.77 E0.069
G1 X91.56 Y65.34 E0.076
G1 X90.93 Y62.76 E0.083
G1 X90.15 Y60.69 E0.069
G1 X89.19 Y58.77 E0.067
G1 X87.84 Y56.7 E0.077
G1 X86.16 Y54.66 E0.082
G1 X84.36 Y52.95 E0.077
G1 X83.28 Y52.11 E0.043
G1 X81.12 Y50.73 E0.08
G1 X79.71 Y50.01 E0.049
G1 X78.15 Y49.38 E0.052
G1 X75.03 Y48.51 E0.101
G1 X72.39 Y48.15 E0.083
G1 X69.48 Y48.18 E0.091
G1 X67.44 Y48.42 E0.064
G1 X66.48 Y48.6 E0.03
G1 X63.9 Y49.35 E0.084
G1 X62.25 Y50.04 E0.056
G1 X60.21 Y51.12 E0.072
G1 X58.86 Y52.02 E0.051
G1 X57.12 Y53.4 E0.069
G1 X55.29 Y55.23 E0.081
G1 X54.12 Y56.7 E0.059
G1 X53.01 Y58.41 E0.064
G1 X52.17 Y60.03 E0.057
G1 X51.48 Y61.56 E0.052
G1 X51.24 Y61.41 E0.009
G1 X50.52 Y63.66 E0.074
G1 X50.25 Y64.71 E0.034
G1 X49.86 Y67.62 E0.092
G1 X49.83 Y70.08 E0.077
G1 X50.04 Y72.18 E0.066
G1 X50.34 Y73.71 E0.049
G1 X51.0 Y75.99 E0.074
G1 X51.87 Y78.06 E0.07
G1 X53.16 Y80.37 E0.082
G1 X54.81 Y82.65 E0.088
G1 X56.43 Y84.33 E0.073
G1 X58.11 Y85.83 E0.07
G1 X59.85 Y87.03 E0.066
G1 X61.98 Y88.17 E0.075
G1 X64.5 Y89.16 E0.084
G1 X65.7 Y89.52 E0.039
G1 X68.13 Y90.0 E0.077
G1 X70.53 Y90.18 E0.075
G1 X72.96 Y90.12 E0.076
G1 X75.24 Y89.76 E0.072
G1 X76.59 Y89.43 E0.043
G1 X78.33 Y88.89 E0.057
G1 X79.65 Y88.35 E0.044
G1 X81.51 Y87.39 E0.065
G1 X83.79 Y85.86 E0.086
G1 X85.77 Y84.18 E0.081
G1 X87.54 Y82.23 E0.082
G1 X88.98 Y80.16 E0.079
G1 X90.21 Y77.94 E0.079
G1 X91.05 Y75.78 E0.072
G1 X91.71 Y73.41 E0.077
G1 X92.1 Y70.8 E0.082
G1 X92.19 Y68.22 E0.08
G1 X91.98 Y66.18 E0.064
G1 X91.53 Y63.84 E0.074
G1 X91.17 Y62.52 E0.043
G1 X90.3 Y60.3 E0.074
G1 X88.98 Y57.81 E0.088
G1 X87.48 Y55.71 E0.08
G1 X85.8 Y53.85 E0.078
G1 X84.06 Y52.32 E0.072
G1 X81.48 Y50.58 E0.097
G1 X79.89 Y49.77 E0.056
G1 X78.15 Y49.05 E0.059
G1 X76.47 Y48.54 E0.055
G1 X75.09 Y48.21 E0.044
G1 X72.42 Y47.85 E0.084
G1 X69.54 E0.09
G1 X66.87 Y48.21 E0.084
G1 X64.62 Y48.78 E0.072
G1 X62.1 Y49.77 E0.084
G1 X60.03 Y50.88 E0.073
G1 X58.56 Y51.87 E0.055
G1 X56.52 Y53.55 E0.082
G1 X54.84 Y55.32 E0.076
G1 X53.37 Y57.27 E0.076
G1 X52.62 Y58.5 E0.045
G1 X51.84 Y60.0 E0.053
G1 X51.24 Y61.41 E0.048
G1 F5612.6
G1 E-3.118
G1 F2500.0
G1 X51.48 Y61.56
G1 X40.74 Y62.31 F15000.0
G1 F5612.6
G1 E3.118
G1 F2500.0
G1 F78.0
G1 E0.065
G1 F2500.0
G1 Y77.28 E0.467 F2250.0
G1 X40.92 Y77.46 E0.008
G1 X47.55 E0.207
G1 X47.67 Y77.31 E0.006
G1 X47.7 Y62.28 E0.469
G1 X47.61 Y62.13 E0.005
G1 X47.4 Y62.07 E0.007
G1 X40.83 Y62.1 E0.205
G1 X40.74 Y62.31 E0.007
G1 X40.44 E0.009
G1 X40.5 Y77.49 E0.473
G1 X40.68 Y77.7 E0.009
G1 X40.89 Y77.76 E0.007
G1 X47.58 E0.209
G1 X47.88 Y77.55 E0.011
G1 X48.0 Y77.19 E0.012
G1 Y62.28 E0.465
G1 X47.88 Y61.98 E0.01
G1 X47.46 Y61.77 E0.015
G1 X40.83 E0.207
G1 X40.53 Y61.98 E0.011
G1 X40.44 Y62.31 E0.011
G1 F5612.6
G1 E-3.118
G1 F2500.0
G1 X40.74
G1 X46.86 Y87.63 F15000.0
G1 F5612.6
G1 E3.118
G1 F2500.0
G1 F78.0
G1 E0.065
G1 F2500.0
G1 X42.78 Y80.61 E0.253 F2250.0
G1 X42.69 Y80.55 E0.003
G1 X39.84 Y82.17 E0.102
G1 Y82.44 E0.008
G1 X43.89 Y89.37 E0.25
G1 X43.98 Y89.4 E0.003
G1 X46.74 Y87.84 E0.099
G1 X46.86 Y87.63 E0.008
G1 X47.13 Y87.69 E0.009
G1 X47.1 Y87.45 E0.008
G1 X42.99 Y80.4 E0.254
G1 X42.84 Y80.28 E0.006
G1 X42.63 Y80.25 E0.007
G1 X42.36 Y80.34 E0.009
G1 X39.69 Y81.9 E0.096
G1 X39.54 Y82.08 E0.007
G1 X39.51 Y82.47 E0.012
G1 X43.71 Y89.61 E0.258
G1 X44.07 Y89.7 E0.012
G1 X46.98 Y88.02 E0.105
G1 X47.13 Y87.69 E0.011
G1 F5612.6
G1 E-3.118
G1 F2500.0
G1 X46.86 Y87.63
G1 X99.36 Y80.55 F15000.0
G1 F5612.6
G1 E3.118
G1 F2500.0
G1 F78.0
G1 E0.065
G1 F2500.0
G1 X99.21 Y80.61 E0.005 F2250.0
G1 X95.16 Y87.66 E0.254
G1 X95.28 Y87.87 E0.008
G1 X98.01 Y89.4 E0.098
G1 X98.13 Y89.37 E0.004
G1 X102.18 Y82.41 E0.251
G1 X102.15 Y82.2 E0.007
G1 X99.36 Y80.55 E0.101
G1 X99.48 Y80.28 E0.009
G1 X99.12 Y80.31 E0.011
G1 X98.97 Y80.43 E0.006
G1 X94.89 Y87.54 E0.256
G1 X94.92 Y87.9 E0.011
G1 X95.07 Y88.08 E0.007
G1 X97.89 Y89.67 E0.101
G1 X98.07 Y89.7 E0.006
G1 X98.34 Y89.58 E0.009
G1 X102.39 Y82.62 E0.251
G1 X102.48 Y82.38 E0.008
G1 X102.36 Y81.96 E0.014
G1 X99.48 Y80.28 E0.104
G1 F5612.6
G1 E-3.118
G1 F2500.0
G1 X99.36 Y80.55
G1 X94.35 Y62.31 F15000.0
G1 F5612.6
G1 E3.118
G1 F2500.0
G1 F78.0
G1 E0.065
G1 F2500.0
G1 Y77.28 E0.467 F2250.0
G1 X94.53 Y77.46 E0.008
G1 X101.16 E0.207
G1 X101.28 Y77.31 E0.006
G1 X101.31 Y62.28 E0.469
G1 X101.22 Y62.13 E0.005
G1 X101.01 Y62.07 E0.007
G1 X94.44 Y62.1 E0.205
G1 X94.35 Y62.31 E0.007
G1 X94.05 E0.009
G1 X94.11 Y77.49 E0.473
G1 X94.29 Y77.7 E0.009
G1 X94.5 Y77.76 E0.007
G1 X101.19 E0.209
G1 X101.49 Y77.55 E0.011
G1 X101.61 Y77.19 E0.012
G1 Y62.28 E0.465
G1 X101.49 Y61.98 E0.01
G1 X101.07 Y61.77 E0.015
G1 X94.44 E0.207
G1 X94.14 Y61.98 E0.011
G1 X94.05 Y62.31 E0.011
G1 F5612.6
G1 E-3.118
G1 F2500.0
G1 X94.35
G1 X93.96 Y62.37 F15000.0
G1 F5612.6
G1 E3.118
G1 F2500.0
G1 F78.0
G1 E0.065
G1 F2500.0
G1 X91.8 Y64.59 E0.097
G1 X91.86 Y64.86 E0.009
G1 X93.96 Y62.82 E0.091
G1 Y63.18 E0.011
G1 X91.95 Y65.28 E0.091
G1 X91.98 Y65.58 E0.009
G1 X93.96 Y63.66 E0.086
G1 Y64.02 E0.011
G1 X92.07 Y66.0 E0.085
G1 X92.1 Y66.3 E0.009
G1 X93.96 Y64.53 E0.08
G1 Y64.86 E0.01
G1 X92.16 Y66.75 E0.081
G1 X92.19 Y67.05 E0.009
G1 X93.96 Y65.37 E0.076
G1 Y65.73 E0.011
G1 X92.22 Y67.53 E0.078
G1 X92.25 Y67.86 E0.01
G1 X93.96 Y66.21 E0.074
G1 Y66.57 E0.011
G1 X92.28 Y68.31 E0.075
G1 Y68.67 E0.011
G1 X93.96 Y67.05 E0.073
G1 Y67.41 E0.011
G1 X92.28 Y69.18 E0.076
G1 Y69.51 E0.01
G1 X93.96 Y67.92 E0.072
G1 Y68.25 E0.01
G1 X92.22 Y70.08 E0.079
G1 Y70.44 E0.011
G1 X93.96 Y68.76 E0.075
G1 Y69.12 E0.011
G1 X92.19 Y70.95 E0.079
G1 X92.13 Y71.43 E0.015
G1 X93.96 Y69.6 E0.081
G1 Y69.96 E0.011
G1 X92.07 Y71.91 E0.085
G1 X92.01 Y72.33 E0.013
G1 X93.96 Y70.47 E0.084
G1 Y70.8 E0.01
G1 X91.89 Y72.96 E0.093
G1 X91.8 Y73.38 E0.013
G1 X93.96 Y71.31 E0.093
G1 Y71.67 E0.011
G1 X91.65 Y74.04 E0.103
G1 X91.53 Y74.52 E0.015
G1 X93.96 Y72.15 E0.106
G1 Y72.51 E0.011
G1 X91.35 Y75.18 E0.116
G1 F5612.6
G1 E-3.118
G1 F2500.0
G1 X91.17 Y75.78 F15000.0
G1 F5612.6
G1 E3.118
G1 F2500.0
G1 F78.0
G1 E0.065
G1 F2500.0
G1 X93.96 Y72.99 E0.123
G1 Y73.35 E0.011
G1 X90.9 Y76.5 E0.137
G1 X90.69 Y77.04 E0.018
G1 X93.96 Y73.86 E0.142
G1 Y74.19 E0.01
G1 X90.3 Y77.94 E0.163
G1 X89.97 Y78.6 E0.023
G1 X93.96 Y74.67 E0.175
G1 Y75.06 E0.012
G1 X89.4 Y79.68 E0.202
G1 F5612.6
G1 E-3.118
G1 F2500.0
G1 X88.71 Y80.79 F15000.0
G1 F5612.6
G1 E3.118
G1 F2500.0
G1 F78.0
G1 E0.065
G1 F2500.0
G1 X93.96 Y75.54 E0.232
G1 Y75.9 E0.011
G1 X87.51 Y82.41 E0.286
G1 F5612.6
G1 E-3.118
G1 F2500.0
G1 X96.54 Y84.42 F15000.0
G1 F5612.6
G1 E3.118
G1 F2500.0
G1 F78.0
G1 E0.065
G1 F2500.0
G1 X76.23 Y104.73 E0.896
G1 F5612.6
G1 E-3.118
G1 F2500.0
G1 X76.74 Y104.64 F15000.0
G1 F5612.6
G1 E3.118
G1 F2500.0
G1 F78.0
G1 E0.065
G1 F2500.0
G1 X95.94 Y85.44 E0.847
G1 X95.46 Y86.28 E0.03
G1 X77.22 Y104.58 E0.806
G1 X77.76 Y104.46 E0.017
G1 X94.8 Y87.45 E0.751
G1 Y87.78 E0.01
G1 X78.3 Y104.37 E0.73
G1 X78.72 Y104.28 E0.013
G1 X94.95 Y88.11 E0.714
G1 F5612.6
G1 E-3.118
G1 F2500.0
G1 X97.95 Y89.79 F15000.0
G1 F5612.6
G1 E3.118
G1 F2500.0
G1 F78.0
G1 E0.065
G1 F2500.0
G1 X85.8 Y101.94 E0.536
G1 F5612.6
G1 E-3.118
G1 F2500.0
G1 X85.08 Y102.24 F15000.0
G1 F5612.6
G1 E3.118
G1 F2500.0
G1 F78.0
G1 E0.065
G1 F2500.0
G1 X97.62 Y89.64 E0.554
G1 X97.38 Y89.52 E0.008
G1 X84.36 Y102.54 E0.574
G1 F5612.6
G1 E-3.118
G1 F2500.0
G1 X83.61 Y102.84 F15000.0
G1 F5612.6
G1 E3.118
G1 F2500.0
G1 F78.0
G1 E0.065
G1 F2500.0
G1 X97.08 Y89.34 E0.595
G1 X96.84 Y89.19 E0.009
G1 X82.86 Y103.11 E0.615
G1 X82.38 Y103.26 E0.016
G1 X96.54 Y89.01 E0.626
G1 X96.33 Y88.89 E0.008
G1 X81.72 Y103.47 E0.644
G1 F5612.6
G1 E-3.118
G1 F2500.0
G1 X81.12 Y103.65 F15000.0
G1 F5612.6
G1 E3.118
G1 F2500.0
G1 F78.0
G1 E0.065
G1 F2500.0
G1 X96.0 Y88.71 E0.657
G1 X95.76 Y88.59 E0.008
G1 X80.52 Y103.83 E0.672
G1 X79.95 Y103.98 E0.018
G1 X95.46 Y88.41 E0.685
G1 X95.22 Y88.26 E0.009
G1 X79.35 Y104.13 E0.7
G1 F5612.6
G1 E-3.118
G1 F2500.0
G1 X90.42 Y99.45 F15000.0
G1 F5612.6
G1 E3.118
G1 F2500.0
G1 F78.0
G1 E0.065
G1 F2500.0
G1 X101.49 Y88.38 E0.488
G1 F5612.6
G1 E-3.118
G1 F2500.0
G1 X102.18 Y87.24 F15000.0
G1 F5612.6
G1 E3.118
G1 F2500.0
G1 F78.0
G1 E0.065
G1 F2500.0
G1 X89.13 Y100.23 E0.574
G1 X88.35 Y100.68 E0.028
G1 X102.78 Y86.16 E0.638
G1 X103.17 Y85.44 E0.026
G1 X87.3 Y101.22 E0.698
G1 X86.64 Y101.55 E0.023
G1 X103.65 Y84.45 E0.752
G1 X103.98 Y83.76 E0.024
G1 X98.94 Y88.8 E0.222
G1 F5612.6
G1 E-3.118
G1 F2500.0
G1 X99.51 Y87.81 F15000.0
G1 F5612.6
G1 E3.118
G1 F2500.0
G1 F78.0
G1 E0.065
G1 F2500.0
G1 X104.34 Y82.92 E0.214
G1 X104.58 Y82.32 E0.02
G1 X100.08 Y86.82 E0.198
G1 F5612.6
G1 E-3.118
G1 F2500.0
G1 X99.48 Y91.23 F15000.0
G1 F5612.6
G1 E3.118
G1 F2500.0
G1 F78.0
G1 E0.065
G1 F2500.0
G1 X97.35 Y93.69 E0.101
G1 X95.07 Y95.94 E0.1
G1 X93.27 Y97.44 E0.073
G1 X99.69 Y90.96 E0.284
G1 X100.62 Y89.67 E0.05
G1 X91.68 Y98.61 E0.394
G1 F5612.6
G1 E-3.118
G1 F2500.0
G1 X97.14 Y83.37 F15000.0
G1 F5612.6
G1 E3.118
G1 F2500.0
G1 F78.0
G1 E0.065
G1 F2500.0
G1 X75.63 Y104.82 E0.947
G1 X75.27 Y104.85 E0.011
G1 X97.8 Y82.23 E0.995
G1 X98.25 Y81.45 E0.028
G1 X74.7 Y104.91 E1.037
G1 X74.31 Y104.97 E0.012
G1 X106.98 Y72.21 E1.443
G1 X107.01 Y71.82 E0.012
G1 X101.7 Y77.07 E0.233
G1 Y76.71 E0.011
G1 X107.04 Y71.31 E0.237
G1 X107.07 Y70.92 E0.012
G1 X101.7 Y76.23 E0.235
G1 Y75.87 E0.011
G1 X107.07 Y70.41 E0.239
G1 X107.1 Y70.05 E0.011
G1 X101.7 Y75.36 E0.236
G1 Y75.03 E0.01
G1 X107.1 Y69.54 E0.24
G1 Y69.21 E0.01
G1 X101.7 Y74.52 E0.236
G1 Y74.16 E0.011
G1 X107.1 Y68.7 E0.239
G1 Y68.34 E0.011
G1 X101.7 Y73.68 E0.237
G1 Y73.32 E0.011
G1 X107.1 Y67.86 E0.239
G1 X107.07 Y67.53 E0.01
G1 X101.7 Y72.81 E0.235
G1 Y72.48 E0.01
G1 X107.07 Y67.02 E0.239
G1 X107.04 Y66.72 E0.009
G1 X101.7 Y71.97 E0.234
G1 Y71.64 E0.01
G1 X107.01 Y66.24 E0.236
G1 X106.98 Y65.91 E0.01
G1 X101.7 Y71.13 E0.232
G1 Y70.77 E0.011
G1 X106.95 Y65.46 E0.233
G1 X106.92 Y65.13 E0.01
G1 X101.7 Y70.29 E0.229
G1 Y69.93 E0.011
G1 X106.86 Y64.68 E0.23
G1 X106.83 Y64.38 E0.009
G1 X101.7 Y69.42 E0.224
G1 Y69.09 E0.01
G1 X106.77 Y63.93 E0.226
G1 X106.74 Y63.66 E0.008
G1 X101.7 Y68.58 E0.22
G1 Y68.22 E0.011
G1 X106.65 Y63.21 E0.22
G1 X106.59 Y62.91 E0.01
G1 X101.7 Y67.74 E0.214
G1 Y67.38 E0.011
G1 X106.53 Y62.49 E0.214
G1 X106.47 Y62.19 E0.01
G1 X101.7 Y66.87 E0.208
G1 Y66.54 E0.01
G1 X106.38 Y61.77 E0.208
G1 X106.32 Y61.5 E0.009
G1 X101.7 Y66.03 E0.202
G1 Y65.7 E0.01
G1 X106.23 Y61.08 E0.202
G1 X106.17 Y60.78 E0.01
G1 X101.7 Y65.19 E0.196
G1 Y64.83 E0.011
G1 X106.08 Y60.39 E0.194
G1 X106.02 Y60.09 E0.01
G1 X101.7 Y64.35 E0.189
G1 Y63.99 E0.011
G1 X105.9 Y59.73 E0.187
G1 X105.84 Y59.43 E0.01
G1 X101.7 Y63.48 E0.181
G1 Y63.15 E0.01
G1 X105.72 Y59.04 E0.179
G1 X105.66 Y58.8 E0.008
G1 X101.7 Y62.64 E0.172
G1 Y62.28 E0.011
G1 X105.54 Y58.41 E0.17
G1 X105.45 Y58.14 E0.009
G1 X101.58 Y61.95 E0.169
G1 X101.37 Y61.77 E0.009
G1 X105.33 Y57.75 E0.176
G1 X105.24 Y57.48 E0.009
G1 X100.98 Y61.68 E0.187
G1 X100.62 E0.011
G1 X105.12 Y57.12 E0.2
G1 X105.03 Y56.88 E0.008
G1 X100.11 Y61.68 E0.214
G1 X99.78 E0.01
G1 X104.88 Y56.49 E0.227
G1 X104.79 Y56.25 E0.008
G1 X99.27 Y61.68 E0.241
G1 X98.91 E0.011
G1 X104.64 Y55.89 E0.254
G1 X104.55 Y55.65 E0.008
G1 X98.43 Y61.68 E0.268
G1 X98.07 E0.011
G1 X104.4 Y55.29 E0.28
G1 X104.31 Y55.05 E0.008
G1 X97.56 Y61.68 E0.295
G1 X97.23 E0.01
G1 X104.16 Y54.66 E0.308
G1 X104.07 Y54.45 E0.007
G1 X96.72 Y61.68 E0.321
G1 X96.36 E0.011
G1 X103.92 Y54.09 E0.334
G1 X103.8 Y53.85 E0.008
G1 X95.88 Y61.68 E0.347
G1 X95.52 E0.011
G1 X103.62 Y53.52 E0.359
G1 X103.5 Y53.28 E0.008
G1 X95.04 Y61.68 E0.372
G1 X94.68 E0.011
G1 X103.35 Y52.95 E0.384
G1 X103.23 Y52.71 E0.008
G1 X91.71 Y64.17 E0.507
G1 X91.62 Y63.9 E0.009
G1 X103.08 Y52.38 E0.507
G1 X102.96 Y52.14 E0.008
G1 X91.53 Y63.48 E0.502
G1 X91.44 Y63.21 E0.009
G1 X102.78 Y51.84 E0.501
G1 X102.63 Y51.6 E0.009
G1 X91.35 Y62.82 E0.496
G1 X91.26 Y62.55 E0.009
G1 X102.48 Y51.3 E0.495
G1 X102.33 Y51.06 E0.009
G1 X91.14 Y62.19 E0.492
G1 X91.05 Y61.92 E0.009
G1 X102.15 Y50.73 E0.491
G1 X102.03 Y50.52 E0.008
G1 X90.9 Y61.56 E0.489
G1 X90.81 Y61.29 E0.009
G1 X101.85 Y50.19 E0.488
G1 X101.73 Y49.98 E0.008
G1 X90.66 Y60.96 E0.486
G1 X90.57 Y60.69 E0.009
G1 X101.52 Y49.68 E0.484
G1 X101.37 Y49.47 E0.008
G1 X90.42 Y60.36 E0.482
G1 X90.33 Y60.12 E0.008
G1 X101.19 Y49.17 E0.481
G1 X101.04 Y48.96 E0.008
G1 X90.15 Y59.76 E0.478
G1 X90.03 Y59.55 E0.008
G1 X100.83 Y48.66 E0.478
G1 X100.71 Y48.45 E0.008
G1 X89.85 Y59.22 E0.477
G1 X89.73 Y58.98 E0.008
G1 X100.5 Y48.15 E0.476
G1 X100.35 Y47.94 E0.008
G1 X89.58 Y58.68 E0.474
G1 X89.43 Y58.44 E0.009
G1 X100.14 Y47.67 E0.474
G1 X99.99 Y47.46 E0.008
G1 X89.25 Y58.11 E0.472
G1 X89.13 Y57.9 E0.008
G1 X99.78 Y47.19 E0.471
G1 X99.63 Y46.98 E0.008
G1 X88.95 Y57.6 E0.47
G1 X88.8 Y57.39 E0.008
G1 X99.42 Y46.71 E0.47
G1 X99.24 Y46.5 E0.009
G1 X88.59 Y57.09 E0.468
G1 X88.47 Y56.88 E0.008
G1 X99.03 Y46.23 E0.468
G1 X98.88 Y46.05 E0.007
G1 X88.26 Y56.61 E0.467
G1 X88.11 Y56.4 E0.008
G1 X98.64 Y45.75 E0.467
G1 X98.49 Y45.57 E0.007
G1 X87.9 Y56.1 E0.466
G1 X87.75 Y55.89 E0.008
G1 X98.25 Y45.3 E0.465
G1 X98.1 Y45.09 E0.008
G1 X87.51 Y55.62 E0.466
G1 X87.36 Y55.44 E0.007
G1 X97.86 Y44.85 E0.465
G1 X97.71 Y44.67 E0.007
G1 X87.15 Y55.17 E0.464
G1 X86.97 Y54.96 E0.009
G1 X97.47 Y44.43 E0.464
G1 X97.29 Y44.25 E0.008
G1 X86.73 Y54.69 E0.463
G1 X86.58 Y54.54 E0.007
G1 X97.05 Y43.98 E0.464
G1 X96.87 Y43.8 E0.008
G1 X86.31 Y54.27 E0.464
G1 X86.16 Y54.09 E0.007
G1 X96.63 Y43.56 E0.463
G1 X96.45 Y43.38 E0.008
G1 X85.92 Y53.85 E0.463
G1 X85.71 Y53.67 E0.009
G1 X96.21 Y43.14 E0.464
G1 X96.03 Y42.96 E0.008
G1 X85.47 Y53.43 E0.464
G1 X85.29 Y53.25 E0.008
G1 X95.76 Y42.69 E0.464
G1 X95.58 Y42.54 E0.007
G1 X85.02 Y53.01 E0.464
G1 X84.84 Y52.86 E0.007
G1 X95.31 Y42.3 E0.464
G1 X95.13 Y42.12 E0.008
G1 X84.57 Y52.62 E0.464
G1 X84.36 Y52.47 E0.008
G1 X94.89 Y41.91 E0.465
G1 X94.68 Y41.73 E0.009
G1 X84.12 Y52.26 E0.465
G1 X83.91 Y52.08 E0.009
G1 X94.44 Y41.52 E0.465
G1 X94.23 Y41.34 E0.009
G1 X83.61 Y51.87 E0.466
G1 X83.43 Y51.75 E0.007
G1 X93.96 Y41.1 E0.467
G1 X93.78 Y40.95 E0.007
G1 X83.16 Y51.57 E0.468
G1 F5612.6
G1 E-3.118
G1 F2500.0
G1 X82.41 Y51.06 F15000.0
G1 F5612.6
G1 E3.118
G1 F2500.0
G1 F78.0
G1 E0.065
G1 F2500.0
G1 X93.06 Y40.41 E0.47
G1 X93.27 Y40.56 E0.008
G1 X82.65 Y51.21 E0.469
G1 X82.86 Y51.36 E0.008
G1 X93.51 Y40.77 E0.468
G1 F5612.6
G1 E-3.118
G1 F2500.0
G1 X92.79 Y40.23 F15000.0
G1 F5612.6
G1 E3.118
G1 F2500.0
G1 F78.0
G1 E0.065
G1 F2500.0
G1 X82.11 Y50.88 E0.47
G1 X81.87 Y50.73 E0.009
G1 X92.52 Y39.99 E0.472
G1 X92.34 Y39.87 E0.007
G1 X81.57 Y50.52 E0.472
G1 X81.36 Y50.43 E0.007
G1 X92.07 Y39.66 E0.474
G1 F5612.6
G1 E-3.118
G1 F2500.0
G1 X91.32 Y39.15 F15000.0
G1 F5612.6
G1 E3.118
G1 F2500.0
G1 F78.0
G1 E0.065
G1 F2500.0
G1 X80.46 Y49.95 E0.478
G1 X80.22 Y49.83 E0.008
G1 X91.05 Y38.94 E0.479
G1 X90.84 Y38.82 E0.008
G1 X79.89 Y49.68 E0.481
G1 X79.65 Y49.56 E0.008
G1 X90.51 Y38.61 E0.481
G1 X90.3 Y38.49 E0.008
G1 X79.29 Y49.41 E0.484
G1 X79.05 Y49.32 E0.008
G1 X90.03 Y38.31 E0.485
G1 F5612.6
G1 E-3.118
G1 F2500.0
G1 X89.22 Y37.86 F15000.0
G1 F5612.6
G1 E3.118
G1 F2500.0
G1 F78.0
G1 E0.065
G1 F2500.0
G1 X78.09 Y48.96 E0.49
G1 X77.82 Y48.87 E0.009
G1 X88.92 Y37.65 E0.492
G1 X88.71 Y37.53 E0.008
G1 X77.43 Y48.75 E0.496
G1 X77.16 Y48.66 E0.009
G1 X88.38 Y37.35 E0.497
G1 X88.17 Y37.23 E0.008
G1 X76.83 Y48.54 E0.499
G1 X76.5 Y48.45 E0.011
G1 X87.84 Y37.05 E0.501
G1 X87.6 Y36.93 E0.008
G1 X76.17 Y48.39 E0.505
G1 F5612.6
G1 E-3.118
G1 F2500.0
G1 X78.45 Y49.05 F15000.0
G1 F5612.6
G1 E3.118
G1 F2500.0
G1 F78.0
G1 E0.065
G1 F2500.0
G1 X89.49 Y38.01 E0.487
G1 X89.73 Y38.13 E0.008
G1 X78.75 Y49.2 E0.486
G1 F5612.6
G1 E-3.118
G1 F2500.0
G1 X80.79 Y50.13 F15000.0
G1 F5612.6
G1 E3.118
G1 F2500.0
G1 F78.0
G1 E0.065
G1 F2500.0
G1 X91.56 Y39.33 E0.476
G1 X91.8 Y39.48 E0.009
G1 X81.06 Y50.28 E0.475
G1 F5612.6
G1 E-3.118
G1 F2500.0
G1 X72.9 Y47.82 F15000.0
G1 F5612.6
G1 E3.118
G1 F2500.0
G1 F78.0
G1 E0.065
G1 F2500.0
G1 X84.99 Y35.73 E0.533
G1 X85.26 Y35.82 E0.009
G1 X73.29 Y47.85 E0.529
G1 X73.62 Y47.88 E0.01
G1 X85.59 Y35.97 E0.527
G1 X85.83 Y36.09 E0.008
G1 X74.04 Y47.94 E0.521
G1 X74.34 Y48.0 E0.01
G1 X86.19 Y36.24 E0.521
G1 X86.43 Y36.36 E0.008
G1 X74.79 Y48.06 E0.515
G1 X75.06 Y48.12 E0.009
G1 X86.76 Y36.51 E0.514
G1 X86.97 Y36.63 E0.008
G1 X75.48 Y48.21 E0.509
G1 X75.78 Y48.27 E0.01
G1 X87.3 Y36.81 E0.507
G1 F5612.6
G1 E-3.118
G1 F2500.0
G1 X84.69 Y35.58 F15000.0
G1 F5612.6
G1 E3.118
G1 F2500.0
G1 F78.0
G1 E0.065
G1 F2500.0
G1 X72.45 Y47.76 E0.538
G1 X72.12 E0.01
G1 X84.36 Y35.46 E0.541
G1 X84.12 Y35.34 E0.008
G1 X71.64 Y47.73 E0.548
G1 X71.28 E0.011
G1 X83.79 Y35.22 E0.552
G1 X83.46 Y35.13 E0.011
G1 X70.8 Y47.73 E0.557
G1 X70.44 E0.011
G1 X83.13 Y34.98 E0.561
G1 X82.86 Y34.89 E0.009
G1 X69.99 Y47.73 E0.567
G1 F5612.6
G1 E-3.118
G1 F2500.0
G1 X69.54 Y47.76 F15000.0
G1 F5612.6
G1 E3.118
G1 F2500.0
G1 F78.0
G1 E0.065
G1 F2500.0
G1 X82.5 Y34.8 E0.571
G1 X82.2 Y34.68 E0.01
G1 X69.0 Y47.82 E0.581
G1 X68.64 Y47.85 E0.011
G1 X81.84 Y34.56 E0.584
G1 X81.57 Y34.47 E0.009
G1 X68.1 Y47.94 E0.594
G1 F5612.6
G1 E-3.118
G1 F2500.0
G1 X67.65 Y47.97 F15000.0
G1 F5612.6
G1 E3.118
G1 F2500.0
G1 F78.0
G1 E0.065
G1 F2500.0
G1 X81.21 Y34.35 E0.599
G1 X80.91 Y34.29 E0.01
G1 X67.11 Y48.09 E0.609
G1 X66.57 Y48.18 E0.017
G1 X80.55 Y34.2 E0.616
G1 F5612.6
G1 E-3.118
G1 F2500.0
G1 X80.22 Y34.11 F15000.0
G1 F5612.6
G1 E3.118
G1 F2500.0
G1 F78.0
G1 E0.065
G1 F2500.0
G1 X75.51 Y38.76 E0.206
G1 X75.54 Y38.4 E0.011
G1 X79.89 Y33.99 E0.193
G1 X79.56 Y33.93 E0.01
G1 X75.54 Y37.89 E0.176
G1 Y37.53 E0.011
G1 X79.23 Y33.84 E0.163
G1 F5612.6
G1 E-3.118
G1 F2500.0
G1 X78.9 Y33.75 F15000.0
G1 F5612.6
G1 E3.118
G1 F2500.0
G1 F78.0
G1 E0.065
G1 F2500.0
G1 X75.54 Y37.05 E0.147
G1 Y36.69 E0.011
G1 X78.48 Y33.69 E0.131
G1 X78.21 Y33.63 E0.009
G1 X75.54 Y36.18 E0.115
G1 Y35.85 E0.01
G1 X77.76 Y33.54 E0.1
G1 X77.49 Y33.48 E0.009
G1 X75.51 Y35.37 E0.085
G1 X75.42 Y35.13 E0.008
G1 X77.1 Y33.39 E0.075
G1 F5612.6
G1 E-3.118
G1 F2500.0
G1 X75.18 Y34.92 F15000.0
G1 F5612.6
G1 E3.118
G1 F2500.0
G1 F78.0
G1 E0.065
G1 F2500.0
G1 X76.71 Y33.33 E0.069
G1 X76.38 Y33.3 E0.01
G1 X74.73 Y34.89 E0.071
G1 X74.37 E0.011
G1 X75.96 Y33.24 E0.071
G1 X75.66 Y33.18 E0.01
G1 X73.86 Y34.89 E0.077
G1 X73.53 E0.01
G1 X75.18 Y33.15 E0.075
G1 X74.88 Y33.12 E0.009
G1 X73.02 Y34.89 E0.08
G1 X72.69 E0.01
G1 X74.43 Y33.06 E0.079
G1 X74.1 Y33.03 E0.01
G1 X72.18 Y34.89 E0.083
G1 X71.82 E0.011
G1 X73.65 Y33.0 E0.082
G1 X73.32 Y32.97 E0.01
G1 X71.34 Y34.89 E0.086
G1 X70.98 E0.011
G1 X72.84 Y32.94 E0.084
G1 X72.54 E0.009
G1 X70.47 Y34.89 E0.089
G1 X70.14 E0.01
G1 X72.03 Y32.91 E0.085
G1 X71.7 E0.01
G1 X69.63 Y34.89 E0.089
G1 X69.27 E0.011
G1 X71.22 Y32.88 E0.087
G1 X70.86 E0.011
G1 X68.79 Y34.89 E0.09
G1 X68.43 E0.011
G1 X70.38 Y32.88 E0.087
G1 X70.02 E0.011
G1 X67.92 Y34.89 E0.091
G1 X67.59 E0.01
G1 X69.48 Y32.91 E0.085
G1 X69.12 Y32.94 E0.011
G1 X67.14 Y34.89 E0.087
G1 F5612.6
G1 E-3.118
G1 F2500.0
G1 X63.75 Y33.63 F15000.0
G1 F5612.6
G1 E3.118
G1 F2500.0
G1 F78.0
G1 E0.065
G1 F2500.0
G1 X35.64 Y61.68 E1.238
G1 X35.73 Y61.23 E0.014
G1 X63.09 Y33.78 E1.208
G1 X62.67 Y33.87 E0.013
G1 X35.88 Y60.57 E1.179
G1 X36.0 Y60.12 E0.015
G1 X62.1 Y33.99 E1.152
G1 F5612.6
G1 E-3.118
G1 F2500.0
G1 X61.5 Y34.17 F15000.0
G1 F5612.6
G1 E3.118
G1 F2500.0
G1 F78.0
G1 E0.065
G1 F2500.0
G1 X36.18 Y59.43 E1.115
G1 X36.33 Y58.92 E0.017
G1 X60.93 Y34.32 E1.085
G1 F5612.6
G1 E-3.118
G1 F2500.0
G1 X60.33 Y34.5 F15000.0
G1 F5612.6
G1 E3.118
G1 F2500.0
G1 F78.0
G1 E0.065
G1 F2500.0
G1 X36.48 Y58.35 E1.052
G1 X36.51 Y58.32 E0.001
G1 F5612.6
G1 E-3.118
G1 F2500.0
G1 X35.52 Y62.28 F15000.0
G1 F5612.6
G1 E3.118
G1 F2500.0
G1 F78.0
G1 E0.065
G1 F2500.0
G1 X64.29 Y33.51 E1.269
G1 X64.71 Y33.45 E0.013
G1 X35.4 Y62.82 E1.294
G1 X35.34 Y63.24 E0.013
G1 X65.31 Y33.36 E1.32
G1 X65.73 Y33.27 E0.013
G1 X35.25 Y63.84 E1.346
G1 X35.19 Y64.23 E0.012
G1 X66.3 Y33.21 E1.37
G1 X66.69 Y33.15 E0.012
G1 X35.13 Y64.8 E1.394
G1 X35.1 Y65.19 E0.012
G1 X67.26 Y33.09 E1.417
G1 X67.65 Y33.06 E0.012
G1 X35.04 Y65.73 E1.439
G1 X35.01 Y66.12 E0.012
G1 X68.19 Y33.0 E1.462
G1 X68.58 Y32.97 E0.012
G1 X34.95 Y66.69 E1.485
G1 Y67.02 E0.01
G1 X66.42 Y35.64 E1.386
G1 Y35.97 E0.01
G1 X40.74 Y61.71 E1.134
G1 X34.92 Y67.56 E0.257
G1 X34.89 Y67.92 E0.011
G1 X40.35 Y62.55 E0.239
G1 Y62.91 E0.011
G1 X34.89 Y68.43 E0.242
G1 Y68.79 E0.011
G1 X40.35 Y63.39 E0.239
G1 Y63.75 E0.011
G1 X34.89 Y69.27 E0.242
G1 Y69.63 E0.011
G1 X40.35 Y64.26 E0.239
G1 Y64.59 E0.01
G1 X34.89 Y70.14 E0.243
G1 Y70.47 E0.01
G1 X40.35 Y65.1 E0.239
G1 Y65.43 E0.01
G1 X34.92 Y70.95 E0.241
G1 X34.95 Y71.28 E0.01
G1 X40.35 Y65.94 E0.237
G1 Y66.3 E0.011
G1 X35.01 Y71.73 E0.237
G1 Y72.06 E0.01
G1 X40.35 Y66.78 E0.234
G1 Y67.14 E0.011
G1 X35.07 Y72.51 E0.235
G1 X35.1 Y72.84 E0.01
G1 X40.35 Y67.65 E0.23
G1 Y67.98 E0.01
G1 X35.13 Y73.29 E0.232
G1 X35.16 Y73.59 E0.009
G1 X40.35 Y68.49 E0.227
G1 Y68.85 E0.011
G1 X35.25 Y74.04 E0.227
G1 X35.28 Y74.34 E0.009
G1 X40.35 Y69.33 E0.222
G1 Y69.69 E0.011
G1 X35.34 Y74.76 E0.222
G1 X35.4 Y75.06 E0.01
G1 X40.35 Y70.2 E0.216
G1 Y70.53 E0.01
G1 X35.46 Y75.51 E0.218
G1 X35.52 Y75.78 E0.009
G1 X40.35 Y71.04 E0.211
G1 Y71.37 E0.01
G1 X35.61 Y76.2 E0.211
G1 X35.67 Y76.5 E0.01
G1 X40.35 Y71.88 E0.205
G1 Y72.24 E0.011
G1 X35.76 Y76.89 E0.204
G1 X35.82 Y77.19 E0.01
G1 X40.35 Y72.72 E0.198
G1 Y73.08 E0.011
G1 X35.94 Y77.61 E0.197
G1 X36.0 Y77.88 E0.009
G1 X40.35 Y73.59 E0.191
G1 Y73.92 E0.01
G1 X36.09 Y78.27 E0.19
G1 X36.18 Y78.54 E0.009
G1 X40.35 Y74.43 E0.183
G1 Y74.79 E0.011
G1 X36.27 Y78.93 E0.181
G1 X36.36 Y79.2 E0.009
G1 X40.35 Y75.27 E0.175
G1 Y75.63 E0.011
G1 X36.48 Y79.59 E0.173
G1 X36.57 Y79.86 E0.009
G1 X40.35 Y76.14 E0.165
G1 Y76.47 E0.01
G1 X36.69 Y80.22 E0.163
G1 X36.78 Y80.49 E0.009
G1 X40.35 Y76.98 E0.156
G1 X40.38 Y77.31 E0.01
G1 X36.9 Y80.85 E0.155
G1 X36.99 Y81.12 E0.009
G1 X40.53 Y77.67 E0.154
G1 X40.71 Y77.82 E0.007
G1 X37.11 Y81.48 E0.16
G1 X37.2 Y81.75 E0.009
G1 X41.16 Y77.85 E0.173
G1 X41.52 E0.011
G1 X37.35 Y82.11 E0.186
G1 X37.44 Y82.35 E0.008
G1 X42.03 Y77.85 E0.2
G1 X42.36 E0.01
G1 X37.59 Y82.71 E0.212
G1 X37.71 Y82.95 E0.008
G1 X42.87 Y77.85 E0.226
G1 X43.23 E0.011
G1 X37.86 Y83.31 E0.239
G1 X37.95 Y83.55 E0.008
G1 X39.45 Y82.11 E0.065
G1 X39.42 Y82.5 E0.012
G1 X38.1 Y83.88 E0.06
G1 X38.22 Y84.12 E0.008
G1 X39.6 Y82.83 E0.059
G1 X39.72 Y83.04 E0.008
G1 X38.37 Y84.48 E0.062
G1 X38.49 Y84.72 E0.008
G1 X39.93 Y83.37 E0.062
G1 X40.05 Y83.58 E0.008
G1 X38.64 Y85.05 E0.064
G1 X38.76 Y85.29 E0.008
G1 X40.23 Y83.88 E0.064
G1 X40.35 Y84.12 E0.008
G1 X38.94 Y85.59 E0.064
G1 X39.06 Y85.83 E0.008
G1 X40.53 Y84.42 E0.064
G1 X40.68 Y84.66 E0.009
G1 X39.24 Y86.16 E0.065
G1 X39.36 Y86.4 E0.008
G1 X40.86 Y84.96 E0.065
G1 X40.98 Y85.17 E0.008
G1 X39.54 Y86.73 E0.066
G1 X39.63 Y86.94 E0.007
G1 X41.16 Y85.5 E0.066
G1 X41.31 Y85.74 E0.009
G1 X39.84 Y87.24 E0.065
G1 X39.96 Y87.48 E0.008
G1 X41.46 Y86.04 E0.065
G1 X41.61 Y86.25 E0.008
G1 X40.14 Y87.78 E0.066
G1 X40.29 Y87.99 E0.008
G1 X41.79 Y86.58 E0.064
G1 X41.91 Y86.79 E0.008
G1 X40.47 Y88.32 E0.066
G1 X40.62 Y88.53 E0.008
G1 X42.09 Y87.12 E0.064
G1 X42.21 Y87.33 E0.008
G1 X40.8 Y88.83 E0.064
G1 X40.95 Y89.04 E0.008
G1 X42.42 Y87.66 E0.063
G1 X42.54 Y87.87 E0.008
G1 X41.16 Y89.34 E0.063
G1 X41.31 Y89.55 E0.008
G1 X42.72 Y88.17 E0.062
G1 X42.87 Y88.41 E0.009
G1 X41.49 Y89.82 E0.062
G1 X41.64 Y90.03 E0.008
G1 X43.05 Y88.74 E0.06
G1 X43.17 Y88.95 E0.008
G1 X41.85 Y90.33 E0.06
G1 X42.0 Y90.51 E0.007
G1 X43.35 Y89.25 E0.058
G1 X43.5 Y89.49 E0.009
G1 X42.21 Y90.81 E0.058
G1 X42.39 Y91.02 E0.009
G1 X43.71 Y89.73 E0.058
G1 X44.01 Y89.79 E0.01
G1 X42.57 Y91.29 E0.065
G1 X42.75 Y91.5 E0.009
G1 X44.97 Y89.31 E0.097
G1 X45.87 Y88.8 E0.032
G1 X42.96 Y91.77 E0.13
G1 X43.11 Y91.95 E0.007
G1 X53.76 Y81.42 E0.467
G1 X53.88 Y81.6 E0.007
G1 X43.35 Y92.25 E0.467
G1 X43.5 Y92.43 E0.007
G1 X54.09 Y81.9 E0.466
G1 X54.24 Y82.11 E0.008
G1 X43.74 Y92.67 E0.464
G1 X43.92 Y92.88 E0.009
G1 X54.45 Y82.38 E0.464
G1 X54.63 Y82.56 E0.008
G1 X44.13 Y93.12 E0.464
G1 X44.28 Y93.33 E0.008
G1 X54.87 Y82.86 E0.464
G1 X55.02 Y83.04 E0.007
G1 X44.55 Y93.6 E0.464
G1 X44.7 Y93.75 E0.007
G1 X55.26 Y83.28 E0.464
G1 X55.44 Y83.46 E0.008
G1 X44.94 Y94.02 E0.464
G1 X45.12 Y94.2 E0.008
G1 X55.68 Y83.73 E0.464
G1 X55.86 Y83.91 E0.008
G1 X45.36 Y94.44 E0.464
G1 X45.54 Y94.62 E0.008
G1 X56.1 Y84.15 E0.464
G1 X56.28 Y84.33 E0.008
G1 X45.81 Y94.89 E0.464
G1 X45.96 Y95.04 E0.007
G1 X56.52 Y84.54 E0.464
G1 X56.7 Y84.72 E0.008
G1 X46.23 Y95.28 E0.464
G1 F5612.6
G1 E-3.118
G1 F2500.0
G1 X48.27 Y97.08 F15000.0
G1 F5612.6
G1 E3.118
G1 F2500.0
G1 F78.0
G1 E0.065
G1 F2500.0
G1 X58.86 Y86.46 E0.468
G1 X59.07 Y86.61 E0.008
G1 X48.51 Y97.26 E0.468
G1 X48.72 Y97.41 E0.008
G1 X59.34 Y86.82 E0.468
G1 F5612.6
G1 E-3.118
G1 F2500.0
G1 X58.62 Y86.28 F15000.0
G1 F5612.6
G1 E3.118
G1 F2500.0
G1 F78.0
G1 E0.065
G1 F2500.0
G1 X48.0 Y96.84 E0.467
G1 X47.79 Y96.69 E0.008
G1 X58.32 Y86.07 E0.466
G1 X58.14 Y85.95 E0.007
G1 X47.52 Y96.45 E0.466
G1 X47.34 Y96.3 E0.007
G1 X57.84 Y85.71 E0.465
G1 X57.66 Y85.56 E0.007
G1 X47.07 Y96.06 E0.465
G1 X46.89 Y95.91 E0.007
G1 X57.39 Y85.32 E0.465
G1 X57.18 Y85.17 E0.008
G1 X46.65 Y95.67 E0.464
G1 X46.47 Y95.49 E0.008
G1 X56.97 Y84.96 E0.464
G1 F5612.6
G1 E-3.118
G1 F2500.0
G1 X53.55 Y81.15 F15000.0
G1 F5612.6
G1 E3.118
G1 F2500.0
G1 F78.0
G1 E0.065
G1 F2500.0
G1 X47.22 Y87.45 E0.278
G1 X47.07 Y87.21 E0.009
G1 X53.37 Y80.88 E0.278
G1 X53.22 Y80.64 E0.009
G1 X46.92 Y86.91 E0.277
G1 X46.77 Y86.67 E0.009
G1 X53.04 Y80.34 E0.278
G1 X52.89 Y80.13 E0.008
G1 X46.59 Y86.37 E0.276
G1 X46.47 Y86.16 E0.008
G1 X52.71 Y79.83 E0.277
G1 X52.59 Y79.62 E0.008
G1 X46.29 Y85.83 E0.276
G1 X46.17 Y85.62 E0.008
G1 X52.38 Y79.29 E0.277
G1 X52.26 Y79.05 E0.008
G1 X45.96 Y85.29 E0.276
G1 X45.84 Y85.05 E0.008
G1 X52.11 Y78.75 E0.277
G1 X51.99 Y78.48 E0.009
G1 X45.66 Y84.75 E0.278
G1 X45.54 Y84.54 E0.008
G1 X51.84 Y78.18 E0.279
G1 X51.72 Y77.94 E0.008
G1 X45.33 Y84.21 E0.279
G1 X45.21 Y84.0 E0.008
G1 X51.54 Y77.58 E0.281
G1 X51.45 Y77.34 E0.008
G1 X45.03 Y83.67 E0.281
G1 X44.91 Y83.46 E0.008
G1 X51.3 Y76.98 E0.284
G1 X51.21 Y76.74 E0.008
G1 X44.73 Y83.16 E0.284
G1 X44.58 Y82.92 E0.009
G1 X51.06 Y76.38 E0.287
G1 X50.97 Y76.14 E0.008
G1 X44.4 Y82.62 E0.288
G1 X44.28 Y82.38 E0.008
G1 X50.85 Y75.75 E0.291
G1 X50.76 Y75.48 E0.009
G1 X44.1 Y82.08 E0.292
G1 X43.98 Y81.87 E0.008
G1 X50.64 Y75.09 E0.296
G1 X50.58 Y74.85 E0.008
G1 X48.06 Y77.25 E0.109
G1 X48.09 Y76.86 E0.012
G1 X50.46 Y74.43 E0.106
G1 X50.37 Y74.16 E0.009
G1 X48.09 Y76.38 E0.099
G1 Y76.02 E0.011
G1 X50.28 Y73.77 E0.098
G1 X50.22 Y73.5 E0.009
G1 X48.09 Y75.51 E0.091
G1 Y75.18 E0.01
G1 X50.13 Y73.05 E0.092
G1 X50.07 Y72.78 E0.009
G1 X48.09 Y74.67 E0.085
G1 Y74.34 E0.01
G1 X49.98 Y72.36 E0.085
G1 X49.95 Y72.03 E0.01
G1 X48.09 Y73.83 E0.081
G1 Y73.47 E0.011
G1 X49.89 Y71.61 E0.081
G1 X49.86 Y71.28 E0.01
G1 X48.09 Y72.99 E0.077
G1 Y72.63 E0.011
G1 X49.83 Y70.8 E0.079
G1 X49.8 Y70.5 E0.009
G1 X48.09 Y72.12 E0.073
G1 Y71.79 E0.01
G1 X49.74 Y70.05 E0.075
G1 Y69.72 E0.01
G1 X48.09 Y71.28 E0.071
G1 Y70.92 E0.011
G1 X49.74 Y69.21 E0.074
G1 Y68.85 E0.011
G1 X48.09 Y70.44 E0.071
G1 Y70.08 E0.011
G1 X49.74 Y68.37 E0.074
G1 X49.77 Y67.98 E0.012
G1 X48.09 Y69.57 E0.072
G1 Y69.24 E0.01
G1 X49.77 Y67.47 E0.076
G1 X49.83 Y67.08 E0.012
G1 X48.09 Y68.73 E0.075
G1 Y68.4 E0.01
G1 X49.89 Y66.51 E0.081
G1 X49.95 Y66.09 E0.013
G1 X48.09 Y67.89 E0.081
G1 Y67.53 E0.011
G1 X50.04 Y65.52 E0.087
G1 X50.1 Y65.1 E0.013
G1 X48.09 Y67.05 E0.087
G1 Y66.69 E0.011
G1 X50.25 Y64.44 E0.097
G1 X50.34 Y64.02 E0.013
G1 X48.09 Y66.18 E0.097
G1 Y65.85 E0.01
G1 X50.52 Y63.33 E0.109
G1 X50.64 Y62.88 E0.015
G1 X48.09 Y65.34 E0.11
G1 Y64.98 E0.011
G1 X50.88 Y62.13 E0.124
G1 X51.09 Y61.56 E0.019
G1 X48.09 Y64.5 E0.131
G1 Y64.14 E0.011
G1 X51.42 Y60.75 E0.148
G1 X51.69 Y60.12 E0.021
G1 X48.09 Y63.63 E0.157
G1 Y63.3 E0.01
G1 X52.2 Y59.1 E0.183
G1 X52.62 Y58.35 E0.027
G1 X48.09 Y62.79 E0.198
G1 Y62.46 E0.01
G1 X53.46 Y57.0 E0.239
G1 X54.3 Y55.86 E0.044
G1 X48.03 Y62.07 E0.275
G1 X47.85 Y61.83 E0.009
G1 X70.44 Y39.18 E0.997
G1 X70.08 E0.011
G1 X47.58 Y61.71 E0.993
G1 F5612.6
G1 E-3.118
G1 F2500.0
G1 X41.19 Y61.68 F15000.0
G1 F5612.6
G1 E3.118
G1 F2500.0
G1 F78.0
G1 E0.065
G1 F2500.0
G1 X66.42 Y36.48 E1.112
G1 Y36.84 E0.011
G1 X41.64 Y61.68 E1.094
G1 X42.0 E0.011
G1 X66.42 Y37.32 E1.076
G1 Y37.68 E0.011
G1 X42.48 Y61.68 E1.057
G1 X42.84 E0.011
G1 X66.42 Y38.19 E1.038
G1 Y38.52 E0.01
G1 X43.35 Y61.68 E1.019
G1 X43.68 E0.01
G1 X66.54 Y38.91 E1.006
G1 X66.72 Y39.09 E0.008
G1 X44.19 Y61.68 E0.995
G1 X44.55 E0.011
G1 X67.11 Y39.18 E0.994
G1 X67.47 E0.011
G1 X45.03 Y61.68 E0.991
G1 X45.39 E0.011
G1 X67.95 Y39.18 E0.994
G1 X68.31 E0.011
G1 X45.9 Y61.68 E0.99
G1 X46.23 E0.01
G1 X68.82 Y39.18 E0.994
G1 X69.15 E0.01
G1 X46.74 Y61.68 E0.99
G1 X47.07 E0.01
G1 X69.63 Y39.18 E0.994
G1 F5612.6
G1 E-3.118
G1 F2500.0
G1 X73.47 F15000.0
G1 F5612.6
G1 E3.118
G1 F2500.0
G1 F78.0
G1 E0.065
G1 F2500.0
G1 X63.48 Y49.11 E0.439
G1 X62.88 Y49.35 E0.02
G1 X72.99 Y39.18 E0.447
G1 X72.63 E0.011
G1 X61.95 Y49.77 E0.469
G1 X61.26 Y50.13 E0.024
G1 X72.12 Y39.18 E0.481
G1 X71.79 E0.01
G1 X60.18 Y50.7 E0.51
G1 X59.16 Y51.36 E0.038
G1 X71.28 Y39.18 E0.536
G1 X70.92 E0.011
G1 X57.57 Y52.53 E0.589
G1 F5612.6
G1 E-3.118
G1 F2500.0
G1 X64.26 Y48.81 F15000.0
G1 F5612.6
G1 E3.118
G1 F2500.0
G1 F78.0
G1 E0.065
G1 F2500.0
G1 X73.89 Y39.18 E0.425
G1 X74.25 E0.011
G1 X64.92 Y48.6 E0.413
G1 X65.37 Y48.48 E0.015
G1 X74.73 Y39.18 E0.411
G1 X75.09 E0.011
G1 X66.0 Y48.33 E0.402
G1 F5612.6
G1 E-3.118
G1 F2500.0
G1 X59.7 Y34.71 F15000.0
G1 F5612.6
G1 E3.118
G1 F2500.0
G1 F78.0
G1 E0.065
G1 F2500.0
G1 X36.69 Y57.66 E1.013
G1 X36.93 Y57.06 E0.02
G1 X58.92 Y34.98 E0.972
G1 X58.38 Y35.19 E0.018
G1 X37.2 Y56.28 E0.932
G1 X37.41 Y55.74 E0.018
G1 X57.57 Y35.49 E0.891
G1 X57.0 Y35.73 E0.019
G1 X37.77 Y54.87 E0.846
G1 X38.04 Y54.24 E0.021
G1 X56.25 Y36.03 E0.803
G1 F5612.6
G1 E-3.118
G1 F2500.0
G1 X53.7 Y37.29 F15000.0
G1 F5612.6
G1 E3.118
G1 F2500.0
G1 F78.0
G1 E0.065
G1 F2500.0
G1 X39.39 Y51.54 E0.63
G1 X39.84 Y50.76 E0.028
G1 X52.53 Y37.98 E0.562
G1 X51.72 Y38.46 E0.029
G1 X40.65 Y49.44 E0.486
G1 X41.34 Y48.42 E0.038
G1 X50.13 Y39.54 E0.39
G1 X47.88 Y41.25 E0.088
G1 X45.78 Y43.14 E0.088
G1 X43.65 Y45.39 E0.097
G1 X42.48 Y46.83 E0.058
G1 X48.84 Y40.47 E0.28
G1 F5612.6
G1 E-3.118
G1 F2500.0
G1 X38.82 Y52.62 F15000.0
G1 F5612.6
G1 E3.118
G1 F2500.0
G1 F78.0
G1 E0.065
G1 F2500.0
G1 X54.63 Y36.81 E0.697
G1 X55.32 Y36.48 E0.024
G1 X38.4 Y53.46 E0.747
G1 F5612.6
G1 E-3.118
G1 F2500.0
G1 X43.71 Y77.85 F15000.0
G1 F5612.6
G1 E3.118
G1 F2500.0
G1 F78.0
G1 E0.065
G1 F2500.0
G1 X39.84 Y81.72 E0.171
G1 F5612.6
G1 E-3.118
G1 F2500.0
G1 X40.83 Y81.15 F15000.0
G1 F5612.6
G1 E3.118
G1 F2500.0
G1 F78.0
G1 E0.065
G1 F2500.0
G1 X44.13 Y77.85 E0.146
G1 X44.49 E0.011
G1 X41.91 Y80.52 E0.116
G1 X42.6 Y80.16 E0.024
G1 X45.0 Y77.85 E0.104
G1 X45.33 E0.01
G1 X42.99 Y80.28 E0.105
G1 X43.14 Y80.46 E0.007
G1 X45.84 Y77.85 E0.117
G1 X46.2 E0.011
G1 X43.35 Y80.79 E0.128
G1 X43.47 Y81.0 E0.008
G1 X46.68 Y77.85 E0.14
G1 X47.04 E0.011
G1 X43.65 Y81.3 E0.151
G1 X43.77 Y81.54 E0.008
G1 X47.52 Y77.85 E0.164
G1 F5612.6
G1 E-3.118
G1 F2500.0
G1 X61.77 Y88.2 F15000.0
G1 F5612.6
G1 E3.118
G1 F2500.0
G1 F78.0
G1 E0.065
G1 F2500.0
G1 X50.91 Y99.0 E0.478
G1 X50.7 Y98.88 E0.008
G1 X61.47 Y88.02 E0.477
G1 X61.26 Y87.9 E0.008
G1 X50.4 Y98.67 E0.477
G1 X50.19 Y98.52 E0.008
G1 X60.93 Y87.72 E0.475
G1 X60.69 Y87.6 E0.008
G1 X49.92 Y98.31 E0.474
G1 X49.71 Y98.16 E0.008
G1 X60.39 Y87.42 E0.472
G1 X60.15 Y87.3 E0.008
G1 X49.44 Y97.95 E0.471
G1 X49.23 Y97.77 E0.009
G1 X59.85 Y87.12 E0.469
G1 X59.61 Y86.97 E0.009
G1 X48.99 Y97.62 E0.469
G1 F5612.6
G1 E-3.118
G1 F2500.0
G1 X51.21 Y99.21 F15000.0
G1 F5612.6
G1 E3.118
G1 F2500.0
G1 F78.0
G1 E0.065
G1 F2500.0
G1 X62.1 Y88.32 E0.48
G1 X62.37 Y88.44 E0.009
G1 X51.48 Y99.39 E0.482
G1 X51.69 Y99.51 E0.008
G1 X62.67 Y88.59 E0.483
G1 X62.94 Y88.68 E0.009
G1 X51.99 Y99.72 E0.485
G1 F5612.6
G1 E-3.118
G1 F2500.0
G1 X57.33 Y102.42 F15000.0
G1 F5612.6
G1 E3.118
G1 F2500.0
G1 F78.0
G1 E0.065
G1 F2500.0
G1 X69.54 Y90.21 E0.538
G1 X69.87 Y90.24 E0.01
G1 X57.63 Y102.54 E0.541
G1 X57.9 Y102.63 E0.009
G1 X70.32 Y90.27 E0.546
G1 X70.68 E0.011
G1 X58.26 Y102.75 E0.549
G1 X58.53 Y102.87 E0.009
G1 X71.19 Y90.27 E0.557
G1 X71.52 E0.01
G1 X58.89 Y103.02 E0.56
G1 X59.13 Y103.11 E0.008
G1 X72.0 Y90.27 E0.567
G1 X72.42 Y90.24 E0.013
G1 X59.49 Y103.23 E0.572
G1 F5612.6
G1 E-3.118
G1 F2500.0
G1 X59.82 Y103.32 F15000.0
G1 F5612.6
G1 E3.118
G1 F2500.0
G1 F78.0
G1 E0.065
G1 F2500.0
G1 X72.93 Y90.21 E0.578
G1 X73.35 Y90.15 E0.013
G1 X60.15 Y103.44 E0.584
G1 X60.42 Y103.5 E0.009
G1 X73.89 Y90.09 E0.593
G1 X74.34 Y90.0 E0.014
G1 X60.78 Y103.62 E0.599
G1 X61.08 Y103.71 E0.01
G1 X74.91 Y89.91 E0.609
G1 X75.36 Y89.82 E0.014
G1 X61.44 Y103.8 E0.615
G1 X61.77 Y103.89 E0.011
G1 X76.02 Y89.67 E0.628
G1 X76.59 Y89.52 E0.018
G1 X62.13 Y103.98 E0.638
G1 X62.43 Y104.07 E0.01
G1 X77.19 Y89.34 E0.65
G1 F5612.6
G1 E-3.118
G1 F2500.0
G1 X69.09 Y90.21 F15000.0
G1 F5612.6
G1 E3.118
G1 F2500.0
G1 F78.0
G1 E0.065
G1 F2500.0
G1 X56.97 Y102.27 E0.533
G1 X56.73 Y102.18 E0.008
G1 X68.67 Y90.15 E0.529
G1 X68.37 Y90.12 E0.009
G1 X56.4 Y102.03 E0.527
G1 X56.16 Y101.91 E0.008
G1 X67.92 Y90.06 E0.521
G1 X67.59 Y90.03 E0.01
G1 X55.83 Y101.76 E0.518
G1 X55.56 Y101.64 E0.009
G1 X67.23 Y89.94 E0.515
G1 X66.9 Y89.88 E0.01
G1 X55.26 Y101.49 E0.513
G1 X54.99 Y101.34 E0.01
G1 X66.51 Y89.82 E0.508
G1 F5612.6
G1 E-3.118
G1 F2500.0
G1 X66.18 Y89.73 F15000.0
G1 F5612.6
G1 E3.118
G1 F2500.0
G1 F78.0
G1 E0.065
G1 F2500.0
G1 X54.66 Y101.19 E0.507
G1 X54.45 Y101.07 E0.008
G1 X65.85 Y89.64 E0.503
G1 X65.49 Y89.58 E0.011
G1 X54.12 Y100.92 E0.501
G1 X53.88 Y100.77 E0.009
G1 X65.13 Y89.46 E0.497
G1 X64.86 Y89.37 E0.009
G1 X53.58 Y100.62 E0.497
G1 X53.34 Y100.47 E0.009
G1 X64.5 Y89.25 E0.493
G1 X64.2 Y89.16 E0.01
G1 X53.01 Y100.29 E0.492
G1 X52.8 Y100.17 E0.008
G1 X63.84 Y89.04 E0.489
G1 X63.6 Y88.95 E0.008
G1 X52.47 Y99.99 E0.489
G1 X52.26 Y99.87 E0.008
G1 X63.27 Y88.8 E0.487
G1 F5612.6
G1 E-3.118
G1 F2500.0
G1 X62.79 Y104.16 F15000.0
G1 F5612.6
G1 E3.118
G1 F2500.0
G1 F78.0
G1 E0.065
G1 F2500.0
G1 X77.79 Y89.16 E0.661
G1 X78.33 Y88.98 E0.018
G1 X63.15 Y104.25 E0.671
G1 X63.45 Y104.31 E0.01
G1 X79.17 Y88.65 E0.692
G1 X79.74 Y88.41 E0.019
G1 X63.84 Y104.4 E0.703
G1 X64.11 Y104.46 E0.009
G1 X80.73 Y87.9 E0.732
G1 X81.57 Y87.45 E0.03
G1 X64.56 Y104.52 E0.751
G1 X64.86 Y104.58 E0.01
G1 X82.89 Y86.61 E0.794
G1 X84.09 Y85.77 E0.046
G1 X65.28 Y104.64 E0.831
G1 X65.58 Y104.7 E0.01
G1 X93.96 Y76.41 E1.249
G1 Y76.74 E0.01
G1 X66.03 Y104.76 E1.234
G1 X66.33 Y104.79 E0.009
G1 X93.96 Y77.25 E1.216
G1 X94.02 Y77.52 E0.009
G1 X66.78 Y104.85 E1.203
G1 X67.11 Y104.88 E0.01
G1 X94.26 Y77.79 E1.196
G1 X94.56 Y77.85 E0.01
G1 X67.53 Y104.94 E1.193
G1 X67.86 Y104.97 E0.01
G1 X95.04 Y77.85 E1.197
G1 X95.4 E0.011
G1 X68.34 Y105.0 E1.195
G1 X68.64 Y105.03 E0.009
G1 X95.91 Y77.85 E1.201
G1 X96.24 E0.01
G1 X69.15 Y105.06 E1.197
G1 X69.45 E0.009
G1 X96.75 Y77.85 E1.202
G1 X97.11 E0.011
G1 X69.96 Y105.06 E1.199
G1 X70.29 Y105.09 E0.01
G1 X97.59 Y77.85 E1.203
G1 X97.95 E0.011
G1 X70.74 Y105.12 E1.201
G1 X71.1 E0.011
G1 X98.46 Y77.85 E1.205
G1 X98.79 E0.01
G1 X71.61 Y105.12 E1.201
G1 X71.97 Y105.09 E0.011
G1 X99.3 Y77.85 E1.203
G1 X99.63 E0.01
G1 X72.48 Y105.09 E1.199
G1 X72.87 Y105.06 E0.012
G1 X100.14 Y77.85 E1.201
G1 X100.5 E0.011
G1 X73.38 Y105.03 E1.197
G1 X73.77 Y105.0 E0.012
G1 X100.98 Y77.85 E1.199
G1 F5612.6
G1 E-3.118
G1 F2500.0
G1 X101.13 Y81.12 F15000.0
G1 F5612.6
G1 E3.118
G1 F2500.0
G1 F78.0
G1 E0.065
G1 F2500.0
G1 X106.5 Y75.66 E0.239
G1 X106.59 Y75.21 E0.014
G1 X100.83 Y80.94 E0.253
G1 X100.59 Y80.79 E0.009
G1 X106.68 Y74.64 E0.27
G1 X106.74 Y74.22 E0.013
G1 X100.29 Y80.64 E0.284
G1 X100.05 Y80.49 E0.009
G1 X106.83 Y73.62 E0.301
G1 X106.86 Y73.26 E0.011
G1 X99.75 Y80.31 E0.312
G1 X99.48 Y80.19 E0.009
G1 X106.92 Y72.75 E0.328
G1 F5612.6
G1 E-3.118
G1 F2500.0
G1 X106.38 Y76.26 F15000.0
G1 F5612.6
G1 E3.118
G1 F2500.0
G1 F78.0
G1 E0.065
G1 F2500.0
G1 X101.4 Y81.24 E0.22
G1 X101.64 Y81.39 E0.009
G1 X106.26 Y76.83 E0.202
G1 X106.17 Y77.25 E0.013
G1 X101.94 Y81.57 E0.189
G1 X102.18 Y81.72 E0.009
G1 X105.99 Y77.94 E0.167
G1 X105.87 Y78.42 E0.015
G1 X102.45 Y81.93 E0.153
G1 X102.57 Y82.14 E0.008
G1 X105.69 Y79.08 E0.136
G1 X105.54 Y79.59 E0.017
G1 X102.42 Y82.8 E0.14
G1 X101.94 Y83.61 E0.029
G1 X105.3 Y80.34 E0.146
G1 X105.12 Y80.85 E0.017
G1 X101.25 Y84.81 E0.173
G1 X100.77 Y85.62 E0.029
G1 X104.88 Y81.57 E0.18
G1 F5612.6
G1 E-3.118
G1 F2500.0
G1 X68.64 Y76.2 F15000.0
G1 F5612.6
G1 E3.118
G1 F2500.0
G1 F78.0
G1 E0.065
G1 F2500.0
G1 X77.85 Y76.23 E0.287 F2250.0
G1 Y83.82 E0.237
G1 X68.64 Y83.79 E0.287
G1 Y76.2 E0.237
G1 X68.94 Y76.5 E0.013
G1 X77.55 Y76.53 E0.268
G1 Y83.52 E0.218
G1 X68.94 Y83.49 E0.268
G1 Y76.5 E0.218
G1 F5612.6
G1 E-3.118
G1 F2500.0
G1 X68.64 Y76.2
G1 X69.15 Y76.59 F15000.0
G1 F5612.6
G1 E3.118
G1 F2500.0
G1 F78.0
G1 E0.065
G1 F2500.0
G1 X69.03 Y76.71 E0.005
G1 Y77.07 E0.011
G1 X69.57 Y76.59 E0.023
G1 X69.93 E0.011
G1 X69.03 Y77.58 E0.042
G1 Y77.91 E0.01
G1 X70.44 Y76.59 E0.06
G1 X70.77 E0.01
G1 X69.03 Y78.42 E0.079
G1 Y78.78 E0.011
G1 X71.28 Y76.59 E0.098
G1 X71.64 E0.011
G1 X69.03 Y79.26 E0.116
G1 Y79.62 E0.011
G1 X72.12 Y76.59 E0.135
G1 X72.48 E0.011
G1 X69.03 Y80.1 E0.153
G1 Y80.46 E0.011
G1 X72.99 Y76.59 E0.173
G1 X73.32 E0.01
G1 X69.03 Y80.97 E0.191
G1 Y81.3 E0.01
G1 X73.83 Y76.59 E0.21
G1 X74.19 E0.011
G1 X69.03 Y81.81 E0.229
G1 Y82.17 E0.011
G1 X74.67 Y76.59 E0.247
G1 X75.03 E0.011
G1 X69.03 Y82.65 E0.266
G1 Y83.01 E0.011
G1 X75.51 Y76.59 E0.284
G1 X75.87 E0.011
G1 X69.12 Y83.43 E0.3
G1 X69.45 E0.01
G1 X76.38 Y76.59 E0.304
G1 X76.71 E0.01
G1 X69.96 Y83.43 E0.3
G1 X70.32 E0.011
G1 X77.22 Y76.59 E0.303
G1 X77.43 E0.007
G1 X77.46 Y76.71 E0.004
G1 X70.8 Y83.43 E0.295
G1 X71.16 E0.011
G1 X77.46 Y77.19 E0.276
G1 Y77.55 E0.011
G1 X71.64 Y83.43 E0.258
G1 X72.0 E0.011
G1 X77.46 Y78.06 E0.239
G1 Y78.39 E0.01
G1 X72.51 Y83.43 E0.22
G1 X72.84 E0.01
G1 X77.46 Y78.9 E0.202
G1 Y79.26 E0.011
G1 X73.35 Y83.43 E0.183
G1 X73.71 E0.011
G1 X77.46 Y79.74 E0.164
G1 Y80.1 E0.011
G1 X74.19 Y83.43 E0.146
G1 X74.55 E0.011
G1 X77.46 Y80.58 E0.127
G1 Y80.94 E0.011
G1 X75.06 Y83.43 E0.108
G1 X75.39 E0.01
G1 X77.46 Y81.45 E0.089
G1 Y81.78 E0.01
G1 X75.9 Y83.43 E0.071
G1 X76.26 E0.011
G1 X77.46 Y82.29 E0.052
G1 Y82.65 E0.011
G1 X76.74 Y83.43 E0.033
G1 X77.1 E0.011
G1 X77.46 Y83.13 E0.015
G1 F5612.6
G1 E-3.118
G1 F2500.0
G1 X66.33 Y54.18 F15000.0
G1 F5612.6
G1 E3.118
G1 F2500.0
G1 F78.0
G1 E0.065
G1 F2500.0
G1 X75.54 Y54.21 E0.287 F2250.0
G1 Y61.8 E0.237
G1 X66.33 Y61.77 E0.287
G1 Y54.18 E0.237
G1 X66.63 Y54.48 E0.013
G1 X75.24 Y54.51 E0.268
G1 Y61.5 E0.218
G1 X66.63 Y61.47 E0.268
G1 Y54.48 E0.218
G1 F5612.6
G1 E-3.118
G1 F2500.0
G1 X66.33 Y54.18
G1 X66.99 Y54.57 F15000.0
G1 F5612.6
G1 E3.118
G1 F2500.0
G1 F78.0
G1 E0.065
G1 F2500.0
G1 X66.72 Y54.84 E0.012
G1 Y55.2 E0.011
G1 X67.41 Y54.57 E0.029
G1 X67.77 E0.011
G1 X66.72 Y55.71 E0.048
G1 Y56.04 E0.01
G1 X68.28 Y54.57 E0.067
G1 X68.61 E0.01
G1 X66.72 Y56.55 E0.085
G1 Y56.88 E0.01
G1 X69.12 Y54.57 E0.104
G1 X69.48 E0.011
G1 X66.72 Y57.39 E0.123
G1 Y57.75 E0.011
G1 X69.96 Y54.57 E0.142
G1 X70.32 E0.011
G1 X66.72 Y58.23 E0.16
G1 Y58.59 E0.011
G1 X70.83 Y54.57 E0.179
G1 X71.16 E0.01
G1 X66.72 Y59.1 E0.198
G1 Y59.43 E0.01
G1 X71.67 Y54.57 E0.216
G1 X72.0 E0.01
G1 X66.72 Y59.94 E0.235
G1 Y60.3 E0.011
G1 X72.51 Y54.57 E0.254
G1 X72.87 E0.011
G1 X66.72 Y60.78 E0.273
G1 Y61.14 E0.011
G1 X73.35 Y54.57 E0.291
G1 X73.71 E0.011
G1 X66.93 Y61.41 E0.3
G1 X67.29 E0.011
G1 X74.22 Y54.57 E0.304
G1 X74.55 E0.01
G1 X67.8 Y61.41 E0.3
G1 X68.13 E0.01
G1 X75.12 Y54.57 E0.305
G1 X75.15 Y54.84 E0.008
G1 X68.64 Y61.41 E0.288
G1 X69.0 E0.011
G1 X75.15 Y55.32 E0.27
G1 Y55.68 E0.011
G1 X69.48 Y61.41 E0.251
G1 X69.84 E0.011
G1 X75.15 Y56.16 E0.233
G1 Y56.52 E0.011
G1 X70.35 Y61.41 E0.214
G1 X70.68 E0.01
G1 X75.15 Y57.03 E0.195
G1 Y57.36 E0.01
G1 X71.19 Y61.41 E0.177
G1 X71.55 E0.011
G1 X75.15 Y57.87 E0.157
G1 Y58.23 E0.011
G1 X72.03 Y61.41 E0.139
G1 X72.39 E0.011
G1 X75.15 Y58.71 E0.12
G1 Y59.07 E0.011
G1 X72.87 Y61.41 E0.102
G1 X73.23 E0.011
G1 X75.15 Y59.58 E0.083
G1 Y59.91 E0.01
G1 X73.74 Y61.41 E0.064
G1 X74.07 E0.01
G1 X75.15 Y60.42 E0.046
G1 Y60.78 E0.011
G1 X74.58 Y61.41 E0.026
G1 X74.94 E0.011
G1 X75.15 Y61.26 E0.008
G1 F5612.6
G1 E-3.118
G1 F2500.0
G1 X69.45 Y65.19 F15000.0
G1 F5612.6
G1 E3.118
G1 F2500.0
G1 F78.0
G1 E0.065
G1 F2500.0
G1 X78.66 Y65.22 E0.287 F2250.0
G1 Y72.81 E0.237
G1 X69.45 Y72.78 E0.287
G1 Y65.19 E0.237
G1 X69.75 Y65.49 E0.013
G1 X78.36 Y65.52 E0.268
G1 Y72.51 E0.218
G1 X69.75 Y72.48 E0.268
G1 Y65.49 E0.218
G1 F5612.6
G1 E-3.118
G1 F2500.0
G1 X69.45 Y65.19
G1 X69.96 Y65.58 F15000.0
G1 F5612.6
G1 E3.118
G1 F2500.0
G1 F78.0
G1 E0.065
G1 F2500.0
G1 X69.84 Y65.73 E0.006
G1 Y66.09 E0.011
G1 X70.41 Y65.58 E0.024
G1 X70.77 E0.011
G1 X69.84 Y66.57 E0.042
G1 Y66.93 E0.011
G1 X71.25 Y65.58 E0.061
G1 X71.61 E0.011
G1 X69.84 Y67.41 E0.079
G1 Y67.77 E0.011
G1 X72.12 Y65.58 E0.099
G1 X72.45 E0.01
G1 X69.84 Y68.28 E0.117
G1 Y68.61 E0.01
G1 X72.96 Y65.58 E0.136
G1 X73.32 E0.011
G1 X69.84 Y69.12 E0.155
G1 Y69.48 E0.011
G1 X73.8 Y65.58 E0.173
G1 X74.16 E0.011
G1 X69.84 Y69.96 E0.192
G1 Y70.32 E0.011
G1 X74.64 Y65.58 E0.21
G1 X75.0 E0.011
G1 X69.84 Y70.83 E0.23
G1 Y71.16 E0.01
G1 X75.51 Y65.58 E0.248
G1 X75.84 E0.01
G1 X69.84 Y71.67 E0.267
G1 Y72.03 E0.011
G1 X76.35 Y65.58 E0.286
G1 X76.71 E0.011
G1 X69.93 Y72.42 E0.3
G1 X70.29 E0.011
G1 X77.19 Y65.58 E0.303
G1 X77.55 E0.011
G1 X70.77 Y72.42 E0.3
G1 X71.13 E0.011
G1 X78.06 Y65.58 E0.304
G1 X78.24 E0.006
G1 X78.27 Y65.7 E0.004
G1 X71.64 Y72.42 E0.294
G1 X71.97 E0.01
G1 X78.27 Y66.21 E0.276
G1 Y66.57 E0.011
G1 X72.48 Y72.42 E0.257
G1 X72.84 E0.011
G1 X78.27 Y67.05 E0.238
G1 Y67.41 E0.011
G1 X73.32 Y72.42 E0.22
G1 X73.68 E0.011
G1 X78.27 Y67.89 E0.201
G1 Y68.25 E0.011
G1 X74.19 Y72.42 E0.182
G1 X74.52 E0.01
G1 X78.27 Y68.76 E0.163
G1 Y69.09 E0.01
G1 X75.03 Y72.42 E0.145
G1 X75.39 E0.011
G1 X78.27 Y69.6 E0.126
G1 Y69.96 E0.011
G1 X75.87 Y72.42 E0.107
G1 X76.23 E0.011
G1 X78.27 Y70.44 E0.089
G1 Y70.8 E0.011
G1 X76.71 Y72.42 E0.07
G1 X77.07 E0.011
G1 X78.27 Y71.31 E0.051
G1 Y71.64 E0.01
G1 X77.58 Y72.42 E0.032
G1 X77.91 E0.01
G1 X78.27 Y72.12 E0.015
G1 F5612.6
G1 E-3.118
G1 F2500.0
;#!LAYER: 2/12
G92 E0
G1 Z0.5 F200.0
G1 X66.96 Y35.28 F15000.0
T0
G1 F5612.6
G1 E3.118
G1 F2500.0
G1 F78.0
G1 E0.065
G1 F2500.0
G1 X66.84 Y35.52 E0.008 F2250.0
G1 X66.81 Y38.58 E0.095
G1 X66.9 Y38.73 E0.005
G1 X67.11 Y38.79 E0.007
G1 X75.03 E0.247
G1 X75.18 Y38.52 E0.01
G1 X75.12 Y35.43 E0.096
G1 X75.06 Y35.31 E0.004
G1 X66.96 Y35.28 E0.253
G1 X66.9 Y35.01 E0.009
G1 X66.63 Y35.19 E0.01
G1 X66.54 Y38.67 E0.109
G1 X66.66 Y38.91 E0.008
G1 X66.81 Y39.03 E0.006
G1 X67.14 Y39.09 E0.01
G1 X75.06 E0.247
G1 X75.36 Y38.88 E0.011
G1 X75.45 Y38.61 E0.009
G1 X75.39 Y35.25 E0.105
G1 X75.24 Y35.07 E0.007
G1 X75.03 Y34.98 E0.007
G1 X66.9 Y35.01 E0.254
G1 F5612.6
G1 E-3.118
G1 F2500.0
G1 X66.96 Y35.28
G1 X77.91 Y49.29 F15000.0
G1 F5612.6
G1 E3.118
G1 F2500.0
G1 F78.0
G1 E0.065
G1 F2500.0
G1 X76.44 Y48.84 E0.048 F2250.0
G1 X73.98 Y48.33 E0.078
G1 X71.82 Y48.12 E0.068
G1 X68.79 Y48.21 E0.095
G1 X66.36 Y48.63 E0.077
G1 X64.77 Y49.05 E0.051
G1 X63.27 Y49.59 E0.05
G1 X60.57 Y50.91 E0.094
G1 X58.89 Y51.99 E0.062
G1 X57.06 Y53.46 E0.073
G1 X54.99 Y55.62 E0.093
G1 X54.33 Y56.4 E0.032
G1 X52.68 Y58.98 E0.095
G1 X51.63 Y61.29 E0.079
G1 X50.82 Y63.63 E0.077
G1 X50.28 Y66.42 E0.089
G1 X50.16 Y68.01 E0.05
G1 X50.22 Y71.22 E0.1
G1 X50.58 Y73.38 E0.068
G1 X51.42 Y76.29 E0.094
G1 X52.17 Y78.0 E0.058
G1 X53.37 Y80.16 E0.077
G1 X54.54 Y81.87 E0.065
G1 X55.77 Y83.28 E0.058
G1 X58.08 Y85.41 E0.098
G1 X60.03 Y86.79 E0.074
G1 X62.1 Y87.9 E0.073
G1 X64.62 Y88.89 E0.084
G1 X66.78 Y89.46 E0.07
G1 X67.98 Y89.67 E0.038
G1 X70.17 Y89.88 E0.069
G1 X72.45 Y89.85 E0.071
G1 X73.92 Y89.7 E0.046
G1 X75.84 Y89.34 E0.061
G1 X77.85 Y88.74 E0.065
G1 X79.56 Y88.05 E0.057
G1 X81.15 Y87.24 E0.056
G1 X83.61 Y85.62 E0.092
G1 X85.59 Y83.94 E0.081
G1 X87.09 Y82.29 E0.07
G1 X87.6 Y81.69 E0.025
G1 X88.53 Y80.34 E0.051
G1 X89.25 Y79.14 E0.044
G1 X90.45 Y76.56 E0.089
G1 X91.14 Y74.46 E0.069
G1 X91.65 Y72.06 E0.077
G1 X91.86 Y69.99 E0.065
G1 Y67.77 E0.069
G1 X91.53 Y65.16 E0.082
G1 X91.14 Y63.48 E0.054
G1 X90.57 Y61.68 E0.059
G1 X89.85 Y60.03 E0.056
G1 X88.32 Y57.33 E0.097
G1 X87.21 Y55.86 E0.057
G1 X85.41 Y53.91 E0.083
G1 X84.0 Y52.65 E0.059
G1 X82.11 Y51.33 E0.072
G1 X79.95 Y50.13 E0.077
G1 X77.91 Y49.29 E0.069
G1 X78.06 Y49.05 E0.009
G1 X76.38 Y48.51 E0.055
G1 X74.01 Y48.03 E0.075
G1 X71.82 Y47.82 E0.069
G1 X69.03 Y47.91 E0.087
G1 X67.71 Y48.06 E0.041
G1 X66.18 Y48.36 E0.049
G1 X64.65 Y48.78 E0.049
G1 X62.91 Y49.41 E0.058
G1 X61.56 Y50.04 E0.046
G1 X60.3 Y50.73 E0.045
G1 X58.83 Y51.66 E0.054
G1 X57.12 Y53.01 E0.068
G1 X55.17 Y54.96 E0.086
G1 X54.03 Y56.31 E0.055
G1 X53.46 Y57.12 E0.031
G1 X52.5 Y58.71 E0.058
G1 X51.81 Y60.03 E0.046
G1 X50.82 Y62.67 E0.088
G1 X50.52 Y63.6 E0.03
G1 X50.07 Y65.82 E0.071
G1 X49.86 Y68.01 E0.069
G1 X49.92 Y71.22 E0.1
G1 X50.34 Y73.71 E0.079
G1 X51.0 Y75.99 E0.074
G1 X51.87 Y78.06 E0.07
G1 X53.16 Y80.37 E0.082
G1 X54.81 Y82.65 E0.088
G1 X56.43 Y84.33 E0.073
G1 X58.11 Y85.83 E0.07
G1 X59.85 Y87.03 E0.066
G1 X61.98 Y88.17 E0.075
G1 X64.5 Y89.16 E0.084
G1 X65.7 Y89.52 E0.039
G1 X68.13 Y90.0 E0.077
G1 X70.53 Y90.18 E0.075
G1 X72.96 Y90.12 E0.076
G1 X75.24 Y89.76 E0.072
G1 X76.59 Y89.43 E0.043
G1 X78.33 Y88.89 E0.057
G1 X79.65 Y88.35 E0.044
G1 X81.51 Y87.39 E0.065
G1 X83.79 Y85.86 E0.086
G1 X85.77 Y84.18 E0.081
G1 X87.54 Y82.23 E0.082
G1 X88.98 Y80.16 E0.079
G1 X90.21 Y77.94 E0.079
G1 X91.05 Y75.78 E0.072
G1 X91.71 Y73.41 E0.077
G1 X92.1 Y70.8 E0.082
G1 X92.19 Y68.22 E0.08
G1 X91.92 Y65.73 E0.078
G1 X91.5 Y63.69 E0.065
G1 X90.84 Y61.56 E0.07
G1 X90.15 Y59.97 E0.054
G1 X88.8 Y57.54 E0.087
G1 X87.69 Y55.95 E0.06
G1 X85.68 Y53.73 E0.093
G1 X83.43 Y51.84 E0.092
G1 X81.33 Y50.52 E0.077
G1 X80.07 Y49.86 E0.044
G1 X78.06 Y49.05 E0.068
G1 F5612.6
G1 E-3.118
G1 F2500.0
G1 X77.91 Y49.29
G1 X86.01 Y35.73 F15000.0
G1 F5612.6
G1 E3.118
G1 F2500.0
G1 F78.0
G1 E0.065
G1 F2500.0
G1 X88.92 Y37.2 E0.102 F2250.0
G1 X91.05 Y38.49 E0.078
G1 X93.9 Y40.56 E0.11
G1 X95.85 Y42.24 E0.08
G1 X98.07 Y44.52 E0.099
G1 X99.39 Y46.02 E0.062
G1 X100.86 Y48.0 E0.077
G1 X102.09 Y49.86 E0.07
G1 X103.35 Y52.08 E0.08
G1 X104.46 Y54.36 E0.079
G1 X105.57 Y57.21 E0.095
G1 X106.47 Y60.36 E0.102
G1 X107.04 Y63.15 E0.089
G1 X107.4 Y65.97 E0.089
G1 X107.49 Y67.71 E0.054
G1 X107.46 Y70.98 E0.102
G1 X107.16 Y74.04 E0.096
G1 X106.62 Y77.04 E0.095
G1 X106.02 Y79.32 E0.074
G1 X105.27 Y81.66 E0.077
G1 X104.46 Y83.61 E0.066
G1 X103.38 Y85.86 E0.078
G1 X101.85 Y88.5 E0.095
G1 X100.53 Y90.48 E0.074
G1 X99.3 Y92.07 E0.063
G1 X97.14 Y94.5 E0.101
G1 X94.98 Y96.54 E0.093
G1 X92.28 Y98.67 E0.107
G1 X90.66 Y99.75 E0.061
G1 X88.56 Y101.01 E0.076
G1 X85.83 Y102.36 E0.095
G1 X83.94 Y103.14 E0.064
G1 X80.1 Y104.34 E0.125
G1 X77.04 Y105.0 E0.098
G1 X73.95 Y105.39 E0.097
G1 X71.1 Y105.51 E0.089
G1 X67.11 Y105.27 E0.125
G1 X65.22 Y105.03 E0.059
G1 X62.22 Y104.43 E0.095
G1 X59.55 Y103.68 E0.086
G1 X56.37 Y102.45 E0.106
G1 X54.0 Y101.31 E0.082
G1 X50.49 Y99.21 E0.128
G1 X47.82 Y97.2 E0.104
G1 X44.91 Y94.56 E0.123
G1 X43.2 Y92.67 E0.079
G1 X41.31 Y90.24 E0.096
G1 X40.2 Y88.62 E0.061
G1 X39.21 Y86.97 E0.06
G1 X38.1 Y84.84 E0.075
G1 X37.29 Y83.01 E0.062
G1 X36.42 Y80.7 E0.077
G1 X35.46 Y77.31 E0.11
G1 X34.89 Y74.34 E0.094
G1 X34.53 Y70.77 E0.112
G1 X34.68 Y65.37 E0.168
G1 X35.07 Y62.43 E0.092
G1 X35.76 Y59.49 E0.094
G1 X36.21 Y57.87 E0.052
G1 X37.38 Y54.75 E0.104
G1 X39.15 Y51.15 E0.125
G1 X40.08 Y49.59 E0.057
G1 X41.67 Y47.28 E0.087
G1 X43.56 Y44.91 E0.095
G1 X45.99 Y42.39 E0.109
G1 X48.39 Y40.32 E0.099
G1 X49.86 Y39.24 E0.057
G1 X51.75 Y37.98 E0.071
G1 X53.61 Y36.9 E0.067
G1 X55.95 Y35.76 E0.081
G1 X59.19 Y34.47 E0.109
G1 X62.55 Y33.48 E0.109
G1 X65.97 Y32.85 E0.108
G1 X68.88 Y32.55 E0.091
G1 X71.58 Y32.52 E0.084
G1 X73.74 Y32.61 E0.067
G1 X75.66 Y32.79 E0.06
G1 X78.33 Y33.24 E0.084
G1 X79.59 Y33.51 E0.04
G1 X81.99 Y34.2 E0.078
G1 X84.09 Y34.92 E0.069
G1 X86.01 Y35.73 E0.065
G1 X85.86 Y35.97 E0.009
G1 X88.74 Y37.44 E0.101
G1 X90.87 Y38.73 E0.078
G1 X93.75 Y40.83 E0.111
G1 X96.57 Y43.35 E0.118
G1 X98.91 Y45.93 E0.109
G1 X100.56 Y48.06 E0.084
G1 X101.97 Y50.22 E0.08
G1 X103.02 Y52.11 E0.067
G1 X104.16 Y54.42 E0.08
G1 X105.3 Y57.39 E0.099
G1 X106.08 Y60.03 E0.086
G1 X106.8 Y63.54 E0.112
G1 X107.16 Y66.75 E0.101
G1 Y70.98 E0.132
G1 X106.8 Y74.55 E0.112
G1 X106.17 Y77.61 E0.097
G1 X105.33 Y80.52 E0.094
G1 X104.91 Y81.75 E0.041
G1 X104.16 Y83.58 E0.062
G1 X102.69 Y86.49 E0.102
G1 X101.64 Y88.29 E0.065
G1 X99.57 Y91.23 E0.112
G1 X97.35 Y93.84 E0.107
G1 X95.13 Y96.0 E0.097
G1 X92.91 Y97.83 E0.09
G1 X90.51 Y99.51 E0.091
G1 X88.38 Y100.77 E0.077
G1 X85.77 Y102.06 E0.091
G1 X83.85 Y102.84 E0.065
G1 X80.22 Y104.01 E0.119
G1 X76.95 Y104.7 E0.104
G1 X74.22 Y105.06 E0.086
G1 X72.39 Y105.18 E0.057
G1 X70.59 E0.056
G1 X68.07 Y105.09 E0.079
G1 X65.25 Y104.73 E0.089
G1 X62.28 Y104.13 E0.094
G1 X59.31 Y103.26 E0.097
G1 X56.19 Y102.03 E0.105
G1 X54.24 Y101.1 E0.067
G1 X52.35 Y100.02 E0.068
G1 X50.61 Y98.91 E0.064
G1 X47.97 Y96.93 E0.103
G1 X45.15 Y94.38 E0.119
G1 X43.44 Y92.49 E0.079
G1 X41.55 Y90.06 E0.096
G1 X40.5 Y88.53 E0.058
G1 X39.42 Y86.73 E0.065
G1 X38.19 Y84.33 E0.084
G1 X37.32 Y82.29 E0.069
G1 X36.54 Y80.07 E0.073
G1 X36.06 Y78.54 E0.05
G1 X35.25 Y74.76 E0.121
G1 X34.86 Y71.37 E0.106
G1 X34.8 Y67.95 E0.107
G1 X34.98 Y65.46 E0.078
G1 X35.34 Y62.64 E0.089
G1 X35.67 Y60.99 E0.052
G1 X36.45 Y58.11 E0.093
G1 X37.32 Y55.68 E0.08
G1 X38.49 Y53.07 E0.089
G1 X39.54 Y51.06 E0.071
G1 X40.65 Y49.26 E0.066
G1 X42.6 Y46.53 E0.105
G1 X44.79 Y44.01 E0.104
G1 X46.74 Y42.12 E0.085
G1 X48.57 Y40.56 E0.075
G1 X51.9 Y38.22 E0.127
G1 X53.97 Y37.05 E0.074
G1 X56.1 Y36.0 E0.074
G1 X57.99 Y35.22 E0.064
G1 X60.33 Y34.41 E0.077
G1 X62.58 Y33.78 E0.073
G1 X65.97 Y33.15 E0.108
G1 X69.45 Y32.82 E0.109
G1 X72.54 E0.096
G1 X75.66 Y33.09 E0.098
G1 X77.4 Y33.36 E0.055
G1 X79.56 Y33.81 E0.069
G1 X81.84 Y34.47 E0.074
G1 X83.76 Y35.13 E0.063
G1 X85.86 Y35.97 E0.071
G1 F5612.6
G1 E-3.118
G1 F2500.0
G1 X86.01 Y35.73
G1 X94.44 Y78.12 F15000.0
G1 F5612.6
G1 E3.118
G1 F2500.0
G1 F78.0
G1 E0.065
G1 F2500.0
G1 X101.19 E0.21 F2250.0
G1 X101.31 Y77.79 E0.011
G1 Y62.19 E0.486
G1 X101.22 Y62.04 E0.005
G1 X101.01 Y61.98 E0.007
G1 X94.44 Y62.01 E0.205
G1 X94.35 Y77.97 E0.498
G1 X94.44 Y78.12 E0.005
G1 X94.23 Y78.33 E0.009
G1 X94.59 Y78.45 E0.012
G1 X101.19 E0.206
G1 X101.49 Y78.24 E0.011
G1 X101.61 Y77.88 E0.012
G1 Y62.19 E0.489
G1 X101.49 Y61.89 E0.01
G1 X101.07 Y61.68 E0.015
G1 X94.44 E0.207
G1 X94.14 Y61.89 E0.011
G1 X94.08 Y78.15 E0.507
G1 X94.23 Y78.33 E0.007
G1 F5612.6
G1 E-3.118
G1 F2500.0
G1 X94.44 Y78.12
G1 X99.36 Y80.55 F15000.0
G1 F5612.6
G1 E3.118
G1 F2500.0
G1 F78.0
G1 E0.065
G1 F2500.0
G1 X99.21 Y80.61 E0.005 F2250.0
G1 X95.16 Y87.66 E0.254
G1 X95.28 Y87.87 E0.008
G1 X98.01 Y89.4 E0.098
G1 X98.13 Y89.37 E0.004
G1 X102.18 Y82.41 E0.251
G1 X102.15 Y82.2 E0.007
G1 X99.36 Y80.55 E0.101
G1 X99.48 Y80.28 E0.009
G1 X99.12 Y80.31 E0.011
G1 X98.97 Y80.43 E0.006
G1 X94.89 Y87.54 E0.256
G1 X94.92 Y87.9 E0.011
G1 X95.07 Y88.08 E0.007
G1 X97.89 Y89.67 E0.101
G1 X98.07 Y89.7 E0.006
G1 X98.34 Y89.58 E0.009
G1 X102.39 Y82.62 E0.251
G1 X102.48 Y82.38 E0.008
G1 X102.36 Y81.96 E0.014
G1 X99.48 Y80.28 E0.104
G1 F5612.6
G1 E-3.118
G1 F2500.0
G1 X99.36 Y80.55
G1 X46.86 Y87.63 F15000.0
G1 F5612.6
G1 E3.118
G1 F2500.0
G1 F78.0
G1 E0.065
G1 F2500.0
G1 X42.78 Y80.61 E0.253 F2250.0
G1 X42.69 Y80.55 E0.003
G1 X39.84 Y82.17 E0.102
G1 Y82.44 E0.008
G1 X43.89 Y89.37 E0.25
G1 X43.98 Y89.4 E0.003
G1 X46.74 Y87.84 E0.099
G1 X46.86 Y87.63 E0.008
G1 X47.13 Y87.69 E0.009
G1 X47.1 Y87.45 E0.008
G1 X42.99 Y80.4 E0.254
G1 X42.84 Y80.28 E0.006
G1 X42.63 Y80.25 E0.007
G1 X42.36 Y80.34 E0.009
G1 X39.69 Y81.9 E0.096
G1 X39.54 Y82.08 E0.007
G1 X39.51 Y82.47 E0.012
G1 X43.71 Y89.61 E0.258
G1 X44.07 Y89.7 E0.012
G1 X46.98 Y88.02 E0.105
G1 X47.13 Y87.69 E0.011
G1 F5612.6
G1 E-3.118
G1 F2500.0
G1 X46.86 Y87.63
G1 X40.83 Y78.12 F15000.0
G1 F5612.6
G1 E3.118
G1 F2500.0
G1 F78.0
G1 E0.065
G1 F2500.0
G1 X47.58 E0.21 F2250.0
G1 X47.7 Y77.79 E0.011
G1 Y62.19 E0.486
G1 X47.61 Y62.04 E0.005
G1 X47.4 Y61.98 E0.007
G1 X40.83 Y62.01 E0.205
G1 X40.74 Y77.97 E0.498
G1 X40.83 Y78.12 E0.005
G1 X40.62 Y78.33 E0.009
G1 X40.98 Y78.45 E0.012
G1 X47.58 E0.206
G1 X47.88 Y78.24 E0.011
G1 X48.0 Y77.88 E0.012
G1 Y62.19 E0.489
G1 X47.88 Y61.89 E0.01
G1 X47.46 Y61.68 E0.015
G1 X40.83 E0.207
G1 X40.53 Y61.89 E0.011
G1 X40.47 Y78.15 E0.507
G1 X40.62 Y78.33 E0.007
G1 F5612.6
G1 E-3.118
G1 F2500.0
G1 X40.83 Y78.12
G1 X41.19 Y78.54 F15000.0
G1 F5612.6
G1 E3.118
G1 F2500.0
G1 F78.0
G1 E0.065
G1 F2500.0
G1 X67.56 Y104.94 E1.164
G1 X67.14 Y104.88 E0.013
G1 X43.89 Y81.72 E1.023
G1 X44.37 Y82.53 E0.029
G1 X66.6 Y104.85 E0.982
G1 X66.21 Y104.79 E0.012
G1 X45.06 Y83.73 E0.931
G1 X45.57 Y84.6 E0.031
G1 X65.67 Y104.7 E0.886
G1 F5612.6
G1 E-3.118
G1 F2500.0
G1 X68.07 Y104.97 F15000.0
G1 F5612.6
G1 E3.118
G1 F2500.0
G1 F78.0
G1 E0.065
G1 F2500.0
G1 X41.64 Y78.54 E1.165
G1 X42.0 E0.011
G1 X68.55 Y105.03 E1.169
G1 X68.91 E0.011
G1 X42.48 Y78.54 E1.167
G1 X42.84 E0.011
G1 X69.45 Y105.06 E1.171
G1 X69.78 E0.01
G1 X43.35 Y78.54 E1.167
G1 X43.68 E0.01
G1 X70.32 Y105.09 E1.173
G1 X70.65 E0.01
G1 X44.16 Y78.54 E1.169
G1 F5612.6
G1 E-3.118
G1 F2500.0
G1 X47.13 F15000.0
G1 F5612.6
G1 E3.118
G1 F2500.0
G1 F78.0
G1 E0.065
G1 F2500.0
G1 X73.53 Y105.0 E1.165
G1 X73.23 Y105.03 E0.009
G1 X46.65 Y78.54 E1.17
G1 X46.32 E0.01
G1 X72.75 Y105.06 E1.167
G1 X72.45 Y105.09 E0.009
G1 X45.81 Y78.54 E1.173
G1 X45.45 E0.011
G1 X71.94 Y105.09 E1.169
G1 X71.58 E0.011
G1 X44.97 Y78.54 E1.172
G1 X44.61 E0.011
G1 X71.16 Y105.09 E1.171
G1 F5612.6
G1 E-3.118
G1 F2500.0
G1 X74.01 Y104.97 F15000.0
G1 F5612.6
G1 E3.118
G1 F2500.0
G1 F78.0
G1 E0.065
G1 F2500.0
G1 X47.58 Y78.54 E1.165
G1 X47.82 Y78.42 E0.008
G1 X74.4 Y104.94 E1.171
G1 X74.73 Y104.91 E0.01
G1 X48.03 Y78.15 E1.179
G1 X48.09 Y77.85 E0.01
G1 X75.18 Y104.85 E1.193
G1 X75.48 Y104.82 E0.009
G1 X48.09 Y77.37 E1.209
G1 F5612.6
G1 E-3.118
G1 F2500.0
G1 Y74.4 F15000.0
G1 F5612.6
G1 E3.118
G1 F2500.0
G1 F78.0
G1 E0.065
G1 F2500.0
G1 X51.87 Y78.24 E0.168
G1 X52.17 Y78.87 E0.022
G1 X48.09 Y74.88 E0.178
G1 Y75.24 E0.011
G1 X52.86 Y80.07 E0.212
G1 X53.52 Y81.09 E0.038
G1 X48.09 Y75.72 E0.238
G1 Y76.08 E0.011
G1 X54.99 Y82.98 E0.304
G1 F5612.6
G1 E-3.118
G1 F2500.0
G1 X56.97 Y84.96 F15000.0
G1 F5612.6
G1 E3.118
G1 F2500.0
G1 F78.0
G1 E0.065
G1 F2500.0
G1 X76.62 Y104.67 E0.868
G1 X76.32 Y104.7 E0.009
G1 X48.09 Y76.59 E1.242
G1 Y76.92 E0.01
G1 X75.9 Y104.76 E1.227
G1 F5612.6
G1 E-3.118
G1 F2500.0
G1 X79.83 Y104.01 F15000.0
G1 F5612.6
G1 E3.118
G1 F2500.0
G1 F78.0
G1 E0.065
G1 F2500.0
G1 X65.34 Y89.52 E0.639
G1 X65.82 Y89.64 E0.015
G1 X80.19 Y103.92 E0.632
G1 X80.46 Y103.86 E0.009
G1 X66.45 Y89.79 E0.619
G1 F5612.6
G1 E-3.118
G1 F2500.0
G1 X64.71 Y89.31 F15000.0
G1 F5612.6
G1 E3.118
G1 F2500.0
G1 F78.0
G1 E0.065
G1 F2500.0
G1 X79.44 Y104.1 E0.651
G1 X79.14 Y104.16 E0.01
G1 X64.11 Y89.13 E0.663
G1 F5612.6
G1 E-3.118
G1 F2500.0
G1 X63.39 Y88.86 F15000.0
G1 F5612.6
G1 E3.118
G1 F2500.0
G1 F78.0
G1 E0.065
G1 F2500.0
G1 X78.78 Y104.25 E0.679
G1 X78.45 Y104.34 E0.011
G1 X62.67 Y88.56 E0.696
G1 F5612.6
G1 E-3.118
G1 F2500.0
G1 X61.92 Y88.23 F15000.0
G1 F5612.6
G1 E3.118
G1 F2500.0
G1 F78.0
G1 E0.065
G1 F2500.0
G1 X78.03 Y104.4 E0.712
G1 X77.76 Y104.46 E0.009
G1 X60.93 Y87.72 E0.74
G1 X60.15 Y87.3 E0.028
G1 X77.34 Y104.55 E0.759
G1 X77.04 Y104.58 E0.009
G1 X58.92 Y86.49 E0.798
G1 F5612.6
G1 E-3.118
G1 F2500.0
G1 X69.87 Y90.24 F15000.0
G1 F5612.6
G1 E3.118
G1 F2500.0
G1 F78.0
G1 E0.065
G1 F2500.0
G1 X82.71 Y103.14 E0.568
G1 X82.47 Y103.23 E0.008
G1 X69.36 Y90.21 E0.576
G1 X68.97 Y90.18 E0.012
G1 X82.08 Y103.35 E0.579
G1 X81.81 Y103.44 E0.009
G1 X68.43 Y90.12 E0.589
G1 X68.01 Y90.06 E0.013
G1 X81.45 Y103.56 E0.594
G1 X81.18 Y103.62 E0.009
G1 X67.41 Y89.97 E0.605
G1 X67.02 Y89.91 E0.012
G1 X80.82 Y103.74 E0.609
G1 F5612.6
G1 E-3.118
G1 F2500.0
G1 X83.07 Y103.02 F15000.0
G1 F5612.6
G1 E3.118
G1 F2500.0
G1 F78.0
G1 E0.065
G1 F2500.0
G1 X70.35 Y90.27 E0.562
G1 X70.68 E0.01
G1 X83.4 Y102.9 E0.559
G1 X83.67 Y102.81 E0.009
G1 X71.19 Y90.27 E0.552
G1 X71.55 E0.011
G1 X84.03 Y102.69 E0.549
G1 F5612.6
G1 E-3.118
G1 F2500.0
G1 X88.89 Y100.38 F15000.0
G1 F5612.6
G1 E3.118
G1 F2500.0
G1 F78.0
G1 E0.065
G1 F2500.0
G1 Y100.35 E0.001
G1 X77.73 Y89.19 E0.492
G1 X78.06 Y89.1 E0.011
G1 X89.19 Y100.2 E0.49
G1 X89.4 Y100.05 E0.008
G1 X78.36 Y88.98 E0.487
G1 X78.66 Y88.83 E0.01
G1 X89.7 Y99.87 E0.487
G1 X89.94 Y99.75 E0.008
G1 X78.99 Y88.74 E0.484
G1 F5612.6
G1 E-3.118
G1 F2500.0
G1 X79.86 Y88.35 F15000.0
G1 F5612.6
G1 E3.118
G1 F2500.0
G1 F78.0
G1 E0.065
G1 F2500.0
G1 X90.72 Y99.27 E0.48
G1 X90.51 Y99.39 E0.008
G1 X79.56 Y88.5 E0.482
G1 X79.29 Y88.62 E0.009
G1 X90.24 Y99.57 E0.483
G1 F5612.6
G1 E-3.118
G1 F2500.0
G1 X90.99 Y99.06 F15000.0
G1 F5612.6
G1 E3.118
G1 F2500.0
G1 F78.0
G1 E0.065
G1 F2500.0
G1 X80.13 Y88.2 E0.479
G1 X80.4 Y88.08 E0.009
G1 X91.26 Y98.88 E0.478
G1 X91.5 Y98.73 E0.009
G1 X80.73 Y87.93 E0.476
G1 F5612.6
G1 E-3.118
G1 F2500.0
G1 X82.59 Y86.82 F15000.0
G1 F5612.6
G1 E3.118
G1 F2500.0
G1 F78.0
G1 E0.065
G1 F2500.0
G1 X93.24 Y97.44 E0.469
G1 X93.45 Y97.29 E0.008
G1 X82.86 Y86.67 E0.468
G1 F5612.6
G1 E-3.118
G1 F2500.0
G1 X83.58 Y86.13 F15000.0
G1 F5612.6
G1 E3.118
G1 F2500.0
G1 F78.0
G1 E0.065
G1 F2500.0
G1 X94.14 Y96.72 E0.466
G1 X93.96 Y96.87 E0.007
G1 X83.34 Y86.31 E0.467
G1 X83.1 Y86.49 E0.009
G1 X93.69 Y97.08 E0.467
G1 Y97.11 E0.001
G1 F5612.6
G1 E-3.118
G1 F2500.0
G1 X94.38 Y96.54 F15000.0
G1 F5612.6
G1 E3.118
G1 F2500.0
G1 F78.0
G1 E0.065
G1 F2500.0
G1 X83.85 Y85.95 E0.466
G1 X84.03 Y85.8 E0.007
G1 X94.65 Y96.3 E0.466
G1 X94.83 Y96.15 E0.007
G1 X84.33 Y85.56 E0.465
G1 X84.51 Y85.41 E0.007
G1 X95.1 Y95.91 E0.465
G1 X95.28 Y95.73 E0.008
G1 X84.78 Y85.2 E0.464
G1 F5612.6
G1 E-3.118
G1 F2500.0
G1 X88.59 Y80.94 F15000.0
G1 F5612.6
G1 E3.118
G1 F2500.0
G1 F78.0
G1 E0.065
G1 F2500.0
G1 X94.89 Y87.27 E0.278
G1 X94.8 Y87.57 E0.01
G1 X88.38 Y81.24 E0.281
G1 X88.26 Y81.42 E0.007
G1 X98.79 Y92.07 E0.467
G1 X98.64 Y92.25 E0.007
G1 X88.05 Y81.72 E0.466
G1 X87.9 Y81.93 E0.008
G1 X98.4 Y92.52 E0.465
G1 X98.25 Y92.7 E0.007
G1 X87.66 Y82.2 E0.465
G1 X87.51 Y82.41 E0.008
G1 X98.01 Y92.97 E0.464
G1 X97.86 Y93.15 E0.007
G1 X87.3 Y82.65 E0.464
G1 X87.12 Y82.86 E0.009
G1 X97.62 Y93.42 E0.464
G1 X97.44 Y93.6 E0.008
G1 X86.88 Y83.13 E0.464
G1 X86.73 Y83.31 E0.007
G1 X97.2 Y93.87 E0.464
G1 X97.02 Y94.05 E0.008
G1 X86.49 Y83.58 E0.463
G1 X86.31 Y83.76 E0.008
G1 X96.78 Y94.29 E0.463
G1 X96.63 Y94.47 E0.007
G1 X86.07 Y84.0 E0.464
G1 X85.89 Y84.18 E0.008
G1 X96.39 Y94.71 E0.464
G1 X96.21 Y94.89 E0.008
G1 X85.62 Y84.42 E0.464
G1 X85.47 Y84.57 E0.007
G1 X95.94 Y95.13 E0.464
G1 X95.76 Y95.31 E0.008
G1 X85.2 Y84.81 E0.464
G1 X85.02 Y84.99 E0.008
G1 X95.52 Y95.55 E0.464
G1 F5612.6
G1 E-3.118
G1 F2500.0
G1 X92.97 Y97.65 F15000.0
G1 F5612.6
G1 E3.118
G1 F2500.0
G1 F78.0
G1 E0.065
G1 F2500.0
G1 X82.29 Y87.0 E0.47
G1 X82.05 Y87.15 E0.009
G1 X92.73 Y97.83 E0.471
G1 X92.49 Y98.04 E0.01
G1 X81.78 Y87.33 E0.472
G1 X81.54 Y87.48 E0.009
G1 X92.25 Y98.22 E0.473
G1 X92.01 Y98.37 E0.009
G1 X81.24 Y87.63 E0.474
G1 X81.0 Y87.78 E0.009
G1 X91.77 Y98.55 E0.475
G1 F5612.6
G1 E-3.118
G1 F2500.0
G1 X99.0 Y91.8 F15000.0
G1 F5612.6
G1 E3.118
G1 F2500.0
G1 F78.0
G1 E0.065
G1 F2500.0
G1 X95.79 Y88.59 E0.142
G1 F5612.6
G1 E-3.118
G1 F2500.0
G1 X96.81 Y89.16 F15000.0
G1 F5612.6
G1 E3.118
G1 F2500.0
G1 F78.0
G1 E0.065
G1 F2500.0
G1 X99.21 Y91.56 E0.106
G1 X99.36 Y91.35 E0.008
G1 X97.8 Y89.73 E0.07
G1 F5612.6
G1 E-3.118
G1 F2500.0
G1 X98.94 Y88.77 F15000.0
G1 F5612.6
G1 E3.118
G1 F2500.0
G1 F78.0
G1 E0.065
G1 F2500.0
G1 X100.29 Y90.15 E0.06
G1 X100.14 Y90.33 E0.007
G1 X98.76 Y89.07 E0.058
G1 X98.64 Y89.28 E0.008
G1 X99.93 Y90.63 E0.058
G1 X99.75 Y90.84 E0.009
G1 X98.46 Y89.58 E0.056
G1 X98.25 Y89.76 E0.009
G1 X99.57 Y91.08 E0.058
G1 F5612.6
G1 E-3.118
G1 F2500.0
G1 X100.47 Y89.88 F15000.0
G1 F5612.6
G1 E3.118
G1 F2500.0
G1 F78.0
G1 E0.065
G1 F2500.0
G1 Y89.85 E0.001
G1 X99.12 Y88.5 E0.06
G1 X99.27 Y88.23 E0.01
G1 X100.65 Y89.61 E0.061
G1 X100.8 Y89.4 E0.008
G1 X99.42 Y87.96 E0.062
G1 X99.54 Y87.72 E0.008
G1 X101.01 Y89.1 E0.063
G1 X101.13 Y88.89 E0.008
G1 X99.72 Y87.42 E0.064
G1 F5612.6
G1 E-3.118
G1 F2500.0
G1 X99.87 Y87.15 F15000.0
G1 F5612.6
G1 E3.118
G1 F2500.0
G1 F78.0
G1 E0.065
G1 F2500.0
G1 X101.31 Y88.59 E0.063
G1 X101.34 E0.001
G1 X101.49 Y88.35 E0.009
G1 X100.05 Y86.88 E0.064
G1 X100.17 Y86.64 E0.008
G1 X101.67 Y88.08 E0.065
G1 X101.82 Y87.84 E0.009
G1 X100.35 Y86.34 E0.065
G1 F5612.6
G1 E-3.118
G1 F2500.0
G1 X100.8 Y85.53 F15000.0
G1 F5612.6
G1 E3.118
G1 F2500.0
G1 F78.0
G1 E0.065
G1 F2500.0
G1 X102.3 Y87.0 E0.065
G1 X102.42 Y86.79 E0.008
G1 X100.98 Y85.29 E0.065
G1 X101.1 Y85.02 E0.009
G1 X102.63 Y86.46 E0.066
G1 X102.75 Y86.22 E0.008
G1 X101.28 Y84.72 E0.065
G1 X101.43 Y84.48 E0.009
G1 X102.9 Y85.92 E0.064
G1 X103.02 Y85.68 E0.008
G1 X101.61 Y84.21 E0.064
G1 F5612.6
G1 E-3.118
G1 F2500.0
G1 X102.06 Y83.4 F15000.0
G1 F5612.6
G1 E3.118
G1 F2500.0
G1 F78.0
G1 E0.065
G1 F2500.0
G1 X103.44 Y84.84 E0.062
G1 X103.35 Y85.08 E0.008
G1 X101.88 Y83.7 E0.063
G1 X101.76 Y83.94 E0.008
G1 X103.17 Y85.35 E0.062
G1 F5612.6
G1 E-3.118
G1 F2500.0
G1 X103.62 Y84.51 F15000.0
G1 F5612.6
G1 E3.118
G1 F2500.0
G1 F78.0
G1 E0.065
G1 F2500.0
G1 X103.59 E0.001
G1 X102.21 Y83.13 E0.061
G1 X102.39 Y82.86 E0.01
G1 X103.74 Y84.21 E0.06
G1 X103.86 Y83.97 E0.008
G1 X102.54 Y82.56 E0.06
G1 X102.57 Y82.26 E0.009
G1 X104.01 Y83.64 E0.062
G1 X104.13 Y83.4 E0.008
G1 X99.33 Y78.54 E0.213
G1 X99.69 E0.011
G1 X104.28 Y83.04 E0.2
G1 X104.37 Y82.8 E0.008
G1 X100.2 Y78.54 E0.186
G1 X100.53 E0.01
G1 X104.52 Y82.44 E0.174
G1 X104.64 Y82.17 E0.009
G1 X101.04 Y78.54 E0.159
G1 X101.4 Y78.48 E0.011
G1 X104.76 Y81.84 E0.148
G1 X104.88 Y81.57 E0.009
G1 X101.58 Y78.24 E0.146
G1 X101.67 Y77.97 E0.009
G1 X105.0 Y81.24 E0.146
G1 F5612.6
G1 E-3.118
G1 F2500.0
G1 X105.09 Y80.91 F15000.0
G1 F5612.6
G1 E3.118
G1 F2500.0
G1 F78.0
G1 E0.065
G1 F2500.0
G1 X101.7 Y77.52 E0.149
G1 Y77.16 E0.011
G1 X105.21 Y80.61 E0.153
G1 X105.3 Y80.28 E0.011
G1 X101.7 Y76.68 E0.159
G1 Y76.29 E0.012
G1 X105.42 Y79.95 E0.163
G1 X105.51 Y79.62 E0.011
G1 X101.7 Y75.81 E0.168
G1 Y75.45 E0.011
G1 X105.63 Y79.32 E0.172
G1 X105.69 Y78.96 E0.011
G1 X101.7 Y74.97 E0.176
G1 Y74.61 E0.011
G1 X105.78 Y78.63 E0.179
G1 X105.87 Y78.3 E0.011
G1 X101.7 Y74.1 E0.185
G1 Y73.77 E0.01
G1 X105.99 Y77.97 E0.187
G1 X106.08 Y77.67 E0.01
G1 X101.7 Y73.26 E0.194
G1 Y72.9 E0.011
G1 X106.17 Y77.31 E0.196
G1 X106.23 Y77.01 E0.01
G1 X101.7 Y72.42 E0.201
G1 Y72.06 E0.011
G1 X106.32 Y76.59 E0.202
G1 X106.38 Y76.32 E0.009
G1 X101.7 Y71.58 E0.208
G1 F5612.6
G1 E-3.118
G1 F2500.0
G1 X106.44 Y75.9 F15000.0
G1 F5612.6
G1 E3.118
G1 F2500.0
G1 F78.0
G1 E0.065
G1 F2500.0
G1 X101.7 Y71.13 E0.21
G1 Y70.8 E0.01
G1 X106.53 Y75.54 E0.211
G1 X106.59 Y75.21 E0.01
G1 X101.7 Y70.29 E0.216
G1 Y69.93 E0.011
G1 X106.65 Y74.82 E0.217
G1 X106.71 Y74.52 E0.01
G1 X101.7 Y69.45 E0.222
G1 Y69.09 E0.011
G1 X106.77 Y74.1 E0.222
G1 X106.8 Y73.77 E0.01
G1 X101.7 Y68.58 E0.227
G1 Y68.25 E0.01
G1 X106.86 Y73.32 E0.226
G1 X106.89 Y73.02 E0.009
G1 X101.7 Y67.77 E0.23
G1 Y67.38 E0.012
G1 X106.95 Y72.57 E0.23
G1 X106.98 Y72.18 E0.012
G1 X101.7 Y66.84 E0.234
G1 Y66.48 E0.011
G1 X107.01 Y71.73 E0.233
G1 X107.04 Y71.4 E0.01
G1 X101.7 Y66.0 E0.237
G1 Y65.64 E0.011
G1 X107.07 Y70.89 E0.234
G1 Y70.59 E0.009
G1 X101.7 Y65.13 E0.239
G1 Y64.8 E0.01
G1 X107.1 Y70.11 E0.236
G1 Y69.75 E0.011
G1 X101.7 Y64.29 E0.239
G1 Y63.93 E0.011
G1 X107.1 Y69.27 E0.237
G1 Y68.91 E0.011
G1 X101.7 Y63.45 E0.239
G1 Y63.09 E0.011
G1 X107.1 Y68.43 E0.237
G1 Y68.07 E0.011
G1 X101.7 Y62.58 E0.24
G1 Y62.25 E0.01
G1 X107.07 Y67.53 E0.235
G1 Y67.2 E0.01
G1 X75.54 Y35.73 E1.389
G1 Y36.09 E0.011
G1 X100.98 Y61.59 E1.123
G1 X100.65 E0.01
G1 X75.54 Y36.57 E1.105
G1 Y36.93 E0.011
G1 X100.14 Y61.59 E1.086
G1 X99.78 E0.011
G1 X75.54 Y37.41 E1.068
G1 Y37.77 E0.011
G1 X99.3 Y61.59 E1.049
G1 X98.94 E0.011
G1 X75.54 Y38.25 E1.031
G1 Y38.61 E0.011
G1 X98.43 Y61.59 E1.011
G1 X98.1 E0.01
G1 X75.39 Y38.97 E0.999
G1 X75.21 Y39.12 E0.007
G1 X97.59 Y61.59 E0.989
G1 X97.23 E0.011
G1 X74.76 Y39.18 E0.99
G1 X74.4 E0.011
G1 X96.75 Y61.59 E0.987
G1 X96.39 E0.011
G1 X73.92 Y39.18 E0.99
G1 X73.56 E0.011
G1 X95.91 Y61.59 E0.987
G1 X95.55 E0.011
G1 X73.05 Y39.18 E0.99
G1 X72.72 E0.01
G1 X95.04 Y61.59 E0.986
G1 X94.71 E0.01
G1 X72.21 Y39.18 E0.99
G1 X71.85 E0.011
G1 X94.26 Y61.65 E0.99
G1 X94.08 Y61.83 E0.008
G1 X71.37 Y39.18 E1.0
G1 X71.01 E0.011
G1 X83.97 Y52.14 E0.571
G1 F5612.6
G1 E-3.118
G1 F2500.0
G1 X82.56 Y51.15 F15000.0
G1 F5612.6
G1 E3.118
G1 F2500.0
G1 F78.0
G1 E0.065
G1 F2500.0
G1 X70.53 Y39.18 E0.529
G1 X70.14 E0.012
G1 X81.27 Y50.37 E0.492
G1 X80.58 Y50.01 E0.024
G1 X69.66 Y39.18 E0.48
G1 X69.33 E0.01
G1 X79.62 Y49.56 E0.456
G1 X78.99 Y49.29 E0.021
G1 X68.82 Y39.18 E0.447
G1 X68.46 E0.011
G1 X78.3 Y49.02 E0.434
G1 F5612.6
G1 E-3.118
G1 F2500.0
G1 X69.03 Y47.82 F15000.0
G1 F5612.6
G1 E3.118
G1 F2500.0
G1 F78.0
G1 E0.065
G1 F2500.0
G1 X56.97 Y35.73 E0.532
G1 X57.21 Y35.64 E0.008
G1 X69.45 Y47.79 E0.538
G1 X69.75 Y47.76 E0.009
G1 X57.57 Y35.49 E0.539
G1 X57.84 Y35.37 E0.009
G1 X70.26 Y47.76 E0.547
G1 X70.62 E0.011
G1 X58.17 Y35.25 E0.55
G1 X58.47 Y35.16 E0.01
G1 X71.07 Y47.73 E0.555
G1 X71.43 E0.011
G1 X58.8 Y35.01 E0.559
G1 X59.07 Y34.92 E0.009
G1 X71.94 Y47.73 E0.566
G1 X72.3 Y47.76 E0.011
G1 X59.4 Y34.8 E0.57
G1 X59.73 Y34.71 E0.011
G1 X72.84 Y47.79 E0.577
G1 X73.26 Y47.85 E0.013
G1 X60.06 Y34.59 E0.583
G1 F5612.6
G1 E-3.118
G1 F2500.0
G1 X60.39 Y34.5 F15000.0
G1 F5612.6
G1 E3.118
G1 F2500.0
G1 F78.0
G1 E0.065
G1 F2500.0
G1 X73.8 Y47.91 E0.591
G1 X74.22 Y47.97 E0.013
G1 X60.72 Y34.41 E0.597
G1 X61.05 Y34.32 E0.011
G1 X74.82 Y48.09 E0.607
G1 X75.24 Y48.15 E0.013
G1 X61.38 Y34.23 E0.613
G1 F5612.6
G1 E-3.118
G1 F2500.0
G1 X62.37 Y33.93 F15000.0
G1 F5612.6
G1 E3.118
G1 F2500.0
G1 F78.0
G1 E0.065
G1 F2500.0
G1 X66.42 Y37.98 E0.179
G1 Y38.34 E0.011
G1 X62.01 Y34.02 E0.192
G1 X61.74 Y34.11 E0.009
G1 X75.9 Y48.3 E0.625
G1 X76.35 Y48.42 E0.015
G1 X67.2 Y39.18 E0.405
G1 X67.56 E0.011
G1 X77.04 Y48.6 E0.417
G1 X77.58 Y48.78 E0.018
G1 X68.04 Y39.18 E0.422
G1 F5612.6
G1 E-3.118
G1 F2500.0
G1 X66.54 Y35.13 F15000.0
G1 F5612.6
G1 E3.118
G1 F2500.0
G1 F78.0
G1 E0.065
G1 F2500.0
G1 X64.83 Y33.42 E0.075
G1 X65.16 Y33.36 E0.01
G1 X66.78 Y34.95 E0.071
G1 X67.08 Y34.89 E0.01
G1 X65.55 Y33.3 E0.069
G1 X65.91 Y33.24 E0.011
G1 X67.56 Y34.89 E0.073
G1 X67.92 E0.011
G1 X66.33 Y33.21 E0.072
G1 X66.6 Y33.15 E0.009
G1 X68.43 Y34.89 E0.079
G1 X68.76 E0.01
G1 X67.08 Y33.12 E0.076
G1 X67.38 Y33.06 E0.01
G1 X69.27 Y34.89 E0.082
G1 X69.63 E0.011
G1 X67.83 Y33.03 E0.081
G1 X68.16 Y33.0 E0.01
G1 X70.11 Y34.89 E0.085
G1 X70.47 E0.011
G1 X68.61 Y32.97 E0.083
G1 X68.94 Y32.94 E0.01
G1 X70.98 Y34.89 E0.088
G1 X71.31 E0.01
G1 X69.42 Y32.91 E0.085
G1 X69.75 E0.01
G1 X71.82 Y34.89 E0.089
G1 X72.18 E0.011
G1 X70.23 Y32.88 E0.087
G1 X70.59 E0.011
G1 X72.66 Y34.89 E0.09
G1 X73.02 E0.011
G1 X71.07 Y32.88 E0.087
G1 X71.43 E0.011
G1 X73.5 Y34.89 E0.09
G1 X73.86 E0.011
G1 X71.97 Y32.91 E0.085
G1 X72.3 E0.01
G1 X74.37 Y34.89 E0.089
G1 X74.7 E0.01
G1 X72.84 Y32.94 E0.084
G1 X73.23 Y32.97 E0.012
G1 X107.07 Y66.75 E1.491
G1 X107.01 Y66.33 E0.013
G1 X73.74 Y33.0 E1.468
G1 X74.13 Y33.03 E0.012
G1 X106.98 Y65.82 E1.447
G1 X106.95 Y65.43 E0.012
G1 X74.64 Y33.06 E1.426
G1 F5612.6
G1 E-3.118
G1 F2500.0
G1 X76.08 Y33.24 F15000.0
G1 F5612.6
G1 E3.118
G1 F2500.0
G1 F78.0
G1 E0.065
G1 F2500.0
G1 X106.77 Y63.99 E1.355
G1 X106.83 Y64.38 E0.012
G1 X75.54 Y33.18 E1.378
G1 X75.15 Y33.12 E0.012
G1 X106.89 Y64.89 E1.4
G1 F5612.6
G1 E-3.118
G1 F2500.0
G1 X106.68 Y63.42 F15000.0
G1 F5612.6
G1 E3.118
G1 F2500.0
G1 F78.0
G1 E0.065
G1 F2500.0
G1 X76.59 Y33.33 E1.327
G1 X77.04 Y33.39 E0.014
G1 X106.59 Y62.88 E1.302
G1 F5612.6
G1 E-3.118
G1 F2500.0
G1 X106.29 Y61.32 F15000.0
G1 F5612.6
G1 E3.118
G1 F2500.0
G1 F78.0
G1 E0.065
G1 F2500.0
G1 X78.6 Y33.69 E1.22
G1 X78.15 Y33.6 E0.014
G1 X106.44 Y61.95 E1.249
G1 X106.5 Y62.37 E0.013
G1 X77.64 Y33.51 E1.273
G1 F5612.6
G1 E-3.118
G1 F2500.0
G1 X84.15 Y35.37 F15000.0
G1 F5612.6
G1 E3.118
G1 F2500.0
G1 F78.0
G1 E0.065
G1 F2500.0
G1 X104.67 Y55.95 E0.906
G1 X104.88 Y56.49 E0.018
G1 X83.37 Y35.07 E0.947
G1 X82.86 Y34.89 E0.017
G1 X105.18 Y57.3 E0.986
G1 X105.36 Y57.84 E0.018
G1 X82.08 Y34.62 E1.025
G1 X81.54 Y34.44 E0.018
G1 X105.54 Y58.44 E1.058
G1 F5612.6
G1 E-3.118
G1 F2500.0
G1 X105.72 Y59.04 F15000.0
G1 F5612.6
G1 E3.118
G1 F2500.0
G1 F78.0
G1 E0.065
G1 F2500.0
G1 X80.88 Y34.26 E1.094
G1 X80.37 Y34.14 E0.016
G1 X105.9 Y59.67 E1.126
G1 X106.05 Y60.24 E0.018
G1 X79.71 Y33.96 E1.16
G1 X79.23 Y33.84 E0.015
G1 X106.17 Y60.78 E1.188
G1 F5612.6
G1 E-3.118
G1 F2500.0
G1 X104.34 Y55.14 F15000.0
G1 F5612.6
G1 E3.118
G1 F2500.0
G1 F78.0
G1 E0.065
G1 F2500.0
G1 X84.87 Y35.67 E0.859
G1 F5612.6
G1 E-3.118
G1 F2500.0
G1 X89.07 Y37.74 F15000.0
G1 F5612.6
G1 E3.118
G1 F2500.0
G1 F78.0
G1 E0.065
G1 F2500.0
G1 X102.36 Y51.09 E0.587
G1 X102.81 Y51.87 E0.028
G1 X87.99 Y37.14 E0.652
G1 X87.27 Y36.78 E0.025
G1 X103.32 Y52.89 E0.709
G1 X103.68 Y53.61 E0.025
G1 X86.31 Y36.3 E0.765
G1 X85.62 Y35.97 E0.024
G1 X104.04 Y54.39 E0.812
G1 F5612.6
G1 E-3.118
G1 F2500.0
G1 X101.67 Y49.92 F15000.0
G1 F5612.6
G1 E3.118
G1 F2500.0
G1 F78.0
G1 E0.065
G1 F2500.0
G1 X90.12 Y38.37 E0.509
G1 F5612.6
G1 E-3.118
G1 F2500.0
G1 X91.29 Y39.12 F15000.0
G1 F5612.6
G1 E3.118
G1 F2500.0
G1 F78.0
G1 E0.065
G1 F2500.0
G1 X100.83 Y48.66 E0.421
G1 F5612.6
G1 E-3.118
G1 F2500.0
G1 X99.75 Y47.13 F15000.0
G1 F5612.6
G1 E3.118
G1 F2500.0
G1 F78.0
G1 E0.065
G1 F2500.0
G1 X93.12 Y40.44 E0.294
G1 X95.37 Y42.33 E0.092
G1 F5612.6
G1 E-3.118
G1 F2500.0
G1 X87.84 Y56.01 F15000.0
G1 F5612.6
G1 E3.118
G1 F2500.0
G1 F78.0
G1 E0.065
G1 F2500.0
G1 X93.96 Y62.19 E0.271
G1 X93.93 Y62.52 E0.01
G1 X88.98 Y57.63 E0.217
G1 X89.49 Y58.53 E0.032
G1 X93.93 Y63.03 E0.197
G1 Y63.36 E0.01
G1 X90.06 Y59.58 E0.169
G1 X90.36 Y60.21 E0.022
G1 X93.93 Y63.87 E0.159
G1 Y64.23 E0.011
G1 X90.75 Y61.11 E0.139
G1 X90.99 Y61.71 E0.02
G1 X93.93 Y64.71 E0.131
G1 Y65.07 E0.011
G1 X91.17 Y62.31 E0.122
G1 F5612.6
G1 E-3.118
G1 F2500.0
G1 X91.38 Y62.94 F15000.0
G1 F5612.6
G1 E3.118
G1 F2500.0
G1 F78.0
G1 E0.065
G1 F2500.0
G1 X93.93 Y65.55 E0.114
G1 Y65.91 E0.011
G1 X91.59 Y63.66 E0.101
G1 X91.68 Y64.08 E0.013
G1 X93.93 Y66.42 E0.101
G1 Y66.75 E0.01
G1 X91.83 Y64.74 E0.091
G1 X91.92 Y65.19 E0.014
G1 X93.93 Y67.26 E0.09
G1 Y67.62 E0.011
G1 X92.04 Y65.79 E0.082
G1 X92.07 Y66.18 E0.012
G1 X93.93 Y68.1 E0.083
G1 Y68.46 E0.011
G1 X92.13 Y66.72 E0.078
G1 X92.16 Y67.11 E0.012
G1 X93.93 Y68.97 E0.08
G1 Y69.3 E0.01
G1 X92.22 Y67.68 E0.073
G1 X92.25 Y68.04 E0.011
G1 X93.93 Y69.81 E0.076
G1 Y70.17 E0.011
G1 X92.28 Y68.58 E0.071
G1 Y68.94 E0.011
G1 X93.93 Y70.65 E0.074
G1 Y71.01 E0.011
G1 X92.28 Y69.42 E0.071
G1 X92.25 Y69.75 E0.01
G1 X93.93 Y71.49 E0.075
G1 Y71.85 E0.011
G1 X92.22 Y70.23 E0.073
G1 X92.19 Y70.53 E0.009
G1 X93.93 Y72.36 E0.079
G1 Y72.69 E0.01
G1 X92.16 Y70.98 E0.077
G1 X92.13 Y71.34 E0.011
G1 X93.93 Y73.2 E0.081
G1 Y73.56 E0.011
G1 X92.07 Y71.73 E0.081
G1 X92.04 Y72.09 E0.011
G1 X93.93 Y74.04 E0.085
G1 Y74.4 E0.011
G1 X91.98 Y72.51 E0.085
G1 X91.92 Y72.81 E0.01
G1 X93.93 Y74.91 E0.091
G1 Y75.24 E0.01
G1 X91.83 Y73.2 E0.091
G1 X91.77 Y73.53 E0.01
G1 X93.93 Y75.75 E0.097
G1 Y76.11 E0.011
G1 X91.68 Y73.89 E0.099
G1 F5612.6
G1 E-3.118
G1 F2500.0
G1 X91.62 Y74.22 F15000.0
G1 F5612.6
G1 E3.118
G1 F2500.0
G1 F78.0
G1 E0.065
G1 F2500.0
G1 X93.93 Y76.59 E0.103
G1 Y76.95 E0.011
G1 X91.5 Y74.58 E0.106
G1 X91.44 Y74.88 E0.01
G1 X93.93 Y77.43 E0.111
G1 Y77.79 E0.011
G1 X91.32 Y75.27 E0.113
G1 X91.23 Y75.51 E0.008
G1 X97.83 Y82.17 E0.292
G1 X97.71 Y82.38 E0.008
G1 X91.11 Y75.9 E0.288
G1 X91.02 Y76.17 E0.009
G1 X97.53 Y82.68 E0.287
G1 F5612.6
G1 E-3.118
G1 F2500.0
G1 X97.05 Y83.46 F15000.0
G1 F5612.6
G1 E3.118
G1 F2500.0
G1 F78.0
G1 E0.065
G1 F2500.0
G1 X90.66 Y77.07 E0.282
G1 X90.78 Y76.83 E0.008
G1 X97.23 Y83.22 E0.283
G1 X97.35 Y82.98 E0.008
G1 X90.9 Y76.47 E0.286
G1 F5612.6
G1 E-3.118
G1 F2500.0
G1 X90.54 Y77.4 F15000.0
G1 F5612.6
G1 E3.118
G1 F2500.0
G1 F78.0
G1 E0.065
G1 F2500.0
G1 X96.9 Y83.79 E0.281
G1 X96.78 Y84.0 E0.008
G1 X90.39 Y77.73 E0.279
G1 X90.3 Y77.94 E0.007
G1 X96.57 Y84.33 E0.279
G1 X96.45 Y84.57 E0.008
G1 X90.12 Y78.3 E0.278
G1 X90.0 Y78.54 E0.008
G1 X96.27 Y84.81 E0.276
G1 X96.15 Y85.08 E0.009
G1 X89.85 Y78.84 E0.276
G1 X89.7 Y79.08 E0.009
G1 X96.0 Y85.35 E0.277
G1 F5612.6
G1 E-3.118
G1 F2500.0
G1 X95.22 Y86.7 F15000.0
G1 F5612.6
G1 E3.118
G1 F2500.0
G1 F78.0
G1 E0.065
G1 F2500.0
G1 X88.92 Y80.46 E0.276
G1 X88.77 Y80.7 E0.009
G1 X95.07 Y86.97 E0.277
G1 F5612.6
G1 E-3.118
G1 F2500.0
G1 X97.98 Y81.87 F15000.0
G1 F5612.6
G1 E3.118
G1 F2500.0
G1 F78.0
G1 E0.065
G1 F2500.0
G1 X94.68 Y78.54 E0.146
G1 X95.04 E0.011
G1 X98.16 Y81.6 E0.136
G1 X98.28 Y81.36 E0.008
G1 X95.52 Y78.54 E0.123
G1 X95.88 E0.011
G1 X98.46 Y81.06 E0.112
G1 X98.61 Y80.82 E0.009
G1 X96.36 Y78.54 E0.1
G1 X96.72 E0.011
G1 X98.79 Y80.52 E0.089
G1 X98.94 Y80.34 E0.007
G1 X97.2 Y78.54 E0.078
G1 F5612.6
G1 E-3.118
G1 F2500.0
G1 X99.24 Y80.16 F15000.0
G1 F5612.6
G1 E3.118
G1 F2500.0
G1 F78.0
G1 E0.065
G1 F2500.0
G1 X97.62 Y78.54 E0.071
G1 X98.01 E0.012
G1 X99.96 Y80.43 E0.085
G1 F5612.6
G1 E-3.118
G1 F2500.0
G1 X100.95 Y81.0 F15000.0
G1 F5612.6
G1 E3.118
G1 F2500.0
G1 F78.0
G1 E0.065
G1 F2500.0
G1 X98.49 Y78.54 E0.108
G1 X98.85 E0.011
G1 X101.94 Y81.57 E0.135
G1 F5612.6
G1 E-3.118
G1 F2500.0
G1 X102.15 Y87.27 F15000.0
G1 F5612.6
G1 E3.118
G1 F2500.0
G1 F78.0
G1 E0.065
G1 F2500.0
G1 X100.65 Y85.83 E0.065
G1 X100.5 Y86.07 E0.009
G1 X102.0 Y87.54 E0.065
G1 F5612.6
G1 E-3.118
G1 F2500.0
G1 X89.07 Y80.19 F15000.0
G1 F5612.6
G1 E3.118
G1 F2500.0
G1 F78.0
G1 E0.065
G1 F2500.0
G1 X95.37 Y86.43 E0.276
G1 X95.49 Y86.22 E0.008
G1 X89.25 Y79.89 E0.277
G1 X89.4 Y79.68 E0.008
G1 X95.67 Y85.89 E0.275
G1 X95.79 Y85.68 E0.008
G1 X89.55 Y79.38 E0.276
G1 F5612.6
G1 E-3.118
G1 F2500.0
G1 X77.4 Y89.28 F15000.0
G1 F5612.6
G1 E3.118
G1 F2500.0
G1 F78.0
G1 E0.065
G1 F2500.0
G1 X88.62 Y100.53 E0.495
G1 X88.38 Y100.65 E0.008
G1 X77.07 Y89.37 E0.498
G1 X76.77 Y89.49 E0.01
G1 X88.05 Y100.83 E0.499
G1 X87.81 Y100.95 E0.008
G1 X76.38 Y89.58 E0.503
G1 X76.11 Y89.67 E0.009
G1 X87.48 Y101.13 E0.503
G1 X87.27 Y101.22 E0.007
G1 X75.69 Y89.76 E0.508
G1 X75.42 Y89.82 E0.009
G1 X86.91 Y101.4 E0.509
G1 X86.7 Y101.52 E0.008
G1 X75.0 Y89.88 E0.515
G1 X74.7 Y89.97 E0.01
G1 X86.37 Y101.67 E0.515
G1 X86.13 Y101.79 E0.008
G1 X74.28 Y90.0 E0.521
G1 X73.98 Y90.09 E0.01
G1 X85.77 Y101.94 E0.521
G1 X85.53 Y102.06 E0.008
G1 X73.53 Y90.12 E0.528
G1 X73.2 Y90.15 E0.01
G1 X85.17 Y102.21 E0.53
G1 X84.93 Y102.3 E0.008
G1 X72.75 Y90.21 E0.535
G1 X72.45 Y90.24 E0.009
G1 X84.57 Y102.45 E0.536
G1 X84.33 Y102.57 E0.008
G1 X72.03 Y90.27 E0.542
G1 F5612.6
G1 E-3.118
G1 F2500.0
G1 X60.78 Y103.62 F15000.0
G1 F5612.6
G1 E3.118
G1 F2500.0
G1 F78.0
G1 E0.065
G1 F2500.0
G1 X45.93 Y88.77 E0.655
G1 X46.17 Y88.62 E0.009
G1 X61.38 Y103.8 E0.67
G1 X61.86 Y103.92 E0.015
G1 X46.47 Y88.47 E0.68
G1 X46.74 Y88.32 E0.01
G1 X62.55 Y104.1 E0.697
G1 X62.97 Y104.19 E0.013
G1 X47.01 Y88.11 E0.706
G1 X47.16 Y87.93 E0.007
G1 X63.63 Y104.34 E0.725
G1 X64.05 Y104.43 E0.013
G1 X47.22 Y87.54 E0.743
G1 X46.83 Y86.76 E0.027
G1 X64.68 Y104.55 E0.786
G1 X65.1 Y104.61 E0.013
G1 X46.11 Y85.56 E0.839
G1 F5612.6
G1 E-3.118
G1 F2500.0
G1 X42.66 Y88.05 F15000.0
G1 F5612.6
G1 E3.118
G1 F2500.0
G1 F78.0
G1 E0.065
G1 F2500.0
G1 X37.77 Y83.16 E0.216
G1 F5612.6
G1 E-3.118
G1 F2500.0
G1 X39.51 Y81.93 F15000.0
G1 F5612.6
G1 E3.118
G1 F2500.0
G1 F78.0
G1 E0.065
G1 F2500.0
G1 X36.18 Y78.6 E0.147
G1 X36.06 Y78.12 E0.015
G1 X39.75 Y81.75 E0.161
G1 X39.99 Y81.63 E0.008
G1 X35.88 Y77.43 E0.183
G1 X35.79 Y77.01 E0.013
G1 X40.32 Y81.42 E0.197
G1 X40.53 Y81.3 E0.008
G1 X35.64 Y76.38 E0.216
G1 F5612.6
G1 E-3.118
G1 F2500.0
G1 X36.36 Y79.2 F15000.0
G1 F5612.6
G1 E3.118
G1 F2500.0
G1 F78.0
G1 E0.065
G1 F2500.0
G1 X39.42 Y82.29 E0.136
G1 X39.48 Y82.62 E0.01
G1 X39.69 Y82.95 E0.012
G1 X36.57 Y79.89 E0.136
G1 X36.75 Y80.43 E0.018
G1 X40.26 Y83.97 E0.155
G1 F5612.6
G1 E-3.118
G1 F2500.0
G1 X38.94 Y85.62 F15000.0
G1 F5612.6
G1 E3.118
G1 F2500.0
G1 F78.0
G1 E0.065
G1 F2500.0
G1 X54.24 Y100.98 E0.676
G1 X53.49 Y100.56 E0.027
G1 X39.51 Y86.67 E0.614
G1 X39.96 Y87.45 E0.028
G1 X52.29 Y99.87 E0.546
G1 X51.33 Y99.27 E0.035
G1 X40.8 Y88.8 E0.463
G1 X41.55 Y89.91 E0.042
G1 X49.77 Y98.19 E0.364
G1 X48.42 Y97.2 E0.052
G1 X42.75 Y91.53 E0.25
G1 F5612.6
G1 E-3.118
G1 F2500.0
G1 X42.06 Y87.03 F15000.0
G1 F5612.6
G1 E3.118
G1 F2500.0
G1 F78.0
G1 E0.065
G1 F2500.0
G1 X37.5 Y82.47 E0.201
G1 X37.29 Y81.9 E0.019
G1 X41.43 Y85.95 E0.181
G1 X40.98 Y85.17 E0.028
G1 X36.96 Y81.09 E0.179
G1 F5612.6
G1 E-3.118
G1 F2500.0
G1 X40.83 Y81.15 F15000.0
G1 F5612.6
G1 E3.118
G1 F2500.0
G1 F78.0
G1 E0.065
G1 F2500.0
G1 X35.55 Y75.84 E0.233
G1 X35.43 Y75.36 E0.015
G1 X41.1 Y80.97 E0.249
G1 X41.34 Y80.85 E0.008
G1 X35.34 Y74.79 E0.266
G1 X35.28 Y74.37 E0.013
G1 X41.64 Y80.67 E0.279
G1 X41.88 Y80.52 E0.009
G1 X35.22 Y73.83 E0.294
G1 X35.13 Y73.32 E0.016
G1 X42.18 Y80.34 E0.31
G1 X42.39 Y80.22 E0.008
G1 X40.71 Y78.48 E0.075
G1 X35.1 Y72.84 E0.248
G1 X35.04 Y72.45 E0.012
G1 X40.32 Y77.64 E0.231
G1 Y77.28 E0.011
G1 X35.01 Y71.91 E0.235
G1 X34.98 Y71.52 E0.012
G1 X40.32 Y76.8 E0.234
G1 Y76.44 E0.011
G1 X34.92 Y70.98 E0.239
G1 Y70.62 E0.011
G1 X40.32 Y75.93 E0.236
G1 Y75.6 E0.01
G1 X34.92 Y70.11 E0.24
G1 X34.89 Y69.75 E0.011
G1 X40.32 Y75.09 E0.237
G1 Y74.76 E0.01
G1 X34.89 Y69.24 E0.241
G1 Y68.88 E0.011
G1 X40.32 Y74.25 E0.238
G1 Y73.89 E0.011
G1 X34.89 Y68.4 E0.241
G1 Y67.98 E0.013
G1 X40.32 Y73.41 E0.239
G1 Y73.05 E0.011
G1 X34.92 Y67.56 E0.24
G1 Y67.23 E0.01
G1 X40.32 Y72.54 E0.236
G1 Y72.21 E0.01
G1 X34.95 Y66.75 E0.239
G1 X34.98 Y66.45 E0.009
G1 X40.32 Y71.7 E0.234
G1 Y71.34 E0.011
G1 X35.01 Y65.97 E0.235
G1 X35.04 Y65.64 E0.01
G1 X40.32 Y70.86 E0.232
G1 Y70.5 E0.011
G1 X35.1 Y65.22 E0.232
G1 X35.13 Y64.89 E0.01
G1 X40.32 Y69.99 E0.227
G1 Y69.66 E0.01
G1 X35.19 Y64.44 E0.228
G1 Y64.11 E0.01
G1 X40.32 Y69.15 E0.224
G1 Y68.82 E0.01
G1 X35.28 Y63.66 E0.225
G1 X35.31 Y63.36 E0.009
G1 X40.32 Y68.31 E0.22
G1 Y67.95 E0.011
G1 X35.4 Y62.97 E0.218
G1 F5612.6
G1 E-3.118
G1 F2500.0
G1 X35.43 Y62.61 F15000.0
G1 F5612.6
G1 E3.118
G1 F2500.0
G1 F78.0
G1 E0.065
G1 F2500.0
G1 X40.32 Y67.47 E0.215
G1 Y67.11 E0.011
G1 X35.52 Y62.25 E0.213
G1 X35.58 Y61.89 E0.011
G1 X40.32 Y66.6 E0.208
G1 Y66.27 E0.01
G1 X35.67 Y61.56 E0.206
G1 X35.73 Y61.2 E0.011
G1 X40.32 Y65.76 E0.202
G1 Y65.4 E0.011
G1 X35.82 Y60.84 E0.2
G1 X35.88 Y60.54 E0.01
G1 X40.32 Y64.92 E0.194
G1 Y64.56 E0.011
G1 X36.0 Y60.18 E0.192
G1 X36.06 Y59.85 E0.01
G1 X40.32 Y64.05 E0.187
G1 Y63.72 E0.01
G1 X36.15 Y59.49 E0.185
G1 X36.24 Y59.19 E0.01
G1 X40.32 Y63.21 E0.179
G1 Y62.88 E0.01
G1 X36.36 Y58.86 E0.176
G1 X36.45 Y58.5 E0.012
G1 X40.32 Y62.37 E0.171
G1 X40.38 Y62.04 E0.01
G1 X36.54 Y58.17 E0.17
G1 X36.63 Y57.84 E0.011
G1 X40.56 Y61.74 E0.173
G1 X40.77 Y61.62 E0.008
G1 X36.75 Y57.54 E0.179
G1 X36.84 Y57.24 E0.01
G1 X41.25 Y61.59 E0.193
G1 X41.58 E0.01
G1 X36.96 Y56.91 E0.205
G1 X37.08 Y56.61 E0.01
G1 X42.09 Y61.59 E0.22
G1 X42.45 E0.011
G1 X37.2 Y56.28 E0.233
G1 X37.29 Y56.01 E0.009
G1 X42.93 Y61.59 E0.247
G1 X43.29 E0.011
G1 X37.44 Y55.68 E0.259
G1 X37.53 Y55.38 E0.01
G1 X43.8 Y61.59 E0.275
G1 X44.13 E0.01
G1 X37.68 Y55.08 E0.286
G1 F5612.6
G1 E-3.118
G1 F2500.0
G1 X37.8 Y54.78 F15000.0
G1 F5612.6
G1 E3.118
G1 F2500.0
G1 F78.0
G1 E0.065
G1 F2500.0
G1 X44.64 Y61.59 E0.301
G1 X44.97 E0.01
G1 X37.95 Y54.45 E0.312
G1 X38.04 Y54.21 E0.008
G1 X45.48 Y61.59 E0.327
G1 X45.84 E0.011
G1 X38.19 Y53.88 E0.339
G1 X38.31 Y53.61 E0.009
G1 X46.32 Y61.59 E0.353
G1 X46.68 E0.011
G1 X38.46 Y53.28 E0.364
G1 X38.58 Y53.07 E0.008
G1 X47.19 Y61.59 E0.378
G1 X47.52 E0.01
G1 X38.76 Y52.77 E0.388
G1 F5612.6
G1 E-3.118
G1 F2500.0
G1 X39.78 Y50.82 F15000.0
G1 F5612.6
G1 E3.118
G1 F2500.0
G1 F78.0
G1 E0.065
G1 F2500.0
G1 X50.91 Y62.01 E0.492
G1 X50.85 Y62.28 E0.009
G1 X39.63 Y51.12 E0.493
G1 X39.51 Y51.33 E0.008
G1 X50.73 Y62.67 E0.497
G1 X50.64 Y62.94 E0.009
G1 X39.33 Y51.66 E0.498
G1 X39.18 Y51.9 E0.009
G1 X50.52 Y63.24 E0.5
G1 X50.43 Y63.57 E0.011
G1 X39.03 Y52.23 E0.501
G1 X38.91 Y52.5 E0.009
G1 X50.34 Y63.93 E0.504
G1 X50.28 Y64.29 E0.011
G1 X48.06 Y62.13 E0.097
G1 X48.09 Y62.52 E0.012
G1 X50.19 Y64.68 E0.094
G1 X50.13 Y64.95 E0.009
G1 X48.09 Y63.0 E0.088
G1 Y63.36 E0.011
G1 X50.07 Y65.37 E0.088
G1 X50.01 Y65.7 E0.01
G1 X48.09 Y63.84 E0.083
G1 Y64.2 E0.011
G1 X49.95 Y66.09 E0.083
G1 X49.89 Y66.42 E0.01
G1 X48.09 Y64.71 E0.077
G1 Y65.04 E0.01
G1 X49.86 Y66.84 E0.079
G1 X49.8 Y67.2 E0.011
G1 X48.09 Y65.55 E0.074
G1 Y65.91 E0.011
G1 X49.8 Y67.62 E0.075
G1 X49.77 Y68.01 E0.012
G1 X48.09 Y66.39 E0.073
G1 Y66.75 E0.011
G1 X49.77 Y68.49 E0.075
G1 Y68.85 E0.011
G1 X48.09 Y67.23 E0.073
G1 Y67.59 E0.011
G1 X49.77 Y69.36 E0.076
G1 Y69.69 E0.01
G1 X48.09 Y68.1 E0.072
G1 Y68.43 E0.01
G1 X49.8 Y70.17 E0.076
G1 F5612.6
G1 E-3.118
G1 F2500.0
G1 X48.09 Y68.88 F15000.0
G1 F5612.6
G1 E3.118
G1 F2500.0
G1 F78.0
G1 E0.065
G1 F2500.0
G1 X49.8 Y70.65 E0.077
G1 X49.83 Y71.04 E0.012
G1 X48.09 Y69.36 E0.075
G1 Y69.72 E0.011
G1 X49.89 Y71.52 E0.079
G1 X49.95 Y72.0 E0.015
G1 X48.09 Y70.2 E0.081
G1 Y70.59 E0.012
G1 X50.04 Y72.54 E0.086
G1 F5612.6
G1 E-3.118
G1 F2500.0
G1 X50.13 Y73.05 F15000.0
G1 F5612.6
G1 E3.118
G1 F2500.0
G1 F78.0
G1 E0.065
G1 F2500.0
G1 X48.09 Y71.07 E0.089
G1 Y71.43 E0.011
G1 X50.25 Y73.65 E0.097
G1 X50.37 Y74.1 E0.015
G1 X48.09 Y71.91 E0.099
G1 Y72.27 E0.011
G1 X50.55 Y74.79 E0.11
G1 X50.7 Y75.3 E0.017
G1 X48.09 Y72.75 E0.114
G1 Y73.11 E0.011
G1 X50.94 Y76.02 E0.127
G1 X51.15 Y76.59 E0.019
G1 X48.09 Y73.62 E0.133
G1 Y73.95 E0.01
G1 X51.45 Y77.34 E0.149
G1 F5612.6
G1 E-3.118
G1 F2500.0
G1 X51.06 Y61.68 F15000.0
G1 F5612.6
G1 E3.118
G1 F2500.0
G1 F78.0
G1 E0.065
G1 F2500.0
G1 X39.96 Y50.55 E0.49
G1 X40.08 Y50.31 E0.008
G1 X51.18 Y61.35 E0.488
G1 X51.27 Y61.08 E0.009
G1 X40.29 Y50.01 E0.486
G1 X40.41 Y49.8 E0.008
G1 X51.42 Y60.75 E0.484
G1 X51.54 Y60.48 E0.009
G1 X40.62 Y49.53 E0.482
G1 F5612.6
G1 E-3.118
G1 F2500.0
G1 X41.46 Y48.24 F15000.0
G1 F5612.6
G1 E3.118
G1 F2500.0
G1 F78.0
G1 E0.065
G1 F2500.0
G1 X52.23 Y59.01 E0.475
G1 X52.35 Y58.77 E0.008
G1 X41.64 Y48.0 E0.474
G1 X41.79 Y47.73 E0.01
G1 X52.53 Y58.44 E0.473
G1 X52.68 Y58.23 E0.008
G1 X42.0 Y47.52 E0.472
G1 F5612.6
G1 E-3.118
G1 F2500.0
G1 X43.65 Y45.39 F15000.0
G1 F5612.6
G1 E3.118
G1 F2500.0
G1 F78.0
G1 E0.065
G1 F2500.0
G1 X54.24 Y55.92 E0.466
G1 X54.42 Y55.71 E0.009
G1 X43.89 Y45.12 E0.466
G1 X44.07 Y44.94 E0.008
G1 X54.63 Y55.44 E0.464
G1 X54.78 Y55.26 E0.007
G1 X44.28 Y44.7 E0.464
G1 X44.46 Y44.49 E0.009
G1 X55.02 Y54.99 E0.464
G1 X55.17 Y54.81 E0.007
G1 X44.7 Y44.25 E0.464
G1 X44.85 Y44.07 E0.007
G1 X55.44 Y54.54 E0.464
G1 X55.59 Y54.36 E0.007
G1 X45.12 Y43.8 E0.464
G1 X45.3 Y43.62 E0.008
G1 X55.83 Y54.12 E0.464
G1 X56.01 Y53.94 E0.008
G1 X45.51 Y43.38 E0.464
G1 X45.75 Y43.2 E0.009
G1 X56.25 Y53.7 E0.463
G1 X56.43 Y53.52 E0.008
G1 X45.96 Y42.96 E0.464
G1 X46.14 Y42.78 E0.008
G1 X56.7 Y53.28 E0.464
G1 X56.88 Y53.1 E0.008
G1 X46.38 Y42.57 E0.464
G1 F5612.6
G1 E-3.118
G1 F2500.0
G1 X51.93 Y38.34 F15000.0
G1 F5612.6
G1 E3.118
G1 F2500.0
G1 F78.0
G1 E0.065
G1 F2500.0
G1 X62.88 Y49.35 E0.484
G1 X62.61 Y49.44 E0.009
G1 X51.66 Y38.52 E0.482
G1 X51.39 Y38.67 E0.01
G1 X62.28 Y49.59 E0.481
G1 X62.04 Y49.71 E0.008
G1 X51.12 Y38.85 E0.48
G1 X50.91 Y39.0 E0.008
G1 X61.71 Y49.89 E0.478
G1 X61.47 Y50.01 E0.008
G1 X50.64 Y39.18 E0.478
G1 X50.4 Y39.36 E0.009
G1 X61.14 Y50.16 E0.475
G1 X60.9 Y50.28 E0.008
G1 X50.16 Y39.54 E0.474
G1 X49.89 Y39.72 E0.01
G1 X60.57 Y50.46 E0.472
G1 X60.39 Y50.58 E0.007
G1 X49.62 Y39.9 E0.473
G1 X49.41 Y40.08 E0.009
G1 X60.06 Y50.76 E0.47
G1 X59.82 Y50.91 E0.009
G1 X49.14 Y40.26 E0.47
G1 X48.93 Y40.44 E0.009
G1 X59.55 Y51.09 E0.469
G1 X59.31 Y51.24 E0.009
G1 X48.66 Y40.62 E0.469
G1 X48.45 Y40.8 E0.009
G1 X59.04 Y51.42 E0.468
G1 X58.8 Y51.57 E0.009
G1 X48.21 Y41.01 E0.466
G1 X47.97 Y41.19 E0.009
G1 X58.53 Y51.78 E0.466
G1 X58.32 Y51.93 E0.008
G1 X47.7 Y41.4 E0.466
G1 X47.52 Y41.55 E0.007
G1 X58.05 Y52.14 E0.466
G1 X57.84 Y52.29 E0.008
G1 X47.25 Y41.76 E0.466
G1 X47.07 Y41.94 E0.008
G1 X57.57 Y52.5 E0.464
G1 X57.39 Y52.68 E0.008
G1 X46.8 Y42.18 E0.465
G1 X46.62 Y42.36 E0.008
G1 X57.12 Y52.92 E0.464
G1 F5612.6
G1 E-3.118
G1 F2500.0
G1 X54.03 Y56.16 F15000.0
G1 F5612.6
G1 E3.118
G1 F2500.0
G1 F78.0
G1 E0.065
G1 F2500.0
G1 X43.47 Y45.63 E0.465
G1 X43.29 Y45.84 E0.009
G1 X53.85 Y56.43 E0.466
G1 X53.67 Y56.64 E0.009
G1 X43.08 Y46.08 E0.466
G1 X42.9 Y46.29 E0.009
G1 X53.49 Y56.94 E0.468
G1 X53.34 Y57.15 E0.008
G1 X42.69 Y46.56 E0.468
G1 X42.54 Y46.77 E0.008
G1 X53.16 Y57.45 E0.47
G1 X53.04 Y57.66 E0.008
G1 X42.33 Y47.04 E0.47
G1 X42.18 Y47.25 E0.008
G1 X52.83 Y57.93 E0.47
G1 F5612.6
G1 E-3.118
G1 F2500.0
G1 X52.11 Y59.28 F15000.0
G1 F5612.6
G1 E3.118
G1 F2500.0
G1 F78.0
G1 E0.065
G1 F2500.0
G1 X41.25 Y48.51 E0.477
G1 X41.1 Y48.75 E0.009
G1 X51.93 Y59.61 E0.478
G1 X51.81 Y59.85 E0.008
G1 X40.92 Y49.02 E0.479
G1 X40.77 Y49.23 E0.008
G1 X51.66 Y60.15 E0.481
G1 F5612.6
G1 E-3.118
G1 F2500.0
G1 X63.21 Y49.2 F15000.0
G1 F5612.6
G1 E3.118
G1 F2500.0
G1 F78.0
G1 E0.065
G1 F2500.0
G1 X52.2 Y38.16 E0.486
G1 X52.41 Y38.04 E0.008
G1 X63.54 Y49.08 E0.489
G1 X63.78 Y48.99 E0.008
G1 X52.71 Y37.86 E0.489
G1 X52.98 Y37.71 E0.01
G1 X64.17 Y48.87 E0.493
G1 X64.41 Y48.78 E0.008
G1 X53.25 Y37.56 E0.493
G1 X53.49 Y37.41 E0.009
G1 X64.8 Y48.63 E0.497
G1 X65.07 Y48.57 E0.009
G1 X53.82 Y37.23 E0.498
G1 X54.06 Y37.11 E0.008
G1 X65.46 Y48.45 E0.501
G1 X65.73 Y48.39 E0.009
G1 X54.36 Y36.96 E0.503
G1 X54.6 Y36.84 E0.008
G1 X66.12 Y48.3 E0.507
G1 X66.42 Y48.24 E0.01
G1 X54.93 Y36.66 E0.509
G1 X55.17 Y36.54 E0.008
G1 X66.84 Y48.15 E0.513
G1 X67.11 Y48.09 E0.009
G1 X55.5 Y36.39 E0.514
G1 X55.74 Y36.27 E0.008
G1 X67.53 Y48.0 E0.519
G1 X67.86 Y47.97 E0.01
G1 X56.07 Y36.12 E0.521
G1 X56.34 Y36.0 E0.009
G1 X68.28 Y47.91 E0.526
G1 X68.61 Y47.88 E0.01
G1 X56.67 Y35.88 E0.528
G1 F5612.6
G1 E-3.118
G1 F2500.0
G1 X62.7 Y33.84 F15000.0
G1 F5612.6
G1 E3.118
G1 F2500.0
G1 F78.0
G1 E0.065
G1 F2500.0
G1 X66.42 Y37.56 E0.164
G1 Y37.2 E0.011
G1 X63.06 Y33.78 E0.149
G1 X63.39 Y33.69 E0.011
G1 X66.42 Y36.72 E0.134
G1 Y36.36 E0.011
G1 X63.75 Y33.63 E0.119
G1 X64.11 Y33.57 E0.011
G1 X66.42 Y35.85 E0.101
G1 X66.45 Y35.52 E0.01
G1 X64.44 Y33.48 E0.089
G1 F5612.6
G1 E-3.118
G1 F2500.0
G1 X55.26 Y101.49 F15000.0
G1 F5612.6
G1 E3.118
G1 F2500.0
G1 F78.0
G1 E0.065
G1 F2500.0
G1 X38.46 Y84.69 E0.741
G1 X38.19 Y84.06 E0.021
G1 X43.23 Y89.07 E0.222
G1 X43.62 Y89.64 E0.022
G1 X43.92 Y89.79 E0.01
G1 X56.04 Y101.85 E0.533
G1 X56.7 Y102.15 E0.023
G1 X44.31 Y89.7 E0.548
G1 X44.55 Y89.55 E0.009
G1 X57.51 Y102.48 E0.571
G1 X58.11 Y102.72 E0.02
G1 X44.85 Y89.4 E0.586
G1 X45.12 Y89.25 E0.01
G1 X58.95 Y103.05 E0.609
G1 X59.46 Y103.23 E0.017
G1 X45.36 Y89.07 E0.623
G1 X45.63 Y88.92 E0.01
G1 X60.18 Y103.44 E0.641
G1 F5612.6
G1 E-3.118
G1 F2500.0
G1 X68.64 Y76.2 F15000.0
G1 F5612.6
G1 E3.118
G1 F2500.0
G1 F78.0
G1 E0.065
G1 F2500.0
G1 X77.85 Y76.23 E0.287 F2250.0
G1 Y83.82 E0.237
G1 X68.64 Y83.79 E0.287
G1 Y76.2 E0.237
G1 X68.94 Y76.5 E0.013
G1 X77.55 Y76.53 E0.268
G1 Y83.52 E0.218
G1 X68.94 Y83.49 E0.268
G1 Y76.5 E0.218
G1 F5612.6
G1 E-3.118
G1 F2500.0
G1 X68.64 Y76.2
G1 X69.42 Y83.43 F15000.0
G1 F5612.6
G1 E3.118
G1 F2500.0
G1 F78.0
G1 E0.065
G1 F2500.0
G1 X69.03 Y83.01 E0.018
G1 Y82.68 E0.01
G1 X69.87 Y83.43 E0.035
G1 X70.23 E0.011
G1 X69.03 Y82.17 E0.054
G1 Y81.81 E0.011
G1 X70.71 Y83.43 E0.073
G1 X71.07 E0.011
G1 X69.03 Y81.33 E0.091
G1 Y80.97 E0.011
G1 X71.58 Y83.43 E0.11
G1 X71.91 E0.01
G1 X69.03 Y80.46 E0.129
G1 Y80.13 E0.01
G1 X72.42 Y83.43 E0.148
G1 X72.75 E0.01
G1 X69.03 Y79.62 E0.166
G1 Y79.26 E0.011
G1 X73.26 Y83.43 E0.185
G1 X73.62 E0.011
G1 X69.03 Y78.78 E0.204
G1 Y78.42 E0.011
G1 X74.1 Y83.43 E0.222
G1 X74.46 E0.011
G1 X69.03 Y77.91 E0.241
G1 Y77.58 E0.01
G1 X74.97 Y83.43 E0.26
G1 X75.3 E0.01
G1 X69.03 Y77.07 E0.278
G1 Y76.74 E0.01
G1 X75.81 Y83.43 E0.297
G1 X76.17 E0.011
G1 X69.39 Y76.59 E0.3
G1 X69.75 E0.011
G1 X76.65 Y83.43 E0.303
G1 X77.01 E0.011
G1 X70.23 Y76.59 E0.3
G1 X70.59 E0.011
G1 X77.46 Y83.37 E0.301
G1 Y83.04 E0.01
G1 X71.1 Y76.59 E0.282
G1 X71.43 E0.01
G1 X77.46 Y82.53 E0.264
G1 Y82.2 E0.01
G1 X71.94 Y76.59 E0.245
G1 X72.3 E0.011
G1 X77.46 Y81.69 E0.226
G1 Y81.33 E0.011
G1 X72.78 Y76.59 E0.208
G1 X73.14 E0.011
G1 X77.46 Y80.85 E0.189
G1 Y80.49 E0.011
G1 X73.65 Y76.59 E0.17
G1 X73.98 E0.01
G1 X77.46 Y79.98 E0.151
G1 Y79.65 E0.01
G1 X74.49 Y76.59 E0.133
G1 X74.82 E0.01
G1 X77.46 Y79.14 E0.114
G1 Y78.78 E0.011
G1 X75.33 Y76.59 E0.095
G1 X75.69 E0.011
G1 X77.46 Y78.3 E0.077
G1 Y77.94 E0.011
G1 X76.17 Y76.59 E0.058
G1 X76.53 E0.011
G1 X77.46 Y77.46 E0.04
G1 Y77.1 E0.011
G1 X77.01 Y76.59 E0.021
G1 F5612.6
G1 E-3.118
G1 F2500.0
G1 X66.33 Y54.18 F15000.0
G1 F5612.6
G1 E3.118
G1 F2500.0
G1 F78.0
G1 E0.065
G1 F2500.0
G1 X75.54 Y54.21 E0.287 F2250.0
G1 Y61.8 E0.237
G1 X66.33 Y61.77 E0.287
G1 Y54.18 E0.237
G1 X66.63 Y54.48 E0.013
G1 X75.24 Y54.51 E0.268
G1 Y61.5 E0.218
G1 X66.63 Y61.47 E0.268
G1 Y54.48 E0.218
G1 F5612.6
G1 E-3.118
G1 F2500.0
G1 X66.33 Y54.18
G1 X66.72 Y61.2 F15000.0
G1 F5612.6
G1 E3.118
G1 F2500.0
G1 F78.0
G1 E0.065
G1 F2500.0
G1 X66.93 Y61.41 E0.009
G1 X67.29 E0.011
G1 X66.72 Y60.78 E0.026
G1 Y60.42 E0.011
G1 X67.8 Y61.41 E0.046
G1 X68.13 E0.01
G1 X66.72 Y59.91 E0.064
G1 Y59.58 E0.01
G1 X68.64 Y61.41 E0.083
G1 X69.0 E0.011
G1 X66.72 Y59.07 E0.102
G1 Y58.71 E0.011
G1 X69.48 Y61.41 E0.12
G1 X69.84 E0.011
G1 X66.72 Y58.23 E0.139
G1 Y57.87 E0.011
G1 X70.32 Y61.41 E0.157
G1 X70.68 E0.011
G1 X66.72 Y57.36 E0.177
G1 Y57.03 E0.01
G1 X71.19 Y61.41 E0.195
G1 X71.52 E0.01
G1 X66.72 Y56.52 E0.214
G1 Y56.16 E0.011
G1 X72.03 Y61.41 E0.233
G1 X72.39 E0.011
G1 X66.72 Y55.68 E0.251
G1 Y55.32 E0.011
G1 X72.87 Y61.41 E0.27
G1 X73.23 E0.011
G1 X66.72 Y54.84 E0.288
G1 Y54.6 E0.007
G1 X66.81 Y54.57 E0.003
G1 X73.74 Y61.41 E0.304
G1 X74.07 E0.01
G1 X67.32 Y54.57 E0.3
G1 X67.65 E0.01
G1 X74.58 Y61.41 E0.304
G1 X74.94 E0.011
G1 X68.16 Y54.57 E0.3
G1 X68.52 E0.011
G1 X75.15 Y61.14 E0.291
G1 Y60.78 E0.011
G1 X69.0 Y54.57 E0.273
G1 X69.36 E0.011
G1 X75.15 Y60.3 E0.254
G1 Y59.94 E0.011
G1 X69.87 Y54.57 E0.235
G1 X70.2 E0.01
G1 X75.15 Y59.43 E0.216
G1 Y59.1 E0.01
G1 X70.71 Y54.57 E0.198
G1 X71.07 E0.011
G1 X75.15 Y58.59 E0.179
G1 Y58.23 E0.011
G1 X71.55 Y54.57 E0.16
G1 X71.91 E0.011
G1 X75.15 Y57.75 E0.142
G1 Y57.39 E0.011
G1 X72.39 Y54.57 E0.123
G1 X72.75 E0.011
G1 X75.15 Y56.88 E0.104
G1 Y56.55 E0.01
G1 X73.26 Y54.57 E0.085
G1 X73.59 E0.01
G1 X75.15 Y56.04 E0.067
G1 Y55.68 E0.011
G1 X74.1 Y54.57 E0.048
G1 X74.46 E0.011
G1 X75.15 Y55.2 E0.029
G1 Y54.84 E0.011
G1 X74.94 Y54.57 E0.011
G1 F5612.6
G1 E-3.118
G1 F2500.0
G1 X69.45 Y65.19 F15000.0
G1 F5612.6
G1 E3.118
G1 F2500.0
G1 F78.0
G1 E0.065
G1 F2500.0
G1 X78.66 Y65.22 E0.287 F2250.0
G1 Y72.81 E0.237
G1 X69.45 Y72.78 E0.287
G1 Y65.19 E0.237
G1 X69.75 Y65.49 E0.013
G1 X78.36 Y65.52 E0.268
G1 Y72.51 E0.218
G1 X69.75 Y72.48 E0.268
G1 Y65.49 E0.218
G1 F5612.6
G1 E-3.118
G1 F2500.0
G1 X69.45 Y65.19
G1 X69.84 Y72.39 F15000.0
G1 F5612.6
G1 E3.118
G1 F2500.0
G1 F78.0
G1 E0.065
G1 F2500.0
G1 X70.26 Y72.42 E0.013
G1 X69.84 Y71.94 E0.02
G1 Y71.61 E0.01
G1 X70.74 Y72.42 E0.038
G1 X71.1 E0.011
G1 X69.84 Y71.1 E0.057
G1 Y70.74 E0.011
G1 X71.58 Y72.42 E0.075
G1 X71.94 E0.011
G1 X69.84 Y70.26 E0.094
G1 Y69.9 E0.011
G1 X72.42 Y72.42 E0.112
G1 X72.78 E0.011
G1 X69.84 Y69.39 E0.132
G1 Y69.06 E0.01
G1 X73.29 Y72.42 E0.15
G1 X73.62 E0.01
G1 X69.84 Y68.55 E0.169
G1 Y68.19 E0.011
G1 X74.13 Y72.42 E0.188
G1 X74.49 E0.011
G1 X69.84 Y67.71 E0.206
G1 Y67.35 E0.011
G1 X74.97 Y72.42 E0.225
G1 X75.33 E0.011
G1 X69.84 Y66.87 E0.243
G1 Y66.51 E0.011
G1 X75.84 Y72.42 E0.263
G1 X76.17 E0.01
G1 X69.84 Y66.03 E0.28
G1 Y65.61 E0.013
G1 X76.68 Y72.42 E0.301
G1 X77.04 E0.011
G1 X70.26 Y65.58 E0.3
G1 X70.62 E0.011
G1 X77.52 Y72.42 E0.303
G1 X77.88 E0.011
G1 X71.1 Y65.58 E0.3
G1 X71.46 E0.011
G1 X78.27 Y72.33 E0.299
G1 Y71.97 E0.011
G1 X71.97 Y65.58 E0.28
G1 X72.3 E0.01
G1 X78.27 Y71.46 E0.261
G1 Y71.13 E0.01
G1 X72.81 Y65.58 E0.243
G1 X73.17 E0.011
G1 X78.27 Y70.62 E0.224
G1 Y70.26 E0.011
G1 X73.65 Y65.58 E0.205
G1 X74.01 E0.011
G1 X78.27 Y69.78 E0.187
G1 Y69.42 E0.011
G1 X74.49 Y65.58 E0.168
G1 X74.85 E0.011
G1 X78.27 Y68.91 E0.149
G1 Y68.58 E0.01
G1 X75.36 Y65.58 E0.13
G1 X75.69 E0.01
G1 X78.27 Y68.07 E0.112
G1 Y67.71 E0.011
G1 X76.2 Y65.58 E0.093
G1 X76.56 E0.011
G1 X78.27 Y67.23 E0.074
G1 Y66.87 E0.011
G1 X77.04 Y65.58 E0.056
G1 X77.4 E0.011
G1 X78.27 Y66.39 E0.037
G1 Y66.03 E0.011
G1 X77.88 Y65.58 E0.019
G1 F5612.6
G1 E-3.118
G1 F2500.0
;#!LAYER: 3/12
G92 E0
G1 Z0.75 F200.0
G1 X66.96 Y35.28 F15000.0
T0
G1 F5612.6
G1 E3.118
G1 F2500.0
G1 F78.0
G1 E0.065
G1 F2500.0
G1 X66.84 Y35.52 E0.008 F2250.0
G1 X66.81 Y38.58 E0.095
G1 X66.9 Y38.73 E0.005
G1 X67.11 Y38.79 E0.007
G1 X75.03 E0.247
G1 X75.18 Y38.52 E0.01
G1 X75.12 Y35.43 E0.096
G1 X75.06 Y35.31 E0.004
G1 X66.96 Y35.28 E0.253
G1 X66.9 Y35.01 E0.009
G1 X66.63 Y35.19 E0.01
G1 X66.54 Y38.67 E0.109
G1 X66.66 Y38.91 E0.008
G1 X66.81 Y39.03 E0.006
G1 X67.14 Y39.09 E0.01
G1 X75.06 E0.247
G1 X75.36 Y38.88 E0.011
G1 X75.45 Y38.61 E0.009
G1 X75.39 Y35.25 E0.105
G1 X75.24 Y35.07 E0.007
G1 X75.03 Y34.98 E0.007
G1 X66.9 Y35.01 E0.254
G1 F5612.6
G1 E-3.118
G1 F2500.0
G1 X66.96 Y35.28
G1 X73.35 Y32.61 F15000.0
G1 F5612.6
G1 E3.118
G1 F2500.0
G1 F78.0
G1 E0.065
G1 F2500.0
G1 X74.76 Y32.7 E0.044 F2250.0
G1 X76.26 Y32.88 E0.047
G1 X78.48 Y33.3 E0.07
G1 X80.46 Y33.75 E0.063
G1 X83.76 Y34.8 E0.108
G1 X86.61 Y36.0 E0.096
G1 X88.71 Y37.08 E0.074
G1 X92.01 Y39.18 E0.122
G1 X94.2 Y40.8 E0.085
G1 X95.85 Y42.24 E0.068
G1 X98.61 Y45.09 E0.124
G1 X100.62 Y47.64 E0.101
G1 X102.66 Y50.85 E0.119
G1 X103.68 Y52.74 E0.067
G1 X105.0 Y55.65 E0.1
G1 X106.02 Y58.68 E0.1
G1 X106.5 Y60.45 E0.057
G1 X107.1 Y63.51 E0.097
G1 X107.34 Y65.34 E0.058
G1 X107.49 Y67.59 E0.07
G1 X107.46 Y70.89 E0.103
G1 X107.16 Y74.1 E0.101
G1 X106.68 Y76.65 E0.081
G1 X106.23 Y78.63 E0.063
G1 X105.45 Y81.09 E0.08
G1 X104.7 Y83.07 E0.066
G1 X103.74 Y85.14 E0.071
G1 X102.63 Y87.24 E0.074
G1 X101.16 Y89.52 E0.085
G1 X99.39 Y91.95 E0.094
G1 X97.02 Y94.62 E0.111
G1 X94.98 Y96.54 E0.087
G1 X92.25 Y98.67 E0.108
G1 X90.36 Y99.93 E0.071
G1 X88.86 Y100.83 E0.055
G1 X86.97 Y101.82 E0.067
G1 X84.84 Y102.78 E0.073
G1 X81.51 Y103.95 E0.11
G1 X78.6 Y104.7 E0.094
G1 X75.93 Y105.15 E0.084
G1 X73.92 Y105.39 E0.063
G1 X70.95 Y105.51 E0.093
G1 X67.5 Y105.33 E0.108
G1 X63.81 Y104.79 E0.116
G1 X60.69 Y104.01 E0.1
G1 X59.04 Y103.5 E0.054
G1 X56.52 Y102.51 E0.084
G1 X53.22 Y100.86 E0.115
G1 X50.79 Y99.39 E0.089
G1 X48.39 Y97.65 E0.092
G1 X45.69 Y95.31 E0.111
G1 X44.19 Y93.75 E0.067
G1 X41.97 Y91.17 E0.106
