;(.../Electronics/Eagle/pcb-gcode/pcb-gcode.ulp)
;(Copyright 2005 - 2012 by John Johnson)
;(See readme.txt for licensing terms.)
;(This file generated from the board:)
;(.../Electronics/Eagle/Opto/toslink-shield.brd)
;(Current profile is .../pcb-gcode/profiles/generic.pp  )
;(This file generated 26/05/2016 15:56)
;(Settings from pcb-machine.h)
;(spindle on time = 1000.0000)
;(  Tool Size)
;(0.1778 )
;(spindle speed = 30000.0000)
;(tool change at 0.0000 0.0000 5.0000 )
;(feed rate xy = F500.00 )
;(feed rate z  = F200.00 )
;(Z Axis Settings)
;(  High     Up        Down     Drill)
;(5.0000 	2.0000 	-0.2000 	-2.0000 )
;(Settings from pcb-defaults.h)
;(isolate min = 0.0250)
;(isolate max = 0.5000)
;(isolate step = 0.1200)
;(Generated bottom outlines, bottom drill, )
;(Unit of measure: mm)
;(Metric Mode)
G21
;(Absolute Coordinates)
G90
;S30000
G00 Z5.0000  F3000
G00 X0.0000 Y0.0000  F3000
;M03 S1
G04 P1000.000000
G00 Z2.0000  F3000
G00 X-1.0925 Y1.1515  F3000
G01 Z-0.2000 F200.00 
G01 X-1.1515 Y1.0925 F500.00 
G01 X-1.2238 Y1.0507 
G01 X-1.3044 Y1.0291 
G01 X-66.6405 Y1.0291 
G01 X-66.7212 Y1.0507 
G01 X-66.7935 Y1.0925 
G01 X-66.8525 Y1.1515 
G01 X-66.8943 Y1.2238 
G01 X-66.9159 Y1.3044 
G01 X-66.9159 Y55.2105 
G01 X-66.8943 Y55.2912 
G01 X-66.8525 Y55.3635 
G01 X-66.7935 Y55.4225 
G01 X-66.7212 Y55.4643 
G01 X-66.6405 Y55.4859 
G01 X-56.4616 Y55.4859 
G01 X-56.4408 Y55.4886 
G01 X-56.4200 Y55.4859 
G01 X-56.3990 Y55.4859 
G01 X-56.3788 Y55.4805 
G01 X-56.3580 Y55.4777 
G01 X-56.3386 Y55.4697 
G01 X-56.3184 Y55.4643 
G01 X-56.3002 Y55.4538 
G01 X-56.2809 Y55.4458 
G01 X-56.2642 Y55.4330 
G01 X-56.2461 Y55.4225 
G01 X-56.2312 Y55.4077 
G01 X-56.2146 Y55.3950 
G01 X-56.2019 Y55.3783 
G01 X-56.1870 Y55.3635 
G01 X-56.1765 Y55.3453 
G01 X-56.1638 Y55.3287 
G01 X-56.1558 Y55.3094 
G01 X-56.1453 Y55.2912 
G01 X-56.1399 Y55.2709 
G01 X-56.1318 Y55.2516 
G01 X-56.1291 Y55.2308 
G01 X-56.1237 Y55.2105 
G01 X-56.1237 Y55.1896 
G01 X-56.1209 Y55.1688 
G01 X-56.1237 Y55.1480 
G01 X-56.1237 Y55.1270 
G01 X-56.1291 Y55.1068 
G01 X-56.1318 Y55.0860 
G01 X-56.1399 Y55.0667 
G01 X-56.1453 Y55.0464 
G01 X-56.1558 Y55.0282 
G01 X-56.1979 Y54.9265 
G01 X-56.1979 Y53.0235 
G01 X-56.0528 Y52.6732 
G01 X-55.7848 Y52.4052 
G01 X-55.4345 Y52.2601 
G01 X-55.0555 Y52.2601 
G01 X-54.7052 Y52.4052 
G01 X-54.4372 Y52.6732 
G01 X-54.2921 Y53.0235 
G01 X-54.2921 Y54.9265 
G01 X-54.3342 Y55.0282 
G01 X-54.3447 Y55.0464 
G01 X-54.3501 Y55.0667 
G01 X-54.3582 Y55.0860 
G01 X-54.3609 Y55.1068 
G01 X-54.3663 Y55.1270 
G01 X-54.3663 Y55.1480 
G01 X-54.3691 Y55.1688 
G01 X-54.3663 Y55.1896 
G01 X-54.3663 Y55.2105 
G01 X-54.3609 Y55.2308 
G01 X-54.3582 Y55.2516 
G01 X-54.3501 Y55.2709 
G01 X-54.3447 Y55.2912 
G01 X-54.3342 Y55.3094 
G01 X-54.3262 Y55.3287 
G01 X-54.3135 Y55.3453 
G01 X-54.3030 Y55.3635 
G01 X-54.2881 Y55.3783 
G01 X-54.2754 Y55.3950 
G01 X-54.2588 Y55.4077 
G01 X-54.2439 Y55.4225 
G01 X-54.2258 Y55.4330 
G01 X-54.2091 Y55.4458 
G01 X-54.1898 Y55.4538 
G01 X-54.1716 Y55.4643 
G01 X-54.1514 Y55.4697 
G01 X-54.1320 Y55.4777 
G01 X-54.1112 Y55.4805 
G01 X-54.0910 Y55.4859 
G01 X-54.0700 Y55.4859 
G01 X-54.0492 Y55.4886 
G01 X-54.0284 Y55.4859 
G01 X-53.9216 Y55.4859 
G01 X-53.9008 Y55.4886 
G01 X-53.8800 Y55.4859 
G01 X-53.8590 Y55.4859 
G01 X-53.8388 Y55.4805 
G01 X-53.8180 Y55.4777 
G01 X-53.7986 Y55.4697 
G01 X-53.7784 Y55.4643 
G01 X-53.7602 Y55.4538 
G01 X-53.7409 Y55.4458 
G01 X-53.7242 Y55.4330 
G01 X-53.7061 Y55.4225 
G01 X-53.6912 Y55.4077 
G01 X-53.6746 Y55.3950 
G01 X-53.6619 Y55.3783 
G01 X-53.6470 Y55.3635 
G01 X-53.6365 Y55.3453 
G01 X-53.6238 Y55.3287 
G01 X-53.6158 Y55.3094 
G01 X-53.6053 Y55.2912 
G01 X-53.5999 Y55.2709 
G01 X-53.5918 Y55.2516 
G01 X-53.5891 Y55.2308 
G01 X-53.5837 Y55.2105 
G01 X-53.5837 Y55.1896 
G01 X-53.5809 Y55.1688 
G01 X-53.5837 Y55.1480 
G01 X-53.5837 Y55.1270 
G01 X-53.5891 Y55.1068 
G01 X-53.5918 Y55.0860 
G01 X-53.5999 Y55.0667 
G01 X-53.6053 Y55.0464 
G01 X-53.6158 Y55.0282 
G01 X-53.6579 Y54.9265 
G01 X-53.6579 Y53.0235 
G01 X-53.5128 Y52.6732 
G01 X-53.2448 Y52.4052 
G01 X-52.8945 Y52.2601 
G01 X-52.5155 Y52.2601 
G01 X-52.1652 Y52.4052 
G01 X-52.1377 Y52.4327 
G01 X-52.1057 Y52.4511 
G01 X-52.0654 Y52.4744 
G01 X-52.0284 Y52.4843 
G01 X-51.9848 Y52.4960 
G01 X-51.9012 Y52.4960 
G01 X-51.8338 Y52.4780 
G01 X-51.8206 Y52.4744 
G01 X-51.7686 Y52.4444 
G01 X-51.7483 Y52.4327 
G01 X-51.7192 Y52.4036 
G01 X-51.6893 Y52.3737 
G01 X-51.6708 Y52.3417 
G01 X-51.6475 Y52.3014 
G01 X-51.6376 Y52.2644 
G01 X-51.6259 Y52.2207 
G01 X-51.6259 Y50.0859 
G01 X-51.5141 Y49.9741 
G01 X-51.4465 Y49.9741 
G01 X-51.4200 Y49.9670 
G01 X-51.3658 Y49.9525 
G01 X-51.3365 Y49.9355 
G01 X-51.2935 Y49.9107 
G01 X-51.2345 Y49.8517 
G01 X-51.2062 Y49.8027 
G01 X-51.1927 Y49.7794 
G01 X-51.1771 Y49.7211 
G01 X-51.1711 Y49.6987 
G01 X-51.1711 Y49.6574 
G01 X-51.1711 Y49.6153 
G01 X-51.1782 Y49.5888 
G01 X-51.1927 Y49.5346 
G01 X-51.2097 Y49.5053 
G01 X-51.2345 Y49.4623 
G01 X-51.2528 Y49.4440 
G01 X-51.4481 Y48.9724 
G01 X-51.4481 Y46.2776 
G01 X-51.2528 Y45.8060 
G01 X-51.0543 Y45.6075 
G01 X-51.0125 Y45.5352 
G01 X-50.9909 Y45.4545 
G01 X-50.9909 Y43.8847 
G01 X-51.0125 Y43.8041 
G01 X-51.0533 Y43.7334 
G01 X-51.1133 Y43.6727 
G01 X-51.1834 Y43.6322 
G01 X-51.1856 Y43.6310 
G01 X-51.2662 Y43.6094 
G01 X-51.3497 Y43.6094 
G01 X-51.4304 Y43.6310 
G01 X-51.5011 Y43.6718 
G01 X-51.5617 Y43.7318 
G01 X-51.6841 Y43.8541 
G01 X-52.1259 Y44.0371 
G01 X-52.6041 Y44.0371 
G01 X-53.0459 Y43.8541 
G01 X-53.3841 Y43.5159 
G01 X-53.5671 Y43.0741 
G01 X-53.5671 Y42.5959 
G01 X-53.3841 Y42.1541 
G01 X-53.0459 Y41.8159 
G01 X-52.7552 Y41.6955 
G01 X-52.7350 Y41.6901 
G01 X-52.7169 Y41.6796 
G01 X-52.6975 Y41.6716 
G01 X-52.6808 Y41.6588 
G01 X-52.6627 Y41.6483 
G01 X-52.6479 Y41.6335 
G01 X-52.6312 Y41.6207 
G01 X-52.6185 Y41.6041 
G01 X-52.6037 Y41.5893 
G01 X-52.5932 Y41.5711 
G01 X-52.5804 Y41.5545 
G01 X-52.5724 Y41.5351 
G01 X-52.5619 Y41.5170 
G01 X-52.5565 Y41.4967 
G01 X-52.5485 Y41.4774 
G01 X-52.5457 Y41.4566 
G01 X-52.5403 Y41.4363 
G01 X-52.5403 Y41.4154 
G01 X-52.5376 Y41.3946 
G01 X-52.5403 Y41.3738 
G01 X-52.5403 Y41.0198 
G01 X-52.3450 Y40.5482 
G01 X-51.9935 Y40.1968 
G01 X-51.9740 Y40.1810 
G01 X-51.9641 Y40.1674 
G01 X-51.9523 Y40.1555 
G01 X-51.9397 Y40.1337 
G01 X-51.9249 Y40.1134 
G01 X-51.9189 Y40.0977 
G01 X-51.9105 Y40.0832 
G01 X-51.9040 Y40.0589 
G01 X-51.8950 Y40.0355 
G01 X-51.8933 Y40.0188 
G01 X-51.8889 Y40.0025 
G01 X-51.8889 Y39.9774 
G01 X-51.8863 Y39.9524 
G01 X-51.8889 Y39.9358 
G01 X-51.8889 Y39.9190 
G01 X-51.8954 Y39.8948 
G01 X-51.8994 Y39.8700 
G01 X-51.9062 Y39.8546 
G01 X-51.9105 Y39.8384 
G01 X-51.9231 Y39.8166 
G01 X-51.9333 Y39.7937 
G01 X-51.9439 Y39.7806 
G01 X-51.9523 Y39.7661 
G01 X-51.9700 Y39.7483 
G01 X-51.9859 Y39.7288 
G01 X-51.9994 Y39.7189 
G01 X-52.0113 Y39.7071 
G01 X-52.0331 Y39.6945 
G01 X-52.0600 Y39.6749 
G01 X-52.1971 Y39.5378 
G01 X-52.2363 Y39.4839 
G01 X-52.2039 Y39.4839 
G01 X-52.1772 Y39.5207 
G01 X-52.0429 Y39.6550 
G01 X-51.8893 Y39.7665 
G01 X-51.7202 Y39.8527 
G01 X-51.5396 Y39.9114 
G01 X-51.3521 Y39.9411 
G01 X-48.9779 Y39.9411 
G01 X-48.7904 Y39.9114 
G01 X-48.6098 Y39.8527 
G01 X-48.4407 Y39.7665 
G01 X-48.2871 Y39.6550 
G01 X-48.1528 Y39.5207 
G01 X-48.0412 Y39.3671 
G01 X-47.9551 Y39.1980 
G01 X-47.8964 Y39.0174 
G01 X-47.8667 Y38.8299 
G01 X-47.8667 Y38.6401 
G01 X-47.8964 Y38.4526 
G01 X-47.9551 Y38.2720 
G01 X-48.0412 Y38.1029 
G01 X-48.1528 Y37.9493 
G01 X-48.2871 Y37.8150 
G01 X-48.4407 Y37.7034 
G01 X-48.6098 Y37.6173 
G01 X-48.7904 Y37.5586 
G01 X-48.9779 Y37.5289 
G01 X-51.3521 Y37.5289 
G01 X-51.5396 Y37.5586 
G01 X-51.7202 Y37.6173 
G01 X-51.8893 Y37.7034 
G01 X-52.0429 Y37.8150 
G01 X-52.1772 Y37.9493 
G01 X-52.2039 Y37.9861 
G01 X-52.2363 Y37.9861 
G01 X-52.1971 Y37.9322 
G01 X-52.0600 Y37.7950 
G01 X-52.0331 Y37.7755 
G01 X-52.0113 Y37.7629 
G01 X-51.9994 Y37.7511 
G01 X-51.9859 Y37.7412 
G01 X-51.9700 Y37.7217 
G01 X-51.9523 Y37.7039 
G01 X-51.9439 Y37.6894 
G01 X-51.9333 Y37.6763 
G01 X-51.9231 Y37.6534 
G01 X-51.9105 Y37.6316 
G01 X-51.9062 Y37.6154 
G01 X-51.8994 Y37.6000 
G01 X-51.8954 Y37.5752 
G01 X-51.8889 Y37.5509 
G01 X-51.8889 Y37.5341 
G01 X-51.8863 Y37.5176 
G01 X-51.8889 Y37.4926 
G01 X-51.8889 Y37.4674 
G01 X-51.8933 Y37.4512 
G01 X-51.8950 Y37.4345 
G01 X-51.9040 Y37.4111 
G01 X-51.9105 Y37.3868 
G01 X-51.9189 Y37.3723 
G01 X-51.9249 Y37.3566 
G01 X-51.9397 Y37.3363 
G01 X-51.9523 Y37.3145 
G01 X-51.9642 Y37.3026 
G01 X-51.9740 Y37.2890 
G01 X-51.9935 Y37.2732 
G01 X-52.3450 Y36.9218 
G01 X-52.5403 Y36.4502 
G01 X-52.5403 Y36.0962 
G01 X-52.5376 Y36.0754 
G01 X-52.5403 Y36.0546 
G01 X-52.5403 Y36.0337 
G01 X-52.5457 Y36.0134 
G01 X-52.5485 Y35.9926 
G01 X-52.5565 Y35.9733 
G01 X-52.5619 Y35.9530 
G01 X-52.5724 Y35.9349 
G01 X-52.5804 Y35.9155 
G01 X-52.5932 Y35.8989 
G01 X-52.6037 Y35.8807 
G01 X-52.6185 Y35.8659 
G01 X-52.6312 Y35.8492 
G01 X-52.6479 Y35.8365 
G01 X-52.6627 Y35.8217 
G01 X-52.6808 Y35.8112 
G01 X-52.6975 Y35.7984 
G01 X-52.7169 Y35.7904 
G01 X-52.7350 Y35.7799 
G01 X-52.7552 Y35.7745 
G01 X-53.0459 Y35.6541 
G01 X-53.3841 Y35.3159 
G01 X-53.5671 Y34.8741 
G01 X-53.5671 Y34.3959 
G01 X-53.3841 Y33.9541 
G01 X-53.0459 Y33.6159 
G01 X-52.6041 Y33.4329 
G01 X-52.1259 Y33.4329 
G01 X-51.6841 Y33.6159 
G01 X-51.5617 Y33.7382 
G01 X-51.5067 Y33.7933 
G01 X-51.5027 Y33.7973 
G01 X-51.4304 Y33.8390 
G01 X-51.3497 Y33.8606 
G01 X-51.2662 Y33.8606 
G01 X-51.1890 Y33.8399 
G01 X-51.1856 Y33.8390 
G01 X-51.1133 Y33.7973 
G01 X-51.0543 Y33.7382 
G01 X-51.0125 Y33.6659 
G01 X-50.9909 Y33.5853 
G01 X-50.9909 Y31.5857 
G01 X-50.8652 Y31.2822 
G01 X-50.2415 Y30.6585 
G01 X-50.1997 Y30.5861 
G01 X-50.1781 Y30.5055 
G01 X-50.1781 Y29.9485 
G01 X-49.6343 Y29.4047 
G01 X-49.5925 Y29.3324 
G01 X-49.5709 Y29.2517 
G01 X-49.5709 Y29.1682 
G01 X-49.5718 Y29.1648 
G01 X-49.5925 Y29.0876 
G01 X-49.6334 Y29.0169 
G01 X-49.6933 Y28.9563 
G01 X-50.1781 Y28.4715 
G01 X-50.1781 Y27.4085 
G01 X-49.7843 Y27.0147 
G01 X-49.7425 Y26.9424 
G01 X-49.7209 Y26.8617 
G01 X-49.7209 Y21.8784 
G01 X-49.7425 Y21.7978 
G01 X-49.7843 Y21.7255 
G01 X-49.8433 Y21.6665 
G01 X-49.9156 Y21.6247 
G01 X-49.9962 Y21.6031 
G01 X-50.8875 Y21.6031 
G01 X-50.9682 Y21.6247 
G01 X-51.0405 Y21.6665 
G01 X-51.0995 Y21.7255 
G01 X-51.1413 Y21.7978 
G01 X-51.1629 Y21.8784 
G01 X-51.1629 Y22.1191 
G01 X-51.3459 Y22.5609 
G01 X-51.6841 Y22.8991 
G01 X-52.1259 Y23.0821 
G01 X-52.6041 Y23.0821 
G01 X-53.0459 Y22.8991 
G01 X-53.3841 Y22.5609 
G01 X-53.5671 Y22.1191 
G01 X-53.5671 Y21.6409 
G01 X-53.3841 Y21.1991 
G01 X-53.0459 Y20.8609 
G01 X-52.7552 Y20.7405 
G01 X-52.7350 Y20.7351 
G01 X-52.7169 Y20.7246 
G01 X-52.6975 Y20.7166 
G01 X-52.6808 Y20.7038 
G01 X-52.6627 Y20.6933 
G01 X-52.6479 Y20.6785 
G01 X-52.6312 Y20.6657 
G01 X-52.6185 Y20.6491 
G01 X-52.6037 Y20.6343 
G01 X-52.5932 Y20.6161 
G01 X-52.5804 Y20.5995 
G01 X-52.5724 Y20.5801 
G01 X-52.5619 Y20.5620 
G01 X-52.5565 Y20.5417 
G01 X-52.5485 Y20.5224 
G01 X-52.5457 Y20.5016 
G01 X-52.5403 Y20.4813 
G01 X-52.5403 Y20.4604 
G01 X-52.5376 Y20.4396 
G01 X-52.5403 Y20.4188 
G01 X-52.5403 Y20.0648 
G01 X-52.3450 Y19.5932 
G01 X-51.9965 Y19.2447 
G01 X-51.9794 Y19.2151 
G01 X-51.9547 Y19.1724 
G01 X-51.9331 Y19.0917 
G01 X-51.9331 Y19.0082 
G01 X-51.9407 Y18.9800 
G01 X-51.9547 Y18.9276 
G01 X-51.9650 Y18.9098 
G01 X-51.9965 Y18.8553 
G01 X-52.0555 Y18.7963 
G01 X-52.1825 Y18.6693 
G01 X-52.2140 Y18.6511 
G01 X-52.2548 Y18.6275 
G01 X-52.3355 Y18.6059 
G01 X-56.0833 Y18.6059 
G01 X-56.1639 Y18.6275 
G01 X-56.2363 Y18.6693 
G01 X-56.2953 Y18.7283 
G01 X-56.8957 Y19.3287 
G01 X-56.9375 Y19.4011 
G01 X-56.9591 Y19.4817 
G01 X-56.9591 Y45.8887 
G01 X-56.9375 Y45.9694 
G01 X-56.8957 Y46.0417 
G01 X-56.8367 Y46.1007 
G01 X-56.7644 Y46.1425 
G01 X-56.6837 Y46.1641 
G01 X-56.4359 Y46.1641 
G01 X-56.3241 Y46.2759 
G01 X-56.3241 Y48.9741 
G01 X-56.4359 Y49.0859 
G01 X-59.1341 Y49.0859 
G01 X-59.2459 Y48.9741 
G01 X-59.2459 Y46.2759 
G01 X-59.1341 Y46.1641 
G01 X-58.8862 Y46.1641 
G01 X-58.8056 Y46.1425 
G01 X-58.7333 Y46.1007 
G01 X-58.6743 Y46.0417 
G01 X-58.6325 Y45.9694 
G01 X-58.6109 Y45.8887 
G01 X-58.6109 Y18.8857 
G01 X-58.4852 Y18.5822 
G01 X-58.1787 Y18.2757 
G01 X-56.9828 Y17.0798 
G01 X-56.6793 Y16.9541 
G01 X-52.3355 Y16.9541 
G01 X-52.2548 Y16.9325 
G01 X-52.2122 Y16.9079 
G01 X-52.1825 Y16.8907 
G01 X-52.1235 Y16.8317 
G01 X-51.9935 Y16.7018 
G01 X-51.9740 Y16.6860 
G01 X-51.9641 Y16.6724 
G01 X-51.9523 Y16.6605 
G01 X-51.9397 Y16.6387 
G01 X-51.9249 Y16.6184 
G01 X-51.9189 Y16.6027 
G01 X-51.9105 Y16.5882 
G01 X-51.9040 Y16.5639 
G01 X-51.8950 Y16.5405 
G01 X-51.8933 Y16.5238 
G01 X-51.8889 Y16.5075 
G01 X-51.8889 Y16.4824 
G01 X-51.8863 Y16.4574 
G01 X-51.8889 Y16.4408 
G01 X-51.8889 Y16.4241 
G01 X-51.8954 Y16.3998 
G01 X-51.8994 Y16.3749 
G01 X-51.9062 Y16.3596 
G01 X-51.9105 Y16.3434 
G01 X-51.9231 Y16.3216 
G01 X-51.9333 Y16.2987 
G01 X-51.9439 Y16.2856 
G01 X-51.9523 Y16.2711 
G01 X-51.9701 Y16.2533 
G01 X-51.9859 Y16.2338 
G01 X-51.9994 Y16.2239 
G01 X-52.0113 Y16.2121 
G01 X-52.0331 Y16.1995 
G01 X-52.0600 Y16.1799 
G01 X-52.1971 Y16.0428 
G01 X-52.2363 Y15.9889 
G01 X-52.2039 Y15.9889 
G01 X-52.1772 Y16.0257 
G01 X-52.0429 Y16.1600 
G01 X-51.8893 Y16.2715 
G01 X-51.7202 Y16.3577 
G01 X-51.5396 Y16.4164 
G01 X-51.3521 Y16.4461 
G01 X-48.9779 Y16.4461 
G01 X-48.7904 Y16.4164 
G01 X-48.6098 Y16.3577 
G01 X-48.4407 Y16.2715 
G01 X-48.2871 Y16.1600 
G01 X-48.1528 Y16.0257 
G01 X-48.0412 Y15.8721 
G01 X-47.9551 Y15.7030 
G01 X-47.9077 Y15.5571 
G01 X-47.8801 Y15.5571 
G01 X-47.9308 Y15.7130 
G01 X-48.0188 Y15.8859 
G01 X-48.1328 Y16.0428 
G01 X-48.2700 Y16.1799 
G01 X-48.2969 Y16.1995 
G01 X-48.3187 Y16.2121 
G01 X-48.3306 Y16.2239 
G01 X-48.3441 Y16.2338 
G01 X-48.3599 Y16.2533 
G01 X-48.3777 Y16.2711 
G01 X-48.3861 Y16.2856 
G01 X-48.3967 Y16.2987 
G01 X-48.4069 Y16.3216 
G01 X-48.4195 Y16.3434 
G01 X-48.4238 Y16.3596 
G01 X-48.4306 Y16.3749 
G01 X-48.4346 Y16.3998 
G01 X-48.4411 Y16.4241 
G01 X-48.4411 Y16.4408 
G01 X-48.4437 Y16.4574 
G01 X-48.4411 Y16.4824 
G01 X-48.4411 Y16.5075 
G01 X-48.4367 Y16.5238 
G01 X-48.4350 Y16.5405 
G01 X-48.4260 Y16.5639 
G01 X-48.4195 Y16.5882 
G01 X-48.4111 Y16.6027 
G01 X-48.4051 Y16.6184 
G01 X-48.3903 Y16.6387 
G01 X-48.3777 Y16.6605 
G01 X-48.3658 Y16.6724 
G01 X-48.3560 Y16.6860 
G01 X-48.3365 Y16.7018 
G01 X-47.9850 Y17.0532 
G01 X-47.9795 Y17.0665 
G01 X-47.9520 Y17.1328 
G01 X-47.9138 Y17.1827 
G01 X-47.9012 Y17.1991 
G01 X-47.8350 Y17.2499 
G01 X-47.8037 Y17.2629 
G01 X-47.7578 Y17.2818 
G01 X-47.6751 Y17.2928 
G01 X-47.6651 Y17.2914 
G01 X-47.5923 Y17.2819 
G01 X-47.5462 Y17.2628 
G01 X-47.5151 Y17.2499 
G01 X-47.4652 Y17.2116 
G01 X-47.4489 Y17.1991 
G01 X-47.3981 Y17.1328 
G01 X-47.3841 Y17.0991 
G01 X-47.0459 Y16.7609 
G01 X-46.6041 Y16.5779 
G01 X-46.1259 Y16.5779 
G01 X-45.6841 Y16.7609 
G01 X-45.3459 Y17.0991 
G01 X-45.2589 Y17.3091 
G01 X-45.2535 Y17.3293 
G01 X-45.2430 Y17.3475 
G01 X-45.2350 Y17.3669 
G01 X-45.2222 Y17.3835 
G01 X-45.2117 Y17.4017 
G01 X-45.1969 Y17.4165 
G01 X-45.1842 Y17.4331 
G01 X-45.1675 Y17.4459 
G01 X-45.1527 Y17.4607 
G01 X-45.1345 Y17.4712 
G01 X-45.1179 Y17.4839 
G01 X-45.0985 Y17.4920 
G01 X-45.0804 Y17.5024 
G01 X-45.0601 Y17.5079 
G01 X-45.0408 Y17.5159 
G01 X-45.0200 Y17.5186 
G01 X-44.9997 Y17.5240 
G01 X-44.9788 Y17.5240 
G01 X-44.9580 Y17.5268 
G01 X-44.9372 Y17.5240 
G01 X-44.9162 Y17.5240 
G01 X-44.8960 Y17.5186 
G01 X-44.8752 Y17.5159 
G01 X-44.8559 Y17.5079 
G01 X-44.8356 Y17.5024 
G01 X-44.8174 Y17.4920 
G01 X-44.7981 Y17.4839 
G01 X-44.7814 Y17.4712 
G01 X-44.7633 Y17.4607 
G01 X-44.7485 Y17.4459 
G01 X-44.7318 Y17.4331 
G01 X-44.7191 Y17.4165 
G01 X-44.7043 Y17.4017 
G01 X-44.6938 Y17.3835 
G01 X-44.6810 Y17.3669 
G01 X-44.6730 Y17.3475 
G01 X-44.6625 Y17.3293 
G01 X-44.6571 Y17.3091 
G01 X-44.6491 Y17.2897 
G01 X-44.6463 Y17.2689 
G01 X-44.6409 Y17.2487 
G01 X-44.6409 Y17.2277 
G01 X-44.6382 Y17.2069 
G01 X-44.6409 Y17.1862 
G01 X-44.6409 Y15.7107 
G01 X-44.5152 Y15.4072 
G01 X-44.2087 Y15.1007 
G01 X-38.5678 Y9.4598 
G01 X-38.2643 Y9.3341 
G01 X-11.8617 Y9.3341 
G01 X-11.7811 Y9.3125 
G01 X-11.7087 Y9.2707 
G01 X-11.6497 Y9.2117 
G01 X-10.4733 Y8.0353 
G01 X-10.4143 Y7.9763 
G01 X-10.3725 Y7.9039 
G01 X-10.3509 Y7.8233 
G01 X-10.3509 Y7.0570 
G01 X-10.3482 Y7.0362 
G01 X-10.3509 Y7.0154 
G01 X-10.3509 Y6.9945 
G01 X-10.3563 Y6.9742 
G01 X-10.3591 Y6.9534 
G01 X-10.3671 Y6.9341 
G01 X-10.3725 Y6.9138 
G01 X-10.3830 Y6.8957 
G01 X-10.4779 Y6.6665 
G01 X-10.4779 Y4.7635 
G01 X-10.3328 Y4.4132 
G01 X-10.0648 Y4.1452 
G01 X-9.7145 Y4.0001 
G01 X-9.3355 Y4.0001 
G01 X-8.9852 Y4.1452 
G01 X-8.7172 Y4.4132 
G01 X-8.5721 Y4.7635 
G01 X-8.5721 Y6.6665 
G01 X-8.6670 Y6.8957 
G01 X-8.6775 Y6.9138 
G01 X-8.6829 Y6.9341 
G01 X-8.6909 Y6.9534 
G01 X-8.6937 Y6.9742 
G01 X-8.6991 Y6.9945 
G01 X-8.6991 Y7.0154 
G01 X-8.7018 Y7.0362 
G01 X-8.6991 Y7.0570 
G01 X-8.6991 Y8.4193 
G01 X-8.8248 Y8.7228 
G01 X-10.7148 Y10.6128 
G01 X-10.9622 Y10.8602 
G01 X-11.2657 Y10.9859 
G01 X-37.6683 Y10.9859 
G01 X-37.7489 Y11.0075 
G01 X-37.8213 Y11.0493 
G01 X-37.8803 Y11.1083 
G01 X-38.2232 Y11.4512 
G01 X-38.2398 Y11.4639 
G01 X-38.2525 Y11.4805 
G01 X-38.2674 Y11.4954 
G01 X-38.2779 Y11.5135 
G01 X-38.2906 Y11.5302 
G01 X-38.2986 Y11.5495 
G01 X-38.3091 Y11.5677 
G01 X-38.3145 Y11.5879 
G01 X-38.3226 Y11.6073 
G01 X-38.3253 Y11.6281 
G01 X-38.3307 Y11.6483 
G01 X-38.3307 Y11.6693 
G01 X-38.3335 Y11.6901 
G01 X-38.3307 Y11.7109 
G01 X-38.3307 Y11.7318 
G01 X-38.3253 Y11.7521 
G01 X-38.3226 Y11.7729 
G01 X-38.3145 Y11.7922 
G01 X-38.3091 Y11.8125 
G01 X-38.2986 Y11.8306 
G01 X-38.2906 Y11.8500 
G01 X-38.2779 Y11.8666 
G01 X-38.2674 Y11.8848 
G01 X-38.2526 Y11.8996 
G01 X-38.2398 Y11.9162 
G01 X-38.2232 Y11.9290 
G01 X-38.2083 Y11.9438 
G01 X-38.1902 Y11.9543 
G01 X-38.1735 Y11.9671 
G01 X-38.1542 Y11.9751 
G01 X-38.1360 Y11.9856 
G01 X-38.1158 Y11.9910 
G01 X-38.0964 Y11.9990 
G01 X-38.0756 Y12.0017 
G01 X-38.0554 Y12.0072 
G01 X-38.0344 Y12.0072 
G01 X-38.0136 Y12.0099 
G01 X-37.9928 Y12.0072 
G01 X-37.9719 Y12.0072 
G01 X-37.9516 Y12.0017 
G01 X-37.9309 Y11.9990 
G01 X-37.9115 Y11.9910 
G01 X-37.8912 Y11.9856 
G01 X-37.8731 Y11.9751 
G01 X-37.6293 Y11.8741 
G01 X-10.5917 Y11.8741 
G01 X-10.5110 Y11.8525 
G01 X-10.4387 Y11.8107 
G01 X-10.3797 Y11.7517 
G01 X-7.8743 Y9.2463 
G01 X-7.8325 Y9.1739 
G01 X-7.8109 Y9.0933 
G01 X-7.8109 Y7.0570 
G01 X-7.8082 Y7.0362 
G01 X-7.8109 Y7.0154 
G01 X-7.8109 Y6.9945 
G01 X-7.8163 Y6.9742 
G01 X-7.8191 Y6.9534 
G01 X-7.8271 Y6.9341 
G01 X-7.8325 Y6.9138 
G01 X-7.8430 Y6.8957 
G01 X-7.9379 Y6.6665 
G01 X-7.9379 Y4.7635 
G01 X-7.7928 Y4.4132 
G01 X-7.5248 Y4.1452 
G01 X-7.1745 Y4.0001 
G01 X-6.7955 Y4.0001 
G01 X-6.4452 Y4.1452 
G01 X-6.1772 Y4.4132 
G01 X-6.0321 Y4.7635 
G01 X-6.0321 Y6.6665 
G01 X-6.1270 Y6.8957 
G01 X-6.1375 Y6.9138 
G01 X-6.1429 Y6.9341 
G01 X-6.1509 Y6.9534 
G01 X-6.1537 Y6.9742 
G01 X-6.1591 Y6.9945 
G01 X-6.1591 Y7.0154 
G01 X-6.1618 Y7.0362 
G01 X-6.1591 Y7.0570 
G01 X-6.1591 Y9.6893 
G01 X-6.2848 Y9.9928 
G01 X-9.4448 Y13.1527 
G01 X-9.6922 Y13.4002 
G01 X-9.9957 Y13.5259 
G01 X-37.0333 Y13.5259 
G01 X-37.1139 Y13.5475 
G01 X-37.1863 Y13.5893 
G01 X-37.2077 Y13.6107 
G01 X-38.5071 Y14.9101 
G01 X-38.5446 Y14.9476 
G01 X-38.5661 Y14.9691 
G01 X-38.6078 Y15.0414 
G01 X-38.6295 Y15.1220 
G01 X-38.6295 Y15.2055 
G01 X-38.6078 Y15.2862 
G01 X-38.5661 Y15.3585 
G01 X-38.5071 Y15.4175 
G01 X-38.4348 Y15.4593 
G01 X-38.3541 Y15.4809 
G01 X-1.3044 Y15.4809 
G01 X-1.2238 Y15.4593 
G01 X-1.1515 Y15.4175 
G01 X-1.0925 Y15.3585 
G01 X-1.0507 Y15.2862 
G01 X-1.0291 Y15.2055 
G01 X-1.0291 Y7.6410 
G01 X-1.0264 Y7.6202 
G01 X-1.0291 Y7.5994 
G01 X-1.0291 Y7.5784 
G01 X-1.0345 Y7.5582 
G01 X-1.0373 Y7.5374 
G01 X-1.0453 Y7.5180 
G01 X-1.0507 Y7.4978 
G01 X-1.0612 Y7.4796 
G01 X-1.0692 Y7.4602 
G01 X-1.0820 Y7.4436 
G01 X-1.0925 Y7.4255 
G01 X-1.1073 Y7.4106 
G01 X-1.1200 Y7.3940 
G01 X-1.1367 Y7.3813 
G01 X-1.1515 Y7.3664 
G01 X-1.1697 Y7.3559 
G01 X-1.1863 Y7.3432 
G01 X-1.2056 Y7.3352 
G01 X-1.2238 Y7.3247 
G01 X-1.2441 Y7.3193 
G01 X-1.2634 Y7.3112 
G01 X-1.2842 Y7.3085 
G01 X-1.3044 Y7.3031 
G01 X-1.3254 Y7.3031 
G01 X-1.3462 Y7.3003 
G01 X-1.3670 Y7.3031 
G01 X-1.3879 Y7.3031 
G01 X-1.4082 Y7.3085 
G01 X-1.4290 Y7.3112 
G01 X-1.4483 Y7.3193 
G01 X-1.4686 Y7.3247 
G01 X-1.4867 Y7.3352 
G01 X-1.7154 Y7.4299 
G01 X-2.0945 Y7.4299 
G01 X-2.4448 Y7.2848 
G01 X-2.7128 Y7.0168 
G01 X-2.8579 Y6.6665 
G01 X-2.8579 Y4.7635 
G01 X-2.7128 Y4.4132 
G01 X-2.4448 Y4.1452 
G01 X-2.0945 Y4.0001 
G01 X-1.7154 Y4.0001 
G01 X-1.4867 Y4.0948 
G01 X-1.4686 Y4.1053 
G01 X-1.4483 Y4.1107 
G01 X-1.4290 Y4.1188 
G01 X-1.4082 Y4.1215 
G01 X-1.3879 Y4.1269 
G01 X-1.3670 Y4.1269 
G01 X-1.3462 Y4.1297 
G01 X-1.3254 Y4.1269 
G01 X-1.3044 Y4.1269 
G01 X-1.2842 Y4.1215 
G01 X-1.2634 Y4.1188 
G01 X-1.2441 Y4.1107 
G01 X-1.2238 Y4.1053 
G01 X-1.2056 Y4.0948 
G01 X-1.1863 Y4.0868 
G01 X-1.1697 Y4.0741 
G01 X-1.1515 Y4.0636 
G01 X-1.1367 Y4.0487 
G01 X-1.1200 Y4.0360 
G01 X-1.1073 Y4.0194 
G01 X-1.0925 Y4.0045 
G01 X-1.0820 Y3.9864 
G01 X-1.0692 Y3.9697 
G01 X-1.0612 Y3.9504 
G01 X-1.0507 Y3.9322 
G01 X-1.0453 Y3.9120 
G01 X-1.0373 Y3.8926 
G01 X-1.0345 Y3.8718 
G01 X-1.0291 Y3.8516 
G01 X-1.0291 Y3.8306 
G01 X-1.0264 Y3.8098 
G01 X-1.0291 Y3.7890 
G01 X-1.0291 Y1.3044 
G01 X-1.0507 Y1.2238 
G01 X-1.0925 Y1.1515 
G00 Z2.0000  F3000
G00 X-1.2246 Y4.3946  F3000
G01 Z-0.2000 F200.00 
G01 X-1.3466 Y4.2726 F500.00 
G01 X-1.4901 Y4.1768 
G01 X-1.6495 Y4.1108 
G01 X-1.8187 Y4.0771 
G01 X-1.9913 Y4.0771 
G01 X-2.1605 Y4.1108 
G01 X-2.3199 Y4.1768 
G01 X-2.4634 Y4.2726 
G01 X-2.5854 Y4.3946 
G01 X-2.6812 Y4.5381 
G01 X-2.7472 Y4.6975 
G01 X-2.7809 Y4.8667 
G01 X-2.7809 Y6.5633 
G01 X-2.7472 Y6.7325 
G01 X-2.6812 Y6.8919 
G01 X-2.5854 Y7.0354 
G01 X-2.4634 Y7.1574 
G01 X-2.3199 Y7.2532 
G01 X-2.1605 Y7.3192 
G01 X-1.9913 Y7.3529 
G01 X-1.8187 Y7.3529 
G01 X-1.6495 Y7.3192 
G01 X-1.4901 Y7.2532 
G01 X-1.3466 Y7.1574 
G01 X-1.2246 Y7.0354 
G01 X-1.1288 Y6.8919 
G01 X-1.0628 Y6.7325 
G01 X-1.0291 Y6.5633 
G01 X-1.0291 Y4.8667 
G01 X-1.0628 Y4.6975 
G01 X-1.1288 Y4.5381 
G01 X-1.2246 Y4.3946 
G00 Z2.0000  F3000
G00 X-3.6372 Y4.4132  F3000
G01 Z-0.2000 F200.00 
G01 X-3.4921 Y4.7635 F500.00 
G01 X-3.4921 Y6.6665 
G01 X-3.6372 Y7.0168 
G01 X-3.9052 Y7.2848 
G01 X-4.2555 Y7.4299 
G01 X-4.6345 Y7.4299 
G01 X-4.9848 Y7.2848 
G01 X-5.2528 Y7.0168 
G01 X-5.3979 Y6.6665 
G01 X-5.3979 Y4.7635 
G01 X-5.2528 Y4.4132 
G01 X-4.9848 Y4.1452 
G01 X-4.6345 Y4.0001 
G01 X-4.2555 Y4.0001 
G01 X-3.9052 Y4.1452 
G01 X-3.6372 Y4.4132 
G00 Z2.0000  F3000
G00 X-3.7646 Y4.3946  F3000
G01 Z-0.2000 F200.00 
G01 X-3.8866 Y4.2726 F500.00 
G01 X-4.0301 Y4.1768 
G01 X-4.1895 Y4.1108 
G01 X-4.3587 Y4.0771 
G01 X-4.5313 Y4.0771 
G01 X-4.7005 Y4.1108 
G01 X-4.8599 Y4.1768 
G01 X-5.0034 Y4.2726 
G01 X-5.1254 Y4.3946 
G01 X-5.2212 Y4.5381 
G01 X-5.2872 Y4.6975 
G01 X-5.3209 Y4.8667 
G01 X-5.3209 Y6.5633 
G01 X-5.2872 Y6.7325 
G01 X-5.2212 Y6.8919 
G01 X-5.1254 Y7.0354 
G01 X-5.0034 Y7.1574 
G01 X-4.8599 Y7.2532 
G01 X-4.7005 Y7.3192 
G01 X-4.5313 Y7.3529 
G01 X-4.3587 Y7.3529 
G01 X-4.1895 Y7.3192 
G01 X-4.0301 Y7.2532 
G01 X-3.8866 Y7.1574 
G01 X-3.7646 Y7.0354 
G01 X-3.6688 Y6.8919 
G01 X-3.6028 Y6.7325 
G01 X-3.5691 Y6.5633 
G01 X-3.5691 Y4.8667 
G01 X-3.6028 Y4.6975 
G01 X-3.6688 Y4.5381 
G01 X-3.7646 Y4.3946 
G00 Z2.0000  F3000
G00 X-6.3046 Y4.3946  F3000
G01 Z-0.2000 F200.00 
G01 X-6.4266 Y4.2726 F500.00 
G01 X-6.5701 Y4.1768 
G01 X-6.7295 Y4.1108 
G01 X-6.8987 Y4.0771 
G01 X-7.0713 Y4.0771 
G01 X-7.2405 Y4.1108 
G01 X-7.3999 Y4.1768 
G01 X-7.5434 Y4.2726 
G01 X-7.6654 Y4.3946 
G01 X-7.7612 Y4.5381 
G01 X-7.8272 Y4.6975 
G01 X-7.8609 Y4.8667 
G01 X-7.8609 Y6.5633 
G01 X-7.8272 Y6.7325 
G01 X-7.7612 Y6.8919 
G01 X-7.7339 Y6.9328 
G01 X-7.7339 Y9.2148 
G01 X-10.4702 Y11.9511 
G01 X-37.5388 Y11.9511 
G01 X-37.6834 Y11.9799 
G01 X-37.8197 Y12.0363 
G01 X-37.9424 Y12.1183 
G01 X-38.0467 Y12.2226 
G01 X-41.2217 Y15.3976 
G01 X-41.3037 Y15.5203 
G01 X-41.3601 Y15.6566 
G01 X-41.3889 Y15.8012 
G01 X-41.3889 Y29.7311 
G01 X-42.8582 Y29.7311 
G01 X-43.3154 Y29.2739 
G01 X-44.3146 Y29.2739 
G01 X-45.0211 Y29.9804 
G01 X-45.0211 Y30.9796 
G01 X-44.3146 Y31.6861 
G01 X-43.3154 Y31.6861 
G01 X-42.8582 Y31.2289 
G01 X-40.5662 Y31.2289 
G01 X-40.4216 Y31.2001 
G01 X-40.2853 Y31.1437 
G01 X-40.1626 Y31.0617 
G01 X-40.0583 Y30.9574 
G01 X-39.9763 Y30.8347 
G01 X-39.9199 Y30.6984 
G01 X-39.8911 Y30.5538 
G01 X-39.8911 Y16.1852 
G01 X-37.1548 Y13.4489 
G01 X-10.0862 Y13.4489 
G01 X-9.9416 Y13.4201 
G01 X-9.8053 Y13.3637 
G01 X-9.6826 Y13.2817 
G01 X-9.5783 Y13.1774 
G01 X-6.4033 Y10.0024 
G01 X-6.3213 Y9.8797 
G01 X-6.2649 Y9.7434 
G01 X-6.2361 Y9.5988 
G01 X-6.2361 Y6.9328 
G01 X-6.2088 Y6.8919 
G01 X-6.1428 Y6.7325 
G01 X-6.1091 Y6.5633 
G01 X-6.1091 Y4.8667 
G01 X-6.1428 Y4.6975 
G01 X-6.2088 Y4.5381 
G01 X-6.3046 Y4.3946 
G00 Z2.0000  F3000
G00 X-8.8446 Y4.3946  F3000
G01 Z-0.2000 F200.00 
G01 X-8.9666 Y4.2726 F500.00 
G01 X-9.1101 Y4.1768 
G01 X-9.2695 Y4.1108 
G01 X-9.4387 Y4.0771 
G01 X-9.6113 Y4.0771 
G01 X-9.7805 Y4.1108 
G01 X-9.9399 Y4.1768 
G01 X-10.0834 Y4.2726 
G01 X-10.2054 Y4.3946 
G01 X-10.3012 Y4.5381 
G01 X-10.3672 Y4.6975 
G01 X-10.4009 Y4.8667 
G01 X-10.4009 Y6.5633 
G01 X-10.3672 Y6.7325 
G01 X-10.3012 Y6.8919 
G01 X-10.2739 Y6.9328 
G01 X-10.2739 Y7.9448 
G01 X-11.7402 Y9.4111 
G01 X-38.1738 Y9.4111 
G01 X-38.3184 Y9.4399 
G01 X-38.4547 Y9.4963 
G01 X-38.5774 Y9.5783 
G01 X-44.2924 Y15.2933 
G01 X-44.3967 Y15.3976 
G01 X-44.4787 Y15.5203 
G01 X-44.5351 Y15.6566 
G01 X-44.5639 Y15.8012 
G01 X-44.5639 Y26.9832 
G01 X-45.0211 Y27.4404 
G01 X-45.0211 Y28.4396 
G01 X-44.3146 Y29.1461 
G01 X-43.3154 Y29.1461 
G01 X-42.6089 Y28.4396 
G01 X-42.6089 Y27.4404 
G01 X-43.0661 Y26.9832 
G01 X-43.0661 Y16.1852 
G01 X-37.7898 Y10.9089 
G01 X-11.3562 Y10.9089 
G01 X-11.2116 Y10.8801 
G01 X-11.0753 Y10.8237 
G01 X-10.9526 Y10.7417 
G01 X-10.8483 Y10.6374 
G01 X-8.9433 Y8.7324 
G01 X-8.8613 Y8.6097 
G01 X-8.8049 Y8.4734 
G01 X-8.7761 Y8.3288 
G01 X-8.7761 Y6.9328 
G01 X-8.7488 Y6.8919 
G01 X-8.6828 Y6.7325 
G01 X-8.6491 Y6.5633 
G01 X-8.6491 Y4.8667 
G01 X-8.6828 Y4.6975 
G01 X-8.7488 Y4.5381 
G01 X-8.8446 Y4.3946 
G00 Z2.0000  F3000
G00 X-11.2572 Y4.4132  F3000
G01 Z-0.2000 F200.00 
G01 X-11.1121 Y4.7635 F500.00 
G01 X-11.1121 Y6.6665 
G01 X-11.2572 Y7.0168 
G01 X-11.5252 Y7.2848 
G01 X-11.8755 Y7.4299 
G01 X-12.2545 Y7.4299 
G01 X-12.6048 Y7.2848 
G01 X-12.8728 Y7.0168 
G01 X-13.0179 Y6.6665 
G01 X-13.0179 Y4.7635 
G01 X-12.8728 Y4.4132 
G01 X-12.6048 Y4.1452 
G01 X-12.2545 Y4.0001 
G01 X-11.8755 Y4.0001 
G01 X-11.5252 Y4.1452 
G01 X-11.2572 Y4.4132 
G00 Z2.0000  F3000
G00 X-11.3846 Y4.3946  F3000
G01 Z-0.2000 F200.00 
G01 X-11.5066 Y4.2726 F500.00 
G01 X-11.6501 Y4.1768 
G01 X-11.8095 Y4.1108 
G01 X-11.9787 Y4.0771 
G01 X-12.1513 Y4.0771 
G01 X-12.3205 Y4.1108 
G01 X-12.4799 Y4.1768 
G01 X-12.6234 Y4.2726 
G01 X-12.7454 Y4.3946 
G01 X-12.8412 Y4.5381 
G01 X-12.9072 Y4.6975 
G01 X-12.9409 Y4.8667 
G01 X-12.9409 Y6.5633 
G01 X-12.9072 Y6.7325 
G01 X-12.8412 Y6.8919 
G01 X-12.7454 Y7.0354 
G01 X-12.6234 Y7.1574 
G01 X-12.4799 Y7.2532 
G01 X-12.3205 Y7.3192 
G01 X-12.1513 Y7.3529 
G01 X-11.9787 Y7.3529 
G01 X-11.8095 Y7.3192 
G01 X-11.6501 Y7.2532 
G01 X-11.5066 Y7.1574 
G01 X-11.3846 Y7.0354 
G01 X-11.2888 Y6.8919 
G01 X-11.2228 Y6.7325 
G01 X-11.1891 Y6.5633 
G01 X-11.1891 Y4.8667 
G01 X-11.2228 Y4.6975 
G01 X-11.2888 Y4.5381 
G01 X-11.3846 Y4.3946 
G00 Z2.0000  F3000
G00 X-13.7972 Y4.4132  F3000
G01 Z-0.2000 F200.00 
G01 X-13.6521 Y4.7635 F500.00 
G01 X-13.6521 Y6.6665 
G01 X-13.7972 Y7.0168 
G01 X-14.0652 Y7.2848 
G01 X-14.4155 Y7.4299 
G01 X-14.7945 Y7.4299 
G01 X-15.1448 Y7.2848 
G01 X-15.4128 Y7.0168 
G01 X-15.5579 Y6.6665 
G01 X-15.5579 Y4.7635 
G01 X-15.4128 Y4.4132 
G01 X-15.1448 Y4.1452 
G01 X-14.7945 Y4.0001 
G01 X-14.4155 Y4.0001 
G01 X-14.0652 Y4.1452 
G01 X-13.7972 Y4.4132 
G00 Z2.0000  F3000
G00 X-13.9246 Y4.3946  F3000
G01 Z-0.2000 F200.00 
G01 X-14.0466 Y4.2726 F500.00 
G01 X-14.1901 Y4.1768 
G01 X-14.3495 Y4.1108 
G01 X-14.5187 Y4.0771 
G01 X-14.6913 Y4.0771 
G01 X-14.8605 Y4.1108 
G01 X-15.0199 Y4.1768 
G01 X-15.1634 Y4.2726 
G01 X-15.2854 Y4.3946 
G01 X-15.3812 Y4.5381 
G01 X-15.4472 Y4.6975 
G01 X-15.4809 Y4.8667 
G01 X-15.4809 Y6.5633 
G01 X-15.4472 Y6.7325 
G01 X-15.3812 Y6.8919 
G01 X-15.2854 Y7.0354 
G01 X-15.1634 Y7.1574 
G01 X-15.0199 Y7.2532 
G01 X-14.8605 Y7.3192 
G01 X-14.6913 Y7.3529 
G01 X-14.5187 Y7.3529 
G01 X-14.3495 Y7.3192 
G01 X-14.1901 Y7.2532 
G01 X-14.0466 Y7.1574 
G01 X-13.9246 Y7.0354 
G01 X-13.8288 Y6.8919 
G01 X-13.7628 Y6.7325 
G01 X-13.7291 Y6.5633 
G01 X-13.7291 Y4.8667 
G01 X-13.7628 Y4.6975 
G01 X-13.8288 Y4.5381 
G01 X-13.9246 Y4.3946 
G00 Z2.0000  F3000
G00 X-16.3372 Y4.4132  F3000
G01 Z-0.2000 F200.00 
G01 X-16.1921 Y4.7635 F500.00 
G01 X-16.1921 Y6.6665 
G01 X-16.3372 Y7.0168 
G01 X-16.6052 Y7.2848 
G01 X-16.9555 Y7.4299 
G01 X-17.3345 Y7.4299 
G01 X-17.6848 Y7.2848 
G01 X-17.9528 Y7.0168 
G01 X-18.0979 Y6.6665 
G01 X-18.0979 Y4.7635 
G01 X-17.9528 Y4.4132 
G01 X-17.6848 Y4.1452 
G01 X-17.3345 Y4.0001 
G01 X-16.9555 Y4.0001 
G01 X-16.6052 Y4.1452 
G01 X-16.3372 Y4.4132 
G00 Z2.0000  F3000
G00 X-16.4646 Y4.3946  F3000
G01 Z-0.2000 F200.00 
G01 X-16.5866 Y4.2726 F500.00 
G01 X-16.7301 Y4.1768 
G01 X-16.8895 Y4.1108 
G01 X-17.0587 Y4.0771 
G01 X-17.2313 Y4.0771 
G01 X-17.4005 Y4.1108 
G01 X-17.5599 Y4.1768 
G01 X-17.7034 Y4.2726 
G01 X-17.8254 Y4.3946 
G01 X-17.9212 Y4.5381 
G01 X-17.9872 Y4.6975 
G01 X-18.0209 Y4.8667 
G01 X-18.0209 Y6.5633 
G01 X-17.9872 Y6.7325 
G01 X-17.9212 Y6.8919 
G01 X-17.8254 Y7.0354 
G01 X-17.7034 Y7.1574 
G01 X-17.5599 Y7.2532 
G01 X-17.4005 Y7.3192 
G01 X-17.2313 Y7.3529 
G01 X-17.0587 Y7.3529 
G01 X-16.8895 Y7.3192 
G01 X-16.7301 Y7.2532 
G01 X-16.5866 Y7.1574 
G01 X-16.4646 Y7.0354 
G01 X-16.3688 Y6.8919 
G01 X-16.3028 Y6.7325 
G01 X-16.2691 Y6.5633 
G01 X-16.2691 Y4.8667 
G01 X-16.3028 Y4.6975 
G01 X-16.3688 Y4.5381 
G01 X-16.4646 Y4.3946 
G00 Z2.0000  F3000
G00 X-18.8772 Y4.4132  F3000
G01 Z-0.2000 F200.00 
G01 X-18.7321 Y4.7635 F500.00 
G01 X-18.7321 Y6.6665 
G01 X-18.8772 Y7.0168 
G01 X-19.1452 Y7.2848 
G01 X-19.4955 Y7.4299 
G01 X-19.8745 Y7.4299 
G01 X-20.2248 Y7.2848 
G01 X-20.4928 Y7.0168 
G01 X-20.6379 Y6.6665 
G01 X-20.6379 Y4.7635 
G01 X-20.4928 Y4.4132 
G01 X-20.2248 Y4.1452 
G01 X-19.8745 Y4.0001 
G01 X-19.4955 Y4.0001 
G01 X-19.1452 Y4.1452 
G01 X-18.8772 Y4.4132 
G00 Z2.0000  F3000
G00 X-19.0046 Y4.3946  F3000
G01 Z-0.2000 F200.00 
G01 X-19.1266 Y4.2726 F500.00 
G01 X-19.2701 Y4.1768 
G01 X-19.4295 Y4.1108 
G01 X-19.5987 Y4.0771 
G01 X-19.7713 Y4.0771 
G01 X-19.9405 Y4.1108 
G01 X-20.0999 Y4.1768 
G01 X-20.2434 Y4.2726 
G01 X-20.3654 Y4.3946 
G01 X-20.4612 Y4.5381 
G01 X-20.5272 Y4.6975 
G01 X-20.5609 Y4.8667 
G01 X-20.5609 Y6.5633 
G01 X-20.5272 Y6.7325 
G01 X-20.4612 Y6.8919 
G01 X-20.3654 Y7.0354 
G01 X-20.2434 Y7.1574 
G01 X-20.0999 Y7.2532 
G01 X-19.9405 Y7.3192 
G01 X-19.7713 Y7.3529 
G01 X-19.5987 Y7.3529 
G01 X-19.4295 Y7.3192 
G01 X-19.2701 Y7.2532 
G01 X-19.1266 Y7.1574 
G01 X-19.0046 Y7.0354 
G01 X-18.9088 Y6.8919 
G01 X-18.8428 Y6.7325 
G01 X-18.8091 Y6.5633 
G01 X-18.8091 Y4.8667 
G01 X-18.8428 Y4.6975 
G01 X-18.9088 Y4.5381 
G01 X-19.0046 Y4.3946 
G00 Z2.0000  F3000
G00 X-45.5472 Y4.4132  F3000
G01 Z-0.2000 F200.00 
G01 X-45.4021 Y4.7635 F500.00 
G01 X-45.4021 Y6.6665 
G01 X-45.5472 Y7.0168 
G01 X-45.8152 Y7.2848 
G01 X-46.1655 Y7.4299 
G01 X-46.5445 Y7.4299 
G01 X-46.8948 Y7.2848 
G01 X-47.1628 Y7.0168 
G01 X-47.3079 Y6.6665 
G01 X-47.3079 Y4.7635 
G01 X-47.1628 Y4.4132 
G01 X-46.8948 Y4.1452 
G01 X-46.5445 Y4.0001 
G01 X-46.1655 Y4.0001 
G01 X-45.8152 Y4.1452 
G01 X-45.5472 Y4.4132 
G00 Z2.0000  F3000
G00 X-45.6746 Y4.3946  F3000
G01 Z-0.2000 F200.00 
G01 X-45.7966 Y4.2726 F500.00 
G01 X-45.9401 Y4.1768 
G01 X-46.0995 Y4.1108 
G01 X-46.2687 Y4.0771 
G01 X-46.4413 Y4.0771 
G01 X-46.6105 Y4.1108 
G01 X-46.7699 Y4.1768 
G01 X-46.9134 Y4.2726 
G01 X-47.0354 Y4.3946 
G01 X-47.1312 Y4.5381 
G01 X-47.1972 Y4.6975 
G01 X-47.2309 Y4.8667 
G01 X-47.2309 Y6.5633 
G01 X-47.1972 Y6.7325 
G01 X-47.1312 Y6.8919 
G01 X-47.0354 Y7.0354 
G01 X-46.9134 Y7.1574 
G01 X-46.7699 Y7.2532 
G01 X-46.6105 Y7.3192 
G01 X-46.4413 Y7.3529 
G01 X-46.2687 Y7.3529 
G01 X-46.0995 Y7.3192 
G01 X-45.9401 Y7.2532 
G01 X-45.7966 Y7.1574 
G01 X-45.6746 Y7.0354 
G01 X-45.5788 Y6.8919 
G01 X-45.5128 Y6.7325 
G01 X-45.4791 Y6.5633 
G01 X-45.4791 Y4.8667 
G01 X-45.5128 Y4.6975 
G01 X-45.5788 Y4.5381 
G01 X-45.6746 Y4.3946 
G00 Z2.0000  F3000
G00 X-48.0872 Y4.4132  F3000
G01 Z-0.2000 F200.00 
G01 X-47.9421 Y4.7635 F500.00 
G01 X-47.9421 Y6.6665 
G01 X-48.0872 Y7.0168 
G01 X-48.3552 Y7.2848 
G01 X-48.7055 Y7.4299 
G01 X-49.0845 Y7.4299 
G01 X-49.4348 Y7.2848 
G01 X-49.7028 Y7.0168 
G01 X-49.8479 Y6.6665 
G01 X-49.8479 Y4.7635 
G01 X-49.7028 Y4.4132 
G01 X-49.4348 Y4.1452 
G01 X-49.0845 Y4.0001 
G01 X-48.7055 Y4.0001 
G01 X-48.3552 Y4.1452 
G01 X-48.0872 Y4.4132 
G00 Z2.0000  F3000
G00 X-48.2146 Y4.3946  F3000
G01 Z-0.2000 F200.00 
G01 X-48.3366 Y4.2726 F500.00 
G01 X-48.4801 Y4.1768 
G01 X-48.6395 Y4.1108 
G01 X-48.8087 Y4.0771 
G01 X-48.9813 Y4.0771 
G01 X-49.1505 Y4.1108 
G01 X-49.3099 Y4.1768 
G01 X-49.4534 Y4.2726 
G01 X-49.5754 Y4.3946 
G01 X-49.6712 Y4.5381 
G01 X-49.7372 Y4.6975 
G01 X-49.7709 Y4.8667 
G01 X-49.7709 Y6.5633 
G01 X-49.7372 Y6.7325 
G01 X-49.6712 Y6.8919 
G01 X-49.5754 Y7.0354 
G01 X-49.4534 Y7.1574 
G01 X-49.3099 Y7.2532 
G01 X-49.1505 Y7.3192 
G01 X-48.9813 Y7.3529 
G01 X-48.8087 Y7.3529 
G01 X-48.6395 Y7.3192 
G01 X-48.4801 Y7.2532 
G01 X-48.3366 Y7.1574 
G01 X-48.2146 Y7.0354 
G01 X-48.1188 Y6.8919 
G01 X-48.0528 Y6.7325 
G01 X-48.0191 Y6.5633 
G01 X-48.0191 Y4.8667 
G01 X-48.0528 Y4.6975 
G01 X-48.1188 Y4.5381 
G01 X-48.2146 Y4.3946 
G00 Z2.0000  F3000
G00 X-50.6272 Y4.4132  F3000
G01 Z-0.2000 F200.00 
G01 X-50.4821 Y4.7635 F500.00 
G01 X-50.4821 Y6.6665 
G01 X-50.6272 Y7.0168 
G01 X-50.8952 Y7.2848 
G01 X-51.2455 Y7.4299 
G01 X-51.6245 Y7.4299 
G01 X-51.9748 Y7.2848 
G01 X-52.2428 Y7.0168 
G01 X-52.3879 Y6.6665 
G01 X-52.3879 Y4.7635 
G01 X-52.2428 Y4.4132 
G01 X-51.9748 Y4.1452 
G01 X-51.6245 Y4.0001 
G01 X-51.2455 Y4.0001 
G01 X-50.8952 Y4.1452 
G01 X-50.6272 Y4.4132 
G00 Z2.0000  F3000
G00 X-50.7546 Y4.3946  F3000
G01 Z-0.2000 F200.00 
G01 X-50.8766 Y4.2726 F500.00 
G01 X-51.0201 Y4.1768 
G01 X-51.1795 Y4.1108 
G01 X-51.3487 Y4.0771 
G01 X-51.5213 Y4.0771 
G01 X-51.6905 Y4.1108 
G01 X-51.8499 Y4.1768 
G01 X-51.9934 Y4.2726 
G01 X-52.1154 Y4.3946 
G01 X-52.2112 Y4.5381 
G01 X-52.2772 Y4.6975 
G01 X-52.3109 Y4.8667 
G01 X-52.3109 Y6.5633 
G01 X-52.2772 Y6.7325 
G01 X-52.2112 Y6.8919 
G01 X-52.1154 Y7.0354 
G01 X-51.9934 Y7.1574 
G01 X-51.8499 Y7.2532 
G01 X-51.6905 Y7.3192 
G01 X-51.5213 Y7.3529 
G01 X-51.3487 Y7.3529 
G01 X-51.1795 Y7.3192 
G01 X-51.0201 Y7.2532 
G01 X-50.8766 Y7.1574 
G01 X-50.7546 Y7.0354 
G01 X-50.6588 Y6.8919 
G01 X-50.5928 Y6.7325 
G01 X-50.5591 Y6.5633 
G01 X-50.5591 Y4.8667 
G01 X-50.5928 Y4.6975 
G01 X-50.6588 Y4.5381 
G01 X-50.7546 Y4.3946 
G00 Z2.0000  F3000
G00 X-53.1672 Y4.4132  F3000
G01 Z-0.2000 F200.00 
G01 X-53.0221 Y4.7635 F500.00 
G01 X-53.0221 Y6.6665 
G01 X-53.1672 Y7.0168 
G01 X-53.4352 Y7.2848 
G01 X-53.7855 Y7.4299 
G01 X-54.1645 Y7.4299 
G01 X-54.5148 Y7.2848 
G01 X-54.7828 Y7.0168 
G01 X-54.9279 Y6.6665 
G01 X-54.9279 Y4.7635 
G01 X-54.7828 Y4.4132 
G01 X-54.5148 Y4.1452 
G01 X-54.1645 Y4.0001 
G01 X-53.7855 Y4.0001 
G01 X-53.4352 Y4.1452 
G01 X-53.1672 Y4.4132 
G00 Z2.0000  F3000
G00 X-53.2946 Y4.3946  F3000
G01 Z-0.2000 F200.00 
G01 X-53.4166 Y4.2726 F500.00 
G01 X-53.5601 Y4.1768 
G01 X-53.7195 Y4.1108 
G01 X-53.8887 Y4.0771 
G01 X-54.0613 Y4.0771 
G01 X-54.2305 Y4.1108 
G01 X-54.3899 Y4.1768 
G01 X-54.5334 Y4.2726 
G01 X-54.6554 Y4.3946 
G01 X-54.7512 Y4.5381 
G01 X-54.8172 Y4.6975 
G01 X-54.8509 Y4.8667 
G01 X-54.8509 Y6.5633 
G01 X-54.8172 Y6.7325 
G01 X-54.7512 Y6.8919 
G01 X-54.6554 Y7.0354 
G01 X-54.5334 Y7.1574 
G01 X-54.3899 Y7.2532 
G01 X-54.2305 Y7.3192 
G01 X-54.0613 Y7.3529 
G01 X-53.8887 Y7.3529 
G01 X-53.7195 Y7.3192 
G01 X-53.5601 Y7.2532 
G01 X-53.4166 Y7.1574 
G01 X-53.2946 Y7.0354 
G01 X-53.1988 Y6.8919 
G01 X-53.1328 Y6.7325 
G01 X-53.0991 Y6.5633 
G01 X-53.0991 Y4.8667 
G01 X-53.1328 Y4.6975 
G01 X-53.1988 Y4.5381 
G01 X-53.2946 Y4.3946 
G00 Z2.0000  F3000
G00 X-55.7072 Y4.4132  F3000
G01 Z-0.2000 F200.00 
G01 X-55.5621 Y4.7635 F500.00 
G01 X-55.5621 Y6.6665 
G01 X-55.7072 Y7.0168 
G01 X-55.9752 Y7.2848 
G01 X-56.3255 Y7.4299 
G01 X-56.7045 Y7.4299 
G01 X-57.0548 Y7.2848 
G01 X-57.3228 Y7.0168 
G01 X-57.4679 Y6.6665 
G01 X-57.4679 Y4.7635 
G01 X-57.3228 Y4.4132 
G01 X-57.0548 Y4.1452 
G01 X-56.7045 Y4.0001 
G01 X-56.3255 Y4.0001 
G01 X-55.9752 Y4.1452 
G01 X-55.7072 Y4.4132 
G00 Z2.0000  F3000
G00 X-55.8346 Y4.3946  F3000
G01 Z-0.2000 F200.00 
G01 X-55.9566 Y4.2726 F500.00 
G01 X-56.1001 Y4.1768 
G01 X-56.2595 Y4.1108 
G01 X-56.4287 Y4.0771 
G01 X-56.6013 Y4.0771 
G01 X-56.7705 Y4.1108 
G01 X-56.9299 Y4.1768 
G01 X-57.0734 Y4.2726 
G01 X-57.1954 Y4.3946 
G01 X-57.2912 Y4.5381 
G01 X-57.3572 Y4.6975 
G01 X-57.3909 Y4.8667 
G01 X-57.3909 Y6.5633 
G01 X-57.3572 Y6.7325 
G01 X-57.2912 Y6.8919 
G01 X-57.1954 Y7.0354 
G01 X-57.0734 Y7.1574 
G01 X-56.9299 Y7.2532 
G01 X-56.7705 Y7.3192 
G01 X-56.6013 Y7.3529 
G01 X-56.4287 Y7.3529 
G01 X-56.2595 Y7.3192 
G01 X-56.1001 Y7.2532 
G01 X-55.9566 Y7.1574 
G01 X-55.8346 Y7.0354 
G01 X-55.7388 Y6.8919 
G01 X-55.6728 Y6.7325 
G01 X-55.6391 Y6.5633 
G01 X-55.6391 Y4.8667 
G01 X-55.6728 Y4.6975 
G01 X-55.7388 Y4.5381 
G01 X-55.8346 Y4.3946 
G00 Z2.0000  F3000
G00 X-58.2472 Y4.4132  F3000
G01 Z-0.2000 F200.00 
G01 X-58.1021 Y4.7635 F500.00 
G01 X-58.1021 Y6.6665 
G01 X-58.2472 Y7.0168 
G01 X-58.5152 Y7.2848 
G01 X-58.8655 Y7.4299 
G01 X-59.2445 Y7.4299 
G01 X-59.5948 Y7.2848 
G01 X-59.8628 Y7.0168 
G01 X-60.0079 Y6.6665 
G01 X-60.0079 Y4.7635 
G01 X-59.8628 Y4.4132 
G01 X-59.5948 Y4.1452 
G01 X-59.2445 Y4.0001 
G01 X-58.8655 Y4.0001 
G01 X-58.5152 Y4.1452 
G01 X-58.2472 Y4.4132 
G00 Z2.0000  F3000
G00 X-58.3746 Y4.3946  F3000
G01 Z-0.2000 F200.00 
G01 X-58.4966 Y4.2726 F500.00 
G01 X-58.6401 Y4.1768 
G01 X-58.7995 Y4.1108 
G01 X-58.9687 Y4.0771 
G01 X-59.1413 Y4.0771 
G01 X-59.3105 Y4.1108 
G01 X-59.4699 Y4.1768 
G01 X-59.6134 Y4.2726 
G01 X-59.7354 Y4.3946 
G01 X-59.8312 Y4.5381 
G01 X-59.8972 Y4.6975 
G01 X-59.9309 Y4.8667 
G01 X-59.9309 Y6.5633 
G01 X-59.8972 Y6.7325 
G01 X-59.8312 Y6.8919 
G01 X-59.7354 Y7.0354 
G01 X-59.6134 Y7.1574 
G01 X-59.4699 Y7.2532 
G01 X-59.3105 Y7.3192 
G01 X-59.1413 Y7.3529 
G01 X-58.9687 Y7.3529 
G01 X-58.7995 Y7.3192 
G01 X-58.6401 Y7.2532 
G01 X-58.4966 Y7.1574 
G01 X-58.3746 Y7.0354 
G01 X-58.2788 Y6.8919 
G01 X-58.2128 Y6.7325 
G01 X-58.1791 Y6.5633 
G01 X-58.1791 Y4.8667 
G01 X-58.2128 Y4.6975 
G01 X-58.2788 Y4.5381 
G01 X-58.3746 Y4.3946 
G00 Z2.0000  F3000
G00 X-60.8235 Y4.4802  F3000
G01 Z-0.2000 F200.00 
G01 X-60.7590 Y4.6067 F500.00 
G01 X-60.7151 Y4.7417 
G01 X-60.6929 Y4.8820 
G01 X-60.6929 Y5.3471 
G01 X-60.7191 Y5.3471 
G01 X-60.7191 Y4.8667 
G01 X-60.7528 Y4.6975 
G01 X-60.8188 Y4.5381 
G01 X-60.9146 Y4.3946 
G01 X-61.0366 Y4.2726 
G01 X-61.1801 Y4.1768 
G01 X-61.2271 Y4.1573 
G01 X-61.2271 Y4.1280 
G01 X-61.1222 Y4.1814 
G01 X-61.0073 Y4.2649 
G01 X-60.9069 Y4.3653 
G01 X-60.8235 Y4.4802 
G00 Z2.0000  F3000
G00 X-61.9629 Y4.1573  F3000
G01 Z-0.2000 F200.00 
G01 X-62.0099 Y4.1768 F500.00 
G01 X-62.1534 Y4.2726 
G01 X-62.2754 Y4.3946 
G01 X-62.3712 Y4.5381 
G01 X-62.4372 Y4.6975 
G01 X-62.4709 Y4.8667 
G01 X-62.4709 Y5.3471 
G01 X-62.4971 Y5.3471 
G01 X-62.4971 Y4.8820 
G01 X-62.4749 Y4.7417 
G01 X-62.4310 Y4.6067 
G01 X-62.3665 Y4.4802 
G01 X-62.2831 Y4.3653 
G01 X-62.1827 Y4.2649 
G01 X-62.0678 Y4.1814 
G01 X-61.9629 Y4.1280 
G01 X-61.9629 Y4.1573 
G00 Z2.0000  F3000
G00 X-63.3272 Y4.4132  F3000
G01 Z-0.2000 F200.00 
G01 X-63.1821 Y4.7635 F500.00 
G01 X-63.1821 Y6.6665 
G01 X-63.3272 Y7.0168 
G01 X-63.5952 Y7.2848 
G01 X-63.9455 Y7.4299 
G01 X-64.3245 Y7.4299 
G01 X-64.6748 Y7.2848 
G01 X-64.9428 Y7.0168 
G01 X-65.0879 Y6.6665 
G01 X-65.0879 Y4.7635 
G01 X-64.9428 Y4.4132 
G01 X-64.6748 Y4.1452 
G01 X-64.3245 Y4.0001 
G01 X-63.9455 Y4.0001 
G01 X-63.5952 Y4.1452 
G01 X-63.3272 Y4.4132 
G00 Z2.0000  F3000
G00 X-63.4546 Y4.3946  F3000
G01 Z-0.2000 F200.00 
G01 X-63.5766 Y4.2726 F500.00 
G01 X-63.7201 Y4.1768 
G01 X-63.8795 Y4.1108 
G01 X-64.0487 Y4.0771 
G01 X-64.2213 Y4.0771 
G01 X-64.3905 Y4.1108 
G01 X-64.5499 Y4.1768 
G01 X-64.6934 Y4.2726 
G01 X-64.8154 Y4.3946 
G01 X-64.9112 Y4.5381 
G01 X-64.9772 Y4.6975 
G01 X-65.0109 Y4.8667 
G01 X-65.0109 Y6.5633 
G01 X-64.9772 Y6.7325 
G01 X-64.9112 Y6.8919 
G01 X-64.8154 Y7.0354 
G01 X-64.6934 Y7.1574 
G01 X-64.5499 Y7.2532 
G01 X-64.3905 Y7.3192 
G01 X-64.2213 Y7.3529 
G01 X-64.0487 Y7.3529 
G01 X-63.8795 Y7.3192 
G01 X-63.7201 Y7.2532 
G01 X-63.5766 Y7.1574 
G01 X-63.4546 Y7.0354 
G01 X-63.3588 Y6.8919 
G01 X-63.2928 Y6.7325 
G01 X-63.2591 Y6.5633 
G01 X-63.2591 Y4.8667 
G01 X-63.2928 Y4.6975 
G01 X-63.3588 Y4.5381 
G01 X-63.4546 Y4.3946 
G00 Z2.0000  F3000
G00 X-62.4971 Y6.0829  F3000
G01 Z-0.2000 F200.00 
G01 X-62.4709 Y6.0829 F500.00 
G01 X-62.4709 Y6.5633 
G01 X-62.4372 Y6.7325 
G01 X-62.3712 Y6.8919 
G01 X-62.3439 Y6.9328 
G01 X-62.3439 Y6.9810 
G01 X-62.3665 Y6.9498 
G01 X-62.4310 Y6.8233 
G01 X-62.4749 Y6.6883 
G01 X-62.4971 Y6.5480 
G01 X-62.4971 Y6.0829 
G00 Z2.0000  F3000
G00 X-60.7191 Y6.0829  F3000
G01 Z-0.2000 F200.00 
G01 X-60.6929 Y6.0829 F500.00 
G01 X-60.6929 Y6.5480 
G01 X-60.7151 Y6.6883 
G01 X-60.7590 Y6.8233 
G01 X-60.8235 Y6.9498 
G01 X-60.8461 Y6.9810 
G01 X-60.8461 Y6.9328 
G01 X-60.8188 Y6.8919 
G01 X-60.7528 Y6.7325 
G01 X-60.7191 Y6.5633 
G01 X-60.7191 Y6.0829 
G00 Z2.0000  F3000
G00 X-53.3841 Y12.9991  F3000
G01 Z-0.2000 F200.00 
G01 X-53.0459 Y12.6609 F500.00 
G01 X-52.6041 Y12.4779 
G01 X-52.1259 Y12.4779 
G01 X-51.6841 Y12.6609 
G01 X-51.3459 Y12.9991 
G01 X-51.1629 Y13.4409 
G01 X-51.1629 Y13.7323 
G01 X-51.1413 Y13.8130 
G01 X-51.0995 Y13.8853 
G01 X-51.0405 Y13.9443 
G01 X-50.9682 Y13.9861 
G01 X-50.8875 Y14.0077 
G01 X-50.4821 Y14.0077 
G01 X-50.4821 Y14.0339 
G01 X-51.3521 Y14.0339 
G01 X-51.5396 Y14.0636 
G01 X-51.7202 Y14.1223 
G01 X-51.8893 Y14.2084 
G01 X-52.0429 Y14.3200 
G01 X-52.1772 Y14.4543 
G01 X-52.2039 Y14.4911 
G01 X-53.2539 Y14.4911 
G01 X-53.3841 Y14.3609 
G01 X-53.5671 Y13.9191 
G01 X-53.5671 Y13.4409 
G01 X-53.3841 Y12.9991 
G00 Z2.0000  F3000
G00 X-49.8479 Y14.0077  F3000
G01 Z-0.2000 F200.00 
G01 X-48.9758 Y14.0077 F500.00 
G01 X-48.7842 Y14.0380 
G01 X-48.5998 Y14.0980 
G01 X-48.4269 Y14.1860 
G01 X-48.2700 Y14.3001 
G01 X-48.1328 Y14.4372 
G01 X-48.0188 Y14.5941 
G01 X-47.9308 Y14.7670 
G01 X-47.8801 Y14.9229 
G01 X-47.9077 Y14.9229 
G01 X-47.9551 Y14.7770 
G01 X-48.0412 Y14.6079 
G01 X-48.1528 Y14.4543 
G01 X-48.2871 Y14.3200 
G01 X-48.4407 Y14.2084 
G01 X-48.6098 Y14.1223 
G01 X-48.7904 Y14.0636 
G01 X-48.9779 Y14.0339 
G01 X-49.8479 Y14.0339 
G01 X-49.8479 Y14.0077 
G00 Z2.0000  F3000
G00 X-48.9779 Y16.5739  F3000
G01 Z-0.2000 F200.00 
G01 X-51.3521 Y16.5739 F500.00 
G01 X-51.5396 Y16.6036 
G01 X-51.7202 Y16.6623 
G01 X-51.8893 Y16.7484 
G01 X-52.0429 Y16.8600 
G01 X-52.1772 Y16.9943 
G01 X-52.2039 Y17.0311 
G01 X-56.5888 Y17.0311 
G01 X-56.7334 Y17.0599 
G01 X-56.8697 Y17.1163 
G01 X-56.9924 Y17.1983 
G01 X-58.2624 Y18.4683 
G01 X-58.3667 Y18.5726 
G01 X-58.4487 Y18.6953 
G01 X-58.5051 Y18.8316 
G01 X-58.5339 Y18.9762 
G01 X-58.5339 Y46.2411 
G01 X-59.0777 Y46.2411 
G01 X-59.1195 Y46.2584 
G01 X-59.1516 Y46.2905 
G01 X-59.1689 Y46.3323 
G01 X-59.1689 Y48.9177 
G01 X-59.1516 Y48.9595 
G01 X-59.1195 Y48.9916 
G01 X-59.0777 Y49.0089 
G01 X-56.4923 Y49.0089 
G01 X-56.4505 Y48.9916 
G01 X-56.4184 Y48.9595 
G01 X-56.4011 Y48.9177 
G01 X-56.4011 Y46.3323 
G01 X-56.4184 Y46.2905 
G01 X-56.4505 Y46.2584 
G01 X-56.4923 Y46.2411 
G01 X-57.0361 Y46.2411 
G01 X-57.0361 Y19.3602 
G01 X-56.2048 Y18.5289 
G01 X-52.2039 Y18.5289 
G01 X-52.1772 Y18.5657 
G01 X-52.0429 Y18.7000 
G01 X-51.8893 Y18.8115 
G01 X-51.7202 Y18.8977 
G01 X-51.5396 Y18.9564 
G01 X-51.3521 Y18.9861 
G01 X-48.9779 Y18.9861 
G01 X-48.7904 Y18.9564 
G01 X-48.6098 Y18.8977 
G01 X-48.4407 Y18.8115 
G01 X-48.2871 Y18.7000 
G01 X-48.1528 Y18.5657 
G01 X-48.0412 Y18.4121 
G01 X-47.9551 Y18.2430 
G01 X-47.8964 Y18.0624 
G01 X-47.8667 Y17.8749 
G01 X-47.8667 Y17.6851 
G01 X-47.8964 Y17.4976 
G01 X-47.9551 Y17.3170 
G01 X-48.0412 Y17.1479 
G01 X-48.1528 Y16.9943 
G01 X-48.2871 Y16.8600 
G01 X-48.4407 Y16.7484 
G01 X-48.6098 Y16.6623 
G01 X-48.7904 Y16.6036 
G01 X-48.9779 Y16.5739 
G00 Z2.0000  F3000
G00 X-48.9779 Y19.1139  F3000
G01 Z-0.2000 F200.00 
G01 X-51.3521 Y19.1139 F500.00 
G01 X-51.5396 Y19.1436 
G01 X-51.7202 Y19.2023 
G01 X-51.8893 Y19.2885 
G01 X-52.0429 Y19.4000 
G01 X-52.1772 Y19.5343 
G01 X-52.2887 Y19.6879 
G01 X-52.3749 Y19.8570 
G01 X-52.4336 Y20.0376 
G01 X-52.4633 Y20.2251 
G01 X-52.4633 Y20.4149 
G01 X-52.4336 Y20.6024 
G01 X-52.3749 Y20.7830 
G01 X-52.2887 Y20.9521 
G01 X-52.1772 Y21.1057 
G01 X-52.0429 Y21.2400 
G01 X-51.8893 Y21.3515 
G01 X-51.7202 Y21.4377 
G01 X-51.5396 Y21.4964 
G01 X-51.3521 Y21.5261 
G01 X-49.6439 Y21.5261 
G01 X-49.6439 Y26.9832 
G01 X-50.1011 Y27.4404 
G01 X-50.1011 Y28.4396 
G01 X-49.3946 Y29.1461 
G01 X-48.3954 Y29.1461 
G01 X-47.9382 Y28.6889 
G01 X-47.3118 Y28.6889 
G01 X-46.8546 Y29.1461 
G01 X-45.8554 Y29.1461 
G01 X-45.1489 Y28.4396 
G01 X-45.1489 Y27.4404 
G01 X-45.8554 Y26.7339 
G01 X-46.8546 Y26.7339 
G01 X-47.3118 Y27.1911 
G01 X-47.9382 Y27.1911 
G01 X-48.1461 Y26.9832 
G01 X-48.1461 Y21.0964 
G01 X-48.0412 Y20.9521 
G01 X-47.9551 Y20.7830 
G01 X-47.8964 Y20.6024 
G01 X-47.8667 Y20.4149 
G01 X-47.8667 Y20.2251 
G01 X-47.8964 Y20.0376 
G01 X-47.9551 Y19.8570 
G01 X-48.0412 Y19.6879 
G01 X-48.1528 Y19.5343 
G01 X-48.2871 Y19.4000 
G01 X-48.4407 Y19.2885 
G01 X-48.6098 Y19.2023 
G01 X-48.7904 Y19.1436 
G01 X-48.9779 Y19.1139 
G00 Z2.0000  F3000
G00 X-49.3946 Y29.2739  F3000
G01 Z-0.2000 F200.00 
G01 X-50.1011 Y29.9804 F500.00 
G01 X-50.1011 Y30.6270 
G01 X-50.7467 Y31.2726 
G01 X-50.8287 Y31.3953 
G01 X-50.8851 Y31.5316 
G01 X-50.9139 Y31.6762 
G01 X-50.9139 Y34.9889 
G01 X-51.3521 Y34.9889 
G01 X-51.5396 Y35.0186 
G01 X-51.7202 Y35.0773 
G01 X-51.8893 Y35.1634 
G01 X-52.0429 Y35.2750 
G01 X-52.1772 Y35.4093 
G01 X-52.2887 Y35.5629 
G01 X-52.3749 Y35.7320 
G01 X-52.4336 Y35.9126 
G01 X-52.4633 Y36.1001 
G01 X-52.4633 Y36.2899 
G01 X-52.4336 Y36.4774 
G01 X-52.3749 Y36.6580 
G01 X-52.2887 Y36.8271 
G01 X-52.1772 Y36.9807 
G01 X-52.0429 Y37.1150 
G01 X-51.8893 Y37.2265 
G01 X-51.7202 Y37.3127 
G01 X-51.5396 Y37.3714 
G01 X-51.3521 Y37.4011 
G01 X-48.9779 Y37.4011 
G01 X-48.7904 Y37.3714 
G01 X-48.6098 Y37.3127 
G01 X-48.4407 Y37.2265 
G01 X-48.2871 Y37.1150 
G01 X-48.1528 Y36.9807 
G01 X-48.0412 Y36.8271 
G01 X-47.9551 Y36.6580 
G01 X-47.8964 Y36.4774 
G01 X-47.8667 Y36.2899 
G01 X-47.8667 Y36.1001 
G01 X-47.8964 Y35.9126 
G01 X-47.9551 Y35.7320 
G01 X-48.0412 Y35.5629 
G01 X-48.1528 Y35.4093 
G01 X-48.2871 Y35.2750 
G01 X-48.4407 Y35.1634 
G01 X-48.6098 Y35.0773 
G01 X-48.7904 Y35.0186 
G01 X-48.9779 Y34.9889 
G01 X-49.4161 Y34.9889 
G01 X-49.4161 Y32.0602 
G01 X-49.0420 Y31.6861 
G01 X-48.3954 Y31.6861 
G01 X-47.9382 Y31.2289 
G01 X-47.3118 Y31.2289 
G01 X-46.8546 Y31.6861 
G01 X-45.8554 Y31.6861 
G01 X-45.1489 Y30.9796 
G01 X-45.1489 Y29.9804 
G01 X-45.8554 Y29.2739 
G01 X-46.8546 Y29.2739 
G01 X-47.3118 Y29.7311 
G01 X-47.9382 Y29.7311 
G01 X-48.3954 Y29.2739 
G01 X-49.3946 Y29.2739 
G00 Z2.0000  F3000
G00 X-49.0735 Y31.8265  F3000
G01 Z-0.2000 F200.00 
G01 X-49.1325 Y31.8855 F500.00 
G01 X-49.2757 Y32.0287 
G01 X-49.3175 Y32.1011 
G01 X-49.3391 Y32.1817 
G01 X-49.3391 Y34.6365 
G01 X-49.3175 Y34.7172 
G01 X-49.2757 Y34.7895 
G01 X-49.2167 Y34.8485 
G01 X-49.1444 Y34.8903 
G01 X-49.0637 Y34.9119 
G01 X-48.8176 Y34.9119 
G01 X-48.3460 Y35.1072 
G01 X-47.9850 Y35.4682 
G01 X-47.7897 Y35.9398 
G01 X-47.7897 Y36.4502 
G01 X-47.9850 Y36.9218 
G01 X-48.3365 Y37.2732 
G01 X-48.3560 Y37.2890 
G01 X-48.3658 Y37.3026 
G01 X-48.3777 Y37.3145 
G01 X-48.3903 Y37.3363 
G01 X-48.4051 Y37.3566 
G01 X-48.4111 Y37.3723 
G01 X-48.4195 Y37.3868 
G01 X-48.4260 Y37.4111 
G01 X-48.4350 Y37.4345 
G01 X-48.4367 Y37.4512 
G01 X-48.4411 Y37.4674 
G01 X-48.4411 Y37.4926 
G01 X-48.4437 Y37.5176 
G01 X-48.4411 Y37.5341 
G01 X-48.4411 Y37.5509 
G01 X-48.4346 Y37.5752 
G01 X-48.4306 Y37.6000 
G01 X-48.4238 Y37.6154 
G01 X-48.4195 Y37.6316 
G01 X-48.4069 Y37.6534 
G01 X-48.3967 Y37.6763 
G01 X-48.3861 Y37.6894 
G01 X-48.3777 Y37.7039 
G01 X-48.3599 Y37.7217 
G01 X-48.3441 Y37.7412 
G01 X-48.3306 Y37.7511 
G01 X-48.3187 Y37.7629 
G01 X-48.2969 Y37.7755 
G01 X-48.2700 Y37.7950 
G01 X-48.1328 Y37.9322 
G01 X-48.0188 Y38.0891 
G01 X-47.9947 Y38.1366 
G01 X-47.9834 Y38.1637 
G01 X-47.9758 Y38.1737 
G01 X-47.9701 Y38.1849 
G01 X-47.9505 Y38.2066 
G01 X-47.9326 Y38.2299 
G01 X-47.9226 Y38.2376 
G01 X-47.9142 Y38.2469 
G01 X-47.8896 Y38.2629 
G01 X-47.8664 Y38.2807 
G01 X-47.8547 Y38.2855 
G01 X-47.8442 Y38.2924 
G01 X-47.8163 Y38.3015 
G01 X-47.7892 Y38.3127 
G01 X-47.7767 Y38.3143 
G01 X-47.7648 Y38.3182 
G01 X-47.7355 Y38.3197 
G01 X-47.7065 Y38.3236 
G01 X-47.6940 Y38.3219 
G01 X-47.6814 Y38.3226 
G01 X-47.6527 Y38.3165 
G01 X-47.6237 Y38.3127 
G01 X-47.6120 Y38.3078 
G01 X-47.5997 Y38.3052 
G01 X-47.5736 Y38.2919 
G01 X-47.5465 Y38.2807 
G01 X-47.5365 Y38.2730 
G01 X-47.5253 Y38.2673 
G01 X-47.5036 Y38.2477 
G01 X-47.4803 Y38.2299 
G01 X-47.4726 Y38.2199 
G01 X-47.4633 Y38.2114 
G01 X-47.4473 Y38.1869 
G01 X-47.4295 Y38.1636 
G01 X-47.4247 Y38.1520 
G01 X-47.4178 Y38.1414 
G01 X-47.4087 Y38.1136 
G01 X-47.3841 Y38.0541 
G01 X-47.0459 Y37.7159 
G01 X-46.6041 Y37.5329 
G01 X-46.1259 Y37.5329 
G01 X-45.6841 Y37.7159 
G01 X-45.3459 Y38.0541 
G01 X-45.1629 Y38.4959 
G01 X-45.1629 Y38.9741 
G01 X-45.3459 Y39.4159 
G01 X-45.6841 Y39.7541 
G01 X-46.1259 Y39.9371 
G01 X-46.6041 Y39.9371 
G01 X-47.0459 Y39.7541 
G01 X-47.3841 Y39.4159 
G01 X-47.4087 Y39.3564 
G01 X-47.4178 Y39.3286 
G01 X-47.4247 Y39.3180 
G01 X-47.4295 Y39.3063 
G01 X-47.4473 Y39.2831 
G01 X-47.4633 Y39.2585 
G01 X-47.4726 Y39.2501 
G01 X-47.4803 Y39.2401 
G01 X-47.5036 Y39.2223 
G01 X-47.5253 Y39.2027 
G01 X-47.5365 Y39.1970 
G01 X-47.5465 Y39.1893 
G01 X-47.5736 Y39.1781 
G01 X-47.5997 Y39.1648 
G01 X-47.6120 Y39.1622 
G01 X-47.6237 Y39.1573 
G01 X-47.6527 Y39.1535 
G01 X-47.6814 Y39.1474 
G01 X-47.6940 Y39.1481 
G01 X-47.7065 Y39.1464 
G01 X-47.7355 Y39.1502 
G01 X-47.7648 Y39.1518 
G01 X-47.7767 Y39.1557 
G01 X-47.7892 Y39.1573 
G01 X-47.8163 Y39.1685 
G01 X-47.8442 Y39.1776 
G01 X-47.8547 Y39.1845 
G01 X-47.8664 Y39.1893 
G01 X-47.8896 Y39.2071 
G01 X-47.9142 Y39.2231 
G01 X-47.9226 Y39.2324 
G01 X-47.9326 Y39.2401 
G01 X-47.9505 Y39.2634 
G01 X-47.9701 Y39.2851 
G01 X-47.9758 Y39.2963 
G01 X-47.9834 Y39.3063 
G01 X-47.9947 Y39.3334 
G01 X-48.0188 Y39.3809 
G01 X-48.1328 Y39.5378 
G01 X-48.2700 Y39.6749 
G01 X-48.2969 Y39.6945 
G01 X-48.3187 Y39.7071 
G01 X-48.3306 Y39.7189 
G01 X-48.3441 Y39.7288 
G01 X-48.3599 Y39.7483 
G01 X-48.3777 Y39.7661 
G01 X-48.3861 Y39.7806 
G01 X-48.3967 Y39.7937 
G01 X-48.4069 Y39.8166 
G01 X-48.4195 Y39.8384 
G01 X-48.4238 Y39.8546 
G01 X-48.4306 Y39.8700 
G01 X-48.4346 Y39.8948 
G01 X-48.4411 Y39.9190 
G01 X-48.4411 Y39.9358 
G01 X-48.4437 Y39.9524 
G01 X-48.4411 Y39.9774 
G01 X-48.4411 Y40.0025 
G01 X-48.4367 Y40.0188 
G01 X-48.4350 Y40.0355 
G01 X-48.4260 Y40.0589 
G01 X-48.4195 Y40.0832 
G01 X-48.4111 Y40.0977 
G01 X-48.4051 Y40.1134 
G01 X-48.3903 Y40.1337 
G01 X-48.3777 Y40.1555 
G01 X-48.3658 Y40.1674 
G01 X-48.3560 Y40.1810 
G01 X-48.3365 Y40.1968 
G01 X-47.9850 Y40.5482 
G01 X-47.7897 Y41.0198 
G01 X-47.7897 Y41.5302 
G01 X-47.9850 Y42.0018 
G01 X-48.3460 Y42.3628 
G01 X-48.8176 Y42.5581 
G01 X-49.0637 Y42.5581 
G01 X-49.1444 Y42.5797 
G01 X-49.2167 Y42.6215 
G01 X-49.2757 Y42.6805 
G01 X-49.3175 Y42.7528 
G01 X-49.3391 Y42.8334 
G01 X-49.3391 Y45.4545 
G01 X-49.3175 Y45.5352 
G01 X-49.2757 Y45.6075 
G01 X-49.2167 Y45.6665 
G01 X-49.0868 Y45.7964 
G01 X-49.0710 Y45.8160 
G01 X-49.0574 Y45.8258 
G01 X-49.0455 Y45.8377 
G01 X-49.0237 Y45.8503 
G01 X-49.0034 Y45.8650 
G01 X-48.9877 Y45.8711 
G01 X-48.9732 Y45.8795 
G01 X-48.9489 Y45.8860 
G01 X-48.9255 Y45.8950 
G01 X-48.9088 Y45.8967 
G01 X-48.8925 Y45.9011 
G01 X-48.8674 Y45.9011 
G01 X-48.8424 Y45.9037 
G01 X-48.8258 Y45.9011 
G01 X-48.8090 Y45.9011 
G01 X-48.7848 Y45.8946 
G01 X-48.7600 Y45.8906 
G01 X-48.7446 Y45.8838 
G01 X-48.7284 Y45.8795 
G01 X-48.7066 Y45.8669 
G01 X-48.6837 Y45.8567 
G01 X-48.6706 Y45.8461 
G01 X-48.6561 Y45.8377 
G01 X-48.6383 Y45.8199 
G01 X-48.6188 Y45.8041 
G01 X-48.6089 Y45.7905 
G01 X-48.5971 Y45.7787 
G01 X-48.5845 Y45.7569 
G01 X-48.5649 Y45.7300 
G01 X-48.4278 Y45.5928 
G01 X-48.2709 Y45.4788 
G01 X-48.0980 Y45.3908 
G01 X-47.9929 Y45.3566 
G01 X-47.9929 Y45.3842 
G01 X-48.0880 Y45.4151 
G01 X-48.2571 Y45.5012 
G01 X-48.4107 Y45.6128 
G01 X-48.5450 Y45.7471 
G01 X-48.6565 Y45.9007 
G01 X-48.7427 Y46.0698 
G01 X-48.8014 Y46.2504 
G01 X-48.8311 Y46.4379 
G01 X-48.8311 Y48.8121 
G01 X-48.8014 Y48.9996 
G01 X-48.7427 Y49.1802 
G01 X-48.6565 Y49.3493 
G01 X-48.5450 Y49.5029 
G01 X-48.4107 Y49.6372 
G01 X-48.3739 Y49.6639 
G01 X-48.3739 Y49.7496 
G01 X-48.3953 Y49.7508 
G01 X-48.4287 Y49.7508 
G01 X-48.4369 Y49.7529 
G01 X-48.4453 Y49.7534 
G01 X-48.4771 Y49.7637 
G01 X-48.5094 Y49.7724 
G01 X-48.5167 Y49.7766 
G01 X-48.5247 Y49.7792 
G01 X-48.5527 Y49.7974 
G01 X-48.5817 Y49.8141 
G01 X-48.5877 Y49.8201 
G01 X-48.5947 Y49.8247 
G01 X-48.6171 Y49.8495 
G01 X-48.6407 Y49.8732 
G01 X-48.6450 Y49.8805 
G01 X-48.6506 Y49.8867 
G01 X-48.6658 Y49.9165 
G01 X-48.6825 Y49.9455 
G01 X-48.6847 Y49.9536 
G01 X-48.6885 Y49.9611 
G01 X-48.6954 Y49.9938 
G01 X-48.7041 Y50.0261 
G01 X-48.7041 Y50.0345 
G01 X-48.7058 Y50.0428 
G01 X-48.7041 Y50.0762 
G01 X-48.7041 Y52.2347 
G01 X-48.7067 Y52.2512 
G01 X-48.7041 Y52.2762 
G01 X-48.7041 Y52.3014 
G01 X-48.6998 Y52.3176 
G01 X-48.6980 Y52.3343 
G01 X-48.6890 Y52.3577 
G01 X-48.6825 Y52.3820 
G01 X-48.6741 Y52.3966 
G01 X-48.6681 Y52.4122 
G01 X-48.6533 Y52.4325 
G01 X-48.6407 Y52.4543 
G01 X-48.6289 Y52.4662 
G01 X-48.6190 Y52.4798 
G01 X-48.5995 Y52.4956 
G01 X-48.5817 Y52.5134 
G01 X-48.5671 Y52.5218 
G01 X-48.5541 Y52.5323 
G01 X-48.5312 Y52.5425 
G01 X-48.5094 Y52.5551 
G01 X-48.4932 Y52.5594 
G01 X-48.4778 Y52.5663 
G01 X-48.4530 Y52.5702 
G01 X-48.4287 Y52.5767 
G01 X-48.4120 Y52.5767 
G01 X-48.3954 Y52.5793 
G01 X-48.3739 Y52.5771 
G01 X-48.3739 Y52.7572 
G01 X-48.4012 Y52.7981 
G01 X-48.4672 Y52.9575 
G01 X-48.5009 Y53.1267 
G01 X-48.5009 Y53.6071 
G01 X-48.5271 Y53.6071 
G01 X-48.5271 Y53.1712 
G01 X-48.5487 Y53.0906 
G01 X-48.5905 Y53.0183 
G01 X-48.6495 Y52.9593 
G01 X-48.7218 Y52.9175 
G01 X-48.8024 Y52.8959 
G01 X-48.9367 Y52.8959 
G01 X-49.0174 Y52.9175 
G01 X-49.0897 Y52.9593 
G01 X-49.1487 Y53.0183 
G01 X-49.1905 Y53.0906 
G01 X-49.2121 Y53.1712 
G01 X-49.2121 Y54.9265 
G01 X-49.2542 Y55.0282 
G01 X-49.2647 Y55.0464 
G01 X-49.2701 Y55.0667 
G01 X-49.2782 Y55.0860 
G01 X-49.2809 Y55.1068 
G01 X-49.2863 Y55.1270 
G01 X-49.2863 Y55.1480 
G01 X-49.2891 Y55.1688 
G01 X-49.2863 Y55.1896 
G01 X-49.2863 Y55.2105 
G01 X-49.2809 Y55.2308 
G01 X-49.2782 Y55.2516 
G01 X-49.2701 Y55.2709 
G01 X-49.2647 Y55.2912 
G01 X-49.2542 Y55.3094 
G01 X-49.2462 Y55.3287 
G01 X-49.2334 Y55.3453 
G01 X-49.2230 Y55.3635 
G01 X-49.2081 Y55.3783 
G01 X-49.1954 Y55.3950 
G01 X-49.1788 Y55.4077 
G01 X-49.1639 Y55.4225 
G01 X-49.1458 Y55.4330 
G01 X-49.1291 Y55.4458 
G01 X-49.1098 Y55.4538 
G01 X-49.0916 Y55.4643 
G01 X-49.0714 Y55.4697 
G01 X-49.0520 Y55.4777 
G01 X-49.0312 Y55.4805 
G01 X-49.0110 Y55.4859 
G01 X-48.9900 Y55.4859 
G01 X-48.9692 Y55.4886 
G01 X-48.9484 Y55.4859 
G01 X-48.8000 Y55.4859 
G01 X-48.7917 Y55.4876 
G01 X-48.7583 Y55.4859 
G01 X-48.7249 Y55.4859 
G01 X-48.7168 Y55.4837 
G01 X-48.7083 Y55.4833 
G01 X-48.6765 Y55.4729 
G01 X-48.6442 Y55.4643 
G01 X-48.6369 Y55.4601 
G01 X-48.6289 Y55.4575 
G01 X-48.6009 Y55.4393 
G01 X-48.5719 Y55.4225 
G01 X-48.5660 Y55.4166 
G01 X-48.5589 Y55.4120 
G01 X-48.5365 Y55.3872 
G01 X-48.5129 Y55.3635 
G01 X-48.5087 Y55.3562 
G01 X-48.5031 Y55.3500 
G01 X-48.4879 Y55.3202 
G01 X-48.4711 Y55.2912 
G01 X-48.4690 Y55.2831 
G01 X-48.4651 Y55.2756 
G01 X-48.4582 Y55.2429 
G01 X-48.4495 Y55.2105 
G01 X-48.4495 Y55.2021 
G01 X-48.4478 Y55.1939 
G01 X-48.4495 Y55.1605 
G01 X-48.4495 Y55.1270 
G01 X-48.4517 Y55.1189 
G01 X-48.4522 Y55.1105 
G01 X-48.4625 Y55.0787 
G01 X-48.4711 Y55.0464 
G01 X-48.4754 Y55.0391 
G01 X-48.5049 Y54.9483 
G01 X-48.5271 Y54.8080 
G01 X-48.5271 Y54.3429 
G01 X-48.5009 Y54.3429 
G01 X-48.5009 Y54.8233 
G01 X-48.4672 Y54.9925 
G01 X-48.4012 Y55.1519 
G01 X-48.3054 Y55.2954 
G01 X-48.1834 Y55.4174 
G01 X-48.0399 Y55.5132 
G01 X-47.8805 Y55.5792 
G01 X-47.7113 Y55.6129 
G01 X-47.5387 Y55.6129 
G01 X-47.3695 Y55.5792 
G01 X-47.2101 Y55.5132 
G01 X-47.0666 Y55.4174 
G01 X-46.9446 Y55.2954 
G01 X-46.8488 Y55.1519 
G01 X-46.7828 Y54.9925 
G01 X-46.7491 Y54.8233 
G01 X-46.7491 Y54.3429 
G01 X-46.7229 Y54.3429 
G01 X-46.7229 Y54.8080 
G01 X-46.7451 Y54.9483 
G01 X-46.7746 Y55.0391 
G01 X-46.7788 Y55.0464 
G01 X-46.7875 Y55.0787 
G01 X-46.7978 Y55.1105 
G01 X-46.7983 Y55.1189 
G01 X-46.8005 Y55.1270 
G01 X-46.8005 Y55.1605 
G01 X-46.8022 Y55.1939 
G01 X-46.8005 Y55.2021 
G01 X-46.8005 Y55.2105 
G01 X-46.7918 Y55.2429 
G01 X-46.7848 Y55.2756 
G01 X-46.7810 Y55.2831 
G01 X-46.7788 Y55.2912 
G01 X-46.7621 Y55.3202 
G01 X-46.7469 Y55.3500 
G01 X-46.7413 Y55.3562 
G01 X-46.7371 Y55.3635 
G01 X-46.7134 Y55.3872 
G01 X-46.6911 Y55.4120 
G01 X-46.6840 Y55.4166 
G01 X-46.6781 Y55.4225 
G01 X-46.6491 Y55.4393 
G01 X-46.6211 Y55.4575 
G01 X-46.6130 Y55.4601 
G01 X-46.6058 Y55.4643 
G01 X-46.5735 Y55.4729 
G01 X-46.5416 Y55.4833 
G01 X-46.5332 Y55.4837 
G01 X-46.5251 Y55.4859 
G01 X-46.4917 Y55.4859 
G01 X-46.4583 Y55.4876 
G01 X-46.4500 Y55.4859 
G01 X-46.2600 Y55.4859 
G01 X-46.2517 Y55.4876 
G01 X-46.2183 Y55.4859 
G01 X-46.1849 Y55.4859 
G01 X-46.1768 Y55.4837 
G01 X-46.1683 Y55.4833 
G01 X-46.1365 Y55.4729 
G01 X-46.1042 Y55.4643 
G01 X-46.0970 Y55.4601 
G01 X-46.0889 Y55.4575 
G01 X-46.0609 Y55.4393 
G01 X-46.0319 Y55.4225 
G01 X-46.0260 Y55.4166 
G01 X-46.0189 Y55.4120 
G01 X-45.9965 Y55.3871 
G01 X-45.9729 Y55.3635 
G01 X-45.9687 Y55.3562 
G01 X-45.9631 Y55.3500 
G01 X-45.9479 Y55.3201 
G01 X-45.9311 Y55.2912 
G01 X-45.9290 Y55.2831 
G01 X-45.9251 Y55.2756 
G01 X-45.9182 Y55.2428 
G01 X-45.9095 Y55.2105 
G01 X-45.9095 Y55.2021 
G01 X-45.9078 Y55.1939 
G01 X-45.9095 Y55.1605 
G01 X-45.9095 Y55.1270 
G01 X-45.9117 Y55.1189 
G01 X-45.9122 Y55.1105 
G01 X-45.9225 Y55.0787 
G01 X-45.9311 Y55.0464 
G01 X-45.9354 Y55.0391 
G01 X-45.9649 Y54.9483 
G01 X-45.9871 Y54.8080 
G01 X-45.9871 Y54.3429 
G01 X-45.9609 Y54.3429 
G01 X-45.9609 Y54.8233 
G01 X-45.9272 Y54.9925 
G01 X-45.8612 Y55.1519 
G01 X-45.7654 Y55.2954 
G01 X-45.6434 Y55.4174 
G01 X-45.4999 Y55.5132 
G01 X-45.3405 Y55.5792 
G01 X-45.1713 Y55.6129 
G01 X-44.9987 Y55.6129 
G01 X-44.8295 Y55.5792 
G01 X-44.6701 Y55.5132 
G01 X-44.5266 Y55.4174 
G01 X-44.4046 Y55.2954 
G01 X-44.3088 Y55.1519 
G01 X-44.2428 Y54.9925 
G01 X-44.2091 Y54.8233 
G01 X-44.2091 Y54.3429 
G01 X-44.1829 Y54.3429 
G01 X-44.1829 Y54.8080 
G01 X-44.2051 Y54.9482 
G01 X-44.2346 Y55.0391 
G01 X-44.2388 Y55.0464 
G01 X-44.2475 Y55.0787 
G01 X-44.2578 Y55.1105 
G01 X-44.2583 Y55.1189 
G01 X-44.2605 Y55.1270 
G01 X-44.2605 Y55.1605 
G01 X-44.2622 Y55.1939 
G01 X-44.2605 Y55.2021 
G01 X-44.2605 Y55.2105 
G01 X-44.2518 Y55.2429 
G01 X-44.2448 Y55.2756 
G01 X-44.2410 Y55.2831 
G01 X-44.2388 Y55.2912 
G01 X-44.2221 Y55.3202 
G01 X-44.2069 Y55.3500 
G01 X-44.2013 Y55.3562 
G01 X-44.1971 Y55.3635 
G01 X-44.1734 Y55.3872 
G01 X-44.1511 Y55.4120 
G01 X-44.1440 Y55.4166 
G01 X-44.1381 Y55.4225 
G01 X-44.1091 Y55.4393 
G01 X-44.0811 Y55.4575 
G01 X-44.0730 Y55.4601 
G01 X-44.0658 Y55.4643 
G01 X-44.0335 Y55.4729 
G01 X-44.0016 Y55.4833 
G01 X-43.9932 Y55.4837 
G01 X-43.9851 Y55.4859 
G01 X-43.9517 Y55.4859 
G01 X-43.9183 Y55.4876 
G01 X-43.9100 Y55.4859 
G01 X-43.7616 Y55.4859 
G01 X-43.7408 Y55.4886 
G01 X-43.7200 Y55.4859 
G01 X-43.6990 Y55.4859 
G01 X-43.6788 Y55.4805 
G01 X-43.6580 Y55.4777 
G01 X-43.6386 Y55.4697 
G01 X-43.6184 Y55.4643 
G01 X-43.6002 Y55.4538 
G01 X-43.5809 Y55.4458 
G01 X-43.5642 Y55.4330 
G01 X-43.5461 Y55.4225 
G01 X-43.5312 Y55.4077 
G01 X-43.5146 Y55.3950 
G01 X-43.5019 Y55.3783 
G01 X-43.4870 Y55.3635 
G01 X-43.4765 Y55.3453 
G01 X-43.4638 Y55.3287 
G01 X-43.4558 Y55.3094 
G01 X-43.4453 Y55.2912 
G01 X-43.4399 Y55.2709 
G01 X-43.4318 Y55.2516 
G01 X-43.4291 Y55.2308 
G01 X-43.4237 Y55.2105 
G01 X-43.4237 Y55.1896 
G01 X-43.4209 Y55.1688 
G01 X-43.4237 Y55.1480 
G01 X-43.4237 Y55.1270 
G01 X-43.4291 Y55.1068 
G01 X-43.4318 Y55.0860 
G01 X-43.4399 Y55.0667 
G01 X-43.4453 Y55.0464 
G01 X-43.4558 Y55.0282 
G01 X-43.4979 Y54.9265 
G01 X-43.4979 Y53.0235 
G01 X-43.3528 Y52.6732 
G01 X-43.0848 Y52.4052 
G01 X-42.7345 Y52.2601 
G01 X-42.3555 Y52.2601 
G01 X-42.0052 Y52.4052 
G01 X-41.7372 Y52.6732 
G01 X-41.5921 Y53.0235 
G01 X-41.5921 Y54.9265 
G01 X-41.6342 Y55.0282 
G01 X-41.6447 Y55.0464 
G01 X-41.6501 Y55.0667 
G01 X-41.6582 Y55.0860 
G01 X-41.6609 Y55.1068 
G01 X-41.6663 Y55.1270 
G01 X-41.6663 Y55.1480 
G01 X-41.6691 Y55.1688 
G01 X-41.6663 Y55.1896 
G01 X-41.6663 Y55.2105 
G01 X-41.6609 Y55.2308 
G01 X-41.6582 Y55.2516 
G01 X-41.6501 Y55.2709 
G01 X-41.6447 Y55.2912 
G01 X-41.6342 Y55.3094 
G01 X-41.6262 Y55.3287 
G01 X-41.6135 Y55.3453 
G01 X-41.6030 Y55.3635 
G01 X-41.5881 Y55.3783 
G01 X-41.5754 Y55.3950 
G01 X-41.5588 Y55.4077 
G01 X-41.5439 Y55.4225 
G01 X-41.5258 Y55.4330 
G01 X-41.5091 Y55.4458 
G01 X-41.4898 Y55.4538 
G01 X-41.4716 Y55.4643 
G01 X-41.4514 Y55.4697 
G01 X-41.4320 Y55.4777 
G01 X-41.4112 Y55.4805 
G01 X-41.3910 Y55.4859 
G01 X-41.3700 Y55.4859 
G01 X-41.3492 Y55.4886 
G01 X-41.3284 Y55.4859 
G01 X-39.4044 Y55.4859 
G01 X-39.3238 Y55.4643 
G01 X-39.2515 Y55.4225 
G01 X-39.1925 Y55.3635 
G01 X-39.1507 Y55.2912 
G01 X-39.1291 Y55.2105 
G01 X-39.1291 Y16.2559 
G01 X-39.1462 Y16.1920 
G01 X-39.1507 Y16.1752 
G01 X-39.1698 Y16.1423 
G01 X-39.1925 Y16.1029 
G01 X-39.2515 Y16.0439 
G01 X-39.2700 Y16.0332 
G01 X-39.3238 Y16.0022 
G01 X-39.3387 Y15.9982 
G01 X-39.4044 Y15.9805 
G01 X-39.4880 Y15.9805 
G01 X-39.5519 Y15.9977 
G01 X-39.5686 Y16.0022 
G01 X-39.6016 Y16.0212 
G01 X-39.6409 Y16.0439 
G01 X-39.6999 Y16.1029 
G01 X-39.7507 Y16.1537 
G01 X-39.7625 Y16.1741 
G01 X-39.7925 Y16.2261 
G01 X-39.7970 Y16.2428 
G01 X-39.8141 Y16.3067 
G01 X-39.8141 Y30.6443 
G01 X-39.9398 Y30.9478 
G01 X-40.1722 Y31.1802 
G01 X-40.4757 Y31.3059 
G01 X-42.7367 Y31.3059 
G01 X-42.8174 Y31.3275 
G01 X-42.8897 Y31.3693 
G01 X-42.9487 Y31.4283 
G01 X-43.2835 Y31.7631 
G01 X-44.3465 Y31.7631 
G01 X-44.8903 Y31.2193 
G01 X-44.9626 Y31.1775 
G01 X-45.0433 Y31.1559 
G01 X-45.1267 Y31.1559 
G01 X-45.1302 Y31.1568 
G01 X-45.2074 Y31.1775 
G01 X-45.2781 Y31.2184 
G01 X-45.3387 Y31.2783 
G01 X-45.8235 Y31.7631 
G01 X-46.8865 Y31.7631 
G01 X-47.2803 Y31.3693 
G01 X-47.3526 Y31.3275 
G01 X-47.4333 Y31.3059 
G01 X-47.8167 Y31.3059 
G01 X-47.8974 Y31.3275 
G01 X-47.9697 Y31.3693 
G01 X-48.0287 Y31.4283 
G01 X-48.3635 Y31.7631 
G01 X-48.9205 Y31.7631 
G01 X-49.0011 Y31.7847 
G01 X-49.0735 Y31.8265 
G00 Z2.0000  F3000
G00 X-48.9779 Y40.0689  F3000
G01 Z-0.2000 F200.00 
G01 X-51.3521 Y40.0689 F500.00 
G01 X-51.5396 Y40.0986 
G01 X-51.7202 Y40.1573 
G01 X-51.8893 Y40.2435 
G01 X-52.0429 Y40.3550 
G01 X-52.1772 Y40.4893 
G01 X-52.2887 Y40.6429 
G01 X-52.3749 Y40.8120 
G01 X-52.4336 Y40.9926 
G01 X-52.4633 Y41.1801 
G01 X-52.4633 Y41.3699 
G01 X-52.4336 Y41.5574 
G01 X-52.3749 Y41.7380 
G01 X-52.2887 Y41.9071 
G01 X-52.1772 Y42.0607 
G01 X-52.0429 Y42.1950 
G01 X-51.8893 Y42.3065 
G01 X-51.7202 Y42.3927 
G01 X-51.5396 Y42.4514 
G01 X-51.3521 Y42.4811 
G01 X-50.9139 Y42.4811 
G01 X-50.9139 Y45.5861 
G01 X-50.9507 Y45.6128 
G01 X-51.0850 Y45.7471 
G01 X-51.1965 Y45.9007 
G01 X-51.2827 Y46.0698 
G01 X-51.3414 Y46.2504 
G01 X-51.3711 Y46.4379 
G01 X-51.3711 Y48.8121 
G01 X-51.3414 Y48.9996 
G01 X-51.2827 Y49.1802 
G01 X-51.1965 Y49.3493 
G01 X-51.0850 Y49.5029 
G01 X-50.9507 Y49.6372 
G01 X-50.9139 Y49.6639 
G01 X-50.9139 Y50.0511 
G01 X-51.4577 Y50.0511 
G01 X-51.4995 Y50.0684 
G01 X-51.5316 Y50.1005 
G01 X-51.5489 Y50.1423 
G01 X-51.5489 Y52.7277 
G01 X-51.5316 Y52.7695 
G01 X-51.4995 Y52.8016 
G01 X-51.4577 Y52.8189 
G01 X-50.9498 Y52.8189 
G01 X-51.0072 Y52.9575 
G01 X-51.0409 Y53.1267 
G01 X-51.0409 Y54.8233 
G01 X-51.0072 Y54.9925 
G01 X-50.9412 Y55.1519 
G01 X-50.8454 Y55.2954 
G01 X-50.7234 Y55.4174 
G01 X-50.5799 Y55.5132 
G01 X-50.4205 Y55.5792 
G01 X-50.2513 Y55.6129 
G01 X-50.0787 Y55.6129 
G01 X-49.9095 Y55.5792 
G01 X-49.7501 Y55.5132 
G01 X-49.6066 Y55.4174 
G01 X-49.4846 Y55.2954 
G01 X-49.3888 Y55.1519 
G01 X-49.3228 Y54.9925 
G01 X-49.2891 Y54.8233 
G01 X-49.2891 Y53.1267 
G01 X-49.3228 Y52.9575 
G01 X-49.3802 Y52.8189 
G01 X-48.8723 Y52.8189 
G01 X-48.8305 Y52.8016 
G01 X-48.7984 Y52.7695 
G01 X-48.7811 Y52.7277 
G01 X-48.7811 Y50.1423 
G01 X-48.7984 Y50.1005 
G01 X-48.8305 Y50.0684 
G01 X-48.8723 Y50.0511 
G01 X-49.4161 Y50.0511 
G01 X-49.4161 Y49.6639 
G01 X-49.3793 Y49.6372 
G01 X-49.2450 Y49.5029 
G01 X-49.1335 Y49.3493 
G01 X-49.0473 Y49.1802 
G01 X-48.9886 Y48.9996 
G01 X-48.9589 Y48.8121 
G01 X-48.9589 Y46.4379 
G01 X-48.9886 Y46.2504 
G01 X-49.0473 Y46.0698 
G01 X-49.1335 Y45.9007 
G01 X-49.2450 Y45.7471 
G01 X-49.3793 Y45.6128 
G01 X-49.4161 Y45.5861 
G01 X-49.4161 Y42.4811 
G01 X-48.9779 Y42.4811 
G01 X-48.7904 Y42.4514 
G01 X-48.6098 Y42.3927 
G01 X-48.4407 Y42.3065 
G01 X-48.2871 Y42.1950 
G01 X-48.1528 Y42.0607 
G01 X-48.0412 Y41.9071 
G01 X-47.9551 Y41.7380 
G01 X-47.8964 Y41.5574 
G01 X-47.8667 Y41.3699 
G01 X-47.8667 Y41.1801 
G01 X-47.8964 Y40.9926 
G01 X-47.9551 Y40.8120 
G01 X-48.0412 Y40.6429 
G01 X-48.1528 Y40.4893 
G01 X-48.2871 Y40.3550 
G01 X-48.4407 Y40.2435 
G01 X-48.6098 Y40.1573 
G01 X-48.7904 Y40.0986 
G01 X-48.9779 Y40.0689 
G00 Z2.0000  F3000
G00 X-47.2571 Y45.3566  F3000
G01 Z-0.2000 F200.00 
G01 X-47.1520 Y45.3908 F500.00 
G01 X-46.9791 Y45.4788 
G01 X-46.8222 Y45.5928 
G01 X-46.6850 Y45.7300 
G01 X-46.5710 Y45.8869 
G01 X-46.4830 Y46.0598 
G01 X-46.4230 Y46.2442 
G01 X-46.3927 Y46.4358 
G01 X-46.3927 Y47.2571 
G01 X-46.4189 Y47.2571 
G01 X-46.4189 Y46.4379 
G01 X-46.4486 Y46.2504 
G01 X-46.5073 Y46.0698 
G01 X-46.5934 Y45.9007 
G01 X-46.7050 Y45.7471 
G01 X-46.8393 Y45.6128 
G01 X-46.9929 Y45.5012 
G01 X-47.1620 Y45.4151 
G01 X-47.2571 Y45.3842 
G01 X-47.2571 Y45.3566 
G00 Z2.0000  F3000
G00 X-46.4189 Y47.9929  F3000
G01 Z-0.2000 F200.00 
G01 X-46.3927 Y47.9929 F500.00 
G01 X-46.3927 Y48.8142 
G01 X-46.4230 Y49.0058 
G01 X-46.4830 Y49.1902 
G01 X-46.5710 Y49.3631 
G01 X-46.6850 Y49.5200 
G01 X-46.8222 Y49.6571 
G01 X-46.8761 Y49.6963 
G01 X-46.8761 Y49.6639 
G01 X-46.8393 Y49.6372 
G01 X-46.7050 Y49.5029 
G01 X-46.5934 Y49.3493 
G01 X-46.5073 Y49.1802 
G01 X-46.4486 Y48.9996 
G01 X-46.4189 Y48.8121 
G01 X-46.4189 Y47.9929 
G00 Z2.0000  F3000
G00 X-46.8761 Y52.7090  F3000
G01 Z-0.2000 F200.00 
G01 X-46.8535 Y52.7402 F500.00 
G01 X-46.7890 Y52.8667 
G01 X-46.7451 Y53.0017 
G01 X-46.7229 Y53.1420 
G01 X-46.7229 Y53.6071 
G01 X-46.7491 Y53.6071 
G01 X-46.7491 Y53.1267 
G01 X-46.7828 Y52.9575 
G01 X-46.8488 Y52.7981 
G01 X-46.8761 Y52.7572 
G01 X-46.8761 Y52.7090 
G00 Z2.0000  F3000
G00 X-45.8565 Y52.7402  F3000
G01 Z-0.2000 F200.00 
G01 X-45.7731 Y52.6253 F500.00 
G01 X-45.6727 Y52.5249 
G01 X-45.5578 Y52.4415 
G01 X-45.4529 Y52.3880 
G01 X-45.4529 Y52.4173 
G01 X-45.4999 Y52.4368 
G01 X-45.6434 Y52.5326 
G01 X-45.7654 Y52.6546 
G01 X-45.8612 Y52.7981 
G01 X-45.9272 Y52.9575 
G01 X-45.9609 Y53.1267 
G01 X-45.9609 Y53.6071 
G01 X-45.9871 Y53.6071 
G01 X-45.9871 Y53.1420 
G01 X-45.9649 Y53.0017 
G01 X-45.9210 Y52.8667 
G01 X-45.8565 Y52.7402 
G00 Z2.0000  F3000
G00 X-44.7171 Y52.4173  F3000
G01 Z-0.2000 F200.00 
G01 X-44.7171 Y52.3880 F500.00 
G01 X-44.6122 Y52.4415 
G01 X-44.4973 Y52.5249 
G01 X-44.3969 Y52.6253 
G01 X-44.3135 Y52.7402 
G01 X-44.2490 Y52.8667 
G01 X-44.2051 Y53.0017 
G01 X-44.1829 Y53.1420 
G01 X-44.1829 Y53.6071 
G01 X-44.2091 Y53.6071 
G01 X-44.2091 Y53.1267 
G01 X-44.2428 Y52.9575 
G01 X-44.3088 Y52.7981 
G01 X-44.4046 Y52.6546 
G01 X-44.5266 Y52.5326 
G01 X-44.6701 Y52.4368 
G01 X-44.7171 Y52.4173 
G00 Z2.0000  F3000
G00 X-43.1034 Y52.5326  F3000
G01 Z-0.2000 F200.00 
G01 X-43.2254 Y52.6546 F500.00 
G01 X-43.3212 Y52.7981 
G01 X-43.3872 Y52.9575 
G01 X-43.4209 Y53.1267 
G01 X-43.4209 Y54.8233 
G01 X-43.3872 Y54.9925 
G01 X-43.3212 Y55.1519 
G01 X-43.2254 Y55.2954 
G01 X-43.1034 Y55.4174 
G01 X-42.9599 Y55.5132 
G01 X-42.8005 Y55.5792 
G01 X-42.6313 Y55.6129 
G01 X-42.4587 Y55.6129 
G01 X-42.2895 Y55.5792 
G01 X-42.1301 Y55.5132 
G01 X-41.9866 Y55.4174 
G01 X-41.8646 Y55.2954 
G01 X-41.7688 Y55.1519 
G01 X-41.7028 Y54.9925 
G01 X-41.6691 Y54.8233 
G01 X-41.6691 Y53.1267 
G01 X-41.7028 Y52.9575 
G01 X-41.7688 Y52.7981 
G01 X-41.8646 Y52.6546 
G01 X-41.9866 Y52.5326 
G01 X-42.1301 Y52.4368 
G01 X-42.2895 Y52.3708 
G01 X-42.4587 Y52.3371 
G01 X-42.6313 Y52.3371 
G01 X-42.8005 Y52.3708 
G01 X-42.9599 Y52.4368 
G01 X-43.1034 Y52.5326 
G00 Z2.0000  F3000
G00 X-52.0246 Y52.6546  F3000
G01 Z-0.2000 F200.00 
G01 X-52.1466 Y52.5326 F500.00 
G01 X-52.2901 Y52.4368 
G01 X-52.4495 Y52.3708 
G01 X-52.6187 Y52.3371 
G01 X-52.7913 Y52.3371 
G01 X-52.9605 Y52.3708 
G01 X-53.1199 Y52.4368 
G01 X-53.2634 Y52.5326 
G01 X-53.3854 Y52.6546 
G01 X-53.4812 Y52.7981 
G01 X-53.5472 Y52.9575 
G01 X-53.5809 Y53.1267 
G01 X-53.5809 Y54.8233 
G01 X-53.5472 Y54.9925 
G01 X-53.4812 Y55.1519 
G01 X-53.3854 Y55.2954 
G01 X-53.2634 Y55.4174 
G01 X-53.1199 Y55.5132 
G01 X-52.9605 Y55.5792 
G01 X-52.7913 Y55.6129 
G01 X-52.6187 Y55.6129 
G01 X-52.4495 Y55.5792 
G01 X-52.2901 Y55.5132 
G01 X-52.1466 Y55.4174 
G01 X-52.0246 Y55.2954 
G01 X-51.9288 Y55.1519 
G01 X-51.8628 Y54.9925 
G01 X-51.8291 Y54.8233 
G01 X-51.8291 Y53.1267 
G01 X-51.8628 Y52.9575 
G01 X-51.9288 Y52.7981 
G01 X-52.0246 Y52.6546 
G00 Z2.0000  F3000
G00 X-54.5646 Y52.6546  F3000
G01 Z-0.2000 F200.00 
G01 X-54.6866 Y52.5326 F500.00 
G01 X-54.8301 Y52.4368 
G01 X-54.9895 Y52.3708 
G01 X-55.1587 Y52.3371 
G01 X-55.3313 Y52.3371 
G01 X-55.5005 Y52.3708 
G01 X-55.6599 Y52.4368 
G01 X-55.8034 Y52.5326 
G01 X-55.9254 Y52.6546 
G01 X-56.0212 Y52.7981 
G01 X-56.0872 Y52.9575 
G01 X-56.1209 Y53.1267 
G01 X-56.1209 Y54.8233 
G01 X-56.0872 Y54.9925 
G01 X-56.0212 Y55.1519 
G01 X-55.9254 Y55.2954 
G01 X-55.8034 Y55.4174 
G01 X-55.6599 Y55.5132 
G01 X-55.5005 Y55.5792 
G01 X-55.3313 Y55.6129 
G01 X-55.1587 Y55.6129 
G01 X-54.9895 Y55.5792 
G01 X-54.8301 Y55.5132 
G01 X-54.6866 Y55.4174 
G01 X-54.5646 Y55.2954 
G01 X-54.4688 Y55.1519 
G01 X-54.4028 Y54.9925 
G01 X-54.3691 Y54.8233 
G01 X-54.3691 Y53.1267 
G01 X-54.4028 Y52.9575 
G01 X-54.4688 Y52.7981 
G01 X-54.5646 Y52.6546 
G00 Z2.0000  F3000
G00 X-0.9964 Y1.0778  F3000
G01 Z-0.2000 F200.00 
G01 X-1.0778 Y0.9964 F500.00 
G01 X-1.1775 Y0.9389 
G01 X-1.2887 Y0.9091 
G01 X-66.6563 Y0.9091 
G01 X-66.7675 Y0.9389 
G01 X-66.8672 Y0.9964 
G01 X-66.9486 Y1.0778 
G01 X-67.0061 Y1.1775 
G01 X-67.0359 Y1.2887 
G01 X-67.0359 Y55.2263 
G01 X-67.0061 Y55.3375 
G01 X-66.9486 Y55.4372 
G01 X-66.8672 Y55.5186 
G01 X-66.7675 Y55.5761 
G01 X-66.6563 Y55.6059 
G01 X-56.4694 Y55.6059 
G01 X-56.4408 Y55.6097 
G01 X-56.4121 Y55.6059 
G01 X-56.3832 Y55.6059 
G01 X-56.3553 Y55.5984 
G01 X-56.3267 Y55.5946 
G01 X-56.3000 Y55.5836 
G01 X-56.2721 Y55.5761 
G01 X-56.2470 Y55.5617 
G01 X-56.2203 Y55.5506 
G01 X-56.1974 Y55.5330 
G01 X-56.1724 Y55.5186 
G01 X-56.1519 Y55.4981 
G01 X-56.1290 Y55.4805 
G01 X-56.1114 Y55.4576 
G01 X-56.0910 Y55.4372 
G01 X-56.0766 Y55.4121 
G01 X-56.0590 Y55.3892 
G01 X-56.0479 Y55.3625 
G01 X-56.0372 Y55.3440 
G01 X-56.0186 Y55.3718 
G01 X-55.8798 Y55.5106 
G01 X-55.7167 Y55.6196 
G01 X-55.5355 Y55.6946 
G01 X-55.3431 Y55.7329 
G01 X-55.1469 Y55.7329 
G01 X-54.9545 Y55.6946 
G01 X-54.7733 Y55.6196 
G01 X-54.6101 Y55.5106 
G01 X-54.4714 Y55.3718 
G01 X-54.4528 Y55.3440 
G01 X-54.4421 Y55.3625 
G01 X-54.4310 Y55.3892 
G01 X-54.4134 Y55.4121 
G01 X-54.3990 Y55.4372 
G01 X-54.3785 Y55.4576 
G01 X-54.3610 Y55.4805 
G01 X-54.3381 Y55.4981 
G01 X-54.3176 Y55.5186 
G01 X-54.2926 Y55.5330 
G01 X-54.2697 Y55.5506 
G01 X-54.2430 Y55.5617 
G01 X-54.2179 Y55.5761 
G01 X-54.1900 Y55.5836 
G01 X-54.1633 Y55.5946 
G01 X-54.1347 Y55.5984 
G01 X-54.1068 Y55.6059 
G01 X-54.0779 Y55.6059 
G01 X-54.0492 Y55.6097 
G01 X-54.0206 Y55.6059 
G01 X-53.9294 Y55.6059 
G01 X-53.9008 Y55.6097 
G01 X-53.8721 Y55.6059 
G01 X-53.8432 Y55.6059 
G01 X-53.8153 Y55.5984 
G01 X-53.7867 Y55.5946 
G01 X-53.7600 Y55.5836 
G01 X-53.7321 Y55.5761 
G01 X-53.7070 Y55.5617 
G01 X-53.6803 Y55.5506 
G01 X-53.6574 Y55.5330 
G01 X-53.6324 Y55.5186 
G01 X-53.6119 Y55.4981 
G01 X-53.5890 Y55.4805 
G01 X-53.5714 Y55.4576 
G01 X-53.5510 Y55.4372 
G01 X-53.5366 Y55.4121 
G01 X-53.5190 Y55.3892 
G01 X-53.5079 Y55.3625 
G01 X-53.4972 Y55.3440 
G01 X-53.4786 Y55.3718 
G01 X-53.3398 Y55.5106 
G01 X-53.1767 Y55.6196 
G01 X-52.9955 Y55.6946 
G01 X-52.8031 Y55.7329 
G01 X-52.6069 Y55.7329 
G01 X-52.4145 Y55.6946 
G01 X-52.2333 Y55.6196 
G01 X-52.0701 Y55.5106 
G01 X-51.9314 Y55.3718 
G01 X-51.8224 Y55.2087 
G01 X-51.7474 Y55.0275 
G01 X-51.7091 Y54.8351 
G01 X-51.7091 Y53.1149 
G01 X-51.7474 Y52.9225 
G01 X-51.8224 Y52.7413 
G01 X-51.9061 Y52.6161 
G01 X-51.8855 Y52.6161 
G01 X-51.8490 Y52.6063 
G01 X-51.7743 Y52.5863 
G01 X-51.7191 Y52.5544 
G01 X-51.6746 Y52.5287 
G01 X-51.6689 Y52.5230 
G01 X-51.6689 Y52.7515 
G01 X-51.6333 Y52.8375 
G01 X-51.5675 Y52.9033 
G01 X-51.4815 Y52.9389 
G01 X-51.1259 Y52.9389 
G01 X-51.1609 Y53.1149 
G01 X-51.1609 Y54.8351 
G01 X-51.1226 Y55.0275 
G01 X-51.0476 Y55.2087 
G01 X-50.9386 Y55.3718 
G01 X-50.7998 Y55.5106 
G01 X-50.6367 Y55.6196 
G01 X-50.4555 Y55.6946 
G01 X-50.2631 Y55.7329 
G01 X-50.0669 Y55.7329 
G01 X-49.8745 Y55.6946 
G01 X-49.6933 Y55.6196 
G01 X-49.5301 Y55.5106 
G01 X-49.3914 Y55.3718 
G01 X-49.3728 Y55.3440 
G01 X-49.3621 Y55.3625 
G01 X-49.3510 Y55.3892 
G01 X-49.3334 Y55.4121 
G01 X-49.3190 Y55.4372 
G01 X-49.2985 Y55.4576 
G01 X-49.2810 Y55.4805 
G01 X-49.2580 Y55.4981 
G01 X-49.2376 Y55.5186 
G01 X-49.2126 Y55.5330 
G01 X-49.1897 Y55.5506 
G01 X-49.1630 Y55.5617 
G01 X-49.1379 Y55.5761 
G01 X-49.1100 Y55.5836 
G01 X-49.0833 Y55.5946 
G01 X-49.0547 Y55.5984 
G01 X-49.0268 Y55.6059 
G01 X-48.9979 Y55.6059 
G01 X-48.9692 Y55.6097 
G01 X-48.9406 Y55.6059 
G01 X-48.8126 Y55.6059 
G01 X-48.8012 Y55.6083 
G01 X-48.7552 Y55.6059 
G01 X-48.7091 Y55.6059 
G01 X-48.6979 Y55.6029 
G01 X-48.6863 Y55.6023 
G01 X-48.6425 Y55.5880 
G01 X-48.5979 Y55.5761 
G01 X-48.5879 Y55.5703 
G01 X-48.5768 Y55.5667 
G01 X-48.5382 Y55.5416 
G01 X-48.4982 Y55.5186 
G01 X-48.4900 Y55.5104 
G01 X-48.4803 Y55.5040 
G01 X-48.4495 Y55.4698 
G01 X-48.4169 Y55.4372 
G01 X-48.4111 Y55.4271 
G01 X-48.4033 Y55.4185 
G01 X-48.3860 Y55.3845 
G01 X-48.2598 Y55.5106 
G01 X-48.0967 Y55.6196 
G01 X-47.9155 Y55.6946 
G01 X-47.7231 Y55.7329 
G01 X-47.5269 Y55.7329 
G01 X-47.3345 Y55.6946 
G01 X-47.1533 Y55.6196 
G01 X-46.9901 Y55.5106 
G01 X-46.8640 Y55.3845 
G01 X-46.8467 Y55.4185 
G01 X-46.8389 Y55.4271 
G01 X-46.8331 Y55.4372 
G01 X-46.8005 Y55.4698 
G01 X-46.7697 Y55.5040 
G01 X-46.7600 Y55.5104 
G01 X-46.7517 Y55.5186 
G01 X-46.7118 Y55.5416 
G01 X-46.6732 Y55.5667 
G01 X-46.6621 Y55.5703 
G01 X-46.6521 Y55.5761 
G01 X-46.6075 Y55.5880 
G01 X-46.5637 Y55.6023 
G01 X-46.5521 Y55.6029 
G01 X-46.5409 Y55.6059 
G01 X-46.4948 Y55.6059 
G01 X-46.4488 Y55.6083 
G01 X-46.4374 Y55.6059 
G01 X-46.2726 Y55.6059 
G01 X-46.2612 Y55.6083 
G01 X-46.2152 Y55.6059 
G01 X-46.1691 Y55.6059 
G01 X-46.1579 Y55.6029 
G01 X-46.1463 Y55.6023 
G01 X-46.1024 Y55.5880 
G01 X-46.0579 Y55.5761 
G01 X-46.0479 Y55.5703 
G01 X-46.0368 Y55.5667 
G01 X-45.9982 Y55.5416 
G01 X-45.9582 Y55.5186 
G01 X-45.9500 Y55.5104 
G01 X-45.9403 Y55.5040 
G01 X-45.9095 Y55.4698 
G01 X-45.8769 Y55.4372 
G01 X-45.8711 Y55.4271 
G01 X-45.8633 Y55.4185 
G01 X-45.8460 Y55.3845 
G01 X-45.7198 Y55.5106 
G01 X-45.5567 Y55.6196 
G01 X-45.3755 Y55.6946 
G01 X-45.1831 Y55.7329 
G01 X-44.9869 Y55.7329 
G01 X-44.7945 Y55.6946 
G01 X-44.6133 Y55.6196 
G01 X-44.4502 Y55.5106 
G01 X-44.3240 Y55.3845 
G01 X-44.3067 Y55.4185 
G01 X-44.2989 Y55.4271 
G01 X-44.2931 Y55.4372 
G01 X-44.2605 Y55.4698 
G01 X-44.2297 Y55.5040 
G01 X-44.2200 Y55.5104 
G01 X-44.2117 Y55.5186 
G01 X-44.1718 Y55.5416 
G01 X-44.1332 Y55.5667 
G01 X-44.1221 Y55.5703 
G01 X-44.1121 Y55.5761 
G01 X-44.0675 Y55.5880 
G01 X-44.0237 Y55.6023 
G01 X-44.0121 Y55.6029 
G01 X-44.0009 Y55.6059 
G01 X-43.9548 Y55.6059 
G01 X-43.9088 Y55.6083 
G01 X-43.8974 Y55.6059 
G01 X-43.7694 Y55.6059 
G01 X-43.7408 Y55.6097 
G01 X-43.7121 Y55.6059 
G01 X-43.6832 Y55.6059 
G01 X-43.6553 Y55.5984 
G01 X-43.6267 Y55.5946 
G01 X-43.6000 Y55.5836 
G01 X-43.5721 Y55.5761 
G01 X-43.5470 Y55.5617 
G01 X-43.5203 Y55.5506 
G01 X-43.4974 Y55.5330 
G01 X-43.4724 Y55.5186 
G01 X-43.4519 Y55.4981 
G01 X-43.4290 Y55.4805 
G01 X-43.4115 Y55.4576 
G01 X-43.3910 Y55.4372 
G01 X-43.3766 Y55.4121 
G01 X-43.3590 Y55.3892 
G01 X-43.3479 Y55.3625 
G01 X-43.3372 Y55.3440 
G01 X-43.3186 Y55.3718 
G01 X-43.1798 Y55.5106 
G01 X-43.0167 Y55.6196 
G01 X-42.8355 Y55.6946 
G01 X-42.6431 Y55.7329 
G01 X-42.4469 Y55.7329 
G01 X-42.2545 Y55.6946 
G01 X-42.0733 Y55.6196 
G01 X-41.9102 Y55.5106 
G01 X-41.7714 Y55.3718 
G01 X-41.7528 Y55.3440 
G01 X-41.7421 Y55.3625 
G01 X-41.7310 Y55.3892 
G01 X-41.7134 Y55.4121 
G01 X-41.6990 Y55.4372 
G01 X-41.6785 Y55.4576 
G01 X-41.6610 Y55.4805 
G01 X-41.6380 Y55.4981 
G01 X-41.6176 Y55.5186 
G01 X-41.5926 Y55.5330 
G01 X-41.5697 Y55.5506 
G01 X-41.5430 Y55.5617 
G01 X-41.5179 Y55.5761 
G01 X-41.4900 Y55.5836 
G01 X-41.4633 Y55.5946 
G01 X-41.4347 Y55.5984 
G01 X-41.4068 Y55.6059 
G01 X-41.3779 Y55.6059 
G01 X-41.3492 Y55.6097 
G01 X-41.3206 Y55.6059 
G01 X-39.3886 Y55.6059 
G01 X-39.2775 Y55.5761 
G01 X-39.1778 Y55.5186 
G01 X-39.0964 Y55.4372 
G01 X-39.0389 Y55.3375 
G01 X-39.0091 Y55.2263 
G01 X-39.0091 Y16.3552 
G01 X-39.0091 Y16.2983 
G01 X-39.0091 Y16.2401 
G01 X-39.0168 Y16.2113 
G01 X-39.0389 Y16.1289 
G01 X-39.0497 Y16.1102 
G01 X-39.0964 Y16.0293 
G01 X-39.1778 Y15.9479 
G01 X-39.2775 Y15.8903 
G01 X-39.3794 Y15.8630 
G01 X-39.3886 Y15.8605 
G01 X-39.3967 Y15.8605 
G01 X-38.7495 Y15.2133 
G01 X-38.7495 Y15.2213 
G01 X-38.7197 Y15.3325 
G01 X-38.6621 Y15.4322 
G01 X-38.5807 Y15.5136 
G01 X-38.4811 Y15.5711 
G01 X-38.3699 Y15.6009 
G01 X-1.2887 Y15.6009 
G01 X-1.1775 Y15.5711 
G01 X-1.0778 Y15.5136 
G01 X-0.9964 Y15.4322 
G01 X-0.9389 Y15.3325 
G01 X-0.9091 Y15.2213 
G01 X-0.9091 Y7.6488 
G01 X-0.9053 Y7.6202 
G01 X-0.9091 Y7.5915 
G01 X-0.9091 Y7.5626 
G01 X-0.9166 Y7.5347 
G01 X-0.9204 Y7.5061 
G01 X-0.9314 Y7.4794 
G01 X-0.9389 Y7.4515 
G01 X-0.9533 Y7.4264 
G01 X-0.9644 Y7.3997 
G01 X-0.9820 Y7.3768 
G01 X-0.9964 Y7.3518 
G01 X-1.0169 Y7.3313 
G01 X-1.0345 Y7.3084 
G01 X-1.0574 Y7.2908 
G01 X-1.0778 Y7.2704 
G01 X-1.1028 Y7.2560 
G01 X-1.1258 Y7.2384 
G01 X-1.1525 Y7.2273 
G01 X-1.1775 Y7.2129 
G01 X-1.2054 Y7.2054 
G01 X-1.2192 Y7.1996 
G01 X-1.1314 Y7.1118 
G01 X-1.0224 Y6.9487 
G01 X-0.9474 Y6.7675 
G01 X-0.9091 Y6.5751 
G01 X-0.9091 Y4.8549 
G01 X-0.9474 Y4.6625 
G01 X-1.0224 Y4.4813 
G01 X-1.1314 Y4.3182 
G01 X-1.2192 Y4.2303 
G01 X-1.2054 Y4.2246 
G01 X-1.1775 Y4.2171 
G01 X-1.1525 Y4.2027 
G01 X-1.1258 Y4.1916 
G01 X-1.1028 Y4.1740 
G01 X-1.0778 Y4.1596 
G01 X-1.0574 Y4.1392 
G01 X-1.0345 Y4.1216 
G01 X-1.0169 Y4.0987 
G01 X-0.9964 Y4.0782 
G01 X-0.9820 Y4.0532 
G01 X-0.9644 Y4.0303 
G01 X-0.9533 Y4.0036 
G01 X-0.9389 Y3.9785 
G01 X-0.9314 Y3.9506 
G01 X-0.9204 Y3.9239 
G01 X-0.9166 Y3.8953 
G01 X-0.9091 Y3.8674 
G01 X-0.9091 Y3.8385 
G01 X-0.9053 Y3.8098 
G01 X-0.9091 Y3.7812 
G01 X-0.9091 Y1.2887 
G01 X-0.9389 Y1.1775 
G01 X-0.9964 Y1.0778 
G00 Z2.0000  F3000
G00 X-38.4507 Y11.7395  F3000
G01 Z-0.2000 F200.00 
G01 X-38.4507 Y11.7476 F500.00 
G01 X-38.4433 Y11.7755 
G01 X-38.4395 Y11.8042 
G01 X-38.4284 Y11.8309 
G01 X-38.4209 Y11.8588 
G01 X-38.4065 Y11.8838 
G01 X-38.3954 Y11.9105 
G01 X-38.3778 Y11.9334 
G01 X-38.3634 Y11.9585 
G01 X-38.3430 Y11.9789 
G01 X-38.3254 Y12.0018 
G01 X-38.3024 Y12.0194 
G01 X-38.2820 Y12.0398 
G01 X-38.2570 Y12.0543 
G01 X-38.2341 Y12.0719 
G01 X-38.2074 Y12.0829 
G01 X-38.1823 Y12.0974 
G01 X-38.1544 Y12.1049 
G01 X-38.1277 Y12.1159 
G01 X-38.1118 Y12.1180 
G01 X-38.1399 Y12.1461 
G01 X-41.3149 Y15.3211 
G01 X-41.4100 Y15.4634 
G01 X-41.4755 Y15.6215 
G01 X-41.5089 Y15.7894 
G01 X-41.5089 Y15.9606 
G01 X-41.5089 Y29.6111 
G01 X-42.8085 Y29.6111 
G01 X-43.2096 Y29.2100 
G01 X-42.4889 Y28.4893 
G01 X-42.4889 Y27.3907 
G01 X-42.9461 Y26.9335 
G01 X-42.9461 Y16.2349 
G01 X-38.4507 Y11.7395 
G00 Z2.0000  F3000
G00 X-44.6839 Y17.5510  F3000
G01 Z-0.2000 F200.00 
G01 X-44.6839 Y26.9335 F500.00 
G01 X-45.0850 Y27.3346 
G01 X-45.8057 Y26.6139 
G01 X-46.9043 Y26.6139 
G01 X-47.3615 Y27.0711 
G01 X-47.8885 Y27.0711 
G01 X-48.0261 Y26.9335 
G01 X-48.0261 Y21.1354 
G01 X-47.9386 Y21.0150 
G01 X-47.8439 Y20.8290 
G01 X-47.7794 Y20.6305 
G01 X-47.7467 Y20.4244 
G01 X-47.7467 Y20.2156 
G01 X-47.7794 Y20.0095 
G01 X-47.8439 Y19.8110 
G01 X-47.9386 Y19.6250 
G01 X-48.0613 Y19.4561 
G01 X-48.2089 Y19.3085 
G01 X-48.3778 Y19.1858 
G01 X-48.5638 Y19.0911 
G01 X-48.6901 Y19.0500 
G01 X-48.5638 Y19.0089 
G01 X-48.3778 Y18.9142 
G01 X-48.2089 Y18.7915 
G01 X-48.0613 Y18.6439 
G01 X-47.9386 Y18.4750 
G01 X-47.8439 Y18.2890 
G01 X-47.7794 Y18.0905 
G01 X-47.7467 Y17.8844 
G01 X-47.7467 Y17.6756 
G01 X-47.7794 Y17.4695 
G01 X-47.8044 Y17.3925 
G01 X-47.7892 Y17.3988 
G01 X-47.7064 Y17.4097 
G01 X-47.6751 Y17.4138 
G01 X-47.5610 Y17.3988 
G01 X-47.4741 Y17.3628 
G01 X-47.4546 Y17.3547 
G01 X-47.4277 Y17.3341 
G01 X-47.3633 Y17.2847 
G01 X-47.2933 Y17.1934 
G01 X-47.2824 Y17.1670 
G01 X-46.9780 Y16.8626 
G01 X-46.5802 Y16.6979 
G01 X-46.1498 Y16.6979 
G01 X-45.7520 Y16.8626 
G01 X-45.4476 Y17.1670 
G01 X-45.3728 Y17.3477 
G01 X-45.3653 Y17.3757 
G01 X-45.3509 Y17.4007 
G01 X-45.3398 Y17.4274 
G01 X-45.3222 Y17.4503 
G01 X-45.3078 Y17.4753 
G01 X-45.2873 Y17.4958 
G01 X-45.2697 Y17.5187 
G01 X-45.2468 Y17.5363 
G01 X-45.2264 Y17.5567 
G01 X-45.2014 Y17.5712 
G01 X-45.1784 Y17.5888 
G01 X-45.1517 Y17.5998 
G01 X-45.1267 Y17.6143 
G01 X-45.0988 Y17.6217 
G01 X-45.0721 Y17.6328 
G01 X-45.0434 Y17.6366 
G01 X-45.0155 Y17.6440 
G01 X-44.9866 Y17.6440 
G01 X-44.9580 Y17.6478 
G01 X-44.9293 Y17.6440 
G01 X-44.9004 Y17.6440 
G01 X-44.8725 Y17.6366 
G01 X-44.8439 Y17.6328 
G01 X-44.8172 Y17.6217 
G01 X-44.7893 Y17.6143 
G01 X-44.7642 Y17.5998 
G01 X-44.7376 Y17.5888 
G01 X-44.7146 Y17.5712 
G01 X-44.6896 Y17.5567 
G01 X-44.6839 Y17.5510 
G00 Z2.0000  F3000
G00 X-48.5540 Y16.5560  F3000
G01 Z-0.2000 F200.00 
G01 X-48.5638 Y16.5511 F500.00 
G01 X-48.6901 Y16.5100 
G01 X-48.5638 Y16.4689 
G01 X-48.5611 Y16.4887 
G01 X-48.5611 Y16.5233 
G01 X-48.5551 Y16.5457 
G01 X-48.5540 Y16.5560 
G00 Z2.0000  F3000
G00 X-51.6399 Y16.5100  F3000
G01 Z-0.2000 F200.00 
G01 X-51.7662 Y16.5511 F500.00 
G01 X-51.7760 Y16.5560 
G01 X-51.7749 Y16.5457 
G01 X-51.7689 Y16.5234 
G01 X-51.7689 Y16.4887 
G01 X-51.7668 Y16.4687 
G01 X-51.6399 Y16.5100 
G00 Z2.0000  F3000
G00 X-51.6399 Y19.0500  F3000
G01 Z-0.2000 F200.00 
G01 X-51.7662 Y19.0911 F500.00 
G01 X-51.8154 Y19.1161 
G01 X-51.8131 Y19.1075 
G01 X-51.8131 Y18.9924 
G01 X-51.8154 Y18.9839 
G01 X-51.7662 Y19.0089 
G01 X-51.6399 Y19.0500 
G00 Z2.0000  F3000
G00 X-52.5211 Y20.7214  F3000
G01 Z-0.2000 F200.00 
G01 X-52.4861 Y20.8290 F500.00 
G01 X-52.3914 Y21.0150 
G01 X-52.2687 Y21.1839 
G01 X-52.1211 Y21.3315 
G01 X-51.9522 Y21.4542 
G01 X-51.7662 Y21.5489 
G01 X-51.5677 Y21.6134 
G01 X-51.3616 Y21.6461 
G01 X-51.1898 Y21.6461 
G01 X-51.1956 Y21.6518 
G01 X-51.2531 Y21.7515 
G01 X-51.2829 Y21.8626 
G01 X-51.2829 Y22.0952 
G01 X-51.4476 Y22.4930 
G01 X-51.7520 Y22.7974 
G01 X-52.1498 Y22.9621 
G01 X-52.5802 Y22.9621 
G01 X-52.9780 Y22.7974 
G01 X-53.2824 Y22.4930 
G01 X-53.4471 Y22.0952 
G01 X-53.4471 Y21.6648 
G01 X-53.2824 Y21.2670 
G01 X-52.9780 Y20.9626 
G01 X-52.7166 Y20.8544 
G01 X-52.6887 Y20.8469 
G01 X-52.6637 Y20.8324 
G01 X-52.6370 Y20.8214 
G01 X-52.6140 Y20.8038 
G01 X-52.5890 Y20.7894 
G01 X-52.5686 Y20.7689 
G01 X-52.5457 Y20.7513 
G01 X-52.5281 Y20.7284 
G01 X-52.5211 Y20.7214 
G00 Z2.0000  F3000
G00 X-52.2637 Y14.3711  F3000
G01 Z-0.2000 F200.00 
G01 X-53.2042 Y14.3711 F500.00 
G01 X-53.2824 Y14.2930 
G01 X-53.4471 Y13.8952 
G01 X-53.4471 Y13.4648 
G01 X-53.2824 Y13.0670 
G01 X-52.9780 Y12.7626 
G01 X-52.5802 Y12.5979 
G01 X-52.1498 Y12.5979 
G01 X-51.7520 Y12.7626 
G01 X-51.4476 Y13.0670 
G01 X-51.2829 Y13.4648 
G01 X-51.2829 Y13.7481 
G01 X-51.2531 Y13.8593 
G01 X-51.2216 Y13.9139 
G01 X-51.3616 Y13.9139 
G01 X-51.5677 Y13.9466 
G01 X-51.7662 Y14.0111 
G01 X-51.9522 Y14.1058 
G01 X-52.1211 Y14.2285 
G01 X-52.2637 Y14.3711 
G00 Z2.0000  F3000
G00 X-48.2896 Y29.2100  F3000
G01 Z-0.2000 F200.00 
G01 X-47.8885 Y28.8089 F500.00 
G01 X-47.3615 Y28.8089 
G01 X-46.9604 Y29.2100 
G01 X-47.3615 Y29.6111 
G01 X-47.8885 Y29.6111 
G01 X-48.2896 Y29.2100 
G00 Z2.0000  F3000
G00 X-45.7496 Y29.2100  F3000
G01 Z-0.2000 F200.00 
G01 X-45.0850 Y28.5454 F500.00 
G01 X-44.4204 Y29.2100 
G01 X-45.0850 Y29.8746 
G01 X-45.7496 Y29.2100 
G00 Z2.0000  F3000
G00 X-45.7520 Y37.8176  F3000
G01 Z-0.2000 F200.00 
G01 X-45.4476 Y38.1220 F500.00 
G01 X-45.2829 Y38.5198 
G01 X-45.2829 Y38.9502 
G01 X-45.4476 Y39.3480 
G01 X-45.7520 Y39.6524 
G01 X-46.1498 Y39.8171 
G01 X-46.5802 Y39.8171 
G01 X-46.9780 Y39.6524 
G01 X-47.2824 Y39.3480 
G01 X-47.2961 Y39.3149 
G01 X-47.3085 Y39.2765 
G01 X-47.3180 Y39.2619 
G01 X-47.3247 Y39.2458 
G01 X-47.3492 Y39.2138 
G01 X-47.3712 Y39.1799 
G01 X-47.3841 Y39.1683 
G01 X-47.3947 Y39.1545 
G01 X-47.4268 Y39.1299 
G01 X-47.4568 Y39.1029 
G01 X-47.4722 Y39.0950 
G01 X-47.4860 Y39.0845 
G01 X-47.5233 Y39.0690 
G01 X-47.5593 Y39.0507 
G01 X-47.5763 Y39.0471 
G01 X-47.5924 Y39.0404 
G01 X-47.6324 Y39.0351 
G01 X-47.6719 Y39.0267 
G01 X-47.6892 Y39.0277 
G01 X-47.7065 Y39.0254 
G01 X-47.7465 Y39.0307 
G01 X-47.7773 Y39.0323 
G01 X-47.7467 Y38.8394 
G01 X-47.7467 Y38.6306 
G01 X-47.7773 Y38.4377 
G01 X-47.7465 Y38.4393 
G01 X-47.7065 Y38.4446 
G01 X-47.6892 Y38.4423 
G01 X-47.6719 Y38.4432 
G01 X-47.6324 Y38.4348 
G01 X-47.5924 Y38.4296 
G01 X-47.5763 Y38.4229 
G01 X-47.5593 Y38.4193 
G01 X-47.5233 Y38.4010 
G01 X-47.4860 Y38.3855 
G01 X-47.4722 Y38.3750 
G01 X-47.4568 Y38.3671 
G01 X-47.4268 Y38.3401 
G01 X-47.3947 Y38.3155 
G01 X-47.3841 Y38.3017 
G01 X-47.3712 Y38.2901 
G01 X-47.3492 Y38.2562 
G01 X-47.3247 Y38.2242 
G01 X-47.3180 Y38.2081 
G01 X-47.3085 Y38.1935 
G01 X-47.2961 Y38.1551 
G01 X-47.2824 Y38.1220 
G01 X-46.9780 Y37.8176 
G01 X-46.5802 Y37.6529 
G01 X-46.1498 Y37.6529 
G01 X-45.7520 Y37.8176 
G00 Z2.0000  F3000
G00 X-48.5632 Y37.5063  F3000
G01 Z-0.2000 F200.00 
G01 X-48.5638 Y37.5061 F500.00 
G01 X-48.6901 Y37.4650 
G01 X-48.5638 Y37.4239 
G01 X-48.5540 Y37.4190 
G01 X-48.5551 Y37.4293 
G01 X-48.5611 Y37.4516 
G01 X-48.5611 Y37.4863 
G01 X-48.5632 Y37.5063 
G00 Z2.0000  F3000
G00 X-48.5632 Y39.9636  F3000
G01 Z-0.2000 F200.00 
G01 X-48.5611 Y39.9837 F500.00 
G01 X-48.5611 Y40.0183 
G01 X-48.5551 Y40.0407 
G01 X-48.5540 Y40.0510 
G01 X-48.5638 Y40.0461 
G01 X-48.6901 Y40.0050 
G01 X-48.5638 Y39.9639 
G00 Z2.0000  F3000
G00 X-51.6399 Y40.0050  F3000
G01 Z-0.2000 F200.00 
G01 X-51.7662 Y40.0461 F500.00 
G01 X-51.7760 Y40.0510 
G01 X-51.7749 Y40.0407 
G01 X-51.7689 Y40.0183 
G01 X-51.7689 Y39.9837 
G01 X-51.7668 Y39.9637 
G01 X-51.6399 Y40.0050 
G00 Z2.0000  F3000
G00 X-51.6399 Y37.4650  F3000
G01 Z-0.2000 F200.00 
G01 X-51.7662 Y37.5061 F500.00 
G01 X-51.7689 Y37.4863 
G01 X-51.7689 Y37.4516 
G01 X-51.7749 Y37.4293 
G01 X-51.7760 Y37.4190 
G01 X-51.7662 Y37.4239 
G01 X-51.6399 Y37.4650 
G00 Z2.0000  F3000
G00 X-52.5211 Y35.7936  F3000
G01 Z-0.2000 F200.00 
G01 X-52.5281 Y35.7866 F500.00 
G01 X-52.5457 Y35.7637 
G01 X-52.5686 Y35.7461 
G01 X-52.5890 Y35.7256 
G01 X-52.6140 Y35.7112 
G01 X-52.6370 Y35.6936 
G01 X-52.6637 Y35.6825 
G01 X-52.6887 Y35.6681 
G01 X-52.7166 Y35.6606 
G01 X-52.9780 Y35.5524 
G01 X-53.2824 Y35.2480 
G01 X-53.4471 Y34.8502 
G01 X-53.4471 Y34.4198 
G01 X-53.2824 Y34.0220 
G01 X-52.9780 Y33.7176 
G01 X-52.5802 Y33.5529 
G01 X-52.1498 Y33.5529 
G01 X-51.7520 Y33.7176 
G01 X-51.6578 Y33.8119 
G01 X-51.5785 Y33.8911 
G01 X-51.5764 Y33.8933 
G01 X-51.5355 Y33.9169 
G01 X-51.4767 Y33.9508 
G01 X-51.3655 Y33.9806 
G01 X-51.2505 Y33.9806 
G01 X-51.1393 Y33.9508 
G01 X-51.0396 Y33.8933 
G01 X-51.0339 Y33.8876 
G01 X-51.0339 Y34.8689 
G01 X-51.3616 Y34.8689 
G01 X-51.5677 Y34.9016 
G01 X-51.7662 Y34.9661 
G01 X-51.9522 Y35.0608 
G01 X-52.1211 Y35.1835 
G01 X-52.2687 Y35.3311 
G01 X-52.3914 Y35.5000 
G01 X-52.4861 Y35.6860 
G01 X-52.5211 Y35.7936 
G00 Z2.0000  F3000
G00 X-52.5211 Y41.6764  F3000
G01 Z-0.2000 F200.00 
G01 X-52.4861 Y41.7840 F500.00 
G01 X-52.3914 Y41.9700 
G01 X-52.2687 Y42.1389 
G01 X-52.1211 Y42.2865 
G01 X-51.9522 Y42.4092 
G01 X-51.7662 Y42.5039 
G01 X-51.5677 Y42.5684 
G01 X-51.3616 Y42.6011 
G01 X-51.0339 Y42.6011 
G01 X-51.0339 Y43.5824 
G01 X-51.0396 Y43.5767 
G01 X-51.1393 Y43.5192 
G01 X-51.2505 Y43.4894 
G01 X-51.3655 Y43.4894 
G01 X-51.4767 Y43.5192 
G01 X-51.5330 Y43.5516 
G01 X-51.5764 Y43.5767 
G01 X-51.6578 Y43.6581 
G01 X-51.7520 Y43.7524 
G01 X-52.1498 Y43.9171 
G01 X-52.5802 Y43.9171 
G01 X-52.9780 Y43.7524 
G01 X-53.2824 Y43.4480 
G01 X-53.4471 Y43.0502 
G01 X-53.4471 Y42.6198 
G01 X-53.2824 Y42.2220 
G01 X-52.9780 Y41.9176 
G01 X-52.7166 Y41.8094 
G01 X-52.6887 Y41.8019 
G01 X-52.6637 Y41.7874 
G01 X-52.6370 Y41.7764 
G01 X-52.6140 Y41.7588 
G01 X-52.5890 Y41.7444 
G01 X-52.5686 Y41.7239 
G01 X-52.5457 Y41.7063 
G01 X-52.5281 Y41.6834 
G01 X-52.5211 Y41.6764 
G00 Z2.0000  F3000
G00 X-48.9410 Y46.0140  F3000
G01 Z-0.2000 F200.00 
G01 X-48.9307 Y46.0151 F500.00 
G01 X-48.9083 Y46.0211 
G01 X-48.8737 Y46.0211 
G01 X-48.8536 Y46.0232 
G01 X-48.8950 Y46.1501 
G01 X-48.9361 Y46.0238 
G01 X-48.9410 Y46.0140 
G00 Z2.0000  F3000
G00 X-48.8950 Y49.0999  F3000
G01 Z-0.2000 F200.00 
G01 X-48.8539 Y49.2262 F500.00 
G01 X-48.7592 Y49.4122 
G01 X-48.6365 Y49.5811 
G01 X-48.5565 Y49.6610 
G01 X-48.5658 Y49.6664 
G01 X-48.5768 Y49.6699 
G01 X-48.6154 Y49.6950 
G01 X-48.6554 Y49.7181 
G01 X-48.6636 Y49.7263 
G01 X-48.6733 Y49.7326 
G01 X-48.7042 Y49.7669 
G01 X-48.7368 Y49.7995 
G01 X-48.7426 Y49.8095 
G01 X-48.7503 Y49.8182 
G01 X-48.7713 Y49.8592 
G01 X-48.7943 Y49.8992 
G01 X-48.7973 Y49.9104 
G01 X-48.8026 Y49.9207 
G01 X-48.8083 Y49.9477 
G01 X-48.8485 Y49.9311 
G01 X-49.2961 Y49.9311 
G01 X-49.2961 Y49.7237 
G01 X-49.1535 Y49.5811 
G01 X-49.0308 Y49.4122 
G01 X-48.9361 Y49.2262 
G01 X-48.8950 Y49.0999 
G00 Z2.0000  F3000
G00 X-51.0511 Y49.7065  F3000
G01 Z-0.2000 F200.00 
G01 X-51.0339 Y49.7237 F500.00 
G01 X-51.0339 Y49.9311 
G01 X-51.1442 Y49.9311 
G01 X-51.1384 Y49.9254 
G01 X-51.0983 Y49.8558 
G01 X-51.0809 Y49.8257 
G01 X-51.0603 Y49.7489 
G01 X-51.0511 Y49.7145 
G01 X-51.0511 Y49.7065 
G00 Z2.0000  F3000
G00 X-48.6611 Y52.6037  F3000
G01 Z-0.2000 F200.00 
G01 X-48.6554 Y52.6094 F500.00 
G01 X-48.6353 Y52.6210 
G01 X-48.6174 Y52.6355 
G01 X-48.5857 Y52.6496 
G01 X-48.5557 Y52.6669 
G01 X-48.5334 Y52.6729 
G01 X-48.5122 Y52.6823 
G01 X-48.4939 Y52.6852 
G01 X-48.4939 Y52.7208 
G01 X-48.5076 Y52.7413 
G01 X-48.5633 Y52.8758 
G01 X-48.5758 Y52.8632 
G01 X-48.6755 Y52.8057 
G01 X-48.6827 Y52.8037 
G01 X-48.6611 Y52.7515 
G01 X-48.6611 Y52.6037 
G00 Z2.0000  F3000
G00 X-0.9004 Y1.0041  F3000
G01 Z-0.2000 F200.00 
G01 X-1.0041 Y0.9004 F500.00 
G01 X-1.1312 Y0.8271 
G01 X-1.2729 Y0.7891 
G01 X-66.6721 Y0.7891 
G01 X-66.8138 Y0.8271 
G01 X-66.9409 Y0.9004 
G01 X-67.0446 Y1.0041 
G01 X-67.1179 Y1.1312 
G01 X-67.1559 Y1.2729 
G01 X-67.1559 Y55.2421 
G01 X-67.1179 Y55.3838 
G01 X-67.0446 Y55.5109 
G01 X-66.9409 Y55.6146 
G01 X-66.8138 Y55.6879 
G01 X-66.6721 Y55.7259 
G01 X-56.4773 Y55.7259 
G01 X-56.4408 Y55.7307 
G01 X-56.4043 Y55.7259 
G01 X-56.3674 Y55.7259 
G01 X-56.3319 Y55.7164 
G01 X-56.2953 Y55.7116 
G01 X-56.2613 Y55.6975 
G01 X-56.2257 Y55.6879 
G01 X-56.1938 Y55.6695 
G01 X-56.1598 Y55.6554 
G01 X-56.1306 Y55.6330 
G01 X-56.0987 Y55.6146 
G01 X-56.0727 Y55.5885 
G01 X-56.0434 Y55.5661 
G01 X-56.0220 Y55.5381 
G01 X-55.9720 Y55.5882 
G01 X-55.8299 Y55.6914 
G01 X-55.6734 Y55.7711 
G01 X-55.5063 Y55.8254 
G01 X-55.3328 Y55.8529 
G01 X-55.1572 Y55.8529 
G01 X-54.9837 Y55.8254 
G01 X-54.8166 Y55.7711 
G01 X-54.6601 Y55.6914 
G01 X-54.5180 Y55.5882 
G01 X-54.4680 Y55.5381 
G01 X-54.4466 Y55.5661 
G01 X-54.4173 Y55.5885 
G01 X-54.3913 Y55.6146 
G01 X-54.3594 Y55.6330 
G01 X-54.3302 Y55.6554 
G01 X-54.2961 Y55.6695 
G01 X-54.2643 Y55.6879 
G01 X-54.2287 Y55.6975 
G01 X-54.1947 Y55.7116 
G01 X-54.1581 Y55.7164 
G01 X-54.1226 Y55.7259 
G01 X-54.0857 Y55.7259 
G01 X-54.0492 Y55.7307 
G01 X-54.0127 Y55.7259 
G01 X-53.9373 Y55.7259 
G01 X-53.9008 Y55.7307 
G01 X-53.8643 Y55.7259 
G01 X-53.8274 Y55.7259 
G01 X-53.7919 Y55.7164 
G01 X-53.7553 Y55.7116 
G01 X-53.7213 Y55.6975 
G01 X-53.6857 Y55.6879 
G01 X-53.6538 Y55.6695 
G01 X-53.6198 Y55.6554 
G01 X-53.5906 Y55.6330 
G01 X-53.5587 Y55.6146 
G01 X-53.5327 Y55.5885 
G01 X-53.5034 Y55.5661 
G01 X-53.4820 Y55.5381 
G01 X-53.4320 Y55.5882 
G01 X-53.2899 Y55.6914 
G01 X-53.1334 Y55.7711 
G01 X-52.9663 Y55.8254 
G01 X-52.7928 Y55.8529 
G01 X-52.6172 Y55.8529 
G01 X-52.4437 Y55.8254 
G01 X-52.2766 Y55.7711 
G01 X-52.1201 Y55.6914 
G01 X-51.9780 Y55.5882 
G01 X-51.8538 Y55.4640 
G01 X-51.7506 Y55.3219 
G01 X-51.6709 Y55.1654 
G01 X-51.6166 Y54.9983 
G01 X-51.5891 Y54.8248 
G01 X-51.5891 Y53.1252 
G01 X-51.6066 Y53.0146 
G01 X-51.5716 Y53.0348 
G01 X-51.4816 Y53.0589 
G01 X-51.2704 Y53.0589 
G01 X-51.2809 Y53.1252 
G01 X-51.2809 Y54.8248 
G01 X-51.2534 Y54.9983 
G01 X-51.1991 Y55.1654 
G01 X-51.1194 Y55.3219 
G01 X-51.0162 Y55.4640 
G01 X-50.8920 Y55.5882 
G01 X-50.7499 Y55.6914 
G01 X-50.5934 Y55.7711 
G01 X-50.4263 Y55.8254 
G01 X-50.2528 Y55.8529 
G01 X-50.0772 Y55.8529 
G01 X-49.9037 Y55.8254 
G01 X-49.7366 Y55.7711 
G01 X-49.5801 Y55.6914 
G01 X-49.4380 Y55.5882 
G01 X-49.3880 Y55.5381 
G01 X-49.3666 Y55.5661 
G01 X-49.3373 Y55.5885 
G01 X-49.3113 Y55.6146 
G01 X-49.2794 Y55.6330 
G01 X-49.2502 Y55.6554 
G01 X-49.2161 Y55.6695 
G01 X-49.1843 Y55.6879 
G01 X-49.1487 Y55.6975 
G01 X-49.1147 Y55.7116 
G01 X-49.0781 Y55.7164 
G01 X-49.0426 Y55.7259 
G01 X-49.0057 Y55.7259 
G01 X-48.9692 Y55.7307 
G01 X-48.9327 Y55.7259 
G01 X-48.8252 Y55.7259 
G01 X-48.8107 Y55.7290 
G01 X-48.7521 Y55.7259 
G01 X-48.6933 Y55.7259 
G01 X-48.6790 Y55.7221 
G01 X-48.6642 Y55.7213 
G01 X-48.6084 Y55.7031 
G01 X-48.5516 Y55.6879 
G01 X-48.5388 Y55.6805 
G01 X-48.5247 Y55.6760 
G01 X-48.4754 Y55.6439 
G01 X-48.4246 Y55.6146 
G01 X-48.4141 Y55.6041 
G01 X-48.4017 Y55.5961 
G01 X-48.3744 Y55.5657 
G01 X-48.3520 Y55.5882 
G01 X-48.2099 Y55.6914 
G01 X-48.0534 Y55.7711 
G01 X-47.8863 Y55.8254 
G01 X-47.7128 Y55.8529 
G01 X-47.5372 Y55.8529 
G01 X-47.3637 Y55.8254 
G01 X-47.1966 Y55.7711 
G01 X-47.0401 Y55.6914 
G01 X-46.8980 Y55.5882 
G01 X-46.8756 Y55.5657 
G01 X-46.8483 Y55.5961 
G01 X-46.8359 Y55.6041 
G01 X-46.8254 Y55.6146 
G01 X-46.7746 Y55.6439 
G01 X-46.7253 Y55.6760 
G01 X-46.7112 Y55.6805 
G01 X-46.6984 Y55.6879 
G01 X-46.6416 Y55.7031 
G01 X-46.5858 Y55.7213 
G01 X-46.5710 Y55.7221 
G01 X-46.5567 Y55.7259 
G01 X-46.4979 Y55.7259 
G01 X-46.4393 Y55.7290 
G01 X-46.4248 Y55.7259 
G01 X-46.2852 Y55.7259 
G01 X-46.2707 Y55.7290 
G01 X-46.2120 Y55.7259 
G01 X-46.1533 Y55.7259 
G01 X-46.1390 Y55.7221 
G01 X-46.1242 Y55.7213 
G01 X-46.0683 Y55.7031 
G01 X-46.0116 Y55.6879 
G01 X-45.9988 Y55.6805 
G01 X-45.9847 Y55.6760 
G01 X-45.9354 Y55.6439 
G01 X-45.8846 Y55.6146 
G01 X-45.8741 Y55.6041 
G01 X-45.8617 Y55.5961 
G01 X-45.8344 Y55.5657 
G01 X-45.8120 Y55.5882 
G01 X-45.6699 Y55.6914 
G01 X-45.5134 Y55.7711 
G01 X-45.3463 Y55.8254 
G01 X-45.1728 Y55.8529 
G01 X-44.9972 Y55.8529 
G01 X-44.8237 Y55.8254 
G01 X-44.6566 Y55.7711 
G01 X-44.5001 Y55.6914 
G01 X-44.3580 Y55.5882 
G01 X-44.3356 Y55.5657 
G01 X-44.3083 Y55.5961 
G01 X-44.2959 Y55.6041 
G01 X-44.2854 Y55.6146 
G01 X-44.2346 Y55.6439 
G01 X-44.1853 Y55.6760 
G01 X-44.1712 Y55.6805 
G01 X-44.1584 Y55.6879 
G01 X-44.1016 Y55.7031 
G01 X-44.0458 Y55.7213 
G01 X-44.0310 Y55.7221 
G01 X-44.0167 Y55.7259 
G01 X-43.9579 Y55.7259 
G01 X-43.8993 Y55.7290 
G01 X-43.8848 Y55.7259 
G01 X-43.7773 Y55.7259 
G01 X-43.7408 Y55.7307 
G01 X-43.7043 Y55.7259 
G01 X-43.6674 Y55.7259 
G01 X-43.6319 Y55.7164 
G01 X-43.5953 Y55.7116 
G01 X-43.5613 Y55.6975 
G01 X-43.5257 Y55.6879 
G01 X-43.4938 Y55.6695 
G01 X-43.4598 Y55.6554 
G01 X-43.4306 Y55.6330 
G01 X-43.3987 Y55.6146 
G01 X-43.3727 Y55.5885 
G01 X-43.3434 Y55.5661 
G01 X-43.3220 Y55.5381 
G01 X-43.2720 Y55.5882 
G01 X-43.1299 Y55.6914 
G01 X-42.9734 Y55.7711 
G01 X-42.8063 Y55.8254 
G01 X-42.6328 Y55.8529 
G01 X-42.4572 Y55.8529 
G01 X-42.2837 Y55.8254 
G01 X-42.1166 Y55.7711 
G01 X-41.9601 Y55.6914 
G01 X-41.8180 Y55.5882 
G01 X-41.7680 Y55.5381 
G01 X-41.7466 Y55.5661 
G01 X-41.7173 Y55.5885 
G01 X-41.6913 Y55.6146 
G01 X-41.6594 Y55.6330 
G01 X-41.6302 Y55.6554 
G01 X-41.5961 Y55.6695 
G01 X-41.5643 Y55.6879 
G01 X-41.5287 Y55.6975 
G01 X-41.4947 Y55.7116 
G01 X-41.4581 Y55.7164 
G01 X-41.4226 Y55.7259 
G01 X-41.3857 Y55.7259 
G01 X-41.3492 Y55.7307 
G01 X-41.3127 Y55.7259 
G01 X-39.3728 Y55.7259 
G01 X-39.2312 Y55.6879 
G01 X-39.1041 Y55.6146 
G01 X-39.0004 Y55.5109 
G01 X-38.9271 Y55.3838 
G01 X-38.8891 Y55.2421 
G01 X-38.8891 Y16.3710 
G01 X-38.8891 Y16.2984 
G01 X-38.8891 Y16.2243 
G01 X-38.9016 Y16.1778 
G01 X-38.9271 Y16.0826 
G01 X-38.9677 Y16.0122 
G01 X-39.0004 Y15.9556 
G01 X-39.1025 Y15.8535 
G01 X-39.1765 Y15.8100 
G01 X-38.7999 Y15.4335 
G01 X-38.7581 Y15.5059 
G01 X-38.6544 Y15.6096 
G01 X-38.5274 Y15.6829 
G01 X-38.3857 Y15.7209 
G01 X-1.2729 Y15.7209 
G01 X-1.1312 Y15.6829 
G01 X-1.0041 Y15.6096 
G01 X-0.9004 Y15.5059 
G01 X-0.8271 Y15.3788 
G01 X-0.7891 Y15.2371 
G01 X-0.7891 Y7.6567 
G01 X-0.7843 Y7.6202 
G01 X-0.7891 Y7.5837 
G01 X-0.7891 Y7.5468 
G01 X-0.7986 Y7.5112 
G01 X-0.8034 Y7.4747 
G01 X-0.8175 Y7.4407 
G01 X-0.8271 Y7.4051 
G01 X-0.8455 Y7.3732 
G01 X-0.8596 Y7.3392 
G01 X-0.8820 Y7.3100 
G01 X-0.9004 Y7.2781 
G01 X-0.9264 Y7.2521 
G01 X-0.9489 Y7.2228 
G01 X-0.9781 Y7.2004 
G01 X-1.0041 Y7.1744 
G01 X-1.0240 Y7.1629 
G01 X-0.9506 Y7.0619 
G01 X-0.8709 Y6.9054 
G01 X-0.8166 Y6.7383 
G01 X-0.7891 Y6.5648 
G01 X-0.7891 Y4.8652 
G01 X-0.8166 Y4.6917 
G01 X-0.8709 Y4.5246 
G01 X-0.9506 Y4.3681 
G01 X-1.0240 Y4.2671 
G01 X-1.0041 Y4.2556 
G01 X-0.9781 Y4.2296 
G01 X-0.9489 Y4.2072 
G01 X-0.9264 Y4.1779 
G01 X-0.9004 Y4.1519 
G01 X-0.8820 Y4.1200 
G01 X-0.8596 Y4.0908 
G01 X-0.8455 Y4.0568 
G01 X-0.8271 Y4.0249 
G01 X-0.8175 Y3.9893 
G01 X-0.8034 Y3.9553 
G01 X-0.7986 Y3.9187 
G01 X-0.7891 Y3.8832 
G01 X-0.7891 Y3.8463 
G01 X-0.7843 Y3.8098 
G01 X-0.7891 Y3.7733 
G01 X-0.7891 Y1.2729 
G01 X-0.8271 Y1.1312 
G01 X-0.9004 Y1.0041 
G00 Z2.0000  F3000
G00 X-38.5038 Y11.9624  F3000
G01 Z-0.2000 F200.00 
G01 X-38.5003 Y11.9710 F500.00 
G01 X-38.4778 Y12.0002 
G01 X-38.4594 Y12.0321 
G01 X-38.4334 Y12.0582 
G01 X-38.4110 Y12.0874 
G01 X-38.3818 Y12.1098 
G01 X-38.3557 Y12.1359 
G01 X-38.3238 Y12.1543 
G01 X-38.3204 Y12.1569 
G01 X-41.4081 Y15.2446 
G01 X-41.5164 Y15.4066 
G01 X-41.5909 Y15.5865 
G01 X-41.6289 Y15.7776 
G01 X-41.6289 Y15.9724 
G01 X-41.6289 Y29.4911 
G01 X-42.7588 Y29.4911 
G01 X-43.0399 Y29.2100 
G01 X-42.3689 Y28.5390 
G01 X-42.3689 Y27.3410 
G01 X-42.8261 Y26.8838 
G01 X-42.8261 Y16.2846 
G01 X-38.5038 Y11.9624 
G00 Z2.0000  F3000
G00 X-44.8039 Y17.7461  F3000
G01 Z-0.2000 F200.00 
G01 X-44.8039 Y26.8838 F500.00 
G01 X-45.0850 Y27.1649 
G01 X-45.7560 Y26.4939 
G01 X-46.9540 Y26.4939 
G01 X-47.4112 Y26.9511 
G01 X-47.8388 Y26.9511 
G01 X-47.9061 Y26.8838 
G01 X-47.9061 Y21.1744 
G01 X-47.8360 Y21.0779 
G01 X-47.7326 Y20.8751 
G01 X-47.6623 Y20.6586 
G01 X-47.6267 Y20.4338 
G01 X-47.6267 Y20.2062 
G01 X-47.6623 Y19.9814 
G01 X-47.7326 Y19.7649 
G01 X-47.8360 Y19.5621 
G01 X-47.9698 Y19.3779 
G01 X-48.1307 Y19.2170 
G01 X-48.3149 Y19.0832 
G01 X-48.3800 Y19.0500 
G01 X-48.3149 Y19.0168 
G01 X-48.1307 Y18.8830 
G01 X-47.9698 Y18.7221 
G01 X-47.8360 Y18.5379 
