;(.../Electronics/Eagle/pcb-gcode/pcb-gcode.ulp)
;(Copyright 2005 - 2012 by John Johnson)
;(See readme.txt for licensing terms.)
;(This file generated from the board:)
;(.../Eagle/Opto/toslink-shield-2.brd)
;(Current profile is .../pcb-gcode/profiles/generic.pp  )
;(This file generated 10/06/2016 11:49)
;(Settings from pcb-machine.h)
;(spindle on time = 1000.0000)
;(  Tool Size)
;(0.1778 )
;(spindle speed = 30000.0000)
;(tool change at 0.0000 0.0000 5.0000 )
;(feed rate xy = F500.00 )
;(feed rate z  = F200.00 )
;(Z Axis Settings)
;(  High     Up        Down     Drill)
;(5.0000 	2.0000 	-0.2000 	-2.0000 )
;(Settings from pcb-defaults.h)
;(isolate min = 0.0250)
;(isolate max = 0.5000)
;(isolate step = 0.1200)
;(Generated bottom outlines, bottom drill, )
;(Unit of measure: mm)
;(Metric Mode)
G21
;(Absolute Coordinates)
G90
;S30000
G00 Z5.0000  F3000
G00 X0.0000 Y0.0000  F3000
;M03 S1
G04 P1000.000000
G00 Z2.0000  F3000
G00 X-1.0925 Y1.1515  F3000
G01 Z-0.2000 F200.00 
G01 X-1.1515 Y1.0925 F500.00 
G01 X-1.2238 Y1.0507 
G01 X-1.3044 Y1.0291 
G01 X-66.6405 Y1.0291 
G01 X-66.7212 Y1.0507 
G01 X-66.7935 Y1.0925 
G01 X-66.8525 Y1.1515 
G01 X-66.8943 Y1.2238 
G01 X-66.9159 Y1.3044 
G01 X-66.9159 Y19.7466 
G01 X-66.9696 Y19.7689 
G01 X-67.0714 Y19.8369 
G01 X-67.1581 Y19.9236 
G01 X-67.2261 Y20.0254 
G01 X-67.2730 Y20.1386 
G01 X-67.2969 Y20.2587 
G01 X-67.2969 Y30.5413 
G01 X-67.2730 Y30.6614 
G01 X-67.2261 Y30.7746 
G01 X-67.1581 Y30.8764 
G01 X-67.0714 Y30.9631 
G01 X-66.9696 Y31.0311 
G01 X-66.9159 Y31.0534 
G01 X-66.9159 Y32.7660 
G01 X-66.9186 Y32.7868 
G01 X-66.9159 Y32.8075 
G01 X-66.9159 Y32.8285 
G01 X-66.9105 Y32.8488 
G01 X-66.9077 Y32.8695 
G01 X-66.8997 Y32.8889 
G01 X-66.8943 Y32.9091 
G01 X-66.8838 Y32.9273 
G01 X-66.8758 Y32.9467 
G01 X-66.8630 Y32.9633 
G01 X-66.8525 Y32.9815 
G01 X-66.8377 Y32.9963 
G01 X-66.8250 Y33.0129 
G01 X-66.8083 Y33.0257 
G01 X-66.7935 Y33.0405 
G01 X-66.7753 Y33.0510 
G01 X-66.7587 Y33.0637 
G01 X-66.7393 Y33.0718 
G01 X-66.7212 Y33.0822 
G01 X-66.7009 Y33.0877 
G01 X-66.6816 Y33.0957 
G01 X-66.6608 Y33.0984 
G01 X-66.6405 Y33.1039 
G01 X-66.6196 Y33.1039 
G01 X-66.5988 Y33.1066 
G01 X-66.5780 Y33.1039 
G01 X-66.5571 Y33.1039 
G01 X-66.5368 Y33.0984 
G01 X-66.5160 Y33.0957 
G01 X-66.4967 Y33.0877 
G01 X-66.4764 Y33.0822 
G01 X-66.4582 Y33.0718 
G01 X-66.1790 Y32.9561 
G01 X-62.6225 Y32.9561 
G01 X-62.5418 Y32.9345 
G01 X-62.4695 Y32.8927 
G01 X-62.4105 Y32.8337 
G01 X-62.1535 Y32.5768 
G01 X-62.1340 Y32.5610 
G01 X-62.1242 Y32.5474 
G01 X-62.1123 Y32.5355 
G01 X-62.0997 Y32.5137 
G01 X-62.0849 Y32.4934 
G01 X-62.0789 Y32.4777 
G01 X-62.0705 Y32.4632 
G01 X-62.0640 Y32.4389 
G01 X-62.0550 Y32.4155 
G01 X-62.0533 Y32.3988 
G01 X-62.0489 Y32.3825 
G01 X-62.0489 Y32.3574 
G01 X-62.0463 Y32.3324 
G01 X-62.0489 Y32.3158 
G01 X-62.0489 Y32.2991 
G01 X-62.0554 Y32.2748 
G01 X-62.0594 Y32.2499 
G01 X-62.0662 Y32.2346 
G01 X-62.0705 Y32.2184 
G01 X-62.0831 Y32.1966 
G01 X-62.0933 Y32.1737 
G01 X-62.1039 Y32.1606 
G01 X-62.1123 Y32.1461 
G01 X-62.1301 Y32.1283 
G01 X-62.1459 Y32.1088 
G01 X-62.1594 Y32.0989 
G01 X-62.1713 Y32.0871 
G01 X-62.1931 Y32.0745 
G01 X-62.2200 Y32.0549 
G01 X-62.3571 Y31.9178 
G01 X-62.4712 Y31.7609 
G01 X-62.4834 Y31.7369 
G01 X-62.4540 Y31.7369 
G01 X-62.4487 Y31.7471 
G01 X-62.3372 Y31.9007 
G01 X-62.2029 Y32.0350 
G01 X-62.0493 Y32.1465 
G01 X-61.8802 Y32.2327 
G01 X-61.6996 Y32.2914 
G01 X-61.5121 Y32.3211 
G01 X-59.1379 Y32.3211 
G01 X-58.9504 Y32.2914 
G01 X-58.7698 Y32.2327 
G01 X-58.6007 Y32.1465 
G01 X-58.4471 Y32.0350 
G01 X-58.3128 Y31.9007 
G01 X-58.2013 Y31.7471 
G01 X-58.1151 Y31.5780 
G01 X-58.0842 Y31.4829 
G01 X-58.0566 Y31.4829 
G01 X-58.0908 Y31.5880 
G01 X-58.1788 Y31.7609 
G01 X-58.2929 Y31.9178 
G01 X-58.4300 Y32.0549 
G01 X-58.4569 Y32.0745 
G01 X-58.4787 Y32.0871 
G01 X-58.4906 Y32.0989 
G01 X-58.5041 Y32.1088 
G01 X-58.5199 Y32.1283 
G01 X-58.5377 Y32.1461 
G01 X-58.5461 Y32.1606 
G01 X-58.5567 Y32.1737 
G01 X-58.5669 Y32.1966 
G01 X-58.5795 Y32.2184 
G01 X-58.5838 Y32.2346 
G01 X-58.5906 Y32.2499 
G01 X-58.5946 Y32.2748 
G01 X-58.6011 Y32.2991 
G01 X-58.6011 Y32.3158 
G01 X-58.6037 Y32.3324 
G01 X-58.6011 Y32.3574 
G01 X-58.6011 Y32.3825 
G01 X-58.5967 Y32.3988 
G01 X-58.5950 Y32.4155 
G01 X-58.5860 Y32.4389 
G01 X-58.5795 Y32.4632 
G01 X-58.5711 Y32.4777 
G01 X-58.5651 Y32.4934 
G01 X-58.5503 Y32.5137 
G01 X-58.5377 Y32.5355 
G01 X-58.5258 Y32.5474 
G01 X-58.5160 Y32.5610 
G01 X-58.4965 Y32.5768 
G01 X-58.1805 Y32.8927 
G01 X-58.1082 Y32.9345 
G01 X-58.0275 Y32.9561 
G01 X-56.2192 Y32.9561 
G01 X-56.1386 Y32.9345 
G01 X-56.0663 Y32.8927 
G01 X-56.0073 Y32.8337 
G01 X-55.9655 Y32.7614 
G01 X-55.9439 Y32.6807 
G01 X-55.9439 Y26.3742 
G01 X-55.9655 Y26.2936 
G01 X-56.0073 Y26.2213 
G01 X-56.0663 Y26.1623 
G01 X-56.1386 Y26.1205 
G01 X-56.2192 Y26.0989 
G01 X-56.4291 Y26.0989 
G01 X-56.5098 Y26.1205 
G01 X-56.5821 Y26.1623 
G01 X-56.6411 Y26.2213 
G01 X-56.7999 Y26.3801 
G01 X-57.2248 Y26.5561 
G01 X-59.6152 Y26.5561 
G01 X-60.0401 Y26.3801 
G01 X-60.3653 Y26.0549 
G01 X-60.5413 Y25.6300 
G01 X-60.5413 Y25.1700 
G01 X-60.3653 Y24.7451 
G01 X-60.0401 Y24.4199 
G01 X-59.6152 Y24.2439 
G01 X-59.3942 Y24.2439 
G01 X-59.3136 Y24.2223 
G01 X-59.2413 Y24.1805 
G01 X-59.1823 Y24.1215 
G01 X-59.1405 Y24.0492 
G01 X-59.1189 Y23.9685 
G01 X-59.1189 Y23.8342 
G01 X-59.1405 Y23.7536 
G01 X-59.1823 Y23.6813 
G01 X-59.2413 Y23.6223 
G01 X-59.3136 Y23.5805 
G01 X-59.3942 Y23.5589 
G01 X-61.5091 Y23.5589 
G01 X-61.5898 Y23.5805 
G01 X-61.6621 Y23.6223 
G01 X-61.7211 Y23.6813 
G01 X-61.8799 Y23.8401 
G01 X-62.3048 Y24.0161 
G01 X-64.6952 Y24.0161 
G01 X-65.1201 Y23.8401 
G01 X-65.4453 Y23.5149 
G01 X-65.6213 Y23.0900 
G01 X-65.6213 Y22.6300 
G01 X-65.4453 Y22.2051 
G01 X-65.1201 Y21.8799 
G01 X-65.0601 Y21.8550 
G01 X-65.0322 Y21.8460 
G01 X-65.0216 Y21.8391 
G01 X-65.0100 Y21.8343 
G01 X-64.9868 Y21.8165 
G01 X-64.9622 Y21.8005 
G01 X-64.9537 Y21.7911 
G01 X-64.9438 Y21.7835 
G01 X-64.9259 Y21.7602 
G01 X-64.9063 Y21.7385 
G01 X-64.9006 Y21.7272 
G01 X-64.8929 Y21.7172 
G01 X-64.8817 Y21.6902 
G01 X-64.8684 Y21.6641 
G01 X-64.8658 Y21.6517 
G01 X-64.8610 Y21.6401 
G01 X-64.8572 Y21.6110 
G01 X-64.8511 Y21.5824 
G01 X-64.8517 Y21.5698 
G01 X-64.8501 Y21.5573 
G01 X-64.8539 Y21.5283 
G01 X-64.8554 Y21.4990 
G01 X-64.8593 Y21.4870 
G01 X-64.8610 Y21.4745 
G01 X-64.8722 Y21.4475 
G01 X-64.8812 Y21.4196 
G01 X-64.8881 Y21.4090 
G01 X-64.8929 Y21.3974 
G01 X-64.9108 Y21.3742 
G01 X-64.9267 Y21.3496 
G01 X-64.9361 Y21.3412 
G01 X-64.9438 Y21.3312 
G01 X-64.9670 Y21.3133 
G01 X-64.9888 Y21.2937 
G01 X-65.0000 Y21.2880 
G01 X-65.0100 Y21.2803 
G01 X-65.0371 Y21.2691 
G01 X-65.0445 Y21.2653 
G01 X-65.1852 Y21.1631 
G01 X-65.3083 Y21.0400 
G01 X-65.3796 Y20.9419 
G01 X-65.3472 Y20.9419 
G01 X-65.2883 Y21.0230 
G01 X-65.1682 Y21.1431 
G01 X-65.0308 Y21.2429 
G01 X-64.8794 Y21.3200 
G01 X-64.7179 Y21.3725 
G01 X-64.5501 Y21.3991 
G01 X-62.4499 Y21.3991 
G01 X-62.2821 Y21.3725 
G01 X-62.1206 Y21.3200 
G01 X-61.9692 Y21.2429 
G01 X-61.8318 Y21.1431 
G01 X-61.7117 Y21.0230 
G01 X-61.6119 Y20.8856 
G01 X-61.5348 Y20.7342 
G01 X-61.5032 Y20.6371 
G01 X-61.4757 Y20.6371 
G01 X-61.5105 Y20.7443 
G01 X-61.5895 Y20.8993 
G01 X-61.6917 Y21.0400 
G01 X-61.8148 Y21.1631 
G01 X-61.9555 Y21.2653 
G01 X-61.9629 Y21.2691 
G01 X-61.9900 Y21.2803 
G01 X-62.0000 Y21.2880 
G01 X-62.0112 Y21.2937 
G01 X-62.0330 Y21.3133 
G01 X-62.0562 Y21.3312 
G01 X-62.0639 Y21.3412 
G01 X-62.0733 Y21.3496 
G01 X-62.0892 Y21.3742 
G01 X-62.1071 Y21.3974 
G01 X-62.1119 Y21.4090 
G01 X-62.1187 Y21.4196 
G01 X-62.1278 Y21.4475 
G01 X-62.1390 Y21.4745 
G01 X-62.1407 Y21.4870 
G01 X-62.1446 Y21.4990 
G01 X-62.1461 Y21.5283 
G01 X-62.1499 Y21.5573 
G01 X-62.1483 Y21.5698 
G01 X-62.1489 Y21.5824 
G01 X-62.1428 Y21.6110 
G01 X-62.1390 Y21.6401 
G01 X-62.1342 Y21.6517 
G01 X-62.1316 Y21.6641 
G01 X-62.1183 Y21.6902 
G01 X-62.1071 Y21.7172 
G01 X-62.0994 Y21.7272 
G01 X-62.0937 Y21.7385 
G01 X-62.0741 Y21.7602 
G01 X-62.0562 Y21.7835 
G01 X-62.0462 Y21.7911 
G01 X-62.0378 Y21.8005 
G01 X-62.0132 Y21.8165 
G01 X-61.9900 Y21.8343 
G01 X-61.9784 Y21.8391 
G01 X-61.9678 Y21.8460 
G01 X-61.9399 Y21.8550 
G01 X-61.8799 Y21.8799 
G01 X-61.6621 Y22.0977 
G01 X-61.5898 Y22.1395 
G01 X-61.5091 Y22.1611 
G01 X-52.7909 Y22.1611 
G01 X-52.7102 Y22.1395 
G01 X-52.6395 Y22.0987 
G01 X-52.5789 Y22.0387 
G01 X-52.4201 Y21.8799 
G01 X-52.3889 Y21.8670 
G01 X-52.3735 Y21.8552 
G01 X-52.3227 Y21.8162 
G01 X-52.3184 Y21.8106 
G01 X-52.2718 Y21.7499 
G01 X-52.2638 Y21.7305 
G01 X-52.2399 Y21.6728 
G01 X-52.2379 Y21.6582 
G01 X-52.2290 Y21.5900 
G01 X-52.2339 Y21.5523 
G01 X-52.2399 Y21.5072 
G01 X-52.2516 Y21.4789 
G01 X-52.2718 Y21.4301 
G01 X-52.2836 Y21.4147 
G01 X-52.3226 Y21.3639 
G01 X-52.3282 Y21.3596 
G01 X-52.3889 Y21.3130 
G01 X-52.4093 Y21.3046 
G01 X-52.4201 Y21.3001 
G01 X-52.5789 Y21.1413 
G01 X-52.6356 Y21.0845 
G01 X-52.6379 Y21.0823 
G01 X-52.7102 Y21.0405 
G01 X-52.7909 Y21.0189 
G01 X-56.4291 Y21.0189 
G01 X-56.5098 Y21.0405 
G01 X-56.5821 Y21.0823 
G01 X-56.6411 Y21.1413 
G01 X-56.7999 Y21.3001 
G01 X-57.2248 Y21.4761 
G01 X-59.6152 Y21.4761 
G01 X-60.0401 Y21.3001 
G01 X-60.3653 Y20.9749 
G01 X-60.5413 Y20.5500 
G01 X-60.5413 Y20.0900 
G01 X-60.3653 Y19.6651 
G01 X-60.0401 Y19.3399 
G01 X-59.6152 Y19.1639 
G01 X-57.2248 Y19.1639 
G01 X-56.7999 Y19.3399 
G01 X-56.6411 Y19.4987 
G01 X-56.5821 Y19.5577 
G01 X-56.5098 Y19.5995 
G01 X-56.4291 Y19.6211 
G01 X-52.7909 Y19.6211 
G01 X-52.7102 Y19.5995 
G01 X-52.6395 Y19.5587 
G01 X-52.5789 Y19.4987 
G01 X-52.4201 Y19.3399 
G01 X-52.3601 Y19.3150 
G01 X-52.3322 Y19.3060 
G01 X-52.3216 Y19.2991 
G01 X-52.3100 Y19.2943 
G01 X-52.2868 Y19.2765 
G01 X-52.2622 Y19.2605 
G01 X-52.2538 Y19.2512 
G01 X-52.2438 Y19.2435 
G01 X-52.2259 Y19.2202 
G01 X-52.2063 Y19.1985 
G01 X-52.2006 Y19.1872 
G01 X-52.1929 Y19.1772 
G01 X-52.1817 Y19.1502 
G01 X-52.1684 Y19.1241 
G01 X-52.1658 Y19.1118 
G01 X-52.1610 Y19.1001 
G01 X-52.1571 Y19.0710 
G01 X-52.1511 Y19.0424 
G01 X-52.1517 Y19.0298 
G01 X-52.1501 Y19.0173 
G01 X-52.1539 Y18.9883 
G01 X-52.1554 Y18.9590 
G01 X-52.1593 Y18.9471 
G01 X-52.1610 Y18.9346 
G01 X-52.1722 Y18.9075 
G01 X-52.1812 Y18.8796 
G01 X-52.1881 Y18.8691 
G01 X-52.1929 Y18.8574 
G01 X-52.2108 Y18.8342 
G01 X-52.2267 Y18.8096 
G01 X-52.2361 Y18.8012 
G01 X-52.2437 Y18.7912 
G01 X-52.2670 Y18.7733 
G01 X-52.2888 Y18.7537 
G01 X-52.3000 Y18.7480 
G01 X-52.3100 Y18.7403 
G01 X-52.3371 Y18.7291 
G01 X-52.3445 Y18.7253 
G01 X-52.4852 Y18.6231 
G01 X-52.6083 Y18.5000 
G01 X-52.6796 Y18.4019 
G01 X-52.6472 Y18.4019 
G01 X-52.5883 Y18.4830 
G01 X-52.4682 Y18.6031 
G01 X-52.3308 Y18.7029 
G01 X-52.1794 Y18.7800 
G01 X-52.0179 Y18.8325 
G01 X-51.8501 Y18.8591 
G01 X-49.7499 Y18.8591 
G01 X-49.5821 Y18.8325 
G01 X-49.4206 Y18.7800 
G01 X-49.2692 Y18.7029 
G01 X-49.1318 Y18.6031 
G01 X-49.0117 Y18.4830 
G01 X-48.9528 Y18.4019 
G01 X-48.9204 Y18.4019 
G01 X-48.9917 Y18.5000 
G01 X-49.1148 Y18.6231 
G01 X-49.2555 Y18.7253 
G01 X-49.2629 Y18.7291 
G01 X-49.2900 Y18.7403 
G01 X-49.3000 Y18.7480 
G01 X-49.3112 Y18.7537 
G01 X-49.3330 Y18.7733 
G01 X-49.3562 Y18.7912 
G01 X-49.3639 Y18.8012 
G01 X-49.3733 Y18.8096 
G01 X-49.3892 Y18.8342 
G01 X-49.4071 Y18.8574 
G01 X-49.4119 Y18.8691 
G01 X-49.4188 Y18.8796 
G01 X-49.4278 Y18.9075 
G01 X-49.4390 Y18.9346 
G01 X-49.4407 Y18.9471 
G01 X-49.4446 Y18.9590 
G01 X-49.4461 Y18.9883 
G01 X-49.4499 Y19.0173 
G01 X-49.4483 Y19.0298 
G01 X-49.4489 Y19.0424 
G01 X-49.4428 Y19.0710 
G01 X-49.4390 Y19.1001 
G01 X-49.4342 Y19.1118 
G01 X-49.4316 Y19.1241 
G01 X-49.4183 Y19.1502 
G01 X-49.4071 Y19.1772 
G01 X-49.3994 Y19.1872 
G01 X-49.3937 Y19.1985 
G01 X-49.3741 Y19.2202 
G01 X-49.3562 Y19.2435 
G01 X-49.3462 Y19.2512 
G01 X-49.3378 Y19.2605 
G01 X-49.3132 Y19.2765 
G01 X-49.2900 Y19.2943 
G01 X-49.2784 Y19.2991 
G01 X-49.2678 Y19.3060 
G01 X-49.2399 Y19.3150 
G01 X-49.1799 Y19.3399 
G01 X-48.8547 Y19.6651 
G01 X-48.6787 Y20.0900 
G01 X-48.6787 Y20.5500 
G01 X-48.8547 Y20.9749 
G01 X-49.1799 Y21.3001 
G01 X-49.1897 Y21.3041 
G01 X-49.2111 Y21.3130 
G01 X-49.2707 Y21.3588 
G01 X-49.2774 Y21.3638 
G01 X-49.3158 Y21.4139 
G01 X-49.3282 Y21.4301 
G01 X-49.3481 Y21.4781 
G01 X-49.3601 Y21.5072 
G01 X-49.3660 Y21.5514 
G01 X-49.3710 Y21.5900 
G01 X-49.3623 Y21.6566 
G01 X-49.3601 Y21.6728 
G01 X-49.3366 Y21.7296 
G01 X-49.3282 Y21.7499 
G01 X-49.2824 Y21.8095 
G01 X-49.2774 Y21.8162 
G01 X-49.2272 Y21.8546 
G01 X-49.2111 Y21.8670 
G01 X-49.1799 Y21.8799 
G01 X-48.8547 Y22.2051 
G01 X-48.6787 Y22.6300 
G01 X-48.6787 Y23.0900 
G01 X-48.8547 Y23.5149 
G01 X-49.1799 Y23.8401 
G01 X-49.1897 Y23.8441 
G01 X-49.2111 Y23.8530 
G01 X-49.2707 Y23.8988 
G01 X-49.2774 Y23.9038 
G01 X-49.3158 Y23.9539 
G01 X-49.3282 Y23.9701 
G01 X-49.3481 Y24.0181 
G01 X-49.3601 Y24.0472 
G01 X-49.3660 Y24.0914 
G01 X-49.3710 Y24.1300 
G01 X-49.3623 Y24.1966 
G01 X-49.3601 Y24.2128 
G01 X-49.3366 Y24.2696 
G01 X-49.3282 Y24.2899 
G01 X-49.2824 Y24.3495 
G01 X-49.2774 Y24.3562 
G01 X-49.2273 Y24.3946 
G01 X-49.2111 Y24.4070 
G01 X-49.1799 Y24.4199 
G01 X-48.8547 Y24.7451 
G01 X-48.6787 Y25.1700 
G01 X-48.6787 Y25.5855 
G01 X-48.6813 Y25.6021 
G01 X-48.6787 Y25.6271 
G01 X-48.6787 Y25.6522 
G01 X-48.6743 Y25.6684 
G01 X-48.6726 Y25.6851 
G01 X-48.6636 Y25.7086 
G01 X-48.6571 Y25.7328 
G01 X-48.6487 Y25.7474 
G01 X-48.6427 Y25.7631 
G01 X-48.6279 Y25.7834 
G01 X-48.6153 Y25.8051 
G01 X-48.6035 Y25.8170 
G01 X-48.5936 Y25.8306 
G01 X-48.5741 Y25.8464 
G01 X-48.5563 Y25.8642 
G01 X-48.5418 Y25.8726 
G01 X-48.5287 Y25.8831 
G01 X-48.5058 Y25.8934 
G01 X-48.4840 Y25.9059 
G01 X-48.4678 Y25.9103 
G01 X-48.4524 Y25.9171 
G01 X-48.4276 Y25.9210 
G01 X-48.4033 Y25.9275 
G01 X-48.3866 Y25.9275 
G01 X-48.3700 Y25.9302 
G01 X-48.3450 Y25.9275 
G01 X-48.3199 Y25.9275 
G01 X-48.3036 Y25.9232 
G01 X-48.2869 Y25.9214 
G01 X-48.2635 Y25.9124 
G01 X-48.2392 Y25.9059 
G01 X-48.2247 Y25.8975 
G01 X-48.2090 Y25.8915 
G01 X-48.1887 Y25.8767 
G01 X-48.1669 Y25.8642 
G01 X-48.1550 Y25.8523 
G01 X-48.1445 Y25.8447 
G01 X-47.9895 Y25.7657 
G01 X-47.8240 Y25.7119 
G01 X-47.6522 Y25.6847 
G01 X-47.2219 Y25.6847 
G01 X-47.2219 Y25.7109 
G01 X-47.6501 Y25.7109 
G01 X-47.8179 Y25.7375 
G01 X-47.9794 Y25.7900 
G01 X-48.1308 Y25.8671 
G01 X-48.2682 Y25.9669 
G01 X-48.3883 Y26.0870 
G01 X-48.4881 Y26.2244 
G01 X-48.5652 Y26.3758 
G01 X-48.5968 Y26.4729 
G01 X-48.7007 Y26.4729 
G01 X-48.7134 Y26.4554 
G01 X-48.7260 Y26.4336 
G01 X-48.7379 Y26.4218 
G01 X-48.7477 Y26.4082 
G01 X-48.7673 Y26.3923 
G01 X-48.7850 Y26.3746 
G01 X-48.7996 Y26.3662 
G01 X-48.8126 Y26.3556 
G01 X-48.8356 Y26.3454 
G01 X-48.8573 Y26.3328 
G01 X-48.8736 Y26.3285 
G01 X-48.8889 Y26.3217 
G01 X-48.9137 Y26.3177 
G01 X-48.9380 Y26.3112 
G01 X-48.9548 Y26.3112 
G01 X-48.9713 Y26.3086 
G01 X-48.9963 Y26.3112 
G01 X-49.0215 Y26.3112 
G01 X-49.0377 Y26.3156 
G01 X-49.0544 Y26.3173 
G01 X-49.0778 Y26.3263 
G01 X-49.1021 Y26.3329 
G01 X-49.1167 Y26.3412 
G01 X-49.1323 Y26.3473 
G01 X-49.1527 Y26.3620 
G01 X-49.1744 Y26.3746 
G01 X-49.1799 Y26.3801 
G01 X-49.6048 Y26.5561 
G01 X-49.8257 Y26.5561 
G01 X-49.9064 Y26.5777 
G01 X-49.9787 Y26.6195 
G01 X-50.0377 Y26.6785 
G01 X-50.0795 Y26.7508 
G01 X-50.1011 Y26.8314 
G01 X-50.1011 Y28.8707 
G01 X-50.0795 Y28.9514 
G01 X-50.0377 Y29.0237 
G01 X-49.9787 Y29.0827 
G01 X-49.9064 Y29.1245 
G01 X-49.8257 Y29.1461 
G01 X-43.5192 Y29.1461 
G01 X-43.4386 Y29.1245 
G01 X-43.3663 Y29.0827 
G01 X-43.3073 Y29.0237 
G01 X-43.2655 Y28.9514 
G01 X-43.2439 Y28.8707 
G01 X-43.2439 Y9.3860 
G01 X-43.1375 Y9.1291 
G01 X-42.9409 Y8.9325 
G01 X-42.6840 Y8.8261 
G01 X-32.9553 Y8.8261 
G01 X-32.9518 Y8.8252 
G01 X-32.8746 Y8.8045 
G01 X-32.8039 Y8.7637 
G01 X-32.7433 Y8.7037 
G01 X-32.2815 Y8.2419 
G01 X-31.2185 Y8.2419 
G01 X-30.8837 Y8.5767 
G01 X-30.8287 Y8.6317 
G01 X-30.8247 Y8.6357 
G01 X-30.7524 Y8.6775 
G01 X-30.6717 Y8.6991 
G01 X-30.2883 Y8.6991 
G01 X-30.2848 Y8.6982 
G01 X-30.2076 Y8.6775 
G01 X-30.1369 Y8.6367 
G01 X-30.0763 Y8.5767 
G01 X-29.7415 Y8.2419 
G01 X-28.6785 Y8.2419 
G01 X-28.1937 Y8.7267 
G01 X-28.1399 Y8.7805 
G01 X-28.1347 Y8.7857 
G01 X-28.0624 Y8.8275 
G01 X-27.9817 Y8.8491 
G01 X-27.8983 Y8.8491 
G01 X-27.8176 Y8.8275 
G01 X-27.7453 Y8.7857 
G01 X-27.6872 Y8.7276 
G01 X-27.2015 Y8.2419 
G01 X-26.1385 Y8.2419 
G01 X-25.6177 Y8.7627 
G01 X-25.5454 Y8.8045 
G01 X-25.4647 Y8.8261 
G01 X-10.4992 Y8.8261 
G01 X-10.4186 Y8.8045 
G01 X-10.3463 Y8.7627 
G01 X-10.2873 Y8.7037 
G01 X-10.2455 Y8.6314 
G01 X-10.2239 Y8.5507 
G01 X-10.2239 Y7.2153 
G01 X-10.2455 Y7.1347 
G01 X-10.2873 Y7.0623 
G01 X-10.3328 Y7.0168 
G01 X-10.4779 Y6.6665 
G01 X-10.4779 Y4.7635 
G01 X-10.3328 Y4.4132 
G01 X-10.0648 Y4.1452 
G01 X-9.7145 Y4.0001 
G01 X-9.3355 Y4.0001 
G01 X-8.9852 Y4.1452 
G01 X-8.7172 Y4.4132 
G01 X-8.5721 Y4.7635 
G01 X-8.5721 Y6.6665 
G01 X-8.7172 Y7.0168 
G01 X-8.7627 Y7.0623 
G01 X-8.8045 Y7.1347 
G01 X-8.8261 Y7.2153 
G01 X-8.8261 Y9.6640 
G01 X-8.9325 Y9.9209 
G01 X-9.1291 Y10.1175 
G01 X-9.3860 Y10.2239 
G01 X-25.4647 Y10.2239 
G01 X-25.5454 Y10.2455 
G01 X-25.6177 Y10.2873 
G01 X-25.6767 Y10.3463 
G01 X-25.8717 Y10.5413 
G01 X-25.9283 Y10.5979 
G01 X-25.9307 Y10.6003 
G01 X-25.9725 Y10.6726 
G01 X-25.9941 Y10.7532 
G01 X-25.9941 Y10.8367 
G01 X-25.9734 Y10.9140 
G01 X-25.9725 Y10.9174 
G01 X-25.9307 Y10.9897 
G01 X-25.8726 Y11.0478 
G01 X-25.6177 Y11.3027 
G01 X-25.5454 Y11.3445 
G01 X-25.4647 Y11.3661 
G01 X-7.9592 Y11.3661 
G01 X-7.8786 Y11.3445 
G01 X-7.8063 Y11.3027 
G01 X-7.7473 Y11.2437 
G01 X-7.7055 Y11.1714 
G01 X-7.6839 Y11.0907 
G01 X-7.6839 Y7.2153 
G01 X-7.7055 Y7.1347 
G01 X-7.7473 Y7.0623 
G01 X-7.7928 Y7.0168 
G01 X-7.9379 Y6.6665 
G01 X-7.9379 Y4.7635 
G01 X-7.7928 Y4.4132 
G01 X-7.5248 Y4.1452 
G01 X-7.1745 Y4.0001 
G01 X-6.7955 Y4.0001 
G01 X-6.4452 Y4.1452 
G01 X-6.1772 Y4.4132 
G01 X-6.0321 Y4.7635 
G01 X-6.0321 Y6.6665 
G01 X-6.1772 Y7.0168 
G01 X-6.2227 Y7.0623 
G01 X-6.2645 Y7.1347 
G01 X-6.2861 Y7.2153 
G01 X-6.2861 Y12.2040 
G01 X-6.3925 Y12.4609 
G01 X-6.5891 Y12.6575 
G01 X-6.8460 Y12.7639 
G01 X-25.4647 Y12.7639 
G01 X-25.5454 Y12.7855 
G01 X-25.6177 Y12.8273 
G01 X-25.6767 Y12.8863 
G01 X-26.1385 Y13.3481 
G01 X-27.2015 Y13.3481 
G01 X-27.7453 Y12.8043 
G01 X-27.8176 Y12.7625 
G01 X-27.8983 Y12.7409 
G01 X-27.9817 Y12.7409 
G01 X-27.9852 Y12.7418 
G01 X-28.0624 Y12.7625 
G01 X-28.1331 Y12.8034 
G01 X-28.1937 Y12.8633 
G01 X-28.6785 Y13.3481 
G01 X-29.7415 Y13.3481 
G01 X-30.1353 Y12.9543 
G01 X-30.2076 Y12.9125 
G01 X-30.2883 Y12.8909 
G01 X-30.6717 Y12.8909 
G01 X-30.7524 Y12.9125 
G01 X-30.8247 Y12.9543 
G01 X-30.8837 Y13.0133 
G01 X-31.2185 Y13.3481 
G01 X-32.2815 Y13.3481 
G01 X-32.8023 Y12.8273 
G01 X-32.8746 Y12.7855 
G01 X-32.9553 Y12.7639 
G01 X-39.0307 Y12.7639 
G01 X-39.1114 Y12.7855 
G01 X-39.1837 Y12.8273 
G01 X-39.2427 Y12.8863 
G01 X-39.2845 Y12.9586 
G01 X-39.3061 Y13.0392 
G01 X-39.3061 Y15.5369 
G01 X-39.2985 Y15.5652 
G01 X-39.2845 Y15.6176 
G01 X-39.2742 Y15.6354 
G01 X-39.2427 Y15.6899 
G01 X-39.1837 Y15.7489 
G01 X-39.1541 Y15.7660 
G01 X-39.1114 Y15.7907 
G01 X-39.0307 Y15.8123 
G01 X-38.9472 Y15.8123 
G01 X-38.9190 Y15.8047 
G01 X-38.8666 Y15.7907 
G01 X-38.8488 Y15.7804 
G01 X-38.7943 Y15.7489 
G01 X-38.7353 Y15.6899 
G01 X-38.6829 Y15.6376 
G01 X-38.3047 Y15.4809 
G01 X-1.3044 Y15.4809 
G01 X-1.2238 Y15.4593 
G01 X-1.1515 Y15.4175 
G01 X-1.0925 Y15.3585 
G01 X-1.0507 Y15.2862 
G01 X-1.0291 Y15.2055 
G01 X-1.0291 Y7.6410 
G01 X-1.0264 Y7.6202 
G01 X-1.0291 Y7.5994 
G01 X-1.0291 Y7.5784 
G01 X-1.0345 Y7.5582 
G01 X-1.0373 Y7.5374 
G01 X-1.0453 Y7.5180 
G01 X-1.0507 Y7.4978 
G01 X-1.0612 Y7.4796 
G01 X-1.0692 Y7.4602 
G01 X-1.0820 Y7.4436 
G01 X-1.0925 Y7.4255 
G01 X-1.1073 Y7.4106 
G01 X-1.1200 Y7.3940 
G01 X-1.1367 Y7.3813 
G01 X-1.1515 Y7.3664 
G01 X-1.1697 Y7.3559 
G01 X-1.1863 Y7.3432 
G01 X-1.2056 Y7.3352 
G01 X-1.2238 Y7.3247 
G01 X-1.2441 Y7.3193 
G01 X-1.2634 Y7.3112 
G01 X-1.2842 Y7.3085 
G01 X-1.3044 Y7.3031 
G01 X-1.3254 Y7.3031 
G01 X-1.3462 Y7.3003 
G01 X-1.3670 Y7.3031 
G01 X-1.3879 Y7.3031 
G01 X-1.4082 Y7.3085 
G01 X-1.4290 Y7.3112 
G01 X-1.4483 Y7.3193 
G01 X-1.4686 Y7.3247 
G01 X-1.4867 Y7.3352 
G01 X-1.7154 Y7.4299 
G01 X-2.0945 Y7.4299 
G01 X-2.4448 Y7.2848 
G01 X-2.7128 Y7.0168 
G01 X-2.8579 Y6.6665 
G01 X-2.8579 Y4.7635 
G01 X-2.7128 Y4.4132 
G01 X-2.4448 Y4.1452 
G01 X-2.0945 Y4.0001 
G01 X-1.7154 Y4.0001 
G01 X-1.4867 Y4.0948 
G01 X-1.4686 Y4.1053 
G01 X-1.4483 Y4.1107 
G01 X-1.4290 Y4.1188 
G01 X-1.4082 Y4.1215 
G01 X-1.3879 Y4.1269 
G01 X-1.3670 Y4.1269 
G01 X-1.3462 Y4.1297 
G01 X-1.3254 Y4.1269 
G01 X-1.3044 Y4.1269 
G01 X-1.2842 Y4.1215 
G01 X-1.2634 Y4.1188 
G01 X-1.2441 Y4.1107 
G01 X-1.2238 Y4.1053 
G01 X-1.2056 Y4.0948 
G01 X-1.1863 Y4.0868 
G01 X-1.1697 Y4.0741 
G01 X-1.1515 Y4.0636 
G01 X-1.1367 Y4.0487 
G01 X-1.1200 Y4.0360 
G01 X-1.1073 Y4.0194 
G01 X-1.0925 Y4.0045 
G01 X-1.0820 Y3.9864 
G01 X-1.0692 Y3.9697 
G01 X-1.0612 Y3.9504 
G01 X-1.0507 Y3.9322 
G01 X-1.0453 Y3.9120 
G01 X-1.0373 Y3.8926 
G01 X-1.0345 Y3.8718 
G01 X-1.0291 Y3.8516 
G01 X-1.0291 Y3.8306 
G01 X-1.0264 Y3.8098 
G01 X-1.0291 Y3.7890 
G01 X-1.0291 Y1.3044 
G01 X-1.0507 Y1.2238 
G01 X-1.0925 Y1.1515 
G00 Z2.0000  F3000
G00 X-1.2246 Y4.3946  F3000
G01 Z-0.2000 F200.00 
G01 X-1.3466 Y4.2726 F500.00 
G01 X-1.4901 Y4.1768 
G01 X-1.6495 Y4.1108 
G01 X-1.8187 Y4.0771 
G01 X-1.9913 Y4.0771 
G01 X-2.1605 Y4.1108 
G01 X-2.3199 Y4.1768 
G01 X-2.4634 Y4.2726 
G01 X-2.5854 Y4.3946 
G01 X-2.6812 Y4.5381 
G01 X-2.7472 Y4.6975 
G01 X-2.7809 Y4.8667 
G01 X-2.7809 Y6.5633 
G01 X-2.7472 Y6.7325 
G01 X-2.6812 Y6.8919 
G01 X-2.5854 Y7.0354 
G01 X-2.4634 Y7.1574 
G01 X-2.3199 Y7.2532 
G01 X-2.1605 Y7.3192 
G01 X-1.9913 Y7.3529 
G01 X-1.8187 Y7.3529 
G01 X-1.6495 Y7.3192 
G01 X-1.4901 Y7.2532 
G01 X-1.3466 Y7.1574 
G01 X-1.2246 Y7.0354 
G01 X-1.1288 Y6.8919 
G01 X-1.0628 Y6.7325 
G01 X-1.0291 Y6.5633 
G01 X-1.0291 Y4.8667 
G01 X-1.0628 Y4.6975 
G01 X-1.1288 Y4.5381 
G01 X-1.2246 Y4.3946 
G00 Z2.0000  F3000
G00 X-3.6372 Y4.4132  F3000
G01 Z-0.2000 F200.00 
G01 X-3.4921 Y4.7635 F500.00 
G01 X-3.4921 Y6.6665 
G01 X-3.6372 Y7.0168 
G01 X-3.9052 Y7.2848 
G01 X-4.2555 Y7.4299 
G01 X-4.6345 Y7.4299 
G01 X-4.9848 Y7.2848 
G01 X-5.2528 Y7.0168 
G01 X-5.3979 Y6.6665 
G01 X-5.3979 Y4.7635 
G01 X-5.2528 Y4.4132 
G01 X-4.9848 Y4.1452 
G01 X-4.6345 Y4.0001 
G01 X-4.2555 Y4.0001 
G01 X-3.9052 Y4.1452 
G01 X-3.6372 Y4.4132 
G00 Z2.0000  F3000
G00 X-3.7646 Y4.3946  F3000
G01 Z-0.2000 F200.00 
G01 X-3.8866 Y4.2726 F500.00 
G01 X-4.0301 Y4.1768 
G01 X-4.1895 Y4.1108 
G01 X-4.3587 Y4.0771 
G01 X-4.5313 Y4.0771 
G01 X-4.7005 Y4.1108 
G01 X-4.8599 Y4.1768 
G01 X-5.0034 Y4.2726 
G01 X-5.1254 Y4.3946 
G01 X-5.2212 Y4.5381 
G01 X-5.2872 Y4.6975 
G01 X-5.3209 Y4.8667 
G01 X-5.3209 Y6.5633 
G01 X-5.2872 Y6.7325 
G01 X-5.2212 Y6.8919 
G01 X-5.1254 Y7.0354 
G01 X-5.0034 Y7.1574 
G01 X-4.8599 Y7.2532 
G01 X-4.7005 Y7.3192 
G01 X-4.5313 Y7.3529 
G01 X-4.3587 Y7.3529 
G01 X-4.1895 Y7.3192 
G01 X-4.0301 Y7.2532 
G01 X-3.8866 Y7.1574 
G01 X-3.7646 Y7.0354 
G01 X-3.6688 Y6.8919 
G01 X-3.6028 Y6.7325 
G01 X-3.5691 Y6.5633 
G01 X-3.5691 Y4.8667 
G01 X-3.6028 Y4.6975 
G01 X-3.6688 Y4.5381 
G01 X-3.7646 Y4.3946 
G00 Z2.0000  F3000
G00 X-6.3046 Y4.3946  F3000
G01 Z-0.2000 F200.00 
G01 X-6.4266 Y4.2726 F500.00 
G01 X-6.5701 Y4.1768 
G01 X-6.7295 Y4.1108 
G01 X-6.8987 Y4.0771 
G01 X-7.0713 Y4.0771 
G01 X-7.2405 Y4.1108 
G01 X-7.3999 Y4.1768 
G01 X-7.5434 Y4.2726 
G01 X-7.6654 Y4.3946 
G01 X-7.7612 Y4.5381 
G01 X-7.8272 Y4.6975 
G01 X-7.8609 Y4.8667 
G01 X-7.8609 Y6.5633 
G01 X-7.8272 Y6.7325 
G01 X-7.7612 Y6.8919 
G01 X-7.6654 Y7.0354 
G01 X-7.6069 Y7.0938 
G01 X-7.6069 Y11.4431 
G01 X-25.5862 Y11.4431 
G01 X-26.1704 Y10.8589 
G01 X-27.1696 Y10.8589 
G01 X-27.8761 Y11.5654 
G01 X-27.8761 Y12.5646 
G01 X-27.1696 Y13.2711 
G01 X-26.1704 Y13.2711 
G01 X-25.5862 Y12.6869 
G01 X-6.9237 Y12.6869 
G01 X-6.8036 Y12.6630 
G01 X-6.6904 Y12.6161 
G01 X-6.5886 Y12.5481 
G01 X-6.5019 Y12.4614 
G01 X-6.4339 Y12.3596 
G01 X-6.3870 Y12.2464 
G01 X-6.3631 Y12.1263 
G01 X-6.3631 Y7.0938 
G01 X-6.3046 Y7.0354 
G01 X-6.2088 Y6.8919 
G01 X-6.1428 Y6.7325 
G01 X-6.1091 Y6.5633 
G01 X-6.1091 Y4.8667 
G01 X-6.1428 Y4.6975 
G01 X-6.2088 Y4.5381 
G01 X-6.3046 Y4.3946 
G00 Z2.0000  F3000
G00 X-8.8446 Y4.3946  F3000
G01 Z-0.2000 F200.00 
G01 X-8.9666 Y4.2726 F500.00 
G01 X-9.1101 Y4.1768 
G01 X-9.2695 Y4.1108 
G01 X-9.4387 Y4.0771 
G01 X-9.6113 Y4.0771 
G01 X-9.7805 Y4.1108 
G01 X-9.9399 Y4.1768 
G01 X-10.0834 Y4.2726 
G01 X-10.2054 Y4.3946 
G01 X-10.3012 Y4.5381 
G01 X-10.3672 Y4.6975 
G01 X-10.4009 Y4.8667 
G01 X-10.4009 Y6.5633 
G01 X-10.3672 Y6.7325 
G01 X-10.3012 Y6.8919 
G01 X-10.2054 Y7.0354 
G01 X-10.1469 Y7.0938 
G01 X-10.1469 Y8.9031 
G01 X-25.5862 Y8.9031 
G01 X-26.1704 Y8.3189 
G01 X-27.1696 Y8.3189 
G01 X-27.8761 Y9.0254 
G01 X-27.8761 Y10.0246 
G01 X-27.1696 Y10.7311 
G01 X-26.1704 Y10.7311 
G01 X-25.5862 Y10.1469 
G01 X-9.4637 Y10.1469 
G01 X-9.3436 Y10.1230 
G01 X-9.2304 Y10.0761 
G01 X-9.1286 Y10.0081 
G01 X-9.0419 Y9.9214 
G01 X-8.9739 Y9.8196 
G01 X-8.9270 Y9.7064 
G01 X-8.9031 Y9.5862 
G01 X-8.9031 Y7.0938 
G01 X-8.8446 Y7.0354 
G01 X-8.7488 Y6.8919 
G01 X-8.6828 Y6.7325 
G01 X-8.6491 Y6.5633 
G01 X-8.6491 Y4.8667 
G01 X-8.6828 Y4.6975 
G01 X-8.7488 Y4.5381 
G01 X-8.8446 Y4.3946 
G00 Z2.0000  F3000
G00 X-11.2572 Y4.4132  F3000
G01 Z-0.2000 F200.00 
G01 X-11.1121 Y4.7635 F500.00 
G01 X-11.1121 Y6.6665 
G01 X-11.2572 Y7.0168 
G01 X-11.5252 Y7.2848 
G01 X-11.8755 Y7.4299 
G01 X-12.2545 Y7.4299 
G01 X-12.6048 Y7.2848 
G01 X-12.8728 Y7.0168 
G01 X-13.0179 Y6.6665 
G01 X-13.0179 Y4.7635 
G01 X-12.8728 Y4.4132 
G01 X-12.6048 Y4.1452 
G01 X-12.2545 Y4.0001 
G01 X-11.8755 Y4.0001 
G01 X-11.5252 Y4.1452 
G01 X-11.2572 Y4.4132 
G00 Z2.0000  F3000
G00 X-11.3846 Y4.3946  F3000
G01 Z-0.2000 F200.00 
G01 X-11.5066 Y4.2726 F500.00 
G01 X-11.6501 Y4.1768 
G01 X-11.8095 Y4.1108 
G01 X-11.9787 Y4.0771 
G01 X-12.1513 Y4.0771 
G01 X-12.3205 Y4.1108 
G01 X-12.4799 Y4.1768 
G01 X-12.6234 Y4.2726 
G01 X-12.7454 Y4.3946 
G01 X-12.8412 Y4.5381 
G01 X-12.9072 Y4.6975 
G01 X-12.9409 Y4.8667 
G01 X-12.9409 Y6.5633 
G01 X-12.9072 Y6.7325 
G01 X-12.8412 Y6.8919 
G01 X-12.7454 Y7.0354 
G01 X-12.6234 Y7.1574 
G01 X-12.4799 Y7.2532 
G01 X-12.3205 Y7.3192 
G01 X-12.1513 Y7.3529 
G01 X-11.9787 Y7.3529 
G01 X-11.8095 Y7.3192 
G01 X-11.6501 Y7.2532 
G01 X-11.5066 Y7.1574 
G01 X-11.3846 Y7.0354 
G01 X-11.2888 Y6.8919 
G01 X-11.2228 Y6.7325 
G01 X-11.1891 Y6.5633 
G01 X-11.1891 Y4.8667 
G01 X-11.2228 Y4.6975 
G01 X-11.2888 Y4.5381 
G01 X-11.3846 Y4.3946 
G00 Z2.0000  F3000
G00 X-13.7972 Y4.4132  F3000
G01 Z-0.2000 F200.00 
G01 X-13.6521 Y4.7635 F500.00 
G01 X-13.6521 Y6.6665 
G01 X-13.7972 Y7.0168 
G01 X-14.0652 Y7.2848 
G01 X-14.4155 Y7.4299 
G01 X-14.7945 Y7.4299 
G01 X-15.1448 Y7.2848 
G01 X-15.4128 Y7.0168 
G01 X-15.5579 Y6.6665 
G01 X-15.5579 Y4.7635 
G01 X-15.4128 Y4.4132 
G01 X-15.1448 Y4.1452 
G01 X-14.7945 Y4.0001 
G01 X-14.4155 Y4.0001 
G01 X-14.0652 Y4.1452 
G01 X-13.7972 Y4.4132 
G00 Z2.0000  F3000
G00 X-13.9246 Y4.3946  F3000
G01 Z-0.2000 F200.00 
G01 X-14.0466 Y4.2726 F500.00 
G01 X-14.1901 Y4.1768 
G01 X-14.3495 Y4.1108 
G01 X-14.5187 Y4.0771 
G01 X-14.6913 Y4.0771 
G01 X-14.8605 Y4.1108 
G01 X-15.0199 Y4.1768 
G01 X-15.1634 Y4.2726 
G01 X-15.2854 Y4.3946 
G01 X-15.3812 Y4.5381 
G01 X-15.4472 Y4.6975 
G01 X-15.4809 Y4.8667 
G01 X-15.4809 Y6.5633 
G01 X-15.4472 Y6.7325 
G01 X-15.3812 Y6.8919 
G01 X-15.2854 Y7.0354 
G01 X-15.1634 Y7.1574 
G01 X-15.0199 Y7.2532 
G01 X-14.8605 Y7.3192 
G01 X-14.6913 Y7.3529 
G01 X-14.5187 Y7.3529 
G01 X-14.3495 Y7.3192 
G01 X-14.1901 Y7.2532 
G01 X-14.0466 Y7.1574 
G01 X-13.9246 Y7.0354 
G01 X-13.8288 Y6.8919 
G01 X-13.7628 Y6.7325 
G01 X-13.7291 Y6.5633 
G01 X-13.7291 Y4.8667 
G01 X-13.7628 Y4.6975 
G01 X-13.8288 Y4.5381 
G01 X-13.9246 Y4.3946 
G00 Z2.0000  F3000
G00 X-16.3372 Y4.4132  F3000
G01 Z-0.2000 F200.00 
G01 X-16.1921 Y4.7635 F500.00 
G01 X-16.1921 Y6.6665 
G01 X-16.3372 Y7.0168 
G01 X-16.6052 Y7.2848 
G01 X-16.9555 Y7.4299 
G01 X-17.3345 Y7.4299 
G01 X-17.6848 Y7.2848 
G01 X-17.9528 Y7.0168 
G01 X-18.0979 Y6.6665 
G01 X-18.0979 Y4.7635 
G01 X-17.9528 Y4.4132 
G01 X-17.6848 Y4.1452 
G01 X-17.3345 Y4.0001 
G01 X-16.9555 Y4.0001 
G01 X-16.6052 Y4.1452 
G01 X-16.3372 Y4.4132 
G00 Z2.0000  F3000
G00 X-16.4646 Y4.3946  F3000
G01 Z-0.2000 F200.00 
G01 X-16.5866 Y4.2726 F500.00 
G01 X-16.7301 Y4.1768 
G01 X-16.8895 Y4.1108 
G01 X-17.0587 Y4.0771 
G01 X-17.2313 Y4.0771 
G01 X-17.4005 Y4.1108 
G01 X-17.5599 Y4.1768 
G01 X-17.7034 Y4.2726 
G01 X-17.8254 Y4.3946 
G01 X-17.9212 Y4.5381 
G01 X-17.9872 Y4.6975 
G01 X-18.0209 Y4.8667 
G01 X-18.0209 Y6.5633 
G01 X-17.9872 Y6.7325 
G01 X-17.9212 Y6.8919 
G01 X-17.8254 Y7.0354 
G01 X-17.7034 Y7.1574 
G01 X-17.5599 Y7.2532 
G01 X-17.4005 Y7.3192 
G01 X-17.2313 Y7.3529 
G01 X-17.0587 Y7.3529 
G01 X-16.8895 Y7.3192 
G01 X-16.7301 Y7.2532 
G01 X-16.5866 Y7.1574 
G01 X-16.4646 Y7.0354 
G01 X-16.3688 Y6.8919 
G01 X-16.3028 Y6.7325 
G01 X-16.2691 Y6.5633 
G01 X-16.2691 Y4.8667 
G01 X-16.3028 Y4.6975 
G01 X-16.3688 Y4.5381 
G01 X-16.4646 Y4.3946 
G00 Z2.0000  F3000
G00 X-18.8772 Y4.4132  F3000
G01 Z-0.2000 F200.00 
G01 X-18.7321 Y4.7635 F500.00 
G01 X-18.7321 Y6.6665 
G01 X-18.8772 Y7.0168 
G01 X-19.1452 Y7.2848 
G01 X-19.4955 Y7.4299 
G01 X-19.8745 Y7.4299 
G01 X-20.2248 Y7.2848 
G01 X-20.4928 Y7.0168 
G01 X-20.6379 Y6.6665 
G01 X-20.6379 Y4.7635 
G01 X-20.4928 Y4.4132 
G01 X-20.2248 Y4.1452 
G01 X-19.8745 Y4.0001 
G01 X-19.4955 Y4.0001 
G01 X-19.1452 Y4.1452 
G01 X-18.8772 Y4.4132 
G00 Z2.0000  F3000
G00 X-19.0046 Y4.3946  F3000
G01 Z-0.2000 F200.00 
G01 X-19.1266 Y4.2726 F500.00 
G01 X-19.2701 Y4.1768 
G01 X-19.4295 Y4.1108 
G01 X-19.5987 Y4.0771 
G01 X-19.7713 Y4.0771 
G01 X-19.9405 Y4.1108 
G01 X-20.0999 Y4.1768 
G01 X-20.2434 Y4.2726 
G01 X-20.3654 Y4.3946 
G01 X-20.4612 Y4.5381 
G01 X-20.5272 Y4.6975 
G01 X-20.5609 Y4.8667 
G01 X-20.5609 Y6.5633 
G01 X-20.5272 Y6.7325 
G01 X-20.4612 Y6.8919 
G01 X-20.3654 Y7.0354 
G01 X-20.2434 Y7.1574 
G01 X-20.0999 Y7.2532 
G01 X-19.9405 Y7.3192 
G01 X-19.7713 Y7.3529 
G01 X-19.5987 Y7.3529 
G01 X-19.4295 Y7.3192 
G01 X-19.2701 Y7.2532 
G01 X-19.1266 Y7.1574 
G01 X-19.0046 Y7.0354 
G01 X-18.9088 Y6.8919 
G01 X-18.8428 Y6.7325 
G01 X-18.8091 Y6.5633 
G01 X-18.8091 Y4.8667 
G01 X-18.8428 Y4.6975 
G01 X-18.9088 Y4.5381 
G01 X-19.0046 Y4.3946 
G00 Z2.0000  F3000
G00 X-28.0039 Y9.0254  F3000
G01 Z-0.2000 F200.00 
G01 X-28.7104 Y8.3189 F500.00 
G01 X-29.7096 Y8.3189 
G01 X-30.1668 Y8.7761 
G01 X-30.7932 Y8.7761 
G01 X-31.2504 Y8.3189 
G01 X-32.2496 Y8.3189 
G01 X-32.8338 Y8.9031 
G01 X-42.6063 Y8.9031 
G01 X-42.7264 Y8.9270 
G01 X-42.8396 Y8.9739 
G01 X-42.9414 Y9.0419 
G01 X-43.0281 Y9.1286 
G01 X-43.0961 Y9.2304 
G01 X-43.1430 Y9.3436 
G01 X-43.1669 Y9.4637 
G01 X-43.1669 Y29.2231 
G01 X-50.1781 Y29.2231 
G01 X-50.1781 Y26.4791 
G01 X-49.7499 Y26.4791 
G01 X-49.5821 Y26.4525 
G01 X-49.4206 Y26.4000 
G01 X-49.2692 Y26.3229 
G01 X-49.1318 Y26.2231 
G01 X-49.0117 Y26.1030 
G01 X-48.9119 Y25.9656 
G01 X-48.8348 Y25.8142 
G01 X-48.7823 Y25.6527 
G01 X-48.7557 Y25.4849 
G01 X-48.7557 Y25.3151 
G01 X-48.7823 Y25.1473 
G01 X-48.8348 Y24.9858 
G01 X-48.9119 Y24.8344 
G01 X-49.0117 Y24.6970 
G01 X-49.1318 Y24.5769 
G01 X-49.2692 Y24.4771 
G01 X-49.4206 Y24.4000 
G01 X-49.5821 Y24.3475 
G01 X-49.7499 Y24.3209 
G01 X-51.8501 Y24.3209 
G01 X-52.0179 Y24.3475 
G01 X-52.1794 Y24.4000 
G01 X-52.3308 Y24.4771 
G01 X-52.4682 Y24.5769 
G01 X-52.5883 Y24.6970 
G01 X-52.6881 Y24.8344 
G01 X-52.7652 Y24.9858 
G01 X-52.8177 Y25.1473 
G01 X-52.8443 Y25.3151 
G01 X-52.8443 Y25.4849 
G01 X-52.8177 Y25.6527 
G01 X-52.7652 Y25.8142 
G01 X-52.6881 Y25.9656 
G01 X-52.5883 Y26.1030 
G01 X-52.4682 Y26.2231 
G01 X-52.3308 Y26.3229 
G01 X-52.1794 Y26.4000 
G01 X-52.0179 Y26.4525 
G01 X-51.8501 Y26.4791 
G01 X-51.4219 Y26.4791 
G01 X-51.4219 Y29.9062 
G01 X-51.3980 Y30.0264 
G01 X-51.3511 Y30.1396 
G01 X-51.2831 Y30.2414 
G01 X-51.1964 Y30.3281 
G01 X-51.0946 Y30.3961 
G01 X-50.9814 Y30.4430 
G01 X-50.8612 Y30.4669 
G01 X-42.4837 Y30.4669 
G01 X-42.3636 Y30.4430 
G01 X-42.2504 Y30.3961 
G01 X-42.1486 Y30.3281 
G01 X-42.0619 Y30.2414 
G01 X-41.9939 Y30.1396 
G01 X-41.9470 Y30.0264 
G01 X-41.9231 Y29.9062 
G01 X-41.9231 Y10.1469 
G01 X-32.8338 Y10.1469 
G01 X-32.2496 Y10.7311 
G01 X-31.2504 Y10.7311 
G01 X-30.7932 Y10.2739 
G01 X-30.1668 Y10.2739 
G01 X-29.7096 Y10.7311 
G01 X-28.7104 Y10.7311 
G01 X-28.0039 Y10.0246 
G01 X-28.0039 Y9.0254 
G00 Z2.0000  F3000
G00 X-28.0039 Y11.5654  F3000
G01 Z-0.2000 F200.00 
G01 X-28.7104 Y10.8589 F500.00 
G01 X-29.7096 Y10.8589 
G01 X-30.1668 Y11.3161 
G01 X-30.7932 Y11.3161 
G01 X-31.2504 Y10.8589 
G01 X-32.2496 Y10.8589 
G01 X-32.8338 Y11.4431 
G01 X-40.0662 Y11.4431 
G01 X-40.1864 Y11.4670 
G01 X-40.2996 Y11.5139 
G01 X-40.4014 Y11.5819 
G01 X-40.4881 Y11.6686 
G01 X-40.5561 Y11.7704 
G01 X-40.6030 Y11.8836 
G01 X-40.6269 Y12.0037 
G01 X-40.6269 Y33.0331 
G01 X-50.8612 Y33.0331 
G01 X-50.9814 Y33.0570 
G01 X-51.0946 Y33.1039 
G01 X-51.1964 Y33.1719 
G01 X-51.2831 Y33.2586 
G01 X-51.3511 Y33.3604 
G01 X-51.3980 Y33.4736 
G01 X-51.4219 Y33.5937 
G01 X-51.4219 Y37.6559 
G01 X-51.8501 Y37.6559 
G01 X-52.0179 Y37.6825 
G01 X-52.1794 Y37.7350 
G01 X-52.3308 Y37.8121 
G01 X-52.4682 Y37.9119 
G01 X-52.5883 Y38.0320 
G01 X-52.6881 Y38.1694 
G01 X-52.7652 Y38.3208 
G01 X-52.8177 Y38.4823 
G01 X-52.8443 Y38.6501 
G01 X-52.8443 Y38.8199 
G01 X-52.8177 Y38.9877 
G01 X-52.7652 Y39.1492 
G01 X-52.6881 Y39.3006 
G01 X-52.5883 Y39.4380 
G01 X-52.4682 Y39.5581 
G01 X-52.3308 Y39.6579 
G01 X-52.1794 Y39.7350 
G01 X-52.0179 Y39.7875 
G01 X-51.8501 Y39.8141 
G01 X-49.7499 Y39.8141 
G01 X-49.5821 Y39.7875 
G01 X-49.4206 Y39.7350 
G01 X-49.2692 Y39.6579 
G01 X-49.1318 Y39.5581 
G01 X-49.0117 Y39.4380 
G01 X-48.9119 Y39.3006 
G01 X-48.8348 Y39.1492 
G01 X-48.7823 Y38.9877 
G01 X-48.7557 Y38.8199 
G01 X-48.7557 Y38.6501 
G01 X-48.7823 Y38.4823 
G01 X-48.8348 Y38.3208 
G01 X-48.9119 Y38.1694 
G01 X-49.0117 Y38.0320 
G01 X-49.1318 Y37.9119 
G01 X-49.2692 Y37.8121 
G01 X-49.4206 Y37.7350 
G01 X-49.5821 Y37.6825 
G01 X-49.7499 Y37.6559 
G01 X-50.1781 Y37.6559 
G01 X-50.1781 Y34.2769 
G01 X-39.9437 Y34.2769 
G01 X-39.8236 Y34.2530 
G01 X-39.7104 Y34.2061 
G01 X-39.6086 Y34.1381 
G01 X-39.5219 Y34.0514 
G01 X-39.4539 Y33.9496 
G01 X-39.4070 Y33.8364 
G01 X-39.3831 Y33.7163 
G01 X-39.3831 Y12.6869 
G01 X-32.8338 Y12.6869 
G01 X-32.2496 Y13.2711 
G01 X-31.2504 Y13.2711 
G01 X-30.7932 Y12.8139 
G01 X-30.1668 Y12.8139 
G01 X-29.7096 Y13.2711 
G01 X-28.7104 Y13.2711 
G01 X-28.0039 Y12.5646 
G01 X-28.0039 Y11.5654 
G00 Z2.0000  F3000
G00 X-32.8023 Y11.3027  F3000
G01 Z-0.2000 F200.00 
G01 X-32.7433 Y11.2437 F500.00 
G01 X-32.4893 Y10.9897 
G01 X-32.4475 Y10.9174 
G01 X-32.4259 Y10.8367 
G01 X-32.4259 Y10.7532 
G01 X-32.4475 Y10.6726 
G01 X-32.4893 Y10.6003 
G01 X-32.5483 Y10.5413 
G01 X-32.8023 Y10.2873 
G01 X-32.8746 Y10.2455 
G01 X-32.9553 Y10.2239 
G01 X-41.5707 Y10.2239 
G01 X-41.6514 Y10.2455 
G01 X-41.7237 Y10.2873 
G01 X-41.7827 Y10.3463 
G01 X-41.8245 Y10.4186 
G01 X-41.8461 Y10.4992 
G01 X-41.8461 Y29.9840 
G01 X-41.9525 Y30.2409 
G01 X-42.1491 Y30.4375 
G01 X-42.4060 Y30.5439 
G01 X-50.9390 Y30.5439 
G01 X-51.1959 Y30.4375 
G01 X-51.3925 Y30.2409 
G01 X-51.4989 Y29.9840 
G01 X-51.4989 Y26.8314 
G01 X-51.5205 Y26.7508 
G01 X-51.5623 Y26.6785 
G01 X-51.6213 Y26.6195 
G01 X-51.6936 Y26.5777 
G01 X-51.7742 Y26.5561 
G01 X-51.9952 Y26.5561 
G01 X-52.4201 Y26.3801 
G01 X-52.7453 Y26.0549 
G01 X-52.9213 Y25.6300 
G01 X-52.9213 Y25.1700 
G01 X-52.7453 Y24.7451 
G01 X-52.4201 Y24.4199 
G01 X-52.3889 Y24.4070 
G01 X-52.3735 Y24.3952 
G01 X-52.3227 Y24.3562 
G01 X-52.3184 Y24.3506 
G01 X-52.2718 Y24.2899 
G01 X-52.2638 Y24.2705 
G01 X-52.2399 Y24.2128 
G01 X-52.2379 Y24.1983 
G01 X-52.2290 Y24.1300 
G01 X-52.2339 Y24.0923 
G01 X-52.2399 Y24.0472 
G01 X-52.2516 Y24.0189 
G01 X-52.2718 Y23.9701 
G01 X-52.2836 Y23.9547 
G01 X-52.3226 Y23.9039 
G01 X-52.3282 Y23.8996 
G01 X-52.3889 Y23.8530 
G01 X-52.4093 Y23.8446 
G01 X-52.4201 Y23.8401 
G01 X-52.5789 Y23.6813 
G01 X-52.6356 Y23.6245 
G01 X-52.6379 Y23.6223 
G01 X-52.7102 Y23.5805 
G01 X-52.7909 Y23.5589 
G01 X-57.4457 Y23.5589 
G01 X-57.5264 Y23.5805 
G01 X-57.5987 Y23.6223 
G01 X-57.6577 Y23.6813 
G01 X-57.6995 Y23.7536 
G01 X-57.7211 Y23.8342 
G01 X-57.7211 Y23.9685 
G01 X-57.6995 Y24.0492 
G01 X-57.6577 Y24.1215 
G01 X-57.5987 Y24.1805 
G01 X-57.5264 Y24.2223 
G01 X-57.4457 Y24.2439 
G01 X-57.2248 Y24.2439 
G01 X-56.7999 Y24.4199 
G01 X-56.5821 Y24.6377 
G01 X-56.5098 Y24.6795 
G01 X-56.4291 Y24.7011 
G01 X-55.1060 Y24.7011 
G01 X-54.8491 Y24.8075 
G01 X-54.6525 Y25.0041 
G01 X-54.5461 Y25.2610 
G01 X-54.5461 Y33.7940 
G01 X-54.6525 Y34.0509 
G01 X-54.8491 Y34.2475 
G01 X-55.1060 Y34.3539 
G01 X-58.0275 Y34.3539 
G01 X-58.0310 Y34.3548 
G01 X-58.1082 Y34.3755 
G01 X-58.1789 Y34.4163 
G01 X-58.2395 Y34.4763 
G01 X-58.5060 Y34.7428 
G01 X-58.9776 Y34.9381 
G01 X-61.6724 Y34.9381 
G01 X-62.1440 Y34.7428 
G01 X-62.4105 Y34.4763 
G01 X-62.4664 Y34.4204 
G01 X-62.4695 Y34.4173 
G01 X-62.5418 Y34.3755 
G01 X-62.6225 Y34.3539 
G01 X-65.0657 Y34.3539 
G01 X-65.1464 Y34.3755 
G01 X-65.2187 Y34.4173 
G01 X-65.2777 Y34.4763 
G01 X-65.3195 Y34.5486 
G01 X-65.3411 Y34.6292 
G01 X-65.3411 Y40.3007 
G01 X-65.3195 Y40.3814 
G01 X-65.2777 Y40.4537 
G01 X-65.2187 Y40.5127 
G01 X-65.1464 Y40.5545 
G01 X-65.0657 Y40.5761 
G01 X-64.8559 Y40.5761 
G01 X-64.7752 Y40.5545 
G01 X-64.7029 Y40.5127 
G01 X-64.6439 Y40.4537 
G01 X-64.4851 Y40.2949 
G01 X-64.0602 Y40.1189 
G01 X-61.6698 Y40.1189 
G01 X-61.2449 Y40.2949 
G01 X-60.9197 Y40.6201 
G01 X-60.9062 Y40.6526 
G01 X-60.8972 Y40.6805 
G01 X-60.8903 Y40.6911 
G01 X-60.8855 Y40.7027 
G01 X-60.8677 Y40.7259 
G01 X-60.8517 Y40.7505 
G01 X-60.8423 Y40.7589 
G01 X-60.8347 Y40.7689 
G01 X-60.8114 Y40.7868 
G01 X-60.7896 Y40.8064 
G01 X-60.7784 Y40.8121 
G01 X-60.7684 Y40.8198 
G01 X-60.7413 Y40.8310 
G01 X-60.7152 Y40.8443 
G01 X-60.7029 Y40.8469 
G01 X-60.6913 Y40.8517 
G01 X-60.6622 Y40.8555 
G01 X-60.6336 Y40.8616 
G01 X-60.6210 Y40.8610 
G01 X-60.6085 Y40.8626 
G01 X-60.5795 Y40.8588 
G01 X-60.5502 Y40.8573 
G01 X-60.5382 Y40.8534 
G01 X-60.5257 Y40.8517 
G01 X-60.4987 Y40.8405 
G01 X-60.4708 Y40.8314 
G01 X-60.4602 Y40.8246 
G01 X-60.4486 Y40.8198 
G01 X-60.4253 Y40.8019 
G01 X-60.4008 Y40.7860 
G01 X-60.3923 Y40.7766 
G01 X-60.3824 Y40.7689 
G01 X-60.3645 Y40.7457 
G01 X-60.3449 Y40.7239 
G01 X-60.3392 Y40.7127 
G01 X-60.3315 Y40.7027 
G01 X-60.3261 Y40.6896 
G01 X-60.2283 Y40.5550 
G01 X-60.1052 Y40.4319 
G01 X-59.9645 Y40.3297 
G01 X-59.8095 Y40.2507 
G01 X-59.6440 Y40.1969 
G01 X-59.4722 Y40.1697 
G01 X-59.0419 Y40.1697 
G01 X-59.0419 Y40.1959 
G01 X-59.4701 Y40.1959 
G01 X-59.6379 Y40.2225 
G01 X-59.7994 Y40.2750 
G01 X-59.9508 Y40.3521 
G01 X-60.0882 Y40.4519 
G01 X-60.2083 Y40.5720 
G01 X-60.3081 Y40.7094 
G01 X-60.3852 Y40.8608 
G01 X-60.4377 Y41.0223 
G01 X-60.4643 Y41.1901 
G01 X-60.4643 Y41.3599 
G01 X-60.4377 Y41.5277 
G01 X-60.3852 Y41.6892 
G01 X-60.3081 Y41.8406 
G01 X-60.2083 Y41.9780 
G01 X-60.0882 Y42.0981 
G01 X-59.9508 Y42.1979 
G01 X-59.7994 Y42.2750 
G01 X-59.6379 Y42.3275 
G01 X-59.4701 Y42.3541 
G01 X-57.3699 Y42.3541 
G01 X-57.2021 Y42.3275 
G01 X-57.0406 Y42.2750 
G01 X-56.8892 Y42.1979 
G01 X-56.7518 Y42.0981 
G01 X-56.6317 Y41.9780 
G01 X-56.5319 Y41.8406 
G01 X-56.4548 Y41.6892 
G01 X-56.4232 Y41.5921 
G01 X-56.3957 Y41.5921 
G01 X-56.4305 Y41.6993 
G01 X-56.5095 Y41.8543 
G01 X-56.6117 Y41.9950 
G01 X-56.7348 Y42.1181 
G01 X-56.8755 Y42.2203 
G01 X-56.8829 Y42.2241 
G01 X-56.9100 Y42.2353 
G01 X-56.9200 Y42.2430 
G01 X-56.9312 Y42.2487 
G01 X-56.9530 Y42.2683 
G01 X-56.9762 Y42.2862 
G01 X-56.9839 Y42.2962 
G01 X-56.9933 Y42.3046 
G01 X-57.0092 Y42.3292 
G01 X-57.0271 Y42.3524 
G01 X-57.0319 Y42.3640 
G01 X-57.0388 Y42.3746 
G01 X-57.0478 Y42.4025 
G01 X-57.0590 Y42.4295 
G01 X-57.0607 Y42.4420 
G01 X-57.0646 Y42.4540 
G01 X-57.0661 Y42.4833 
G01 X-57.0699 Y42.5123 
G01 X-57.0683 Y42.5248 
G01 X-57.0689 Y42.5374 
G01 X-57.0628 Y42.5660 
G01 X-57.0590 Y42.5951 
G01 X-57.0542 Y42.6067 
G01 X-57.0516 Y42.6191 
G01 X-57.0383 Y42.6452 
G01 X-57.0271 Y42.6722 
G01 X-57.0194 Y42.6822 
G01 X-57.0137 Y42.6935 
G01 X-56.9941 Y42.7152 
G01 X-56.9762 Y42.7385 
G01 X-56.9662 Y42.7461 
G01 X-56.9578 Y42.7555 
G01 X-56.9332 Y42.7715 
G01 X-56.9100 Y42.7893 
G01 X-56.8984 Y42.7941 
G01 X-56.8878 Y42.8010 
G01 X-56.8599 Y42.8100 
G01 X-56.7999 Y42.8349 
G01 X-56.5821 Y43.0527 
G01 X-56.5098 Y43.0945 
G01 X-56.4291 Y43.1161 
G01 X-52.7909 Y43.1161 
G01 X-52.7102 Y43.0945 
G01 X-52.6379 Y43.0527 
G01 X-52.5789 Y42.9937 
G01 X-52.4201 Y42.8349 
G01 X-52.3601 Y42.8100 
G01 X-52.3322 Y42.8010 
G01 X-52.3216 Y42.7941 
G01 X-52.3100 Y42.7893 
G01 X-52.2868 Y42.7715 
G01 X-52.2622 Y42.7555 
G01 X-52.2538 Y42.7462 
G01 X-52.2438 Y42.7385 
G01 X-52.2259 Y42.7152 
G01 X-52.2063 Y42.6935 
G01 X-52.2006 Y42.6822 
G01 X-52.1929 Y42.6722 
G01 X-52.1817 Y42.6452 
G01 X-52.1684 Y42.6191 
G01 X-52.1658 Y42.6068 
G01 X-52.1610 Y42.5951 
G01 X-52.1572 Y42.5660 
G01 X-52.1511 Y42.5374 
G01 X-52.1517 Y42.5248 
G01 X-52.1501 Y42.5123 
G01 X-52.1539 Y42.4833 
G01 X-52.1554 Y42.4540 
G01 X-52.1593 Y42.4421 
G01 X-52.1610 Y42.4295 
G01 X-52.1722 Y42.4025 
G01 X-52.1812 Y42.3746 
G01 X-52.1881 Y42.3641 
G01 X-52.1929 Y42.3524 
G01 X-52.2108 Y42.3292 
G01 X-52.2267 Y42.3046 
G01 X-52.2361 Y42.2962 
G01 X-52.2437 Y42.2862 
G01 X-52.2670 Y42.2683 
G01 X-52.2888 Y42.2487 
G01 X-52.3000 Y42.2430 
G01 X-52.3100 Y42.2353 
G01 X-52.3371 Y42.2241 
G01 X-52.3445 Y42.2203 
G01 X-52.4852 Y42.1181 
G01 X-52.6083 Y41.9950 
G01 X-52.7105 Y41.8543 
G01 X-52.7895 Y41.6993 
G01 X-52.8243 Y41.5921 
G01 X-52.7968 Y41.5921 
G01 X-52.7652 Y41.6892 
G01 X-52.6881 Y41.8406 
G01 X-52.5883 Y41.9780 
G01 X-52.4682 Y42.0981 
G01 X-52.3308 Y42.1979 
G01 X-52.1794 Y42.2750 
G01 X-52.0179 Y42.3275 
G01 X-51.8501 Y42.3541 
G01 X-49.7499 Y42.3541 
G01 X-49.5821 Y42.3275 
G01 X-49.4206 Y42.2750 
G01 X-49.2692 Y42.1979 
G01 X-49.1318 Y42.0981 
G01 X-49.0117 Y41.9780 
G01 X-48.9528 Y41.8969 
G01 X-48.9204 Y41.8969 
G01 X-48.9917 Y41.9950 
G01 X-49.1148 Y42.1181 
G01 X-49.2555 Y42.2203 
G01 X-49.2629 Y42.2241 
G01 X-49.2900 Y42.2353 
G01 X-49.3000 Y42.2430 
G01 X-49.3112 Y42.2487 
G01 X-49.3330 Y42.2683 
G01 X-49.3562 Y42.2862 
G01 X-49.3639 Y42.2962 
G01 X-49.3733 Y42.3046 
G01 X-49.3892 Y42.3292 
G01 X-49.4071 Y42.3524 
G01 X-49.4119 Y42.3641 
G01 X-49.4188 Y42.3746 
G01 X-49.4278 Y42.4025 
G01 X-49.4390 Y42.4295 
G01 X-49.4407 Y42.4421 
G01 X-49.4446 Y42.4540 
G01 X-49.4461 Y42.4833 
G01 X-49.4499 Y42.5123 
G01 X-49.4483 Y42.5248 
G01 X-49.4489 Y42.5374 
G01 X-49.4428 Y42.5660 
G01 X-49.4390 Y42.5951 
G01 X-49.4342 Y42.6068 
G01 X-49.4316 Y42.6191 
G01 X-49.4183 Y42.6452 
G01 X-49.4071 Y42.6722 
G01 X-49.3994 Y42.6822 
G01 X-49.3937 Y42.6935 
G01 X-49.3741 Y42.7152 
G01 X-49.3562 Y42.7385 
G01 X-49.3462 Y42.7462 
G01 X-49.3378 Y42.7555 
G01 X-49.3132 Y42.7715 
G01 X-49.2900 Y42.7893 
G01 X-49.2784 Y42.7941 
G01 X-49.2678 Y42.8010 
G01 X-49.2399 Y42.8100 
G01 X-49.1799 Y42.8349 
G01 X-48.8547 Y43.1601 
G01 X-48.6787 Y43.5850 
G01 X-48.6787 Y44.0450 
G01 X-48.8547 Y44.4699 
G01 X-49.1799 Y44.7951 
G01 X-49.2399 Y44.8200 
G01 X-49.2678 Y44.8290 
G01 X-49.2784 Y44.8359 
G01 X-49.2900 Y44.8407 
G01 X-49.3132 Y44.8585 
G01 X-49.3378 Y44.8745 
G01 X-49.3462 Y44.8839 
G01 X-49.3562 Y44.8915 
G01 X-49.3741 Y44.9148 
G01 X-49.3937 Y44.9365 
G01 X-49.3994 Y44.9478 
G01 X-49.4071 Y44.9578 
G01 X-49.4183 Y44.9848 
G01 X-49.4316 Y45.0109 
G01 X-49.4342 Y45.0233 
G01 X-49.4390 Y45.0349 
G01 X-49.4428 Y45.0639 
G01 X-49.4489 Y45.0926 
G01 X-49.4483 Y45.1052 
G01 X-49.4499 Y45.1177 
G01 X-49.4461 Y45.1467 
G01 X-49.4446 Y45.1760 
G01 X-49.4407 Y45.1880 
G01 X-49.4390 Y45.2005 
G01 X-49.4278 Y45.2275 
G01 X-49.4188 Y45.2554 
G01 X-49.4119 Y45.2660 
G01 X-49.4071 Y45.2776 
G01 X-49.3892 Y45.3008 
G01 X-49.3733 Y45.3254 
G01 X-49.3639 Y45.3338 
G01 X-49.3562 Y45.3438 
G01 X-49.3330 Y45.3617 
G01 X-49.3112 Y45.3813 
G01 X-49.3000 Y45.3870 
G01 X-49.2900 Y45.3947 
G01 X-49.2629 Y45.4059 
G01 X-49.2555 Y45.4097 
G01 X-49.1148 Y45.5119 
G01 X-48.9917 Y45.6350 
G01 X-48.8895 Y45.7757 
G01 X-48.8105 Y45.9307 
G01 X-48.7757 Y46.0379 
G01 X-48.8032 Y46.0379 
G01 X-48.8348 Y45.9408 
G01 X-48.9119 Y45.7894 
G01 X-49.0117 Y45.6520 
G01 X-49.1318 Y45.5319 
G01 X-49.2692 Y45.4321 
G01 X-49.4206 Y45.3550 
G01 X-49.5821 Y45.3025 
G01 X-49.7499 Y45.2759 
G01 X-51.8501 Y45.2759 
G01 X-52.0179 Y45.3025 
G01 X-52.1794 Y45.3550 
G01 X-52.3308 Y45.4321 
G01 X-52.4682 Y45.5319 
G01 X-52.5883 Y45.6520 
G01 X-52.6881 Y45.7894 
G01 X-52.7652 Y45.9408 
G01 X-52.7968 Y46.0379 
G01 X-52.8243 Y46.0379 
G01 X-52.7895 Y45.9307 
G01 X-52.7105 Y45.7757 
G01 X-52.6083 Y45.6350 
G01 X-52.4852 Y45.5119 
G01 X-52.3445 Y45.4097 
G01 X-52.3371 Y45.4059 
G01 X-52.3100 Y45.3947 
G01 X-52.3000 Y45.3870 
G01 X-52.2888 Y45.3813 
G01 X-52.2670 Y45.3617 
G01 X-52.2438 Y45.3438 
G01 X-52.2361 Y45.3338 
G01 X-52.2267 Y45.3254 
G01 X-52.2108 Y45.3008 
G01 X-52.1929 Y45.2776 
G01 X-52.1881 Y45.2660 
G01 X-52.1812 Y45.2554 
G01 X-52.1722 Y45.2275 
G01 X-52.1610 Y45.2005 
G01 X-52.1593 Y45.1880 
G01 X-52.1554 Y45.1760 
G01 X-52.1539 Y45.1467 
G01 X-52.1501 Y45.1177 
G01 X-52.1517 Y45.1052 
G01 X-52.1511 Y45.0926 
G01 X-52.1572 Y45.0639 
G01 X-52.1610 Y45.0349 
G01 X-52.1658 Y45.0233 
G01 X-52.1684 Y45.0109 
G01 X-52.1817 Y44.9848 
G01 X-52.1929 Y44.9578 
G01 X-52.2006 Y44.9478 
G01 X-52.2063 Y44.9365 
G01 X-52.2259 Y44.9148 
G01 X-52.2438 Y44.8915 
G01 X-52.2537 Y44.8839 
G01 X-52.2622 Y44.8745 
G01 X-52.2868 Y44.8585 
G01 X-52.3100 Y44.8407 
G01 X-52.3216 Y44.8359 
G01 X-52.3322 Y44.8290 
G01 X-52.3601 Y44.8199 
G01 X-52.4201 Y44.7951 
G01 X-52.6379 Y44.5773 
G01 X-52.7102 Y44.5355 
G01 X-52.7909 Y44.5139 
G01 X-56.4291 Y44.5139 
G01 X-56.5098 Y44.5355 
G01 X-56.5821 Y44.5773 
G01 X-56.6411 Y44.6363 
G01 X-56.7999 Y44.7951 
G01 X-57.2248 Y44.9711 
G01 X-59.6152 Y44.9711 
G01 X-60.0401 Y44.7951 
G01 X-60.2579 Y44.5773 
G01 X-60.3302 Y44.5355 
G01 X-60.4109 Y44.5139 
G01 X-60.8741 Y44.5139 
G01 X-60.9548 Y44.5355 
G01 X-61.0271 Y44.5773 
G01 X-61.0861 Y44.6363 
G01 X-61.2449 Y44.7951 
G01 X-61.6698 Y44.9711 
G01 X-64.0602 Y44.9711 
G01 X-64.4851 Y44.7951 
G01 X-64.7703 Y44.5099 
G01 X-64.8260 Y44.4541 
G01 X-64.8293 Y44.4509 
G01 X-64.9016 Y44.4091 
G01 X-64.9822 Y44.3875 
G01 X-65.0657 Y44.3875 
G01 X-65.1430 Y44.4082 
G01 X-65.1464 Y44.4091 
G01 X-65.2187 Y44.4509 
G01 X-65.2768 Y44.5090 
G01 X-65.3195 Y44.5822 
G01 X-65.3411 Y44.6629 
G01 X-65.3411 Y49.8257 
G01 X-65.3195 Y49.9064 
G01 X-65.2777 Y49.9787 
G01 X-65.2187 Y50.0377 
G01 X-65.1464 Y50.0795 
G01 X-65.0657 Y50.1011 
G01 X-50.0260 Y50.1011 
G01 X-49.7691 Y50.2075 
G01 X-49.5725 Y50.4041 
G01 X-49.4661 Y50.6610 
G01 X-49.4661 Y52.4747 
G01 X-49.4445 Y52.5553 
G01 X-49.4027 Y52.6277 
G01 X-49.3572 Y52.6732 
G01 X-49.2121 Y53.0235 
G01 X-49.2121 Y54.9265 
G01 X-49.2542 Y55.0282 
G01 X-49.2647 Y55.0464 
G01 X-49.2701 Y55.0667 
G01 X-49.2782 Y55.0860 
G01 X-49.2809 Y55.1068 
G01 X-49.2863 Y55.1270 
G01 X-49.2863 Y55.1480 
G01 X-49.2891 Y55.1688 
G01 X-49.2863 Y55.1896 
G01 X-49.2863 Y55.2105 
G01 X-49.2809 Y55.2308 
G01 X-49.2782 Y55.2516 
G01 X-49.2701 Y55.2709 
G01 X-49.2647 Y55.2912 
G01 X-49.2542 Y55.3094 
G01 X-49.2462 Y55.3287 
G01 X-49.2334 Y55.3453 
G01 X-49.2230 Y55.3635 
G01 X-49.2081 Y55.3783 
G01 X-49.1954 Y55.3950 
G01 X-49.1788 Y55.4077 
G01 X-49.1639 Y55.4225 
G01 X-49.1458 Y55.4330 
G01 X-49.1291 Y55.4458 
G01 X-49.1098 Y55.4538 
G01 X-49.0916 Y55.4643 
G01 X-49.0714 Y55.4697 
G01 X-49.0520 Y55.4777 
G01 X-49.0312 Y55.4805 
G01 X-49.0110 Y55.4859 
G01 X-48.9900 Y55.4859 
G01 X-48.9692 Y55.4886 
G01 X-48.9484 Y55.4859 
G01 X-48.8000 Y55.4859 
G01 X-48.7917 Y55.4876 
G01 X-48.7583 Y55.4859 
G01 X-48.7249 Y55.4859 
G01 X-48.7168 Y55.4837 
G01 X-48.7083 Y55.4833 
G01 X-48.6765 Y55.4729 
G01 X-48.6442 Y55.4643 
G01 X-48.6369 Y55.4601 
G01 X-48.6289 Y55.4575 
G01 X-48.6009 Y55.4393 
G01 X-48.5719 Y55.4225 
G01 X-48.5660 Y55.4166 
G01 X-48.5589 Y55.4120 
G01 X-48.5365 Y55.3872 
G01 X-48.5129 Y55.3635 
G01 X-48.5087 Y55.3562 
G01 X-48.5031 Y55.3500 
G01 X-48.4879 Y55.3202 
G01 X-48.4711 Y55.2912 
G01 X-48.4690 Y55.2831 
G01 X-48.4651 Y55.2756 
G01 X-48.4582 Y55.2429 
G01 X-48.4495 Y55.2105 
G01 X-48.4495 Y55.2021 
G01 X-48.4478 Y55.1939 
G01 X-48.4495 Y55.1605 
G01 X-48.4495 Y55.1270 
G01 X-48.4517 Y55.1189 
G01 X-48.4522 Y55.1105 
G01 X-48.4625 Y55.0787 
G01 X-48.4711 Y55.0464 
G01 X-48.4754 Y55.0391 
G01 X-48.5049 Y54.9483 
G01 X-48.5271 Y54.8080 
G01 X-48.5271 Y54.3429 
G01 X-48.5009 Y54.3429 
G01 X-48.5009 Y54.8233 
G01 X-48.4672 Y54.9925 
G01 X-48.4012 Y55.1519 
G01 X-48.3054 Y55.2954 
G01 X-48.1834 Y55.4174 
G01 X-48.0399 Y55.5132 
G01 X-47.8805 Y55.5792 
G01 X-47.7113 Y55.6129 
G01 X-47.5387 Y55.6129 
G01 X-47.3695 Y55.5792 
G01 X-47.2101 Y55.5132 
G01 X-47.0666 Y55.4174 
G01 X-46.9446 Y55.2954 
G01 X-46.8488 Y55.1519 
G01 X-46.7828 Y54.9925 
G01 X-46.7491 Y54.8233 
G01 X-46.7491 Y54.5969 
G01 X-46.7229 Y54.5969 
G01 X-46.7229 Y54.8080 
G01 X-46.7451 Y54.9483 
G01 X-46.7746 Y55.0391 
G01 X-46.7788 Y55.0464 
G01 X-46.7875 Y55.0787 
G01 X-46.7978 Y55.1105 
G01 X-46.7983 Y55.1189 
G01 X-46.8005 Y55.1270 
G01 X-46.8005 Y55.1605 
G01 X-46.8022 Y55.1939 
G01 X-46.8005 Y55.2021 
G01 X-46.8005 Y55.2105 
G01 X-46.7918 Y55.2429 
G01 X-46.7848 Y55.2756 
G01 X-46.7810 Y55.2831 
G01 X-46.7788 Y55.2912 
G01 X-46.7621 Y55.3202 
G01 X-46.7469 Y55.3500 
G01 X-46.7413 Y55.3562 
G01 X-46.7371 Y55.3635 
G01 X-46.7134 Y55.3872 
G01 X-46.6911 Y55.4120 
G01 X-46.6840 Y55.4166 
G01 X-46.6781 Y55.4225 
G01 X-46.6491 Y55.4393 
G01 X-46.6211 Y55.4575 
G01 X-46.6130 Y55.4601 
G01 X-46.6058 Y55.4643 
G01 X-46.5735 Y55.4729 
G01 X-46.5416 Y55.4833 
G01 X-46.5332 Y55.4837 
G01 X-46.5251 Y55.4859 
G01 X-46.4917 Y55.4859 
G01 X-46.4583 Y55.4876 
G01 X-46.4500 Y55.4859 
G01 X-46.2600 Y55.4859 
G01 X-46.2517 Y55.4876 
G01 X-46.2183 Y55.4859 
G01 X-46.1849 Y55.4859 
G01 X-46.1768 Y55.4837 
G01 X-46.1683 Y55.4833 
G01 X-46.1365 Y55.4729 
G01 X-46.1042 Y55.4643 
G01 X-46.0969 Y55.4601 
G01 X-46.0889 Y55.4575 
G01 X-46.0609 Y55.4393 
G01 X-46.0319 Y55.4225 
G01 X-46.0260 Y55.4166 
G01 X-46.0189 Y55.4120 
G01 X-45.9965 Y55.3872 
G01 X-45.9729 Y55.3635 
G01 X-45.9687 Y55.3562 
G01 X-45.9631 Y55.3500 
G01 X-45.9479 Y55.3202 
G01 X-45.9311 Y55.2912 
G01 X-45.9290 Y55.2831 
G01 X-45.9251 Y55.2756 
G01 X-45.9182 Y55.2429 
G01 X-45.9095 Y55.2105 
G01 X-45.9095 Y55.2021 
G01 X-45.9078 Y55.1939 
G01 X-45.9095 Y55.1605 
G01 X-45.9095 Y55.1270 
G01 X-45.9117 Y55.1189 
G01 X-45.9122 Y55.1105 
G01 X-45.9225 Y55.0787 
G01 X-45.9311 Y55.0464 
G01 X-45.9354 Y55.0391 
G01 X-45.9649 Y54.9483 
G01 X-45.9871 Y54.8080 
G01 X-45.9871 Y54.5969 
G01 X-45.9609 Y54.5969 
G01 X-45.9609 Y54.8233 
G01 X-45.9272 Y54.9925 
G01 X-45.8612 Y55.1519 
G01 X-45.7654 Y55.2954 
G01 X-45.6434 Y55.4174 
G01 X-45.4999 Y55.5132 
G01 X-45.3405 Y55.5792 
G01 X-45.1713 Y55.6129 
G01 X-44.9987 Y55.6129 
G01 X-44.8295 Y55.5792 
G01 X-44.6701 Y55.5132 
G01 X-44.5266 Y55.4174 
G01 X-44.4046 Y55.2954 
G01 X-44.3088 Y55.1519 
G01 X-44.2428 Y54.9925 
G01 X-44.2091 Y54.8233 
G01 X-44.2091 Y54.3429 
G01 X-44.1829 Y54.3429 
G01 X-44.1829 Y54.8080 
G01 X-44.2051 Y54.9483 
G01 X-44.2346 Y55.0391 
G01 X-44.2388 Y55.0464 
G01 X-44.2475 Y55.0787 
G01 X-44.2578 Y55.1105 
G01 X-44.2583 Y55.1189 
G01 X-44.2605 Y55.1270 
G01 X-44.2605 Y55.1605 
G01 X-44.2622 Y55.1939 
G01 X-44.2605 Y55.2021 
G01 X-44.2605 Y55.2105 
G01 X-44.2518 Y55.2429 
G01 X-44.2448 Y55.2756 
G01 X-44.2410 Y55.2831 
G01 X-44.2388 Y55.2912 
G01 X-44.2221 Y55.3202 
G01 X-44.2069 Y55.3500 
G01 X-44.2013 Y55.3562 
G01 X-44.1971 Y55.3635 
G01 X-44.1734 Y55.3872 
G01 X-44.1511 Y55.4120 
G01 X-44.1440 Y55.4166 
G01 X-44.1381 Y55.4225 
G01 X-44.1091 Y55.4393 
G01 X-44.0811 Y55.4575 
G01 X-44.0730 Y55.4601 
G01 X-44.0658 Y55.4643 
G01 X-44.0335 Y55.4729 
G01 X-44.0016 Y55.4833 
G01 X-43.9932 Y55.4837 
G01 X-43.9851 Y55.4859 
G01 X-43.9517 Y55.4859 
G01 X-43.9183 Y55.4876 
G01 X-43.9100 Y55.4859 
G01 X-43.7616 Y55.4859 
G01 X-43.7408 Y55.4886 
G01 X-43.7200 Y55.4859 
G01 X-43.6990 Y55.4859 
G01 X-43.6788 Y55.4805 
G01 X-43.6580 Y55.4777 
G01 X-43.6386 Y55.4697 
G01 X-43.6184 Y55.4643 
G01 X-43.6002 Y55.4538 
G01 X-43.5809 Y55.4458 
G01 X-43.5642 Y55.4330 
G01 X-43.5461 Y55.4225 
G01 X-43.5312 Y55.4077 
G01 X-43.5146 Y55.3950 
G01 X-43.5019 Y55.3783 
G01 X-43.4870 Y55.3635 
G01 X-43.4765 Y55.3453 
G01 X-43.4638 Y55.3287 
G01 X-43.4558 Y55.3094 
G01 X-43.4453 Y55.2912 
G01 X-43.4399 Y55.2709 
G01 X-43.4318 Y55.2516 
G01 X-43.4291 Y55.2308 
G01 X-43.4237 Y55.2105 
G01 X-43.4237 Y55.1896 
G01 X-43.4209 Y55.1688 
G01 X-43.4237 Y55.1480 
G01 X-43.4237 Y55.1270 
G01 X-43.4291 Y55.1068 
G01 X-43.4318 Y55.0860 
G01 X-43.4399 Y55.0667 
G01 X-43.4453 Y55.0464 
G01 X-43.4558 Y55.0282 
G01 X-43.4979 Y54.9265 
G01 X-43.4979 Y53.0235 
G01 X-43.3528 Y52.6732 
G01 X-43.0848 Y52.4052 
G01 X-42.7345 Y52.2601 
G01 X-42.3555 Y52.2601 
G01 X-42.0052 Y52.4052 
G01 X-41.7372 Y52.6732 
G01 X-41.5921 Y53.0235 
G01 X-41.5921 Y54.9265 
G01 X-41.6342 Y55.0282 
G01 X-41.6447 Y55.0464 
G01 X-41.6501 Y55.0667 
G01 X-41.6582 Y55.0860 
G01 X-41.6609 Y55.1068 
G01 X-41.6663 Y55.1270 
G01 X-41.6663 Y55.1480 
G01 X-41.6691 Y55.1688 
G01 X-41.6663 Y55.1896 
G01 X-41.6663 Y55.2105 
G01 X-41.6609 Y55.2308 
G01 X-41.6582 Y55.2516 
G01 X-41.6501 Y55.2709 
G01 X-41.6447 Y55.2912 
G01 X-41.6342 Y55.3094 
G01 X-41.6262 Y55.3287 
G01 X-41.6135 Y55.3453 
G01 X-41.6030 Y55.3635 
G01 X-41.5881 Y55.3783 
G01 X-41.5754 Y55.3950 
G01 X-41.5588 Y55.4077 
G01 X-41.5439 Y55.4225 
G01 X-41.5258 Y55.4330 
G01 X-41.5091 Y55.4458 
G01 X-41.4898 Y55.4538 
G01 X-41.4716 Y55.4643 
G01 X-41.4514 Y55.4697 
G01 X-41.4320 Y55.4777 
G01 X-41.4112 Y55.4805 
G01 X-41.3910 Y55.4859 
G01 X-41.3700 Y55.4859 
G01 X-41.3492 Y55.4886 
G01 X-41.3284 Y55.4859 
G01 X-39.4044 Y55.4859 
G01 X-39.3238 Y55.4643 
G01 X-39.2515 Y55.4225 
G01 X-39.1925 Y55.3635 
G01 X-39.1507 Y55.2912 
G01 X-39.1291 Y55.2105 
G01 X-39.1291 Y34.5440 
G01 X-39.1264 Y34.5232 
G01 X-39.1291 Y34.5025 
G01 X-39.1291 Y34.4815 
G01 X-39.1345 Y34.4612 
G01 X-39.1373 Y34.4405 
G01 X-39.1453 Y34.4211 
G01 X-39.1507 Y34.4008 
G01 X-39.1612 Y34.3827 
G01 X-39.1692 Y34.3633 
G01 X-39.1820 Y34.3467 
G01 X-39.1925 Y34.3285 
G01 X-39.2073 Y34.3137 
G01 X-39.2200 Y34.2971 
G01 X-39.2367 Y34.2843 
G01 X-39.2515 Y34.2695 
G01 X-39.2696 Y34.2590 
G01 X-39.2863 Y34.2463 
G01 X-39.3056 Y34.2382 
G01 X-39.3238 Y34.2278 
G01 X-39.3441 Y34.2223 
G01 X-39.3634 Y34.2143 
G01 X-39.3842 Y34.2116 
G01 X-39.4044 Y34.2061 
G01 X-39.4254 Y34.2061 
G01 X-39.4462 Y34.2034 
G01 X-39.4670 Y34.2061 
G01 X-39.4879 Y34.2061 
G01 X-39.5082 Y34.2116 
G01 X-39.5290 Y34.2143 
G01 X-39.5483 Y34.2223 
G01 X-39.5686 Y34.2278 
G01 X-39.5868 Y34.2382 
G01 X-39.8660 Y34.3539 
G01 X-49.8257 Y34.3539 
G01 X-49.9064 Y34.3755 
G01 X-49.9787 Y34.4173 
G01 X-50.0377 Y34.4763 
G01 X-50.0795 Y34.5486 
G01 X-50.1011 Y34.6292 
G01 X-50.1011 Y37.3035 
G01 X-50.0795 Y37.3842 
G01 X-50.0377 Y37.4565 
G01 X-49.9787 Y37.5155 
G01 X-49.9064 Y37.5573 
G01 X-49.8257 Y37.5789 
G01 X-49.6048 Y37.5789 
G01 X-49.1799 Y37.7549 
G01 X-49.1744 Y37.7604 
G01 X-49.1527 Y37.7730 
G01 X-49.1323 Y37.7877 
G01 X-49.1167 Y37.7937 
G01 X-49.1021 Y37.8021 
G01 X-49.0778 Y37.8086 
G01 X-49.0544 Y37.8177 
G01 X-49.0377 Y37.8194 
G01 X-49.0215 Y37.8238 
G01 X-48.9963 Y37.8238 
G01 X-48.9713 Y37.8264 
G01 X-48.9548 Y37.8238 
G01 X-48.9380 Y37.8238 
G01 X-48.9137 Y37.8173 
G01 X-48.8889 Y37.8133 
G01 X-48.8736 Y37.8065 
G01 X-48.8573 Y37.8022 
G01 X-48.8356 Y37.7896 
G01 X-48.8126 Y37.7794 
G01 X-48.7996 Y37.7688 
G01 X-48.7850 Y37.7604 
G01 X-48.7673 Y37.7426 
G01 X-48.7477 Y37.7268 
G01 X-48.7379 Y37.7132 
G01 X-48.7260 Y37.7014 
G01 X-48.7134 Y37.6796 
G01 X-48.7007 Y37.6621 
G01 X-48.5968 Y37.6621 
G01 X-48.5652 Y37.7592 
G01 X-48.4881 Y37.9106 
G01 X-48.3883 Y38.0480 
G01 X-48.2682 Y38.1681 
G01 X-48.1308 Y38.2679 
G01 X-47.9794 Y38.3450 
G01 X-47.8179 Y38.3975 
G01 X-47.6501 Y38.4241 
G01 X-47.2219 Y38.4241 
G01 X-47.2219 Y38.4503 
G01 X-47.6522 Y38.4503 
G01 X-47.8240 Y38.4231 
G01 X-47.9895 Y38.3693 
G01 X-48.1445 Y38.2903 
G01 X-48.1550 Y38.2827 
G01 X-48.1669 Y38.2708 
G01 X-48.1887 Y38.2583 
G01 X-48.2090 Y38.2435 
G01 X-48.2247 Y38.2375 
G01 X-48.2392 Y38.2291 
G01 X-48.2635 Y38.2226 
G01 X-48.2869 Y38.2136 
G01 X-48.3036 Y38.2118 
G01 X-48.3199 Y38.2075 
G01 X-48.3450 Y38.2075 
G01 X-48.3700 Y38.2048 
G01 X-48.3866 Y38.2075 
G01 X-48.4033 Y38.2075 
G01 X-48.4276 Y38.2140 
G01 X-48.4524 Y38.2179 
G01 X-48.4678 Y38.2247 
G01 X-48.4840 Y38.2291 
G01 X-48.5058 Y38.2416 
G01 X-48.5287 Y38.2518 
G01 X-48.5418 Y38.2624 
G01 X-48.5563 Y38.2708 
G01 X-48.5741 Y38.2886 
G01 X-48.5936 Y38.3044 
G01 X-48.6035 Y38.3180 
G01 X-48.6153 Y38.3299 
G01 X-48.6279 Y38.3516 
G01 X-48.6427 Y38.3719 
G01 X-48.6487 Y38.3876 
G01 X-48.6571 Y38.4022 
G01 X-48.6636 Y38.4264 
G01 X-48.6726 Y38.4499 
G01 X-48.6743 Y38.4666 
G01 X-48.6787 Y38.4828 
G01 X-48.6787 Y38.5079 
G01 X-48.6813 Y38.5329 
G01 X-48.6787 Y38.5495 
G01 X-48.6787 Y38.9650 
G01 X-48.8547 Y39.3899 
G01 X-49.1799 Y39.7151 
G01 X-49.2399 Y39.7400 
G01 X-49.2678 Y39.7490 
G01 X-49.2784 Y39.7559 
G01 X-49.2900 Y39.7607 
G01 X-49.3132 Y39.7785 
G01 X-49.3378 Y39.7945 
G01 X-49.3462 Y39.8038 
G01 X-49.3562 Y39.8115 
G01 X-49.3741 Y39.8348 
G01 X-49.3937 Y39.8565 
G01 X-49.3994 Y39.8678 
G01 X-49.4071 Y39.8778 
G01 X-49.4183 Y39.9048 
G01 X-49.4316 Y39.9309 
G01 X-49.4342 Y39.9433 
G01 X-49.4390 Y39.9549 
G01 X-49.4428 Y39.9839 
G01 X-49.4489 Y40.0126 
G01 X-49.4483 Y40.0252 
G01 X-49.4499 Y40.0377 
G01 X-49.4461 Y40.0667 
G01 X-49.4446 Y40.0960 
G01 X-49.4407 Y40.1080 
G01 X-49.4390 Y40.1205 
G01 X-49.4278 Y40.1475 
G01 X-49.4188 Y40.1754 
G01 X-49.4119 Y40.1859 
G01 X-49.4071 Y40.1976 
G01 X-49.3892 Y40.2208 
G01 X-49.3733 Y40.2454 
G01 X-49.3639 Y40.2538 
G01 X-49.3562 Y40.2638 
G01 X-49.3330 Y40.2817 
G01 X-49.3112 Y40.3013 
G01 X-49.3000 Y40.3070 
G01 X-49.2900 Y40.3147 
G01 X-49.2629 Y40.3259 
G01 X-49.2555 Y40.3297 
G01 X-49.1148 Y40.4319 
G01 X-48.9917 Y40.5550 
G01 X-48.9204 Y40.6531 
G01 X-48.9528 Y40.6531 
G01 X-49.0117 Y40.5720 
G01 X-49.1318 Y40.4519 
G01 X-49.2692 Y40.3521 
G01 X-49.4206 Y40.2750 
G01 X-49.5821 Y40.2225 
G01 X-49.7499 Y40.1959 
G01 X-51.8501 Y40.1959 
G01 X-52.0179 Y40.2225 
G01 X-52.1794 Y40.2750 
G01 X-52.3308 Y40.3521 
G01 X-52.4682 Y40.4519 
G01 X-52.5883 Y40.5720 
G01 X-52.6881 Y40.7094 
G01 X-52.7652 Y40.8608 
G01 X-52.7968 Y40.9579 
G01 X-52.8243 Y40.9579 
G01 X-52.7895 Y40.8507 
G01 X-52.7105 Y40.6957 
G01 X-52.6083 Y40.5550 
G01 X-52.4852 Y40.4319 
G01 X-52.3445 Y40.3297 
G01 X-52.3371 Y40.3259 
G01 X-52.3100 Y40.3147 
G01 X-52.3000 Y40.3070 
G01 X-52.2888 Y40.3013 
G01 X-52.2670 Y40.2817 
G01 X-52.2438 Y40.2638 
G01 X-52.2361 Y40.2538 
G01 X-52.2267 Y40.2454 
G01 X-52.2108 Y40.2208 
G01 X-52.1929 Y40.1976 
G01 X-52.1881 Y40.1859 
G01 X-52.1812 Y40.1754 
G01 X-52.1722 Y40.1475 
G01 X-52.1610 Y40.1205 
G01 X-52.1593 Y40.1080 
G01 X-52.1554 Y40.0960 
G01 X-52.1539 Y40.0667 
G01 X-52.1501 Y40.0377 
G01 X-52.1517 Y40.0252 
G01 X-52.1511 Y40.0126 
G01 X-52.1572 Y39.9839 
G01 X-52.1610 Y39.9549 
G01 X-52.1658 Y39.9433 
G01 X-52.1684 Y39.9309 
G01 X-52.1817 Y39.9048 
G01 X-52.1929 Y39.8778 
G01 X-52.2006 Y39.8678 
G01 X-52.2063 Y39.8565 
G01 X-52.2259 Y39.8348 
G01 X-52.2438 Y39.8115 
G01 X-52.2537 Y39.8038 
G01 X-52.2622 Y39.7945 
G01 X-52.2868 Y39.7785 
G01 X-52.3100 Y39.7607 
G01 X-52.3216 Y39.7559 
G01 X-52.3322 Y39.7490 
G01 X-52.3601 Y39.7399 
G01 X-52.4201 Y39.7151 
G01 X-52.7453 Y39.3899 
G01 X-52.9213 Y38.9650 
G01 X-52.9213 Y38.5050 
G01 X-52.7453 Y38.0801 
G01 X-52.4201 Y37.7549 
G01 X-51.9952 Y37.5789 
G01 X-51.7742 Y37.5789 
G01 X-51.6936 Y37.5573 
G01 X-51.6213 Y37.5155 
G01 X-51.5623 Y37.4565 
G01 X-51.5205 Y37.3842 
G01 X-51.4989 Y37.3035 
G01 X-51.4989 Y33.5160 
G01 X-51.3925 Y33.2591 
G01 X-51.1959 Y33.0625 
G01 X-50.9390 Y32.9561 
G01 X-40.9792 Y32.9561 
G01 X-40.8986 Y32.9345 
G01 X-40.8263 Y32.8927 
G01 X-40.7673 Y32.8337 
G01 X-40.7255 Y32.7614 
G01 X-40.7039 Y32.6807 
G01 X-40.7039 Y11.9260 
G01 X-40.5975 Y11.6691 
G01 X-40.4009 Y11.4725 
G01 X-40.1440 Y11.3661 
G01 X-32.9553 Y11.3661 
G01 X-32.8746 Y11.3445 
G01 X-32.8023 Y11.3027 
G00 Z2.0000  F3000
G00 X-44.9148 Y15.5469  F3000
G01 Z-0.2000 F200.00 
G01 X-44.7917 Y15.6700 F500.00 
G01 X-44.6895 Y15.8107 
G01 X-44.6105 Y15.9657 
G01 X-44.5757 Y16.0729 
G01 X-44.6032 Y16.0729 
G01 X-44.6348 Y15.9758 
G01 X-44.7119 Y15.8244 
G01 X-44.8117 Y15.6870 
G01 X-44.9318 Y15.5669 
G01 X-45.0692 Y15.4671 
G01 X-45.2206 Y15.3900 
G01 X-45.3821 Y15.3375 
G01 X-45.5499 Y15.3109 
G01 X-46.2829 Y15.3109 
G01 X-46.2829 Y15.2847 
G01 X-45.5478 Y15.2847 
G01 X-45.3760 Y15.3119 
G01 X-45.2105 Y15.3657 
G01 X-45.0555 Y15.4447 
G01 X-44.9148 Y15.5469 
G00 Z2.0000  F3000
G00 X-44.6032 Y16.7071  F3000
G01 Z-0.2000 F200.00 
G01 X-44.5757 Y16.7071 F500.00 
G01 X-44.6105 Y16.8143 
G01 X-44.6895 Y16.9693 
G01 X-44.7917 Y17.1100 
G01 X-44.9147 Y17.2331 
G01 X-45.0555 Y17.3353 
G01 X-45.2105 Y17.4143 
G01 X-45.3760 Y17.4681 
G01 X-45.5478 Y17.4953 
G01 X-45.9781 Y17.4953 
G01 X-45.9781 Y17.4691 
G01 X-45.5499 Y17.4691 
G01 X-45.3821 Y17.4425 
G01 X-45.2206 Y17.3900 
G01 X-45.0692 Y17.3129 
G01 X-44.9318 Y17.2131 
G01 X-44.8117 Y17.0930 
G01 X-44.7119 Y16.9556 
G01 X-44.6348 Y16.8042 
G01 X-44.6032 Y16.7071 
G00 Z2.0000  F3000
G00 X-46.9171 Y15.3109  F3000
G01 Z-0.2000 F200.00 
G01 X-47.6501 Y15.3109 F500.00 
G01 X-47.8179 Y15.3375 
G01 X-47.9794 Y15.3900 
G01 X-48.1308 Y15.4671 
G01 X-48.2682 Y15.5669 
G01 X-48.3883 Y15.6870 
G01 X-48.4881 Y15.8244 
G01 X-48.5652 Y15.9758 
G01 X-48.5968 Y16.0729 
G01 X-48.6243 Y16.0729 
G01 X-48.5895 Y15.9657 
G01 X-48.5105 Y15.8107 
G01 X-48.4083 Y15.6700 
G01 X-48.2852 Y15.5469 
G01 X-48.1445 Y15.4447 
G01 X-47.9895 Y15.3657 
G01 X-47.8240 Y15.3119 
G01 X-47.6522 Y15.2847 
G01 X-46.9171 Y15.2847 
G01 X-46.9171 Y15.3109 
G00 Z2.0000  F3000
G00 X-48.5968 Y16.7071  F3000
G01 Z-0.2000 F200.00 
G01 X-48.5652 Y16.8042 F500.00 
G01 X-48.4881 Y16.9556 
G01 X-48.3883 Y17.0930 
G01 X-48.3232 Y17.1581 
G01 X-48.9528 Y17.1581 
G01 X-49.0117 Y17.0770 
G01 X-49.1318 Y16.9569 
G01 X-49.2692 Y16.8571 
G01 X-49.4206 Y16.7800 
G01 X-49.5821 Y16.7275 
G01 X-49.7499 Y16.7009 
G01 X-50.4829 Y16.7009 
G01 X-50.4829 Y16.6747 
G01 X-49.7478 Y16.6747 
G01 X-49.5760 Y16.7019 
G01 X-49.4105 Y16.7557 
G01 X-49.2555 Y16.8347 
G01 X-49.1835 Y16.8870 
G01 X-49.1673 Y16.8987 
G01 X-49.1160 Y16.9360 
G01 X-49.0587 Y16.9580 
G01 X-49.0380 Y16.9659 
G01 X-49.0115 Y16.9687 
G01 X-48.9550 Y16.9747 
G01 X-48.8725 Y16.9616 
G01 X-48.7963 Y16.9277 
G01 X-48.7693 Y16.9058 
G01 X-48.7314 Y16.8751 
G01 X-48.7084 Y16.8436 
G01 X-48.6823 Y16.8076 
G01 X-48.6603 Y16.7503 
G01 X-48.6524 Y16.7296 
G01 X-48.6500 Y16.7071 
G01 X-48.5968 Y16.7071 
G00 Z2.0000  F3000
G00 X-51.1171 Y16.7009  F3000
G01 Z-0.2000 F200.00 
G01 X-51.8501 Y16.7009 F500.00 
G01 X-52.0179 Y16.7275 
G01 X-52.1794 Y16.7800 
G01 X-52.3308 Y16.8571 
G01 X-52.4682 Y16.9569 
G01 X-52.5883 Y17.0770 
G01 X-52.6472 Y17.1581 
G01 X-52.6796 Y17.1581 
G01 X-52.6083 Y17.0600 
G01 X-52.4852 Y16.9369 
G01 X-52.3445 Y16.8347 
G01 X-52.1895 Y16.7557 
G01 X-52.0240 Y16.7019 
G01 X-51.8522 Y16.6747 
G01 X-51.1171 Y16.6747 
G01 X-51.1171 Y16.7009 
G00 Z2.0000  F3000
G00 X-51.8501 Y19.2409  F3000
G01 Z-0.2000 F200.00 
G01 X-52.0179 Y19.2675 F500.00 
G01 X-52.1794 Y19.3200 
G01 X-52.3308 Y19.3971 
G01 X-52.4682 Y19.4969 
G01 X-52.5883 Y19.6170 
G01 X-52.6472 Y19.6981 
G01 X-56.5728 Y19.6981 
G01 X-56.6317 Y19.6170 
G01 X-56.7518 Y19.4969 
G01 X-56.8892 Y19.3971 
G01 X-57.0406 Y19.3200 
G01 X-57.2021 Y19.2675 
G01 X-57.3699 Y19.2409 
G01 X-59.4701 Y19.2409 
G01 X-59.6379 Y19.2675 
G01 X-59.7994 Y19.3200 
G01 X-59.9508 Y19.3971 
G01 X-60.0882 Y19.4969 
G01 X-60.2083 Y19.6170 
G01 X-60.3081 Y19.7544 
G01 X-60.3852 Y19.9058 
G01 X-60.4377 Y20.0673 
G01 X-60.4643 Y20.2351 
G01 X-60.4643 Y20.4049 
G01 X-60.4377 Y20.5727 
G01 X-60.3852 Y20.7342 
G01 X-60.3081 Y20.8856 
G01 X-60.2083 Y21.0230 
G01 X-60.0882 Y21.1431 
G01 X-59.9508 Y21.2429 
G01 X-59.7994 Y21.3200 
G01 X-59.6379 Y21.3725 
G01 X-59.4701 Y21.3991 
G01 X-57.3699 Y21.3991 
G01 X-57.2021 Y21.3725 
G01 X-57.0406 Y21.3200 
G01 X-56.8892 Y21.2429 
G01 X-56.7518 Y21.1431 
G01 X-56.6317 Y21.0230 
G01 X-56.5728 Y20.9419 
G01 X-52.6472 Y20.9419 
G01 X-52.5883 Y21.0230 
G01 X-52.4682 Y21.1431 
G01 X-52.3308 Y21.2429 
G01 X-52.1794 Y21.3200 
G01 X-52.0179 Y21.3725 
G01 X-51.8501 Y21.3991 
G01 X-49.7499 Y21.3991 
G01 X-49.5821 Y21.3725 
G01 X-49.4206 Y21.3200 
G01 X-49.2692 Y21.2429 
G01 X-49.1318 Y21.1431 
G01 X-49.0117 Y21.0230 
G01 X-48.9119 Y20.8856 
G01 X-48.8348 Y20.7342 
G01 X-48.7823 Y20.5727 
G01 X-48.7557 Y20.4049 
G01 X-48.7557 Y20.2351 
G01 X-48.7823 Y20.0673 
G01 X-48.8348 Y19.9058 
G01 X-48.9119 Y19.7544 
G01 X-49.0117 Y19.6170 
G01 X-49.1318 Y19.4969 
G01 X-49.2692 Y19.3971 
G01 X-49.4206 Y19.3200 
G01 X-49.5821 Y19.2675 
G01 X-49.7499 Y19.2409 
G01 X-51.8501 Y19.2409 
G00 Z2.0000  F3000
G00 X-51.8501 Y21.7809  F3000
G01 Z-0.2000 F200.00 
G01 X-52.0179 Y21.8075 F500.00 
G01 X-52.1794 Y21.8600 
G01 X-52.3308 Y21.9371 
G01 X-52.4682 Y22.0369 
G01 X-52.5883 Y22.1570 
G01 X-52.6472 Y22.2381 
G01 X-61.6528 Y22.2381 
G01 X-61.7117 Y22.1570 
G01 X-61.8318 Y22.0369 
G01 X-61.9692 Y21.9371 
G01 X-62.1206 Y21.8600 
G01 X-62.2821 Y21.8075 
G01 X-62.4499 Y21.7809 
G01 X-64.5501 Y21.7809 
G01 X-64.7179 Y21.8075 
G01 X-64.8794 Y21.8600 
G01 X-65.0308 Y21.9371 
G01 X-65.1682 Y22.0369 
G01 X-65.2883 Y22.1570 
G01 X-65.3881 Y22.2944 
G01 X-65.4652 Y22.4458 
G01 X-65.5177 Y22.6073 
G01 X-65.5443 Y22.7751 
G01 X-65.5443 Y22.9449 
G01 X-65.5177 Y23.1127 
G01 X-65.4652 Y23.2742 
G01 X-65.3881 Y23.4256 
G01 X-65.2883 Y23.5630 
G01 X-65.1682 Y23.6831 
G01 X-65.0308 Y23.7829 
G01 X-64.8794 Y23.8600 
G01 X-64.7179 Y23.9125 
G01 X-64.5501 Y23.9391 
G01 X-62.4499 Y23.9391 
G01 X-62.2821 Y23.9125 
G01 X-62.1206 Y23.8600 
G01 X-61.9692 Y23.7829 
G01 X-61.8318 Y23.6831 
G01 X-61.7117 Y23.5630 
G01 X-61.6528 Y23.4819 
G01 X-59.0419 Y23.4819 
G01 X-59.0419 Y24.3209 
G01 X-59.4701 Y24.3209 
G01 X-59.6379 Y24.3475 
G01 X-59.7994 Y24.4000 
G01 X-59.9508 Y24.4771 
G01 X-60.0882 Y24.5769 
G01 X-60.2083 Y24.6970 
G01 X-60.3081 Y24.8344 
G01 X-60.3852 Y24.9858 
G01 X-60.4377 Y25.1473 
G01 X-60.4643 Y25.3151 
G01 X-60.4643 Y25.4849 
G01 X-60.4377 Y25.6527 
G01 X-60.3852 Y25.8142 
G01 X-60.3081 Y25.9656 
G01 X-60.2083 Y26.1030 
G01 X-60.0882 Y26.2231 
G01 X-59.9508 Y26.3229 
G01 X-59.7994 Y26.4000 
G01 X-59.6379 Y26.4525 
G01 X-59.4701 Y26.4791 
G01 X-57.3699 Y26.4791 
G01 X-57.2021 Y26.4525 
G01 X-57.0406 Y26.4000 
G01 X-56.8892 Y26.3229 
G01 X-56.7518 Y26.2231 
G01 X-56.6317 Y26.1030 
G01 X-56.5728 Y26.0219 
G01 X-55.8669 Y26.0219 
G01 X-55.8669 Y33.0331 
G01 X-58.1960 Y33.0331 
G01 X-58.2013 Y33.0229 
G01 X-58.3128 Y32.8693 
G01 X-58.4471 Y32.7350 
G01 X-58.6007 Y32.6234 
G01 X-58.7698 Y32.5373 
G01 X-58.9504 Y32.4786 
G01 X-59.1379 Y32.4489 
G01 X-61.5121 Y32.4489 
G01 X-61.6996 Y32.4786 
G01 X-61.8802 Y32.5373 
G01 X-62.0493 Y32.6234 
G01 X-62.2029 Y32.7350 
G01 X-62.3372 Y32.8693 
G01 X-62.4487 Y33.0229 
G01 X-62.4540 Y33.0331 
G01 X-66.1012 Y33.0331 
G01 X-66.2214 Y33.0570 
G01 X-66.3346 Y33.1039 
G01 X-66.4364 Y33.1719 
G01 X-66.5231 Y33.2586 
G01 X-66.5911 Y33.3604 
G01 X-66.6380 Y33.4736 
G01 X-66.6619 Y33.5937 
G01 X-66.6619 Y50.8612 
G01 X-66.6380 Y50.9814 
G01 X-66.5911 Y51.0946 
G01 X-66.5231 Y51.1964 
G01 X-66.4364 Y51.2831 
G01 X-66.3346 Y51.3511 
G01 X-66.2214 Y51.3980 
G01 X-66.1012 Y51.4219 
G01 X-50.7869 Y51.4219 
G01 X-50.7869 Y52.5962 
G01 X-50.8454 Y52.6546 
G01 X-50.9412 Y52.7981 
G01 X-51.0072 Y52.9575 
G01 X-51.0409 Y53.1267 
G01 X-51.0409 Y54.8233 
G01 X-51.0072 Y54.9925 
G01 X-50.9412 Y55.1519 
G01 X-50.8454 Y55.2954 
G01 X-50.7234 Y55.4174 
G01 X-50.5799 Y55.5132 
G01 X-50.4205 Y55.5792 
G01 X-50.2513 Y55.6129 
G01 X-50.0787 Y55.6129 
G01 X-49.9095 Y55.5792 
G01 X-49.7501 Y55.5132 
G01 X-49.6066 Y55.4174 
G01 X-49.4846 Y55.2954 
G01 X-49.3888 Y55.1519 
G01 X-49.3228 Y54.9925 
G01 X-49.2891 Y54.8233 
G01 X-49.2891 Y53.1267 
G01 X-49.3228 Y52.9575 
G01 X-49.3888 Y52.7981 
G01 X-49.4846 Y52.6546 
G01 X-49.5431 Y52.5962 
G01 X-49.5431 Y50.7387 
G01 X-49.5670 Y50.6186 
G01 X-49.6139 Y50.5054 
G01 X-49.6819 Y50.4036 
G01 X-49.7686 Y50.3169 
G01 X-49.8704 Y50.2489 
G01 X-49.9836 Y50.2020 
G01 X-50.1037 Y50.1781 
G01 X-65.4181 Y50.1781 
G01 X-65.4181 Y41.8969 
G01 X-64.7122 Y41.8969 
G01 X-64.6533 Y41.9780 
G01 X-64.5332 Y42.0981 
G01 X-64.3958 Y42.1979 
G01 X-64.2444 Y42.2750 
G01 X-64.0829 Y42.3275 
G01 X-63.9151 Y42.3541 
G01 X-61.8149 Y42.3541 
G01 X-61.6471 Y42.3275 
G01 X-61.4856 Y42.2750 
G01 X-61.3342 Y42.1979 
G01 X-61.1968 Y42.0981 
G01 X-61.0767 Y41.9780 
G01 X-60.9769 Y41.8406 
G01 X-60.8998 Y41.6892 
G01 X-60.8473 Y41.5277 
G01 X-60.8207 Y41.3599 
G01 X-60.8207 Y41.1901 
G01 X-60.8473 Y41.0223 
G01 X-60.8998 Y40.8608 
G01 X-60.9769 Y40.7094 
G01 X-61.0767 Y40.5720 
G01 X-61.1968 Y40.4519 
G01 X-61.3342 Y40.3521 
G01 X-61.4856 Y40.2750 
G01 X-61.6471 Y40.2225 
G01 X-61.8149 Y40.1959 
G01 X-63.9151 Y40.1959 
G01 X-64.0829 Y40.2225 
G01 X-64.2444 Y40.2750 
G01 X-64.3958 Y40.3521 
G01 X-64.5332 Y40.4519 
G01 X-64.6533 Y40.5720 
G01 X-64.7122 Y40.6531 
G01 X-65.4181 Y40.6531 
G01 X-65.4181 Y34.2769 
G01 X-62.4540 Y34.2769 
G01 X-62.4487 Y34.2871 
G01 X-62.3372 Y34.4407 
G01 X-62.2029 Y34.5750 
G01 X-62.0493 Y34.6865 
G01 X-61.8802 Y34.7727 
G01 X-61.6996 Y34.8314 
G01 X-61.5121 Y34.8611 
G01 X-59.1379 Y34.8611 
G01 X-58.9504 Y34.8314 
G01 X-58.7698 Y34.7727 
G01 X-58.6007 Y34.6865 
G01 X-58.4471 Y34.5750 
G01 X-58.3128 Y34.4407 
G01 X-58.2013 Y34.2871 
G01 X-58.1960 Y34.2769 
G01 X-55.1837 Y34.2769 
G01 X-55.0636 Y34.2530 
G01 X-54.9504 Y34.2061 
G01 X-54.8486 Y34.1381 
G01 X-54.7619 Y34.0514 
G01 X-54.6939 Y33.9496 
G01 X-54.6470 Y33.8364 
G01 X-54.6231 Y33.7163 
G01 X-54.6231 Y25.3387 
G01 X-54.6470 Y25.2186 
G01 X-54.6939 Y25.1054 
G01 X-54.7619 Y25.0036 
G01 X-54.8486 Y24.9169 
G01 X-54.9504 Y24.8489 
G01 X-55.0636 Y24.8020 
G01 X-55.1837 Y24.7781 
G01 X-56.5728 Y24.7781 
G01 X-56.6317 Y24.6970 
G01 X-56.7518 Y24.5769 
G01 X-56.8892 Y24.4771 
G01 X-57.0406 Y24.4000 
G01 X-57.2021 Y24.3475 
G01 X-57.3699 Y24.3209 
G01 X-57.7981 Y24.3209 
G01 X-57.7981 Y23.4819 
G01 X-52.6472 Y23.4819 
G01 X-52.5883 Y23.5630 
G01 X-52.4682 Y23.6831 
G01 X-52.3308 Y23.7829 
G01 X-52.1794 Y23.8600 
G01 X-52.0179 Y23.9125 
G01 X-51.8501 Y23.9391 
G01 X-49.7499 Y23.9391 
G01 X-49.5821 Y23.9125 
G01 X-49.4206 Y23.8600 
G01 X-49.2692 Y23.7829 
G01 X-49.1318 Y23.6831 
G01 X-49.0117 Y23.5630 
G01 X-48.9119 Y23.4256 
G01 X-48.8348 Y23.2742 
G01 X-48.7823 Y23.1127 
G01 X-48.7557 Y22.9449 
G01 X-48.7557 Y22.7751 
G01 X-48.7823 Y22.6073 
G01 X-48.8348 Y22.4458 
G01 X-48.9119 Y22.2944 
G01 X-49.0117 Y22.1570 
G01 X-49.1318 Y22.0369 
G01 X-49.2692 Y21.9371 
G01 X-49.4206 Y21.8600 
G01 X-49.5821 Y21.8075 
G01 X-49.7499 Y21.7809 
G01 X-51.8501 Y21.7809 
G00 Z2.0000  F3000
G00 X-48.6243 Y27.1071  F3000
G01 Z-0.2000 F200.00 
G01 X-48.5968 Y27.1071 F500.00 
G01 X-48.5652 Y27.2042 
G01 X-48.4881 Y27.3556 
G01 X-48.3883 Y27.4930 
G01 X-48.2682 Y27.6131 
G01 X-48.1308 Y27.7129 
G01 X-47.9794 Y27.7900 
G01 X-47.8179 Y27.8425 
G01 X-47.6501 Y27.8691 
G01 X-46.9171 Y27.8691 
G01 X-46.9171 Y27.8953 
G01 X-47.6522 Y27.8953 
G01 X-47.8240 Y27.8681 
G01 X-47.9895 Y27.8143 
G01 X-48.1445 Y27.7353 
G01 X-48.2852 Y27.6331 
G01 X-48.4083 Y27.5100 
G01 X-48.5105 Y27.3693 
G01 X-48.5895 Y27.2143 
G01 X-48.6243 Y27.1071 
G00 Z2.0000  F3000
G00 X-46.2829 Y27.8691  F3000
G01 Z-0.2000 F200.00 
G01 X-45.5499 Y27.8691 F500.00 
G01 X-45.3821 Y27.8425 
G01 X-45.2206 Y27.7900 
G01 X-45.0692 Y27.7129 
G01 X-44.9318 Y27.6131 
G01 X-44.8117 Y27.4930 
G01 X-44.7119 Y27.3556 
G01 X-44.6348 Y27.2042 
G01 X-44.6032 Y27.1071 
G01 X-44.5757 Y27.1071 
G01 X-44.6105 Y27.2143 
G01 X-44.6895 Y27.3693 
G01 X-44.7917 Y27.5100 
G01 X-44.9147 Y27.6331 
G01 X-45.0555 Y27.7353 
G01 X-45.2105 Y27.8143 
G01 X-45.3760 Y27.8681 
G01 X-45.5478 Y27.8953 
G01 X-46.2829 Y27.8953 
G01 X-46.2829 Y27.8691 
G00 Z2.0000  F3000
G00 X-45.9781 Y25.7109  F3000
G01 Z-0.2000 F200.00 
G01 X-45.9781 Y25.6847 F500.00 
G01 X-45.5478 Y25.6847 
G01 X-45.3760 Y25.7119 
G01 X-45.2105 Y25.7657 
G01 X-45.0555 Y25.8447 
G01 X-44.9148 Y25.9469 
G01 X-44.7917 Y26.0700 
G01 X-44.6895 Y26.2107 
G01 X-44.6105 Y26.3657 
G01 X-44.5757 Y26.4729 
G01 X-44.6032 Y26.4729 
G01 X-44.6348 Y26.3758 
G01 X-44.7119 Y26.2244 
G01 X-44.8117 Y26.0870 
G01 X-44.9318 Y25.9669 
G01 X-45.0692 Y25.8671 
G01 X-45.2206 Y25.7900 
G01 X-45.3821 Y25.7375 
G01 X-45.5499 Y25.7109 
G01 X-45.9781 Y25.7109 
G00 Z2.0000  F3000
G00 X-46.2829 Y36.2397  F3000
G01 Z-0.2000 F200.00 
G01 X-45.5478 Y36.2397 F500.00 
G01 X-45.3760 Y36.2669 
G01 X-45.2105 Y36.3207 
G01 X-45.0555 Y36.3997 
G01 X-44.9148 Y36.5019 
G01 X-44.7917 Y36.6250 
G01 X-44.6895 Y36.7657 
G01 X-44.6105 Y36.9207 
G01 X-44.5757 Y37.0279 
G01 X-44.6032 Y37.0279 
G01 X-44.6348 Y36.9308 
G01 X-44.7119 Y36.7794 
G01 X-44.8117 Y36.6420 
G01 X-44.9318 Y36.5219 
G01 X-45.0692 Y36.4221 
G01 X-45.2206 Y36.3450 
G01 X-45.3821 Y36.2925 
G01 X-45.5499 Y36.2659 
G01 X-46.2829 Y36.2659 
G01 X-46.2829 Y36.2397 
G00 Z2.0000  F3000
G00 X-46.9171 Y36.2397  F3000
G01 Z-0.2000 F200.00 
G01 X-46.9171 Y36.2659 F500.00 
G01 X-47.6501 Y36.2659 
G01 X-47.8179 Y36.2925 
G01 X-47.9794 Y36.3450 
G01 X-48.1308 Y36.4221 
G01 X-48.2682 Y36.5219 
G01 X-48.3883 Y36.6420 
G01 X-48.4881 Y36.7794 
G01 X-48.5652 Y36.9308 
G01 X-48.5968 Y37.0279 
G01 X-48.6243 Y37.0279 
G01 X-48.5895 Y36.9207 
G01 X-48.5105 Y36.7657 
G01 X-48.4083 Y36.6250 
G01 X-48.2852 Y36.5019 
G01 X-48.1445 Y36.3997 
G01 X-47.9895 Y36.3207 
G01 X-47.8240 Y36.2669 
G01 X-47.6522 Y36.2397 
G01 X-46.9171 Y36.2397 
G00 Z2.0000  F3000
G00 X-45.9781 Y38.4241  F3000
G01 Z-0.2000 F200.00 
G01 X-45.5499 Y38.4241 F500.00 
G01 X-45.3821 Y38.3975 
G01 X-45.2206 Y38.3450 
G01 X-45.0692 Y38.2679 
G01 X-44.9318 Y38.1681 
G01 X-44.8117 Y38.0480 
G01 X-44.7119 Y37.9106 
G01 X-44.6348 Y37.7592 
G01 X-44.6032 Y37.6621 
G01 X-44.5757 Y37.6621 
G01 X-44.6105 Y37.7693 
G01 X-44.6895 Y37.9243 
G01 X-44.7917 Y38.0650 
G01 X-44.9148 Y38.1881 
G01 X-45.0555 Y38.2903 
G01 X-45.2105 Y38.3693 
G01 X-45.3760 Y38.4231 
G01 X-45.5478 Y38.4503 
G01 X-45.9781 Y38.4503 
G01 X-45.9781 Y38.4241 
G00 Z2.0000  F3000
G00 X-49.0117 Y43.1120  F3000
G01 Z-0.2000 F200.00 
G01 X-49.1318 Y42.9919 F500.00 
G01 X-49.2692 Y42.8921 
G01 X-49.4206 Y42.8150 
G01 X-49.5821 Y42.7625 
G01 X-49.7499 Y42.7359 
G01 X-51.8501 Y42.7359 
G01 X-52.0179 Y42.7625 
G01 X-52.1794 Y42.8150 
G01 X-52.3308 Y42.8921 
G01 X-52.4682 Y42.9919 
G01 X-52.5883 Y43.1120 
G01 X-52.6472 Y43.1931 
G01 X-56.5728 Y43.1931 
G01 X-56.6317 Y43.1120 
G01 X-56.7518 Y42.9919 
G01 X-56.8892 Y42.8921 
G01 X-57.0406 Y42.8150 
G01 X-57.2021 Y42.7625 
G01 X-57.3699 Y42.7359 
G01 X-59.4701 Y42.7359 
G01 X-59.6379 Y42.7625 
G01 X-59.7994 Y42.8150 
G01 X-59.9508 Y42.8921 
G01 X-60.0882 Y42.9919 
G01 X-60.2083 Y43.1120 
G01 X-60.2672 Y43.1931 
G01 X-61.0178 Y43.1931 
G01 X-61.0767 Y43.1120 
G01 X-61.1968 Y42.9919 
G01 X-61.3342 Y42.8921 
G01 X-61.4856 Y42.8150 
G01 X-61.6471 Y42.7625 
G01 X-61.8149 Y42.7359 
G01 X-63.9151 Y42.7359 
G01 X-64.0829 Y42.7625 
G01 X-64.2444 Y42.8150 
G01 X-64.3958 Y42.8921 
G01 X-64.5332 Y42.9919 
G01 X-64.6533 Y43.1120 
G01 X-64.7531 Y43.2494 
G01 X-64.8302 Y43.4008 
G01 X-64.8827 Y43.5623 
G01 X-64.9093 Y43.7301 
G01 X-64.9093 Y43.8999 
G01 X-64.8827 Y44.0677 
G01 X-64.8302 Y44.2292 
G01 X-64.7531 Y44.3806 
G01 X-64.6533 Y44.5180 
G01 X-64.5332 Y44.6381 
G01 X-64.3958 Y44.7379 
G01 X-64.2444 Y44.8150 
G01 X-64.0829 Y44.8675 
G01 X-63.9151 Y44.8941 
G01 X-61.8149 Y44.8941 
G01 X-61.6471 Y44.8675 
G01 X-61.4856 Y44.8150 
G01 X-61.3342 Y44.7379 
G01 X-61.1968 Y44.6381 
G01 X-61.0767 Y44.5180 
G01 X-61.0178 Y44.4369 
G01 X-60.2672 Y44.4369 
G01 X-60.2083 Y44.5180 
G01 X-60.0882 Y44.6381 
G01 X-59.9508 Y44.7379 
G01 X-59.7994 Y44.8150 
G01 X-59.6379 Y44.8675 
G01 X-59.4701 Y44.8941 
G01 X-57.3699 Y44.8941 
G01 X-57.2021 Y44.8675 
G01 X-57.0406 Y44.8150 
G01 X-56.8892 Y44.7379 
G01 X-56.7518 Y44.6381 
G01 X-56.6317 Y44.5180 
G01 X-56.5728 Y44.4369 
G01 X-52.6472 Y44.4369 
G01 X-52.5883 Y44.5180 
G01 X-52.4682 Y44.6381 
G01 X-52.3308 Y44.7379 
G01 X-52.1794 Y44.8150 
G01 X-52.0179 Y44.8675 
G01 X-51.8501 Y44.8941 
G01 X-49.7499 Y44.8941 
G01 X-49.5821 Y44.8675 
G01 X-49.4206 Y44.8150 
G01 X-49.2692 Y44.7379 
G01 X-49.1318 Y44.6381 
G01 X-49.0117 Y44.5180 
G01 X-48.9119 Y44.3806 
G01 X-48.8348 Y44.2292 
G01 X-48.7823 Y44.0677 
G01 X-48.7557 Y43.8999 
G01 X-48.7557 Y43.7301 
G01 X-48.7823 Y43.5623 
G01 X-48.8348 Y43.4008 
G01 X-48.9119 Y43.2494 
G01 X-49.0117 Y43.1120 
G00 Z2.0000  F3000
G00 X-48.8032 Y46.6721  F3000
G01 Z-0.2000 F200.00 
G01 X-48.7500 Y46.6721 F500.00 
G01 X-48.7476 Y46.6946 
G01 X-48.7408 Y46.7123 
G01 X-48.7177 Y46.7726 
G01 X-48.6923 Y46.8075 
G01 X-48.6686 Y46.8401 
G01 X-48.6325 Y46.8694 
G01 X-48.6038 Y46.8927 
G01 X-48.5275 Y46.9266 
G01 X-48.4450 Y46.9397 
G01 X-48.3894 Y46.9338 
G01 X-48.3620 Y46.9310 
G01 X-48.3443 Y46.9242 
G01 X-48.2840 Y46.9010 
G01 X-48.2342 Y46.8648 
G01 X-48.2165 Y46.8520 
G01 X-48.1445 Y46.7997 
G01 X-47.9895 Y46.7207 
G01 X-47.8240 Y46.6669 
G01 X-47.6522 Y46.6397 
G01 X-47.2219 Y46.6397 
G01 X-47.2219 Y46.6659 
G01 X-47.6501 Y46.6659 
G01 X-47.8179 Y46.6925 
G01 X-47.9794 Y46.7450 
G01 X-48.1308 Y46.8221 
G01 X-48.2682 Y46.9219 
G01 X-48.3883 Y47.0420 
G01 X-48.4472 Y47.1231 
G01 X-49.0768 Y47.1231 
G01 X-49.0117 Y47.0580 
G01 X-48.9119 Y46.9206 
G01 X-48.8348 Y46.7692 
G01 X-48.8032 Y46.6721 
G00 Z2.0000  F3000
G00 X-48.4796 Y48.3669  F3000
G01 Z-0.2000 F200.00 
G01 X-48.4472 Y48.3669 F500.00 
G01 X-48.3883 Y48.4480 
G01 X-48.2682 Y48.5681 
G01 X-48.1308 Y48.6679 
G01 X-47.9794 Y48.7450 
G01 X-47.8179 Y48.7975 
G01 X-47.6501 Y48.8241 
G01 X-47.2219 Y48.8241 
G01 X-47.2219 Y48.8503 
G01 X-47.6522 Y48.8503 
G01 X-47.8240 Y48.8231 
G01 X-47.9895 Y48.7693 
G01 X-48.1445 Y48.6903 
G01 X-48.2852 Y48.5881 
G01 X-48.4083 Y48.4650 
G01 X-48.4796 Y48.3669 
G00 Z2.0000  F3000
G00 X-45.9781 Y48.8241  F3000
G01 Z-0.2000 F200.00 
G01 X-45.5499 Y48.8241 F500.00 
G01 X-45.3821 Y48.7975 
G01 X-45.2206 Y48.7450 
G01 X-45.0692 Y48.6679 
G01 X-44.9318 Y48.5681 
G01 X-44.8117 Y48.4480 
G01 X-44.7119 Y48.3106 
G01 X-44.6348 Y48.1592 
G01 X-44.6032 Y48.0621 
G01 X-44.5757 Y48.0621 
G01 X-44.6105 Y48.1693 
G01 X-44.6895 Y48.3243 
G01 X-44.7917 Y48.4650 
G01 X-44.9148 Y48.5881 
G01 X-45.0555 Y48.6903 
G01 X-45.2105 Y48.7693 
G01 X-45.3760 Y48.8231 
G01 X-45.5478 Y48.8503 
G01 X-45.9781 Y48.8503 
G01 X-45.9781 Y48.8241 
G00 Z2.0000  F3000
G00 X-45.9781 Y46.6659  F3000
G01 Z-0.2000 F200.00 
G01 X-45.9781 Y46.6397 F500.00 
G01 X-45.5478 Y46.6397 
G01 X-45.3760 Y46.6669 
G01 X-45.2105 Y46.7207 
G01 X-45.0555 Y46.7997 
G01 X-44.9148 Y46.9019 
G01 X-44.7917 Y47.0250 
G01 X-44.6895 Y47.1657 
G01 X-44.6105 Y47.3207 
G01 X-44.5757 Y47.4279 
G01 X-44.6032 Y47.4279 
G01 X-44.6348 Y47.3308 
G01 X-44.7119 Y47.1794 
G01 X-44.8117 Y47.0420 
G01 X-44.9318 Y46.9219 
G01 X-45.0692 Y46.8221 
G01 X-45.2206 Y46.7450 
G01 X-45.3821 Y46.6925 
G01 X-45.5499 Y46.6659 
G01 X-45.9781 Y46.6659 
G00 Z2.0000  F3000
G00 X-45.7731 Y52.6253  F3000
G01 Z-0.2000 F200.00 
G01 X-45.6727 Y52.5249 F500.00 
G01 X-45.5578 Y52.4415 
G01 X-45.4529 Y52.3880 
G01 X-45.4529 Y52.4173 
G01 X-45.4999 Y52.4368 
G01 X-45.6434 Y52.5326 
G01 X-45.7654 Y52.6546 
G01 X-45.8612 Y52.7981 
G01 X-45.9272 Y52.9575 
G01 X-45.9609 Y53.1267 
G01 X-45.9609 Y53.3531 
G01 X-45.9781 Y53.3531 
G01 X-45.9781 Y53.0852 
G01 X-45.9649 Y53.0017 
G01 X-45.9210 Y52.8667 
G01 X-45.8565 Y52.7402 
G01 X-45.7731 Y52.6253 
G00 Z2.0000  F3000
G00 X-44.7171 Y52.4173  F3000
G01 Z-0.2000 F200.00 
G01 X-44.7171 Y52.3880 F500.00 
G01 X-44.6122 Y52.4415 
G01 X-44.4973 Y52.5249 
G01 X-44.3969 Y52.6253 
G01 X-44.3135 Y52.7402 
G01 X-44.2490 Y52.8667 
G01 X-44.2051 Y53.0017 
G01 X-44.1829 Y53.1420 
G01 X-44.1829 Y53.6071 
G01 X-44.2091 Y53.6071 
G01 X-44.2091 Y53.1267 
G01 X-44.2428 Y52.9575 
G01 X-44.3088 Y52.7981 
G01 X-44.4046 Y52.6546 
G01 X-44.5266 Y52.5326 
G01 X-44.6701 Y52.4368 
G01 X-44.7171 Y52.4173 
G00 Z2.0000  F3000
G00 X-43.1034 Y52.5326  F3000
G01 Z-0.2000 F200.00 
G01 X-43.2254 Y52.6546 F500.00 
G01 X-43.3212 Y52.7981 
G01 X-43.3872 Y52.9575 
G01 X-43.4209 Y53.1267 
G01 X-43.4209 Y54.8233 
G01 X-43.3872 Y54.9925 
G01 X-43.3212 Y55.1519 
G01 X-43.2254 Y55.2954 
G01 X-43.1034 Y55.4174 
G01 X-42.9599 Y55.5132 
G01 X-42.8005 Y55.5792 
G01 X-42.6313 Y55.6129 
G01 X-42.4587 Y55.6129 
G01 X-42.2895 Y55.5792 
G01 X-42.1301 Y55.5132 
G01 X-41.9866 Y55.4174 
G01 X-41.8646 Y55.2954 
G01 X-41.7688 Y55.1519 
G01 X-41.7028 Y54.9925 
G01 X-41.6691 Y54.8233 
G01 X-41.6691 Y53.1267 
G01 X-41.7028 Y52.9575 
G01 X-41.7688 Y52.7981 
G01 X-41.8646 Y52.6546 
G01 X-41.9866 Y52.5326 
G01 X-42.1301 Y52.4368 
G01 X-42.2895 Y52.3708 
G01 X-42.4587 Y52.3371 
G01 X-42.6313 Y52.3371 
G01 X-42.8005 Y52.3708 
G01 X-42.9599 Y52.4368 
G01 X-43.1034 Y52.5326 
G00 Z2.0000  F3000
G00 X-47.2219 Y52.4319  F3000
G01 Z-0.2000 F200.00 
G01 X-47.2571 Y52.4173 F500.00 
G01 X-47.2571 Y52.3880 
G01 X-47.2219 Y52.4059 
G01 X-47.2219 Y52.4319 
G00 Z2.0000  F3000
G00 X-47.9929 Y52.4173  F3000
G01 Z-0.2000 F200.00 
G01 X-48.0399 Y52.4368 F500.00 
G01 X-48.1834 Y52.5326 
G01 X-48.3054 Y52.6546 
G01 X-48.4012 Y52.7981 
G01 X-48.4672 Y52.9575 
G01 X-48.5009 Y53.1267 
G01 X-48.5009 Y53.6071 
G01 X-48.5271 Y53.6071 
G01 X-48.5271 Y53.1420 
G01 X-48.5049 Y53.0017 
G01 X-48.4610 Y52.8667 
G01 X-48.3965 Y52.7402 
G01 X-48.3131 Y52.6253 
G01 X-48.2127 Y52.5249 
G01 X-48.0978 Y52.4415 
G01 X-47.9929 Y52.3880 
G01 X-47.9929 Y52.4173 
G00 Z2.0000  F3000
G00 X-52.0246 Y52.6546  F3000
G01 Z-0.2000 F200.00 
G01 X-52.1466 Y52.5326 F500.00 
G01 X-52.2901 Y52.4368 
G01 X-52.4495 Y52.3708 
G01 X-52.6187 Y52.3371 
G01 X-52.7913 Y52.3371 
G01 X-52.9605 Y52.3708 
G01 X-53.1199 Y52.4368 
G01 X-53.2634 Y52.5326 
G01 X-53.3854 Y52.6546 
G01 X-53.4812 Y52.7981 
G01 X-53.5472 Y52.9575 
G01 X-53.5809 Y53.1267 
G01 X-53.5809 Y54.8233 
G01 X-53.5472 Y54.9925 
G01 X-53.4812 Y55.1519 
G01 X-53.3854 Y55.2954 
G01 X-53.2634 Y55.4174 
G01 X-53.1199 Y55.5132 
G01 X-52.9605 Y55.5792 
G01 X-52.7913 Y55.6129 
G01 X-52.6187 Y55.6129 
G01 X-52.4495 Y55.5792 
G01 X-52.2901 Y55.5132 
G01 X-52.1466 Y55.4174 
G01 X-52.0246 Y55.2954 
G01 X-51.9288 Y55.1519 
G01 X-51.8628 Y54.9925 
G01 X-51.8291 Y54.8233 
G01 X-51.8291 Y53.1267 
G01 X-51.8628 Y52.9575 
G01 X-51.9288 Y52.7981 
G01 X-52.0246 Y52.6546 
G00 Z2.0000  F3000
G00 X-54.5646 Y52.6546  F3000
G01 Z-0.2000 F200.00 
G01 X-54.6866 Y52.5326 F500.00 
G01 X-54.8301 Y52.4368 
G01 X-54.9895 Y52.3708 
G01 X-55.1587 Y52.3371 
G01 X-55.3313 Y52.3371 
G01 X-55.5005 Y52.3708 
G01 X-55.6599 Y52.4368 
G01 X-55.8034 Y52.5326 
G01 X-55.9254 Y52.6546 
G01 X-56.0212 Y52.7981 
G01 X-56.0872 Y52.9575 
G01 X-56.1209 Y53.1267 
G01 X-56.1209 Y54.8233 
G01 X-56.0872 Y54.9925 
G01 X-56.0212 Y55.1519 
G01 X-55.9254 Y55.2954 
G01 X-55.8034 Y55.4174 
G01 X-55.6599 Y55.5132 
G01 X-55.5005 Y55.5792 
G01 X-55.3313 Y55.6129 
G01 X-55.1587 Y55.6129 
G01 X-54.9895 Y55.5792 
G01 X-54.8301 Y55.5132 
G01 X-54.6866 Y55.4174 
G01 X-54.5646 Y55.2954 
G01 X-54.4688 Y55.1519 
G01 X-54.4028 Y54.9925 
G01 X-54.3691 Y54.8233 
G01 X-54.3691 Y53.1267 
G01 X-54.4028 Y52.9575 
G01 X-54.4688 Y52.7981 
G01 X-54.5646 Y52.6546 
G00 Z2.0000  F3000
G00 X-52.4852 Y47.1981  F3000
G01 Z-0.2000 F200.00 
G01 X-52.6083 Y47.0750 F500.00 
G01 X-52.7105 Y46.9343 
G01 X-52.7895 Y46.7793 
G01 X-52.8243 Y46.6721 
G01 X-52.7968 Y46.6721 
G01 X-52.7652 Y46.7692 
G01 X-52.6881 Y46.9206 
G01 X-52.5883 Y47.0580 
G01 X-52.4682 Y47.1781 
G01 X-52.3308 Y47.2779 
G01 X-52.1794 Y47.3550 
G01 X-52.0179 Y47.4075 
G01 X-51.8501 Y47.4341 
G01 X-51.4219 Y47.4341 
G01 X-51.4219 Y47.4603 
G01 X-51.8522 Y47.4603 
G01 X-52.0240 Y47.4331 
G01 X-52.1895 Y47.3793 
G01 X-52.3445 Y47.3003 
G01 X-52.4852 Y47.1981 
G00 Z2.0000  F3000
G00 X-56.3957 Y40.9579  F3000
G01 Z-0.2000 F200.00 
G01 X-56.4232 Y40.9579 F500.00 
G01 X-56.4548 Y40.8608 
G01 X-56.5319 Y40.7094 
G01 X-56.6317 Y40.5720 
G01 X-56.7518 Y40.4519 
G01 X-56.8892 Y40.3521 
G01 X-57.0406 Y40.2750 
G01 X-57.2021 Y40.2225 
G01 X-57.3699 Y40.1959 
G01 X-57.7981 Y40.1959 
G01 X-57.7981 Y40.1697 
G01 X-57.3678 Y40.1697 
G01 X-57.1960 Y40.1969 
G01 X-57.0305 Y40.2507 
G01 X-56.8755 Y40.3297 
G01 X-56.7348 Y40.4319 
G01 X-56.6117 Y40.5550 
G01 X-56.5095 Y40.6957 
G01 X-56.4305 Y40.8507 
G01 X-56.3957 Y40.9579 
G00 Z2.0000  F3000
G00 X-58.0566 Y30.7471  F3000
G01 Z-0.2000 F200.00 
G01 X-58.0842 Y30.7471 F500.00 
G01 X-58.1151 Y30.6520 
G01 X-58.2013 Y30.4829 
G01 X-58.3128 Y30.3293 
G01 X-58.4471 Y30.1950 
G01 X-58.6007 Y30.0834 
G01 X-58.7698 Y29.9973 
G01 X-58.9504 Y29.9386 
G01 X-59.1379 Y29.9089 
G01 X-59.9571 Y29.9089 
G01 X-59.9571 Y29.8827 
G01 X-59.1358 Y29.8827 
G01 X-58.9442 Y29.9130 
G01 X-58.7598 Y29.9730 
G01 X-58.5869 Y30.0610 
G01 X-58.4300 Y30.1750 
G01 X-58.2929 Y30.3122 
G01 X-58.1788 Y30.4691 
G01 X-58.0908 Y30.6420 
G01 X-58.0566 Y30.7471 
G00 Z2.0000  F3000
G00 X-60.6929 Y29.9089  F3000
G01 Z-0.2000 F200.00 
G01 X-61.5121 Y29.9089 F500.00 
G01 X-61.6996 Y29.9386 
G01 X-61.8802 Y29.9973 
G01 X-62.0493 Y30.0834 
G01 X-62.2029 Y30.1950 
G01 X-62.3372 Y30.3293 
G01 X-62.4487 Y30.4829 
G01 X-62.4540 Y30.4931 
G01 X-62.4834 Y30.4931 
G01 X-62.4712 Y30.4691 
G01 X-62.3571 Y30.3122 
G01 X-62.2200 Y30.1750 
G01 X-62.0631 Y30.0610 
G01 X-61.8902 Y29.9730 
G01 X-61.7058 Y29.9130 
G01 X-61.5142 Y29.8827 
G01 X-60.6929 Y29.8827 
G01 X-60.6929 Y29.9089 
G00 Z2.0000  F3000
G00 X-61.4757 Y20.0029  F3000
G01 Z-0.2000 F200.00 
G01 X-61.5032 Y20.0029 F500.00 
G01 X-61.5348 Y19.9058 
G01 X-61.6119 Y19.7544 
G01 X-61.7117 Y19.6170 
G01 X-61.8318 Y19.4969 
G01 X-61.9692 Y19.3971 
G01 X-62.1206 Y19.3200 
G01 X-62.2821 Y19.2675 
G01 X-62.4499 Y19.2409 
G01 X-63.1829 Y19.2409 
G01 X-63.1829 Y19.2147 
G01 X-62.4478 Y19.2147 
G01 X-62.2760 Y19.2419 
G01 X-62.1105 Y19.2957 
G01 X-61.9555 Y19.3747 
G01 X-61.8148 Y19.4769 
G01 X-61.6917 Y19.6000 
G01 X-61.5895 Y19.7407 
G01 X-61.5105 Y19.8957 
G01 X-61.4757 Y20.0029 
G00 Z2.0000  F3000
G00 X-63.8171 Y19.2409  F3000
G01 Z-0.2000 F200.00 
G01 X-64.5501 Y19.2409 F500.00 
G01 X-64.7179 Y19.2675 
G01 X-64.8794 Y19.3200 
G01 X-65.0308 Y19.3971 
G01 X-65.1682 Y19.4969 
G01 X-65.2883 Y19.6170 
G01 X-65.3472 Y19.6981 
G01 X-65.3796 Y19.6981 
G01 X-65.3083 Y19.6000 
G01 X-65.1852 Y19.4769 
G01 X-65.0445 Y19.3747 
G01 X-64.8895 Y19.2957 
G01 X-64.7240 Y19.2419 
G01 X-64.5522 Y19.2147 
G01 X-63.8171 Y19.2147 
G01 X-63.8171 Y19.2409 
G00 Z2.0000  F3000
G00 X-63.9455 Y7.4299  F3000
G01 Z-0.2000 F200.00 
G01 X-64.3245 Y7.4299 F500.00 
G01 X-64.6748 Y7.2848 
G01 X-64.9428 Y7.0168 
G01 X-65.0879 Y6.6665 
G01 X-65.0879 Y4.7635 
G01 X-64.9428 Y4.4132 
G01 X-64.6748 Y4.1452 
G01 X-64.3245 Y4.0001 
G01 X-63.9455 Y4.0001 
G01 X-63.5952 Y4.1452 
G01 X-63.3272 Y4.4132 
G01 X-63.1821 Y4.7635 
G01 X-63.1821 Y6.6665 
G01 X-63.3272 Y7.0168 
G01 X-63.5952 Y7.2848 
G01 X-63.9455 Y7.4299 
G00 Z2.0000  F3000
G00 X-63.8795 Y7.3192  F3000
G01 Z-0.2000 F200.00 
G01 X-63.7201 Y7.2532 F500.00 
G01 X-63.5766 Y7.1574 
G01 X-63.4546 Y7.0354 
G01 X-63.3588 Y6.8919 
G01 X-63.2928 Y6.7325 
G01 X-63.2591 Y6.5633 
G01 X-63.2591 Y4.8667 
G01 X-63.2928 Y4.6975 
G01 X-63.3588 Y4.5381 
G01 X-63.4546 Y4.3946 
G01 X-63.5766 Y4.2726 
G01 X-63.7201 Y4.1768 
G01 X-63.8795 Y4.1108 
G01 X-64.0487 Y4.0771 
G01 X-64.2213 Y4.0771 
G01 X-64.3905 Y4.1108 
G01 X-64.5499 Y4.1768 
G01 X-64.6934 Y4.2726 
G01 X-64.8154 Y4.3946 
G01 X-64.9112 Y4.5381 
G01 X-64.9772 Y4.6975 
G01 X-65.0109 Y4.8667 
G01 X-65.0109 Y6.5633 
G01 X-64.9772 Y6.7325 
G01 X-64.9112 Y6.8919 
G01 X-64.8154 Y7.0354 
G01 X-64.6934 Y7.1574 
G01 X-64.5499 Y7.2532 
G01 X-64.3905 Y7.3192 
G01 X-64.2213 Y7.3529 
G01 X-64.0487 Y7.3529 
G01 X-63.8795 Y7.3192 
G00 Z2.0000  F3000
G00 X-62.2831 Y7.0647  F3000
G01 Z-0.2000 F200.00 
G01 X-62.3665 Y6.9498 F500.00 
G01 X-62.4310 Y6.8233 
G01 X-62.4749 Y6.6883 
G01 X-62.4971 Y6.5480 
G01 X-62.4971 Y6.0829 
G01 X-62.4709 Y6.0829 
G01 X-62.4709 Y6.5633 
G01 X-62.4372 Y6.7325 
G01 X-62.3712 Y6.8919 
G01 X-62.2754 Y7.0354 
G01 X-62.2169 Y7.0938 
G01 X-62.2169 Y7.1309 
G01 X-62.2831 Y7.0647 
G00 Z2.0000  F3000
G00 X-60.9731 Y7.0938  F3000
G01 Z-0.2000 F200.00 
G01 X-60.9146 Y7.0354 F500.00 
G01 X-60.8188 Y6.8919 
G01 X-60.7528 Y6.7325 
G01 X-60.7191 Y6.5633 
G01 X-60.7191 Y6.0829 
G01 X-60.6929 Y6.0829 
G01 X-60.6929 Y6.5480 
G01 X-60.7151 Y6.6883 
G01 X-60.7590 Y6.8233 
G01 X-60.8235 Y6.9498 
G01 X-60.9069 Y7.0647 
G01 X-60.9731 Y7.1309 
G01 X-60.9731 Y7.0938 
G00 Z2.0000  F3000
G00 X-59.8628 Y7.0168  F3000
G01 Z-0.2000 F200.00 
G01 X-60.0079 Y6.6665 F500.00 
G01 X-60.0079 Y4.7635 
G01 X-59.8628 Y4.4132 
G01 X-59.5948 Y4.1452 
G01 X-59.2445 Y4.0001 
G01 X-58.8655 Y4.0001 
G01 X-58.5152 Y4.1452 
G01 X-58.2472 Y4.4132 
G01 X-58.1021 Y4.7635 
G01 X-58.1021 Y6.6665 
G01 X-58.2472 Y7.0168 
G01 X-58.5152 Y7.2848 
G01 X-58.8655 Y7.4299 
G01 X-59.2445 Y7.4299 
G01 X-59.5948 Y7.2848 
G01 X-59.8628 Y7.0168 
G00 Z2.0000  F3000
G00 X-59.7354 Y7.0354  F3000
G01 Z-0.2000 F200.00 
G01 X-59.6134 Y7.1574 F500.00 
G01 X-59.4699 Y7.2532 
G01 X-59.3105 Y7.3192 
G01 X-59.1413 Y7.3529 
G01 X-58.9687 Y7.3529 
G01 X-58.7995 Y7.3192 
G01 X-58.6401 Y7.2532 
G01 X-58.4966 Y7.1574 
G01 X-58.3746 Y7.0354 
G01 X-58.2788 Y6.8919 
G01 X-58.2128 Y6.7325 
G01 X-58.1791 Y6.5633 
G01 X-58.1791 Y4.8667 
G01 X-58.2128 Y4.6975 
G01 X-58.2788 Y4.5381 
G01 X-58.3746 Y4.3946 
G01 X-58.4966 Y4.2726 
G01 X-58.6401 Y4.1768 
G01 X-58.7995 Y4.1108 
G01 X-58.9687 Y4.0771 
G01 X-59.1413 Y4.0771 
G01 X-59.3105 Y4.1108 
G01 X-59.4699 Y4.1768 
G01 X-59.6134 Y4.2726 
G01 X-59.7354 Y4.3946 
G01 X-59.8312 Y4.5381 
G01 X-59.8972 Y4.6975 
G01 X-59.9309 Y4.8667 
G01 X-59.9309 Y6.5633 
G01 X-59.8972 Y6.7325 
G01 X-59.8312 Y6.8919 
G01 X-59.7354 Y7.0354 
G00 Z2.0000  F3000
G00 X-57.3228 Y7.0168  F3000
G01 Z-0.2000 F200.00 
G01 X-57.4679 Y6.6665 F500.00 
G01 X-57.4679 Y4.7635 
G01 X-57.3228 Y4.4132 
G01 X-57.0548 Y4.1452 
G01 X-56.7045 Y4.0001 
G01 X-56.3255 Y4.0001 
G01 X-55.9752 Y4.1452 
G01 X-55.7072 Y4.4132 
G01 X-55.5621 Y4.7635 
G01 X-55.5621 Y6.6665 
G01 X-55.7072 Y7.0168 
G01 X-55.9752 Y7.2848 
G01 X-56.3255 Y7.4299 
G01 X-56.7045 Y7.4299 
G01 X-57.0548 Y7.2848 
G01 X-57.3228 Y7.0168 
G00 Z2.0000  F3000
G00 X-57.1954 Y7.0354  F3000
G01 Z-0.2000 F200.00 
G01 X-57.0734 Y7.1574 F500.00 
G01 X-56.9299 Y7.2532 
G01 X-56.7705 Y7.3192 
G01 X-56.6013 Y7.3529 
G01 X-56.4287 Y7.3529 
G01 X-56.2595 Y7.3192 
G01 X-56.1001 Y7.2532 
G01 X-55.9566 Y7.1574 
G01 X-55.8346 Y7.0354 
G01 X-55.7388 Y6.8919 
G01 X-55.6728 Y6.7325 
G01 X-55.6391 Y6.5633 
G01 X-55.6391 Y4.8667 
G01 X-55.6728 Y4.6975 
G01 X-55.7388 Y4.5381 
G01 X-55.8346 Y4.3946 
G01 X-55.9566 Y4.2726 
G01 X-56.1001 Y4.1768 
G01 X-56.2595 Y4.1108 
G01 X-56.4287 Y4.0771 
G01 X-56.6013 Y4.0771 
G01 X-56.7705 Y4.1108 
G01 X-56.9299 Y4.1768 
G01 X-57.0734 Y4.2726 
G01 X-57.1954 Y4.3946 
G01 X-57.2912 Y4.5381 
G01 X-57.3572 Y4.6975 
G01 X-57.3909 Y4.8667 
G01 X-57.3909 Y6.5633 
G01 X-57.3572 Y6.7325 
G01 X-57.2912 Y6.8919 
G01 X-57.1954 Y7.0354 
G00 Z2.0000  F3000
G00 X-54.7828 Y7.0168  F3000
G01 Z-0.2000 F200.00 
G01 X-54.9279 Y6.6665 F500.00 
G01 X-54.9279 Y4.7635 
G01 X-54.7828 Y4.4132 
G01 X-54.5148 Y4.1452 
G01 X-54.1645 Y4.0001 
G01 X-53.7855 Y4.0001 
G01 X-53.4352 Y4.1452 
G01 X-53.1672 Y4.4132 
G01 X-53.0221 Y4.7635 
G01 X-53.0221 Y6.6665 
G01 X-53.1672 Y7.0168 
G01 X-53.4352 Y7.2848 
G01 X-53.7855 Y7.4299 
G01 X-54.1645 Y7.4299 
G01 X-54.5148 Y7.2848 
G01 X-54.7828 Y7.0168 
G00 Z2.0000  F3000
G00 X-54.6554 Y7.0354  F3000
G01 Z-0.2000 F200.00 
G01 X-54.5334 Y7.1574 F500.00 
G01 X-54.3899 Y7.2532 
G01 X-54.2305 Y7.3192 
G01 X-54.0613 Y7.3529 
G01 X-53.8887 Y7.3529 
G01 X-53.7195 Y7.3192 
G01 X-53.5601 Y7.2532 
G01 X-53.4166 Y7.1574 
G01 X-53.2946 Y7.0354 
G01 X-53.1988 Y6.8919 
G01 X-53.1328 Y6.7325 
G01 X-53.0991 Y6.5633 
G01 X-53.0991 Y4.8667 
G01 X-53.1328 Y4.6975 
G01 X-53.1988 Y4.5381 
G01 X-53.2946 Y4.3946 
G01 X-53.4166 Y4.2726 
G01 X-53.5601 Y4.1768 
G01 X-53.7195 Y4.1108 
G01 X-53.8887 Y4.0771 
G01 X-54.0613 Y4.0771 
G01 X-54.2305 Y4.1108 
G01 X-54.3899 Y4.1768 
G01 X-54.5334 Y4.2726 
G01 X-54.6554 Y4.3946 
G01 X-54.7512 Y4.5381 
G01 X-54.8172 Y4.6975 
G01 X-54.8509 Y4.8667 
G01 X-54.8509 Y6.5633 
G01 X-54.8172 Y6.7325 
G01 X-54.7512 Y6.8919 
G01 X-54.6554 Y7.0354 
G00 Z2.0000  F3000
G00 X-52.2428 Y7.0168  F3000
G01 Z-0.2000 F200.00 
G01 X-52.3879 Y6.6665 F500.00 
G01 X-52.3879 Y4.7635 
G01 X-52.2428 Y4.4132 
G01 X-51.9748 Y4.1452 
G01 X-51.6245 Y4.0001 
G01 X-51.2455 Y4.0001 
G01 X-50.8952 Y4.1452 
G01 X-50.6272 Y4.4132 
G01 X-50.4821 Y4.7635 
G01 X-50.4821 Y6.6665 
G01 X-50.6272 Y7.0168 
G01 X-50.8952 Y7.2848 
G01 X-51.2455 Y7.4299 
G01 X-51.6245 Y7.4299 
G01 X-51.9748 Y7.2848 
G01 X-52.2428 Y7.0168 
G00 Z2.0000  F3000
G00 X-52.1154 Y7.0354  F3000
G01 Z-0.2000 F200.00 
G01 X-51.9934 Y7.1574 F500.00 
G01 X-51.8499 Y7.2532 
G01 X-51.6905 Y7.3192 
G01 X-51.5213 Y7.3529 
G01 X-51.3487 Y7.3529 
G01 X-51.1795 Y7.3192 
G01 X-51.0201 Y7.2532 
G01 X-50.8766 Y7.1574 
G01 X-50.7546 Y7.0354 
G01 X-50.6588 Y6.8919 
G01 X-50.5928 Y6.7325 
G01 X-50.5591 Y6.5633 
G01 X-50.5591 Y4.8667 
G01 X-50.5928 Y4.6975 
G01 X-50.6588 Y4.5381 
G01 X-50.7546 Y4.3946 
G01 X-50.8766 Y4.2726 
G01 X-51.0201 Y4.1768 
G01 X-51.1795 Y4.1108 
G01 X-51.3487 Y4.0771 
G01 X-51.5213 Y4.0771 
G01 X-51.6905 Y4.1108 
G01 X-51.8499 Y4.1768 
G01 X-51.9934 Y4.2726 
G01 X-52.1154 Y4.3946 
G01 X-52.2112 Y4.5381 
G01 X-52.2772 Y4.6975 
G01 X-52.3109 Y4.8667 
G01 X-52.3109 Y6.5633 
G01 X-52.2772 Y6.7325 
G01 X-52.2112 Y6.8919 
G01 X-52.1154 Y7.0354 
G00 Z2.0000  F3000
G00 X-49.7028 Y7.0168  F3000
G01 Z-0.2000 F200.00 
G01 X-49.8479 Y6.6665 F500.00 
G01 X-49.8479 Y4.7635 
G01 X-49.7028 Y4.4132 
G01 X-49.4348 Y4.1452 
G01 X-49.0845 Y4.0001 
G01 X-48.7055 Y4.0001 
G01 X-48.3552 Y4.1452 
G01 X-48.0872 Y4.4132 
G01 X-47.9421 Y4.7635 
G01 X-47.9421 Y6.6665 
G01 X-48.0872 Y7.0168 
G01 X-48.3552 Y7.2848 
G01 X-48.7055 Y7.4299 
G01 X-49.0845 Y7.4299 
G01 X-49.4348 Y7.2848 
G01 X-49.7028 Y7.0168 
G00 Z2.0000  F3000
G00 X-49.5754 Y7.0354  F3000
G01 Z-0.2000 F200.00 
G01 X-49.4534 Y7.1574 F500.00 
G01 X-49.3099 Y7.2532 
G01 X-49.1505 Y7.3192 
G01 X-48.9813 Y7.3529 
G01 X-48.8087 Y7.3529 
G01 X-48.6395 Y7.3192 
G01 X-48.4801 Y7.2532 
G01 X-48.3366 Y7.1574 
G01 X-48.2146 Y7.0354 
G01 X-48.1188 Y6.8919 
G01 X-48.0528 Y6.7325 
G01 X-48.0191 Y6.5633 
G01 X-48.0191 Y4.8667 
G01 X-48.0528 Y4.6975 
G01 X-48.1188 Y4.5381 
G01 X-48.2146 Y4.3946 
G01 X-48.3366 Y4.2726 
G01 X-48.4801 Y4.1768 
G01 X-48.6395 Y4.1108 
G01 X-48.8087 Y4.0771 
G01 X-48.9813 Y4.0771 
G01 X-49.1505 Y4.1108 
G01 X-49.3099 Y4.1768 
G01 X-49.4534 Y4.2726 
G01 X-49.5754 Y4.3946 
G01 X-49.6712 Y4.5381 
G01 X-49.7372 Y4.6975 
G01 X-49.7709 Y4.8667 
G01 X-49.7709 Y6.5633 
G01 X-49.7372 Y6.7325 
G01 X-49.6712 Y6.8919 
G01 X-49.5754 Y7.0354 
G00 Z2.0000  F3000
G00 X-47.1628 Y7.0168  F3000
G01 Z-0.2000 F200.00 
G01 X-47.3079 Y6.6665 F500.00 
G01 X-47.3079 Y4.7635 
G01 X-47.1628 Y4.4132 
G01 X-46.8948 Y4.1452 
G01 X-46.5445 Y4.0001 
G01 X-46.1655 Y4.0001 
G01 X-45.8152 Y4.1452 
G01 X-45.5472 Y4.4132 
G01 X-45.4021 Y4.7635 
G01 X-45.4021 Y6.6665 
G01 X-45.5472 Y7.0168 
G01 X-45.8152 Y7.2848 
G01 X-46.1655 Y7.4299 
G01 X-46.5445 Y7.4299 
G01 X-46.8948 Y7.2848 
G01 X-47.1628 Y7.0168 
G00 Z2.0000  F3000
G00 X-47.0354 Y7.0354  F3000
G01 Z-0.2000 F200.00 
G01 X-46.9134 Y7.1574 F500.00 
G01 X-46.7699 Y7.2532 
G01 X-46.6105 Y7.3192 
G01 X-46.4413 Y7.3529 
G01 X-46.2687 Y7.3529 
G01 X-46.0995 Y7.3192 
G01 X-45.9401 Y7.2532 
G01 X-45.7966 Y7.1574 
G01 X-45.6746 Y7.0354 
G01 X-45.5788 Y6.8919 
G01 X-45.5128 Y6.7325 
G01 X-45.4791 Y6.5633 
G01 X-45.4791 Y4.8667 
G01 X-45.5128 Y4.6975 
G01 X-45.5788 Y4.5381 
G01 X-45.6746 Y4.3946 
G01 X-45.7966 Y4.2726 
G01 X-45.9401 Y4.1768 
G01 X-46.0995 Y4.1108 
G01 X-46.2687 Y4.0771 
G01 X-46.4413 Y4.0771 
G01 X-46.6105 Y4.1108 
G01 X-46.7699 Y4.1768 
G01 X-46.9134 Y4.2726 
G01 X-47.0354 Y4.3946 
G01 X-47.1312 Y4.5381 
G01 X-47.1972 Y4.6975 
G01 X-47.2309 Y4.8667 
G01 X-47.2309 Y6.5633 
G01 X-47.1972 Y6.7325 
G01 X-47.1312 Y6.8919 
G01 X-47.0354 Y7.0354 
G00 Z2.0000  F3000
G00 X-60.6929 Y5.3471  F3000
G01 Z-0.2000 F200.00 
G01 X-60.7191 Y5.3471 F500.00 
G01 X-60.7191 Y4.8667 
G01 X-60.7528 Y4.6975 
G01 X-60.8188 Y4.5381 
G01 X-60.9146 Y4.3946 
G01 X-61.0366 Y4.2726 
G01 X-61.1801 Y4.1768 
G01 X-61.2271 Y4.1573 
G01 X-61.2271 Y4.1280 
G01 X-61.1222 Y4.1814 
G01 X-61.0073 Y4.2649 
G01 X-60.9069 Y4.3653 
G01 X-60.8235 Y4.4802 
G01 X-60.7590 Y4.6067 
G01 X-60.7151 Y4.7417 
G01 X-60.6929 Y4.8820 
G01 X-60.6929 Y5.3471 
G00 Z2.0000  F3000
G00 X-62.4709 Y5.3471  F3000
G01 Z-0.2000 F200.00 
G01 X-62.4971 Y5.3471 F500.00 
G01 X-62.4971 Y4.8820 
G01 X-62.4749 Y4.7417 
G01 X-62.4310 Y4.6067 
G01 X-62.3665 Y4.4802 
G01 X-62.2831 Y4.3653 
G01 X-62.1827 Y4.2649 
G01 X-62.0678 Y4.1814 
G01 X-61.9629 Y4.1280 
G01 X-61.9629 Y4.1573 
G01 X-62.0099 Y4.1768 
G01 X-62.1534 Y4.2726 
G01 X-62.2754 Y4.3946 
G01 X-62.3712 Y4.5381 
G01 X-62.4372 Y4.6975 
G01 X-62.4709 Y4.8667 
G01 X-62.4709 Y5.3471 
G00 Z2.0000  F3000
G00 X-0.9964 Y1.0778  F3000
G01 Z-0.2000 F200.00 
G01 X-1.0778 Y0.9964 F500.00 
G01 X-1.1775 Y0.9389 
G01 X-1.2887 Y0.9091 
G01 X-66.6563 Y0.9091 
G01 X-66.7675 Y0.9389 
G01 X-66.8672 Y0.9964 
G01 X-66.9486 Y1.0778 
G01 X-67.0061 Y1.1775 
G01 X-67.0359 Y1.2887 
G01 X-67.0359 Y19.6689 
G01 X-67.1479 Y19.7437 
G01 X-67.2513 Y19.8471 
G01 X-67.3325 Y19.9686 
G01 X-67.3884 Y20.1036 
G01 X-67.4169 Y20.2469 
G01 X-67.4169 Y30.5531 
G01 X-67.3884 Y30.6964 
G01 X-67.3325 Y30.8314 
G01 X-67.2513 Y30.9529 
G01 X-67.1479 Y31.0563 
G01 X-67.0359 Y31.1311 
G01 X-67.0359 Y32.7581 
G01 X-67.0397 Y32.7867 
G01 X-67.0359 Y32.8154 
G01 X-67.0359 Y32.8443 
G01 X-67.0284 Y32.8722 
G01 X-67.0246 Y32.9009 
G01 X-67.0136 Y32.9276 
G01 X-67.0061 Y32.9555 
G01 X-66.9917 Y32.9805 
G01 X-66.9806 Y33.0072 
G01 X-66.9630 Y33.0301 
G01 X-66.9486 Y33.0551 
G01 X-66.9281 Y33.0756 
G01 X-66.9105 Y33.0985 
G01 X-66.8876 Y33.1161 
G01 X-66.8672 Y33.1365 
G01 X-66.8422 Y33.1510 
G01 X-66.8192 Y33.1686 
G01 X-66.7925 Y33.1796 
G01 X-66.7675 Y33.1941 
G01 X-66.7396 Y33.2015 
G01 X-66.7129 Y33.2126 
G01 X-66.6843 Y33.2164 
G01 X-66.6563 Y33.2238 
G01 X-66.6442 Y33.2238 
G01 X-66.6975 Y33.3036 
G01 X-66.7534 Y33.4386 
G01 X-66.7819 Y33.5819 
G01 X-66.7819 Y50.8731 
G01 X-66.7534 Y51.0164 
G01 X-66.6975 Y51.1514 
G01 X-66.6163 Y51.2729 
G01 X-66.5129 Y51.3763 
G01 X-66.3914 Y51.4575 
G01 X-66.2564 Y51.5134 
G01 X-66.1131 Y51.5419 
G01 X-50.9069 Y51.5419 
G01 X-50.9069 Y52.5465 
G01 X-50.9386 Y52.5782 
G01 X-51.0476 Y52.7413 
G01 X-51.1226 Y52.9225 
G01 X-51.1609 Y53.1149 
G01 X-51.1609 Y54.8351 
G01 X-51.1226 Y55.0275 
G01 X-51.0476 Y55.2087 
G01 X-50.9386 Y55.3718 
G01 X-50.7998 Y55.5106 
G01 X-50.6367 Y55.6196 
G01 X-50.4555 Y55.6946 
G01 X-50.2631 Y55.7329 
G01 X-50.0669 Y55.7329 
G01 X-49.8745 Y55.6946 
G01 X-49.6933 Y55.6196 
G01 X-49.5301 Y55.5106 
G01 X-49.3914 Y55.3718 
G01 X-49.3728 Y55.3440 
G01 X-49.3621 Y55.3625 
G01 X-49.3510 Y55.3892 
G01 X-49.3334 Y55.4121 
G01 X-49.3190 Y55.4372 
G01 X-49.2985 Y55.4576 
G01 X-49.2810 Y55.4805 
G01 X-49.2580 Y55.4981 
G01 X-49.2376 Y55.5186 
G01 X-49.2126 Y55.5330 
G01 X-49.1897 Y55.5506 
G01 X-49.1630 Y55.5617 
G01 X-49.1379 Y55.5761 
G01 X-49.1100 Y55.5836 
G01 X-49.0833 Y55.5946 
G01 X-49.0547 Y55.5984 
G01 X-49.0268 Y55.6059 
G01 X-48.9979 Y55.6059 
G01 X-48.9692 Y55.6097 
G01 X-48.9406 Y55.6059 
G01 X-48.8126 Y55.6059 
G01 X-48.8012 Y55.6083 
G01 X-48.7552 Y55.6059 
G01 X-48.7091 Y55.6059 
G01 X-48.6979 Y55.6029 
G01 X-48.6863 Y55.6023 
G01 X-48.6425 Y55.5880 
G01 X-48.5979 Y55.5761 
G01 X-48.5879 Y55.5703 
G01 X-48.5768 Y55.5667 
G01 X-48.5382 Y55.5416 
G01 X-48.4982 Y55.5186 
G01 X-48.4900 Y55.5104 
G01 X-48.4803 Y55.5040 
G01 X-48.4495 Y55.4698 
G01 X-48.4169 Y55.4372 
G01 X-48.4111 Y55.4271 
G01 X-48.4033 Y55.4185 
G01 X-48.3860 Y55.3845 
G01 X-48.2598 Y55.5106 
G01 X-48.0967 Y55.6196 
G01 X-47.9155 Y55.6946 
G01 X-47.7231 Y55.7329 
G01 X-47.5269 Y55.7329 
G01 X-47.3345 Y55.6946 
G01 X-47.1533 Y55.6196 
G01 X-46.9901 Y55.5106 
G01 X-46.8640 Y55.3845 
G01 X-46.8467 Y55.4185 
G01 X-46.8389 Y55.4271 
G01 X-46.8331 Y55.4372 
G01 X-46.8005 Y55.4698 
