;(.../Electronics/Eagle/pcb-gcode/pcb-gcode.ulp)
;(Copyright 2005 - 2012 by John Johnson)
;(See readme.txt for licensing terms.)
;(This file generated from the board:)
;(.../Electronics/Eagle/Opto/toslink-shield.brd)
;(Current profile is .../pcb-gcode/profiles/generic.pp  )
;(This file generated 26/05/2016 15:56)
;(Settings from pcb-machine.h)
;(spindle on time = 1000.0000)
;(spindle speed = 20000.0000)
;(tool change at 0.0000 0.0000 5.0000 )
;(feed rate xy = F0.00  )
;(feed rate z  = F500.00 )
;(Z Axis Settings)
;(  High     Up        Down     Drill)
;(5.0000 	2.0000 	-0.2000 	-2.0000 )
;(Settings from pcb-defaults.h)
;(isolate min = 0.0250)
;(isolate max = 0.5000)
;(isolate step = 0.1200)
;(Generated bottom outlines, bottom drill, )
;(Unit of measure: mm)
;( Tool|       Size       |  Min Sub |  Max Sub |   Count )
;( T01  0.600mm 0.0236in 0.0000in 0.0000in )
;( T02  0.800mm 0.0315in 0.0000in 0.0000in )
;( T03  1.016mm 0.0400in 0.0000in 0.0000in )
;(Metric Mode)
G21
;(Absolute Coordinates)
G90
;S20000
G00 Z5.0000  F3000
G00 X0.0000 Y0.0000  F3000
;M03 S1
G04 P1000.000000
;M03 S0
;M06 T01  ; 0.6000 
G01 Z0.0000 F500.00 
;M06 
G00 Z2.0000  F3000
;M03 S1
G04 P1000.000000
G00 X-46.3650 Y17.7800  F3000
G01 Z-2.0000 F500.00 
G00 Z2.0000  F3000
G00 X-52.3650 Y21.8800  F3000
G01 Z-2.0000 F500.00 
G00 Z2.0000  F3000
G00 X-52.3650 Y13.6800  F3000
G01 Z-2.0000 F500.00 
G00 Z2.0000  F3000
G00 X-52.3650 Y34.6350  F3000
G01 Z-2.0000 F500.00 
G00 Z2.0000  F3000
G00 X-46.3650 Y38.7350  F3000
G01 Z-2.0000 F500.00 
G00 Z2.0000  F3000
G00 X-52.3650 Y42.8350  F3000
G01 Z-2.0000 F500.00 
G00 Z2.0000  F3000
G00 X-57.7850 Y47.6250  F3000
G01 Z-2.0000 F500.00 
G00 Z2.0000  F3000
G00 X-50.1650 Y51.4350  F3000
G01 Z-2.0000 F500.00 
G00 Z2.0000  F3000
;M03 S0
G00 Z5.0000  F3000
G00 X0.0000 Y0.0000  F3000
;M06 T02  ; 0.8000 
G01 Z0.0000 F500.00 
;M06 
G00 Z2.0000  F3000
;M03 S1
G04 P1000.000000
G00 X-50.1650 Y15.2400  F3000
G01 Z-2.0000 F500.00 
G00 Z2.0000  F3000
G00 X-50.1650 Y17.7800  F3000
G01 Z-2.0000 F500.00 
G00 Z2.0000  F3000
G00 X-50.1650 Y20.3200  F3000
G01 Z-2.0000 F500.00 
G00 Z2.0000  F3000
G00 X-50.1650 Y36.1950  F3000
G01 Z-2.0000 F500.00 
G00 Z2.0000  F3000
G00 X-50.1650 Y38.7350  F3000
G01 Z-2.0000 F500.00 
G00 Z2.0000  F3000
G00 X-50.1650 Y41.2750  F3000
G01 Z-2.0000 F500.00 
G00 Z2.0000  F3000
;M03 S0
G00 Z5.0000  F3000
G00 X0.0000 Y0.0000  F3000
;M06 T03  ; 1.0160 
G01 Z0.0000 F500.00 
;M06 
G00 Z2.0000  F3000
;M03 S1
G04 P1000.000000
G00 X-1.9050 Y5.7150  F3000
G01 Z-2.0000 F500.00 
G00 Z2.0000  F3000
G00 X-4.4450 Y5.7150  F3000
G01 Z-2.0000 F500.00 
G00 Z2.0000  F3000
G00 X-6.9850 Y5.7150  F3000
G01 Z-2.0000 F500.00 
G00 Z2.0000  F3000
G00 X-9.5250 Y5.7150  F3000
G01 Z-2.0000 F500.00 
G00 Z2.0000  F3000
G00 X-12.0650 Y5.7150  F3000
G01 Z-2.0000 F500.00 
G00 Z2.0000  F3000
G00 X-14.6050 Y5.7150  F3000
G01 Z-2.0000 F500.00 
G00 Z2.0000  F3000
G00 X-17.1450 Y5.7150  F3000
G01 Z-2.0000 F500.00 
G00 Z2.0000  F3000
G00 X-19.6850 Y5.7150  F3000
G01 Z-2.0000 F500.00 
G00 Z2.0000  F3000
G00 X-46.3550 Y5.7150  F3000
G01 Z-2.0000 F500.00 
G00 Z2.0000  F3000
G00 X-48.8950 Y5.7150  F3000
G01 Z-2.0000 F500.00 
G00 Z2.0000  F3000
G00 X-51.4350 Y5.7150  F3000
G01 Z-2.0000 F500.00 
G00 Z2.0000  F3000
G00 X-53.9750 Y5.7150  F3000
G01 Z-2.0000 F500.00 
G00 Z2.0000  F3000
G00 X-56.5150 Y5.7150  F3000
G01 Z-2.0000 F500.00 
G00 Z2.0000  F3000
G00 X-59.0550 Y5.7150  F3000
G01 Z-2.0000 F500.00 
G00 Z2.0000  F3000
G00 X-61.5950 Y5.7150  F3000
G01 Z-2.0000 F500.00 
G00 Z2.0000  F3000
G00 X-64.1350 Y5.7150  F3000
G01 Z-2.0000 F500.00 
G00 Z2.0000  F3000
G00 X-48.8950 Y27.9400  F3000
G01 Z-2.0000 F500.00 
G00 Z2.0000  F3000
G00 X-48.8950 Y30.4800  F3000
G01 Z-2.0000 F500.00 
G00 Z2.0000  F3000
G00 X-46.3550 Y30.4800  F3000
G01 Z-2.0000 F500.00 
G00 Z2.0000  F3000
G00 X-43.8150 Y30.4800  F3000
G01 Z-2.0000 F500.00 
G00 Z2.0000  F3000
G00 X-43.8150 Y27.9400  F3000
G01 Z-2.0000 F500.00 
G00 Z2.0000  F3000
G00 X-46.3550 Y27.9400  F3000
G01 Z-2.0000 F500.00 
G00 Z2.0000  F3000
G00 X-47.6250 Y47.6250  F3000
G01 Z-2.0000 F500.00 
G00 Z2.0000  F3000
G00 X-50.1650 Y47.6250  F3000
G01 Z-2.0000 F500.00 
G00 Z2.0000  F3000
G00 X-50.1650 Y53.9750  F3000
G01 Z-2.0000 F500.00 
G00 Z2.0000  F3000
G00 X-52.7050 Y53.9750  F3000
G01 Z-2.0000 F500.00 
G00 Z2.0000  F3000
G00 X-55.2450 Y53.9750  F3000
G01 Z-2.0000 F500.00 
G00 Z2.0000  F3000
G00 X-47.6250 Y53.9750  F3000
G01 Z-2.0000 F500.00 
G00 Z2.0000  F3000
G00 X-45.0850 Y53.9750  F3000
G01 Z-2.0000 F500.00 
G00 Z2.0000  F3000
G00 X-42.5450 Y53.9750  F3000
G01 Z-2.0000 F500.00 
G00 Z2.0000  F3000
;T01 
G00 Z5.0000  F3000
;M03 S0
M0
