; generated by Slic3r 1.2.9 on 2019-08-23 at 12:32:53

; external perimeters extrusion width = 0.40mm
; perimeters extrusion width = 0.40mm
; infill extrusion width = 0.40mm
; solid infill extrusion width = 0.40mm
; top infill extrusion width = 0.40mm

M107
M83
T0
M116
G21 ; set units to millimeters
G90 ; use absolute coordinates
M83 ; use relative distances for extrusion
G1 E-3.50000 F1500.00000
G1 Z0.400 F15000.000
G1 X0.000 Y5.586 F15000.000
G1 Z0.300 F15000.000
G1 E3.50000 F1500.00000
G1 X-9.680 Y5.575 E0.74602 F2400.000
G1 X-10.339 Y5.501 E0.05112
G1 X-10.697 Y5.420 E0.02823
G1 X-11.320 Y5.201 E0.05090
G1 X-11.650 Y5.042 E0.02823
G1 X-12.203 Y4.695 E0.05037
G1 X-12.487 Y4.469 E0.02794
G1 X-12.960 Y3.998 E0.05143
G1 X-13.191 Y3.709 E0.02852
G1 X-13.542 Y3.150 E0.05090
G1 X-13.701 Y2.820 E0.02823
G1 X-13.920 Y2.197 E0.05090
G1 X-14.001 Y1.839 E0.02823
G1 X-14.086 Y0.997 E0.06524
G1 X-14.086 Y-0.997 E0.15370
G1 X-14.001 Y-1.839 E0.06524
G1 X-13.920 Y-2.197 E0.02823
G1 X-13.701 Y-2.820 E0.05090
G1 X-13.542 Y-3.150 E0.02823
G1 X-13.191 Y-3.709 E0.05090
G1 X-12.963 Y-3.996 E0.02823
G1 X-12.496 Y-4.463 E0.05090
G1 X-12.209 Y-4.691 E0.02823
G1 X-11.650 Y-5.042 E0.05090
G1 X-11.320 Y-5.201 E0.02823
G1 X-10.697 Y-5.420 E0.05090
G1 X-10.339 Y-5.501 E0.02823
G1 X-9.680 Y-5.575 E0.05112
G1 X9.680 Y-5.575 E1.49204
G1 X10.333 Y-5.502 E0.05058 F2400.000
G1 X10.686 Y-5.422 E0.02794
G1 X11.316 Y-5.203 E0.05143
G1 X11.650 Y-5.042 E0.02852
G1 X12.209 Y-4.691 E0.05090
G1 X12.496 Y-4.463 E0.02823
G1 X12.963 Y-3.996 E0.05090
G1 X13.191 Y-3.709 E0.02823
G1 X13.542 Y-3.150 E0.05090
G1 X13.701 Y-2.820 E0.02823
G1 X13.920 Y-2.197 E0.05090
G1 X14.001 Y-1.840 E0.02823
G1 X14.086 Y-0.997 E0.06524
G1 X14.086 Y0.997 E0.15370
G1 X14.001 Y1.839 E0.06524
G1 X13.920 Y2.197 E0.02823
G1 X13.701 Y2.820 E0.05090
G1 X13.542 Y3.150 E0.02823
G1 X13.191 Y3.709 E0.05090
G1 X12.963 Y3.996 E0.02823
G1 X12.496 Y4.463 E0.05090
G1 X12.209 Y4.691 E0.02823
G1 X11.650 Y5.042 E0.05090
G1 X11.320 Y5.201 E0.02823
G1 X10.697 Y5.420 E0.05090
G1 X10.339 Y5.501 E0.02823
G1 X9.497 Y5.586 E0.06524
G1 X0.060 Y5.586 E0.72728
G1 E-3.50000 F1500.00000
G1 Z0.700 F15000.000
G1 X6.473 Y1.159 F15000.000
G1 Z0.300 F15000.000
G1 E3.50000 F1500.00000
G1 X6.425 Y1.089 E0.00654 F2400.000
G1 X6.225 Y0.561 E0.04353
G1 X6.157 Y-0.000 E0.04353
G1 X6.225 Y-0.561 E0.04353
G1 X6.425 Y-1.089 E0.04353
G1 X6.746 Y-1.554 E0.04353
G1 X7.169 Y-1.928 E0.04353
G1 X7.669 Y-2.191 E0.04353
G1 X8.218 Y-2.326 E0.04353
G1 X8.782 Y-2.326 E0.04353 F2400.000
G1 X9.331 Y-2.191 E0.04353
G1 X9.831 Y-1.928 E0.04353
G1 X10.254 Y-1.554 E0.04353
G1 X10.575 Y-1.089 E0.04353
G1 X10.775 Y-0.561 E0.04353
G1 X10.843 Y-0.000 E0.04353
G1 X10.775 Y0.561 E0.04353
G1 X10.575 Y1.089 E0.04353
G1 X10.254 Y1.554 E0.04353
G1 X9.831 Y1.928 E0.04353
G1 X9.331 Y2.191 E0.04353
G1 X8.782 Y2.326 E0.04353
G1 X8.218 Y2.326 E0.04353
G1 X7.669 Y2.191 E0.04353
G1 X7.169 Y1.928 E0.04353
G1 X6.746 Y1.554 E0.04353
G1 X6.507 Y1.208 E0.03237
G1 X7.031 Y0.847 F15000.000
G1 X6.992 Y0.791 E0.00522 F2400.000
G1 X6.847 Y0.408 E0.03164
G1 X6.797 Y-0.000 E0.03164
G1 X6.847 Y-0.408 E0.03164
G1 X6.992 Y-0.791 E0.03164
G1 X7.225 Y-1.129 E0.03164
G1 X7.533 Y-1.401 E0.03164
G1 X7.896 Y-1.592 E0.03164
G1 X8.295 Y-1.691 E0.03164
G1 X8.705 Y-1.691 E0.03164 F2400.000
G1 X9.104 Y-1.592 E0.03164
G1 X9.467 Y-1.401 E0.03164
G1 X9.775 Y-1.129 E0.03164
G1 X10.008 Y-0.791 E0.03164
G1 X10.153 Y-0.408 E0.03164
G1 X10.203 Y-0.000 E0.03164
G1 X10.153 Y0.408 E0.03164
G1 X10.008 Y0.791 E0.03164
G1 X9.775 Y1.129 E0.03164
G1 X9.467 Y1.401 E0.03164
G1 X9.104 Y1.592 E0.03164
G1 X8.705 Y1.691 E0.03164
G1 X8.295 Y1.691 E0.03164
G1 X7.896 Y1.592 E0.03164
G1 X7.533 Y1.401 E0.03164
G1 X7.225 Y1.129 E0.03164
G1 X7.065 Y0.896 E0.02180
G1 X6.963 Y0.853 F15000.000
G1 E-3.50000 F1500.00000
G1 Z0.700 F15000.000
G1 X-6.157 Y-0.000 F15000.000
G1 Z0.300 F15000.000
G1 E3.50000 F1500.00000
G1 X-6.225 Y0.561 E0.04353 F2400.000
G1 X-6.425 Y1.089 E0.04353
G1 X-6.746 Y1.554 E0.04353
G1 X-7.169 Y1.928 E0.04353
G1 X-7.669 Y2.191 E0.04353
G1 X-8.218 Y2.326 E0.04353
G1 X-8.782 Y2.326 E0.04353
G1 X-9.331 Y2.191 E0.04353
G1 X-9.831 Y1.928 E0.04353
G1 X-10.254 Y1.554 E0.04353
G1 X-10.575 Y1.089 E0.04353
G1 X-10.775 Y0.561 E0.04353
G1 X-10.843 Y0.000 E0.04353
G1 X-10.775 Y-0.561 E0.04353
G1 X-10.575 Y-1.089 E0.04353
G1 X-10.254 Y-1.554 E0.04353
G1 X-9.831 Y-1.928 E0.04353
G1 X-9.331 Y-2.191 E0.04353
G1 X-8.782 Y-2.326 E0.04353
G1 X-8.218 Y-2.326 E0.04353 F2400.000
G1 X-7.669 Y-2.191 E0.04353
G1 X-7.169 Y-1.928 E0.04353
G1 X-6.746 Y-1.554 E0.04353
G1 X-6.425 Y-1.089 E0.04353
G1 X-6.225 Y-0.561 E0.04353
G1 X-6.164 Y-0.060 E0.03891
G1 X-6.797 Y-0.000 F15000.000
G1 X-6.847 Y0.408 E0.03164 F2400.000
G1 X-6.992 Y0.791 E0.03164
G1 X-7.225 Y1.129 E0.03164
G1 X-7.533 Y1.401 E0.03164
G1 X-7.896 Y1.592 E0.03164
G1 X-8.295 Y1.691 E0.03164
G1 X-8.705 Y1.691 E0.03164
G1 X-9.104 Y1.592 E0.03164
G1 X-9.467 Y1.401 E0.03164
G1 X-9.775 Y1.129 E0.03164
G1 X-10.008 Y0.791 E0.03164
G1 X-10.153 Y0.408 E0.03164
G1 X-10.203 Y0.000 E0.03164
G1 X-10.153 Y-0.408 E0.03164
G1 X-10.008 Y-0.791 E0.03164
G1 X-9.775 Y-1.129 E0.03164
G1 X-9.467 Y-1.401 E0.03164
G1 X-9.104 Y-1.592 E0.03164
G1 X-8.705 Y-1.691 E0.03164
G1 X-8.295 Y-1.691 E0.03164 F2400.000
G1 X-7.896 Y-1.592 E0.03164
G1 X-7.533 Y-1.401 E0.03164
G1 X-7.225 Y-1.129 E0.03164
G1 X-6.992 Y-0.791 E0.03164
G1 X-6.847 Y-0.408 E0.03164
G1 X-6.804 Y-0.060 E0.02701
G1 X-6.459 Y0.214 F15000.000
G1 X-3.962 Y-2.964 F15000.000
G1 X9.442 Y-2.964 E1.03296 F2400.000
G1 X9.930 Y-2.909 E0.03785
G1 X10.350 Y-2.763 E0.03431 F2400.000
G1 X10.721 Y-2.531 E0.03370
G1 X11.031 Y-2.221 E0.03379
G1 X11.264 Y-1.849 E0.03379
G1 X11.409 Y-1.436 E0.03379
G1 X11.464 Y-0.942 E0.03830
G1 X11.464 Y0.942 E0.14517
G1 X11.409 Y1.436 E0.03830
G1 X11.264 Y1.849 E0.03379
G1 X11.031 Y2.221 E0.03379
G1 X10.721 Y2.531 E0.03379
G1 X10.349 Y2.764 E0.03379
G1 X9.936 Y2.909 E0.03379
G1 X9.442 Y2.964 E0.03830
G1 X6.036 Y2.964 E0.26246
G1 X5.985 Y2.542 E0.03278
G1 X5.636 Y1.523 E0.08303
G1 X5.441 Y1.121 E0.03443
G1 X4.988 Y0.392 E0.06616
G1 X4.605 Y-0.085 E0.04713
G1 X4.116 Y-0.578 E0.05347
G1 X3.507 Y-1.059 E0.05982
G1 X3.049 Y-1.348 E0.04175
G1 X1.904 Y-1.859 E0.09665
G1 X0.640 Y-2.127 E0.09957
G1 X-0.747 Y-2.116 E0.10686
G1 X-2.165 Y-1.767 E0.11253
G1 X-3.060 Y-1.342 E0.07638
G1 X-3.507 Y-1.059 E0.04078
G1 X-4.116 Y-0.578 E0.05982
G1 X-4.605 Y-0.085 E0.05347
G1 X-4.988 Y0.392 E0.04713
G1 X-5.441 Y1.121 E0.06616
G1 X-5.639 Y1.530 E0.03507
G1 X-6.025 Y2.719 E0.09633
G1 X-6.051 Y2.964 E0.01900
G1 X-9.442 Y2.964 E0.26130
G1 X-9.936 Y2.909 E0.03830
G1 X-10.349 Y2.764 E0.03379
G1 X-10.716 Y2.534 E0.03334
G1 X-11.031 Y2.220 E0.03431
G1 X-11.264 Y1.849 E0.03370
G1 X-11.409 Y1.436 E0.03379
G1 X-11.464 Y0.942 E0.03830
G1 X-11.464 Y-0.942 E0.14517
G1 X-11.409 Y-1.436 E0.03830
G1 X-11.264 Y-1.849 E0.03379
G1 X-11.031 Y-2.221 E0.03379
G1 X-10.721 Y-2.531 E0.03379
G1 X-10.349 Y-2.764 E0.03379
G1 X-9.936 Y-2.909 E0.03379
G1 X-9.442 Y-2.964 E0.03830
G1 X-4.022 Y-2.964 E0.41769
G1 X-4.022 Y-3.600 F15000.000
G1 X9.478 Y-3.600 E1.04034 F2400.000
G1 X10.071 Y-3.533 E0.04606
G1 X10.627 Y-3.340 E0.04535 F2400.000
G1 X11.119 Y-3.031 E0.04479
G1 X11.531 Y-2.620 E0.04483
G1 X11.840 Y-2.127 E0.04482
G1 X12.032 Y-1.578 E0.04483
G1 X12.100 Y-0.978 E0.04657
G1 X12.100 Y0.978 E0.15067
G1 X12.032 Y1.578 E0.04657
G1 X11.840 Y2.127 E0.04483
G1 X11.531 Y2.620 E0.04483
G1 X11.120 Y3.031 E0.04483
G1 X10.627 Y3.340 E0.04483
G1 X10.078 Y3.532 E0.04483
G1 X9.478 Y3.600 E0.04657
G1 X5.473 Y3.600 E0.30861
G1 X5.362 Y2.685 E0.07103
G1 X5.047 Y1.765 E0.07492
G1 X4.883 Y1.428 E0.02890
G1 X4.468 Y0.760 E0.06063
G1 X4.130 Y0.339 E0.04160
G1 X3.692 Y-0.103 E0.04794
G1 X3.139 Y-0.539 E0.05429
G1 X2.749 Y-0.787 E0.03562
G1 X1.706 Y-1.251 E0.08795
G1 X0.575 Y-1.491 E0.08907
G1 X-0.667 Y-1.481 E0.09577
G1 X-1.950 Y-1.165 E0.10183
G1 X-2.753 Y-0.784 E0.06846
G1 X-3.139 Y-0.539 E0.03525
G1 X-3.692 Y-0.103 E0.05429
G1 X-4.130 Y0.339 E0.04794
G1 X-4.468 Y0.760 E0.04160
G1 X-4.883 Y1.428 E0.06063
G1 X-5.048 Y1.768 E0.02915
G1 X-5.400 Y2.852 E0.08782
G1 X-5.479 Y3.600 E0.05795
G1 X-9.478 Y3.600 E0.30816
G1 X-10.078 Y3.532 E0.04657
G1 X-10.627 Y3.340 E0.04483
G1 X-11.114 Y3.034 E0.04432
G1 X-11.531 Y2.619 E0.04535
G1 X-11.840 Y2.127 E0.04479
G1 X-12.032 Y1.578 E0.04483
G1 X-12.100 Y0.978 E0.04657
G1 X-12.100 Y-0.978 E0.15067
G1 X-12.032 Y-1.578 E0.04657
G1 X-11.840 Y-2.127 E0.04483
G1 X-11.531 Y-2.620 E0.04483
G1 X-11.120 Y-3.031 E0.04483
G1 X-10.627 Y-3.340 E0.04483
G1 X-10.078 Y-3.532 E0.04483
G1 X-9.478 Y-3.600 E0.04657
G1 X-4.082 Y-3.600 E0.41582
G1 X-3.822 Y-3.254 F15000.000
G1 X-3.245 Y-2.263 F15000.000
G1 X-3.561 Y-2.579 E0.04111 F2400.000
G1 X-4.634 Y-2.579 E0.09864
G1 X-3.508 Y-1.454 E0.14635
G1 X-4.122 Y-0.995 E0.07048
G1 X-5.706 Y-2.579 E0.20603
G1 X-6.615 Y-2.415 E0.08492
G1 X-4.679 Y-0.479 E0.25183
G1 X-5.505 Y-0.232 E0.07928
G1 X-5.817 Y-0.545 E0.04065
G1 X-5.837 Y0.153 F15000.000
G1 X-5.837 Y0.647 E0.03803 F2400.000
G1 X-5.857 Y0.908 E0.02016
G1 X-5.701 Y0.847 E0.01290
G1 X-5.437 Y0.474 E0.03520
G1 X-5.755 Y0.672 F15000.000
G1 X-6.019 Y1.284 E0.05139 F2400.000
G1 X-6.195 Y1.631 E0.02997
G1 X-6.195 Y1.631 F15000.000
G1 X-6.352 Y1.941 E0.05621 F2400.000
G1 X-6.587 Y2.300 E0.06964
G1 X-6.875 Y2.405 E0.04956
G1 X-7.205 Y2.487 E0.05509
G1 X-7.205 Y2.487 F15000.000
G1 X-7.537 Y2.567 E0.02628 F2400.000
G1 X-8.038 Y2.628 E0.03889
G1 X-8.962 Y2.628 F15000.000
G1 X-9.481 Y2.560 E0.04032 F2400.000
G1 X-9.832 Y2.453 E0.02824
G1 X-10.091 Y2.340 E0.02178
G1 X-10.391 Y2.125 E0.02844
G1 X-10.631 Y1.900 E0.02539
G1 X-10.810 Y1.631 E0.02489
G1 X-10.968 Y1.314 E0.02732
G1 X-11.066 Y0.919 E0.03129
G1 X-11.115 Y0.648 E0.02123
G1 X-11.127 Y0.464 E0.01422
G1 X-11.127 Y-0.464 F15000.000
G1 X-11.115 Y-0.648 E0.01421 F2400.000
G1 X-11.066 Y-0.919 E0.02123
G1 X-10.968 Y-1.314 E0.03129
G1 X-10.810 Y-1.631 E0.02732
G1 X-10.630 Y-1.901 E0.02502
G1 X-10.395 Y-2.122 E0.02487
G1 X-10.091 Y-2.340 E0.02884
G1 X-9.832 Y-2.453 E0.02178
G1 X-9.481 Y-2.560 E0.02824
G1 X-8.962 Y-2.628 E0.04032
G1 X-8.038 Y-2.628 F15000.000
G1 X-7.531 Y-2.566 E0.03935 F2400.000
G1 X-7.113 Y-2.279 E0.03907
G1 X-2.813 Y-2.250 F15000.000
G1 X-2.342 Y-2.353 E0.07806 F2400.000
G1 X-1.443 Y-2.462 E0.14663
G1 X-1.443 Y-2.462 F15000.000
G1 X-0.788 Y-2.540 E0.05089 F2400.000
G1 X0.671 Y-2.546 E0.11241
G1 X1.514 Y-2.459 E0.06530
G1 X1.514 Y-2.459 F15000.000
G1 X2.105 Y-2.394 E0.09634 F2400.000
G1 X2.810 Y-2.244 E0.11665
G1 X3.124 Y-1.991 F15000.000
G1 X3.461 Y-1.654 E0.03736 F2400.000
G1 X5.787 Y-0.245 F15000.000
G1 X3.452 Y-2.579 E0.25938 F2400.000
G1 X4.369 Y-2.579 E0.07200
G1 X6.001 Y-0.947 E0.18134
G1 X6.329 Y-1.535 E0.05293
G1 X5.285 Y-2.579 E0.11597
G1 X6.202 Y-2.579 E0.07200
G1 X6.570 Y-2.211 E0.04090
G1 X7.113 Y-2.279 F15000.000
G1 X7.531 Y-2.566 E0.03907 F2400.000
G1 X8.038 Y-2.628 E0.03935
G1 X8.962 Y-2.628 F15000.000
G1 X9.481 Y-2.560 E0.04032 F2400.000
G1 X9.827 Y-2.454 E0.02784
G1 X10.091 Y-2.340 E0.02218
G1 X10.395 Y-2.122 E0.02884
G1 X10.630 Y-1.901 E0.02487
G1 X10.810 Y-1.631 E0.02502
G1 X10.968 Y-1.314 E0.02732
G1 X11.066 Y-0.919 E0.03129
G1 X11.115 Y-0.649 E0.02123
G1 X11.127 Y-0.464 E0.01422
G1 X11.127 Y0.464 F15000.000
G1 X11.115 Y0.648 E0.01422 F2400.000
G1 X11.066 Y0.919 E0.02123
G1 X10.968 Y1.314 E0.03129
G1 X10.810 Y1.631 E0.02732
G1 X10.630 Y1.901 E0.02502
G1 X10.395 Y2.122 E0.02487
G1 X10.091 Y2.340 E0.02884
G1 X9.832 Y2.453 E0.02178
G1 X9.481 Y2.560 E0.02824
G1 X8.962 Y2.628 E0.04032
G1 X8.038 Y2.628 F15000.000
G1 X7.537 Y2.567 E0.03889 F2400.000
G1 X7.205 Y2.487 E0.02627
G1 X7.205 Y2.487 F15000.000
G1 X6.875 Y2.405 E0.05509 F2400.000
G1 X6.600 Y2.305 E0.04732
G1 X6.355 Y1.937 E0.07166
G1 X6.207 Y1.652 E0.05195
G1 X6.207 Y1.652 F15000.000
G1 X6.019 Y1.284 E0.03186 F2400.000
G1 X5.857 Y0.908 E0.03161
G1 X5.837 Y0.647 E0.02016
G1 X5.837 Y0.153 E0.03803
G1 X5.437 Y0.474 F15000.000
G1 X5.700 Y0.847 E0.03520 F2400.000
G1 X5.822 Y0.904 E0.01034
G1 X6.023 Y0.926 E0.01560
G1 E-3.50000 F1500.00000
G1 Z0.700 F15000.000
G1 X6.721 Y0.661 F15000.000
G1 Z0.500 F15000.000
G1 E3.50000 F1500.00000
G1 X6.644 Y0.457 E0.00628 F2400.000
G1 X6.588 Y-0.004 E0.01342
G1 X6.653 Y-0.482 E0.01391
G1 X6.807 Y-0.888 E0.01255
G1 X7.069 Y-1.268 E0.01330
G1 X7.409 Y-1.569 E0.01311
G1 X7.409 Y-1.686 E0.00337
G1 X8.270 Y-1.898 E0.02558
G1 X8.730 Y-1.898 E0.01330 F2400.000
G1 X9.178 Y-1.787 E0.01330
G1 X9.586 Y-1.573 E0.01330
G1 X9.931 Y-1.268 E0.01330
G1 X10.193 Y-0.888 E0.01330
G1 X10.356 Y-0.457 E0.01330
G1 X10.412 Y0.004 E0.01342
G1 X10.347 Y0.482 E0.01391
G1 X10.193 Y0.888 E0.01255
G1 X9.931 Y1.268 E0.01330
G1 X9.586 Y1.573 E0.01330
G1 X9.178 Y1.787 E0.01330
G1 X8.730 Y1.898 E0.01330
G1 X8.270 Y1.898 E0.01330
G1 X7.822 Y1.787 E0.01330
G1 X7.414 Y1.573 E0.01330
G1 X7.069 Y1.268 E0.01330
G1 X6.807 Y0.888 E0.01330
G1 X6.742 Y0.717 E0.00529
G1 X7.076 Y0.590 F15000.000
G1 X6.993 Y0.371 E0.00676 F2400.000
G1 X6.948 Y-0.002 E0.01084
G1 X7.002 Y-0.393 E0.01141
G1 X7.126 Y-0.721 E0.01013
G1 X7.338 Y-1.029 E0.01080
G1 X7.618 Y-1.277 E0.01080
G1 X7.766 Y-1.355 E0.00482
G1 X7.766 Y-1.406 E0.00147
G1 X8.313 Y-1.541 E0.01625
G1 X8.687 Y-1.541 E0.01080 F2400.000
G1 X9.050 Y-1.451 E0.01080
G1 X9.382 Y-1.277 E0.01080
G1 X9.662 Y-1.029 E0.01080
G1 X9.874 Y-0.721 E0.01080
G1 X10.007 Y-0.371 E0.01080
G1 X10.052 Y0.002 E0.01084
G1 X9.998 Y0.393 E0.01141
G1 X9.874 Y0.721 E0.01013
G1 X9.662 Y1.029 E0.01080
G1 X9.382 Y1.277 E0.01080
G1 X9.050 Y1.451 E0.01080
G1 X8.687 Y1.541 E0.01080
G1 X8.313 Y1.541 E0.01080
G1 X7.950 Y1.451 E0.01080
G1 X7.618 Y1.277 E0.01080
G1 X7.338 Y1.029 E0.01080
G1 X7.126 Y0.721 E0.01080
G1 X7.098 Y0.647 E0.00230
G1 X6.845 Y0.553 F15000.000
G1 E-3.50000 F1500.00000
G1 Z0.900 F15000.000
G1 X-6.588 Y-0.000 F15000.000
G1 Z0.500 F15000.000
G1 E3.50000 F1500.00000
G1 X-6.644 Y0.457 E0.01330 F2400.000
G1 X-6.807 Y0.888 E0.01330
G1 X-7.069 Y1.268 E0.01330
G1 X-7.414 Y1.573 E0.01330
G1 X-7.822 Y1.787 E0.01330
G1 X-8.270 Y1.898 E0.01330
G1 X-8.730 Y1.898 E0.01330
G1 X-9.178 Y1.787 E0.01330
G1 X-9.586 Y1.573 E0.01330
G1 X-9.931 Y1.268 E0.01330
G1 X-10.193 Y0.888 E0.01330
G1 X-10.356 Y0.457 E0.01330
G1 X-10.412 Y-0.004 E0.01342
G1 X-10.347 Y-0.482 E0.01391
G1 X-10.193 Y-0.888 E0.01255
G1 X-9.928 Y-1.271 E0.01342
G1 X-9.563 Y-1.585 E0.01391
G1 X-9.178 Y-1.787 E0.01255
G1 X-8.726 Y-1.899 E0.01342 F2400.000
G1 X-8.244 Y-1.891 E0.01391
G1 X-7.822 Y-1.787 E0.01255
G1 X-7.410 Y-1.571 E0.01342
G1 X-7.054 Y-1.246 E0.01391
G1 X-6.807 Y-0.888 E0.01255
G1 X-6.644 Y-0.457 E0.01330
G1 X-6.596 Y-0.060 E0.01157
G1 X-6.950 Y-0.017 F15000.000
G1 X-6.993 Y0.371 E0.01126 F2400.000
G1 X-7.126 Y0.721 E0.01080
G1 X-7.338 Y1.029 E0.01080
G1 X-7.618 Y1.277 E0.01080
G1 X-7.950 Y1.451 E0.01080
G1 X-8.313 Y1.541 E0.01080
G1 X-8.687 Y1.541 E0.01080
G1 X-9.050 Y1.451 E0.01080
G1 X-9.382 Y1.277 E0.01080
G1 X-9.662 Y1.029 E0.01080
G1 X-9.874 Y0.721 E0.01080
G1 X-10.007 Y0.371 E0.01080
G1 X-10.052 Y-0.002 E0.01084
G1 X-9.998 Y-0.393 E0.01141
G1 X-9.874 Y-0.721 E0.01013
G1 X-9.661 Y-1.030 E0.01084
G1 X-9.361 Y-1.288 E0.01141
G1 X-9.050 Y-1.451 E0.01013
G1 X-8.686 Y-1.541 E0.01084 F2400.000
G1 X-8.290 Y-1.535 E0.01141
G1 X-7.950 Y-1.451 E0.01013
G1 X-7.617 Y-1.276 E0.01084
G1 X-7.325 Y-1.010 E0.01141
G1 X-7.126 Y-0.721 E0.01013
G1 X-6.993 Y-0.371 E0.01080
G1 X-6.957 Y-0.076 E0.00859
G1 X-6.619 Y0.190 F15000.000
G1 X-3.723 Y-3.393 F15000.000
G1 X9.466 Y-3.393 E0.38066 F2400.000
G1 X10.006 Y-3.332 E0.01570
G1 X10.539 Y-3.151 E0.01623 F2400.000
G1 X10.990 Y-2.868 E0.01537
G1 X11.368 Y-2.490 E0.01544
G1 X11.652 Y-2.037 E0.01544
G1 X11.829 Y-1.532 E0.01544
G1 X11.893 Y-0.966 E0.01643
G1 X11.893 Y0.966 E0.05576
G1 X11.829 Y1.532 E0.01643
G1 X11.652 Y2.037 E0.01544
G1 X11.368 Y2.490 E0.01544
G1 X10.990 Y2.868 E0.01544
G1 X10.537 Y3.152 E0.01544
G1 X10.032 Y3.329 E0.01544
G1 X9.466 Y3.393 E0.01643
G1 X5.072 Y3.393 E0.12681
G1 X4.998 Y2.778 E0.01787
G1 X4.705 Y1.924 E0.02607
G1 X4.548 Y1.599 E0.01041
G1 X4.165 Y0.983 E0.02094
G1 X3.848 Y0.588 E0.01462
G1 X3.439 Y0.177 E0.01673
G1 X2.927 Y-0.228 E0.01884
G1 X2.554 Y-0.464 E0.01273
G1 X1.590 Y-0.893 E0.03048
