; generated by Slic3r 1.2.9 on 2019-04-19 at 15:37:25

; external perimeters extrusion width = 0.40mm
; perimeters extrusion width = 0.40mm
; infill extrusion width = 0.40mm
; solid infill extrusion width = 0.40mm
; top infill extrusion width = 0.40mm

M107
M83
T0
M116
G21 ; set units to millimeters
G90 ; use absolute coordinates
M83 ; use relative distances for extrusion
G1 E-3.50000 F1500.00000
G1 Z0.400 F15000.000
G1 X0.000 Y-6.881 F15000.000
G1 Z0.300 F15000.000
G1 E3.50000 F1500.00000
G1 X6.325 Y-6.878 E0.48743 F2400.000
G1 X6.886 Y-6.852 E0.04329 F2400.000
G1 X7.532 Y-6.765 E0.05023
G1 X8.100 Y-6.635 E0.04490
G1 X8.720 Y-6.434 E0.05023
G1 X9.256 Y-6.205 E0.04490
G1 X9.830 Y-5.896 E0.05023
G1 X10.316 Y-5.575 E0.04490
G1 X10.825 Y-5.169 E0.05023
G1 X11.246 Y-4.766 E0.04490
G1 X11.675 Y-4.275 E0.05023
G1 X12.018 Y-3.804 E0.04490
G1 X12.352 Y-3.244 E0.05023
G1 X12.605 Y-2.719 E0.04490
G1 X12.834 Y-2.109 E0.05023
G1 X12.989 Y-1.547 E0.04490
G1 X13.105 Y-0.906 E0.05023
G1 X13.157 Y-0.326 E0.04490
G1 X13.157 Y0.326 E0.05023
G1 X13.105 Y0.906 E0.04490
G1 X12.989 Y1.547 E0.05023
G1 X12.834 Y2.109 E0.04490
G1 X12.605 Y2.719 E0.05023
G1 X12.352 Y3.244 E0.04490
G1 X12.005 Y3.822 E0.05195
G1 X11.647 Y4.308 E0.04648
G1 X11.231 Y4.780 E0.04851
G1 X10.825 Y5.169 E0.04329
G1 X10.316 Y5.575 E0.05023
G1 X9.830 Y5.896 E0.04490
G1 X9.256 Y6.205 E0.05023
G1 X8.720 Y6.434 E0.04490
G1 X8.100 Y6.635 E0.05023
G1 X7.532 Y6.765 E0.04490
G1 X6.886 Y6.852 E0.05023
G1 X6.141 Y6.882 E0.05747
G1 X-6.446 Y6.882 E0.97000
G1 X-6.934 Y6.849 E0.03770
G1 X-7.511 Y6.771 E0.04490
G1 X-8.147 Y6.626 E0.05023
G1 X-8.701 Y6.446 E0.04490
G1 X-9.300 Y6.190 E0.05023
G1 X-9.813 Y5.914 E0.04490
G1 X-10.357 Y5.555 E0.05023
G1 X-10.813 Y5.191 E0.04490
G1 X-11.284 Y4.741 E0.05023
G1 X-11.667 Y4.302 E0.04490
G1 X-12.062 Y3.756 E0.05195
G1 X-12.368 Y3.236 E0.04648
G1 X-12.639 Y2.668 E0.04851
G1 X-12.836 Y2.142 E0.04329
G1 X-13.010 Y1.514 E0.05023
G1 X-13.114 Y0.940 E0.04490
G1 X-13.172 Y0.291 E0.05023
G1 X-13.172 Y-0.291 E0.04490
G1 X-13.114 Y-0.940 E0.05023
G1 X-13.010 Y-1.514 E0.04490
G1 X-12.836 Y-2.142 E0.05023
G1 X-12.632 Y-2.688 E0.04490
G1 X-12.349 Y-3.275 E0.05023
G1 X-12.050 Y-3.775 E0.04490
G1 X-11.667 Y-4.302 E0.05023
G1 X-11.284 Y-4.741 E0.04490
G1 X-10.813 Y-5.191 E0.05023
G1 X-10.357 Y-5.555 E0.04490
G1 X-9.813 Y-5.914 E0.05023
G1 X-9.300 Y-6.190 E0.04490
G1 X-8.701 Y-6.446 E0.05023
G1 X-8.147 Y-6.626 E0.04490
G1 X-7.489 Y-6.774 E0.05195
G1 X-6.891 Y-6.851 E0.04648
G1 X-6.425 Y-6.881 E0.03597
G1 X-0.060 Y-6.881 E0.49052
G1 E-3.50000 F1500.00000
G1 Z0.700 F15000.000
G1 X-5.755 Y2.185 F15000.000
G1 Z0.300 F15000.000
G1 E3.50000 F1500.00000
G1 X-5.997 Y2.240 E0.01913 F2400.000
G1 X-6.401 Y2.258 E0.03123
G1 X-6.803 Y2.204 E0.03123
G1 X-7.188 Y2.078 E0.03123
G1 X-7.545 Y1.886 E0.03123
G1 X-7.862 Y1.634 E0.03123
G1 X-8.127 Y1.331 E0.03099
G1 X-8.343 Y0.964 E0.03281
G1 X-8.479 Y0.601 E0.02986
G1 X-8.551 Y0.203 E0.03123
G1 X-8.551 Y-0.203 E0.03123
G1 X-8.479 Y-0.601 E0.03123
G1 X-8.336 Y-0.981 E0.03123
G1 X-8.129 Y-1.329 E0.03123
G1 X-7.862 Y-1.634 E0.03123
G1 X-7.545 Y-1.886 E0.03123
G1 X-7.188 Y-2.078 E0.03123
G1 X-6.806 Y-2.203 E0.03099
G1 X-6.384 Y-2.257 E0.03281
G1 X-5.997 Y-2.240 E0.02986
G1 X-5.602 Y-2.150 E0.03123 F2400.000
G1 X-5.229 Y-1.990 E0.03123
G1 X-4.891 Y-1.767 E0.03123
G1 X-4.598 Y-1.487 E0.03123
G1 X-4.360 Y-1.159 E0.03123
G1 X-4.184 Y-0.794 E0.03123
G1 X-4.076 Y-0.404 E0.03123
G1 X-4.040 Y-0.000 E0.03123
G1 X-4.076 Y0.404 E0.03123
G1 X-4.184 Y0.794 E0.03123
G1 X-4.358 Y1.156 E0.03099
G1 X-4.611 Y1.499 E0.03281
G1 X-4.891 Y1.767 E0.02986
G1 X-5.229 Y1.990 E0.03123
G1 X-5.602 Y2.150 E0.03123
G1 X-5.696 Y2.171 E0.00748
G1 X-5.555 Y2.791 F15000.000
G1 X-5.911 Y2.872 E0.02816 F2400.000
G1 X-6.430 Y2.895 E0.04004
G1 X-6.945 Y2.826 E0.04004
G1 X-7.439 Y2.665 E0.04004
G1 X-7.897 Y2.419 E0.04004
G1 X-8.303 Y2.095 E0.04004
G1 X-8.644 Y1.704 E0.03996
G1 X-8.918 Y1.239 E0.04163
G1 X-9.094 Y0.771 E0.03852
G1 X-9.187 Y0.260 E0.04004
G1 X-9.187 Y-0.260 E0.04004
G1 X-9.094 Y-0.771 E0.04004
G1 X-8.911 Y-1.258 E0.04004
G1 X-8.645 Y-1.704 E0.04004
G1 X-8.303 Y-2.095 E0.04004
G1 X-7.897 Y-2.419 E0.04004
G1 X-7.439 Y-2.665 E0.04004
G1 X-6.946 Y-2.825 E0.03996
G1 X-6.410 Y-2.895 E0.04163
G1 X-5.911 Y-2.872 E0.03852
G1 X-5.404 Y-2.757 E0.04004 F2400.000
G1 X-4.927 Y-2.552 E0.04004
G1 X-4.493 Y-2.266 E0.04004
G1 X-4.117 Y-1.907 E0.04004
G1 X-3.812 Y-1.487 E0.04004
G1 X-3.586 Y-1.018 E0.04004
G1 X-3.448 Y-0.518 E0.04004
G1 X-3.402 Y-0.000 E0.04004
G1 X-3.448 Y0.518 E0.04004
G1 X-3.586 Y1.018 E0.04004
G1 X-3.811 Y1.486 E0.03996
G1 X-4.132 Y1.921 E0.04163
G1 X-4.493 Y2.266 E0.03852
G1 X-4.927 Y2.552 E0.04004
G1 X-5.404 Y2.757 E0.04004
G1 X-5.496 Y2.777 E0.00726
G1 X-5.803 Y2.523 F15000.000
G1 X-7.226 Y1.503 F15000.000
G1 X-7.832 Y0.897 E0.07132 F2400.000
G1 X-8.148 Y-0.390 E0.11018
G1 X-5.907 Y1.851 E0.26367
G1 X-5.210 Y1.578 E0.06231
G1 X-7.879 Y-1.092 E0.31414
G1 X-7.398 Y-1.581 E0.05710
G1 X-4.724 Y1.093 E0.31464
G1 X-4.451 Y0.396 E0.06232
G1 X-6.692 Y-1.845 E0.26368
G1 X-5.406 Y-1.529 E0.11019
G1 X-4.781 Y-0.905 E0.07347
G1 E-3.50000 F1500.00000
G1 Z0.700 F15000.000
G1 X8.535 Y-0.138 F15000.000
G1 Z0.300 F15000.000
G1 E3.50000 F1500.00000
G1 X8.547 Y-0.000 E0.01066 F2400.000
G1 X8.511 Y0.404 E0.03123
G1 X8.403 Y0.794 E0.03123
G1 X8.228 Y1.156 E0.03099
G1 X7.976 Y1.499 E0.03281
G1 X7.696 Y1.767 E0.02986
G1 X7.358 Y1.990 E0.03123
G1 X6.985 Y2.150 E0.03123
G1 X6.590 Y2.240 E0.03123
G1 X6.185 Y2.258 E0.03123
G1 X5.784 Y2.204 E0.03123
G1 X5.398 Y2.078 E0.03123
G1 X5.042 Y1.886 E0.03123
G1 X4.725 Y1.634 E0.03123
G1 X4.460 Y1.331 E0.03099
G1 X4.244 Y0.964 E0.03281
G1 X4.108 Y0.601 E0.02986
G1 X4.036 Y0.203 E0.03123
G1 X4.036 Y-0.203 E0.03123
G1 X4.108 Y-0.601 E0.03123
G1 X4.250 Y-0.981 E0.03123
G1 X4.458 Y-1.329 E0.03123
G1 X4.725 Y-1.634 E0.03123
G1 X5.042 Y-1.886 E0.03123
G1 X5.398 Y-2.078 E0.03123
G1 X5.781 Y-2.203 E0.03099
G1 X6.203 Y-2.257 E0.03281
G1 X6.590 Y-2.240 E0.02986
G1 X6.985 Y-2.150 E0.03123 F2400.000
G1 X7.358 Y-1.990 E0.03123
G1 X7.696 Y-1.767 E0.03123
G1 X7.989 Y-1.487 E0.03123
G1 X8.227 Y-1.159 E0.03123
G1 X8.403 Y-0.794 E0.03123
G1 X8.511 Y-0.404 E0.03123
G1 X8.529 Y-0.197 E0.01595
G1 X9.162 Y-0.254 F15000.000
G1 X9.185 Y-0.000 E0.01969 F2400.000
G1 X9.139 Y0.518 E0.04004
G1 X9.000 Y1.018 E0.04004
G1 X8.775 Y1.486 E0.03996
G1 X8.455 Y1.921 E0.04163
G1 X8.094 Y2.266 E0.03852
G1 X7.660 Y2.552 E0.04004
G1 X7.182 Y2.757 E0.04004
G1 X6.676 Y2.872 E0.04004
G1 X6.157 Y2.895 E0.04004
G1 X5.642 Y2.826 E0.04004
G1 X5.148 Y2.665 E0.04004
G1 X4.690 Y2.419 E0.04004
G1 X4.284 Y2.095 E0.04004
G1 X3.943 Y1.704 E0.03996
G1 X3.668 Y1.239 E0.04163
G1 X3.493 Y0.771 E0.03852
G1 X3.400 Y0.260 E0.04004
G1 X3.400 Y-0.260 E0.04004
G1 X3.493 Y-0.771 E0.04004
G1 X3.675 Y-1.258 E0.04004
G1 X3.942 Y-1.704 E0.04004
G1 X4.284 Y-2.095 E0.04004
G1 X4.690 Y-2.419 E0.04004
G1 X5.148 Y-2.665 E0.04004
G1 X5.641 Y-2.825 E0.03996
G1 X6.176 Y-2.895 E0.04163
G1 X6.676 Y-2.872 E0.03852
G1 X7.182 Y-2.757 E0.04004 F2400.000
G1 X7.660 Y-2.552 E0.04004
G1 X8.094 Y-2.266 E0.04004
G1 X8.469 Y-1.907 E0.04004
G1 X8.775 Y-1.487 E0.04004
G1 X9.000 Y-1.018 E0.04004
G1 X9.139 Y-0.518 E0.04004
G1 X9.157 Y-0.314 E0.01573
G1 X8.953 Y-0.107 F15000.000
G1 X7.806 Y-0.905 F15000.000
G1 X7.181 Y-1.529 E0.07347 F2400.000
G1 X5.895 Y-1.845 E0.11019
G1 X8.136 Y0.396 E0.26368
G1 X7.863 Y1.093 E0.06232
G1 X5.189 Y-1.581 E0.31464
G1 X4.707 Y-1.092 E0.05710
G1 X7.377 Y1.578 E0.31414
G1 X6.680 Y1.851 E0.06231
G1 X4.439 Y-0.390 E0.26367
G1 X4.755 Y0.897 E0.11018
G1 X5.361 Y1.503 E0.07132
G1 E-3.50000 F1500.00000
G1 Z0.700 F15000.000
G1 X-3.917 Y1.228 F15000.000
G1 Z0.500 F15000.000
G1 E3.50000 F1500.00000
G1 X-3.990 Y1.380 E0.00488 F2400.000
G1 X-4.274 Y1.770 E0.01392
G1 X-4.623 Y2.103 E0.01392
G1 X-5.025 Y2.369 E0.01392
G1 X-5.469 Y2.559 E0.01392
G1 X-5.939 Y2.666 E0.01392
G1 X-6.421 Y2.688 E0.01392
G1 X-6.899 Y2.623 E0.01392
G1 X-7.357 Y2.474 E0.01392
G1 X-7.782 Y2.245 E0.01392
G1 X-8.159 Y1.945 E0.01392
G1 X-8.473 Y1.585 E0.01378
G1 X-8.744 Y1.113 E0.01572
G1 X-8.894 Y0.716 E0.01224
G1 X-8.980 Y0.241 E0.01392
G1 X-8.980 Y-0.241 E0.01392
G1 X-8.894 Y-0.716 E0.01392
G1 X-8.724 Y-1.167 E0.01392
G1 X-8.477 Y-1.581 E0.01392
G1 X-8.159 Y-1.945 E0.01392
G1 X-7.782 Y-2.245 E0.01392
G1 X-7.357 Y-2.474 E0.01392
G1 X-6.903 Y-2.621 E0.01378
G1 X-6.363 Y-2.685 E0.01572
G1 X-5.939 Y-2.666 E0.01224
G1 X-5.469 Y-2.559 E0.01392 F2400.000
G1 X-5.025 Y-2.369 E0.01392
G1 X-4.623 Y-2.103 E0.01392
G1 X-4.274 Y-1.770 E0.01392
G1 X-3.990 Y-1.380 E0.01392
G1 X-3.781 Y-0.945 E0.01392
G1 X-3.653 Y-0.480 E0.01392
G1 X-3.610 Y-0.000 E0.01392
G1 X-3.653 Y0.480 E0.01392
G1 X-3.781 Y0.945 E0.01392
G1 X-3.891 Y1.174 E0.00731
G1 X-3.569 Y1.329 F15000.000
G1 X-3.683 Y1.564 E0.00754 F2400.000
G1 X-4.004 Y2.006 E0.01578
G1 X-4.399 Y2.384 E0.01578
G1 X-4.855 Y2.685 E0.01578
G1 X-5.358 Y2.900 E0.01578
G1 X-5.891 Y3.021 E0.01578
G1 X-6.437 Y3.046 E0.01578
G1 X-6.978 Y2.973 E0.01578
G1 X-7.498 Y2.804 E0.01578
G1 X-7.980 Y2.545 E0.01578
G1 X-8.407 Y2.204 E0.01578
G1 X-8.766 Y1.793 E0.01573
G1 X-9.069 Y1.265 E0.01757
G1 X-9.239 Y0.811 E0.01401
G1 X-9.337 Y0.273 E0.01578
G1 X-9.337 Y-0.273 E0.01578
G1 X-9.239 Y-0.811 E0.01578
G1 X-9.047 Y-1.323 E0.01578
G1 X-8.767 Y-1.792 E0.01578
G1 X-8.407 Y-2.204 E0.01578
G1 X-7.980 Y-2.545 E0.01578
G1 X-7.498 Y-2.804 E0.01578
G1 X-6.980 Y-2.972 E0.01573
G1 X-6.376 Y-3.043 E0.01757
G1 X-5.891 Y-3.021 E0.01401
G1 X-5.358 Y-2.900 E0.01578 F2400.000
G1 X-4.855 Y-2.685 E0.01578
G1 X-4.399 Y-2.384 E0.01578
G1 X-4.004 Y-2.006 E0.01578
G1 X-3.683 Y-1.564 E0.01578
G1 X-3.445 Y-1.071 E0.01578
G1 X-3.300 Y-0.544 E0.01578
G1 X-3.251 Y-0.000 E0.01578
G1 X-3.300 Y0.544 E0.01578
G1 X-3.445 Y1.071 E0.01578
G1 X-3.543 Y1.275 E0.00651
G1 X-3.830 Y1.348 F15000.000
G1 X-4.337 Y1.404 F15000.000
G1 X-4.919 Y1.985 E0.02437 F2400.000
G1 X-3.877 Y0.424 F15000.000
G1 X-5.870 Y2.418 E0.08354 F2400.000
G1 X-6.448 Y2.478 E0.01721
G1 X-3.825 Y-0.146 E0.10993
G1 X-3.884 Y-0.604 E0.01371
G1 X-6.910 Y2.421 E0.12679
G1 X-7.302 Y2.294 E0.01219
G1 X-4.009 Y-0.998 E0.13797
G1 X-4.183 Y-1.343 E0.01143
G1 X-7.641 Y2.116 E0.14492
G1 X-7.934 Y1.890 E0.01095
G1 X-4.413 Y-1.631 E0.14755
G1 X-4.672 Y-1.890 E0.01086
G1 X-8.194 Y1.631 E0.14755
G1 X-8.412 Y1.331 E0.01100
G1 X-4.965 Y-2.116 E0.14442
G1 X-5.309 Y-2.290 E0.01143
G1 X-8.591 Y0.992 E0.13754
G1 X-8.716 Y0.598 E0.01223
G1 X-5.703 Y-2.415 E0.12625
G1 X-6.165 Y-2.472 E0.01378
G1 X-8.772 Y0.136 E0.10925
G1 X-8.718 Y-0.437 E0.01703
G1 X-6.732 Y-2.423 E0.08324
G1 X-7.747 Y-1.926 F15000.000
G1 X-8.235 Y-1.439 E0.02044 F2400.000
G1 E-3.50000 F1500.00000
G1 Z0.900 F15000.000
G1 X5.923 Y-2.650 F15000.000
G1 Z0.500 F15000.000
G1 E3.50000 F1500.00000
G1 X6.224 Y-2.685 E0.00876 F2400.000
G1 X6.648 Y-2.666 E0.01224
G1 X7.118 Y-2.559 E0.01392 F2400.000
G1 X7.562 Y-2.369 E0.01392
G1 X7.964 Y-2.103 E0.01392
G1 X8.313 Y-1.770 E0.01392
G1 X8.596 Y-1.380 E0.01392
G1 X8.806 Y-0.945 E0.01392
G1 X8.934 Y-0.480 E0.01392
G1 X8.977 Y-0.000 E0.01392
G1 X8.934 Y0.480 E0.01392
G1 X8.806 Y0.945 E0.01392
G1 X8.596 Y1.380 E0.01392
G1 X8.313 Y1.770 E0.01392
G1 X7.964 Y2.103 E0.01392
G1 X7.562 Y2.369 E0.01392
G1 X7.118 Y2.559 E0.01392
G1 X6.648 Y2.666 E0.01392
G1 X6.166 Y2.688 E0.01392
G1 X5.688 Y2.623 E0.01392
G1 X5.229 Y2.474 E0.01392
G1 X4.805 Y2.245 E0.01392
G1 X4.427 Y1.945 E0.01392
G1 X4.113 Y1.585 E0.01378
G1 X3.842 Y1.113 E0.01572
G1 X3.693 Y0.716 E0.01224
G1 X3.607 Y0.241 E0.01392
G1 X3.607 Y-0.241 E0.01392
G1 X3.693 Y-0.716 E0.01392
G1 X3.863 Y-1.167 E0.01392
G1 X4.110 Y-1.581 E0.01392
G1 X4.427 Y-1.945 E0.01392
G1 X4.805 Y-2.245 E0.01392
G1 X5.229 Y-2.474 E0.01392
G1 X5.683 Y-2.621 E0.01378
G1 X5.863 Y-2.643 E0.00523
G1 X5.822 Y-2.997 F15000.000
G1 X6.211 Y-3.043 E0.01132 F2400.000
G1 X6.696 Y-3.021 E0.01401
G1 X7.229 Y-2.900 E0.01578 F2400.000
G1 X7.732 Y-2.685 E0.01578
G1 X8.188 Y-2.384 E0.01578
G1 X8.583 Y-2.006 E0.01578
G1 X8.904 Y-1.564 E0.01578
G1 X9.141 Y-1.071 E0.01578
G1 X9.287 Y-0.544 E0.01578
G1 X9.336 Y-0.000 E0.01578
G1 X9.287 Y0.544 E0.01578
G1 X9.141 Y1.071 E0.01578
G1 X8.904 Y1.564 E0.01578
G1 X8.583 Y2.006 E0.01578
G1 X8.188 Y2.384 E0.01578
G1 X7.732 Y2.685 E0.01578
G1 X7.229 Y2.900 E0.01578
G1 X6.696 Y3.021 E0.01578
G1 X6.150 Y3.046 E0.01578
G1 X5.608 Y2.973 E0.01578
G1 X5.088 Y2.804 E0.01578
G1 X4.607 Y2.545 E0.01578
G1 X4.180 Y2.204 E0.01578
G1 X3.821 Y1.793 E0.01573
G1 X3.518 Y1.265 E0.01757
G1 X3.348 Y0.811 E0.01401
G1 X3.250 Y0.273 E0.01578
G1 X3.250 Y-0.273 E0.01578
G1 X3.348 Y-0.811 E0.01578
G1 X3.540 Y-1.323 E0.01578
G1 X3.820 Y-1.792 E0.01578
G1 X4.180 Y-2.204 E0.01578
G1 X4.607 Y-2.545 E0.01578
G1 X5.088 Y-2.804 E0.01578
G1 X5.607 Y-2.972 E0.01573
G1 X5.762 Y-2.990 E0.00452
G1 X6.056 Y-2.683 F15000.000
G1 X5.855 Y-2.423 F15000.000
G1 X3.869 Y-0.437 E0.08324 F2400.000
G1 X3.815 Y0.136 E0.01703
G1 X6.422 Y-2.472 E0.10925
G1 X6.883 Y-2.415 E0.01378
G1 X3.871 Y0.598 E0.12625
G1 X3.995 Y0.992 E0.01223
G1 X7.278 Y-2.290 E0.13754
G1 X7.621 Y-2.116 E0.01143
G1 X4.175 Y1.331 E0.14442
G1 X4.393 Y1.631 E0.01100
G1 X7.914 Y-1.890 E0.14755
G1 X8.174 Y-1.631 E0.01086
G1 X4.652 Y1.890 E0.14755
G1 X4.945 Y2.116 E0.01095
G1 X8.404 Y-1.343 E0.14492
G1 X8.578 Y-0.998 E0.01143
G1 X5.285 Y2.294 E0.13797
G1 X5.676 Y2.421 E0.01219
G1 X8.702 Y-0.604 E0.12679
G1 X8.762 Y-0.146 E0.01371
G1 X6.139 Y2.478 E0.10993
G1 X6.716 Y2.418 E0.01721
G1 X8.710 Y0.424 E0.08354
G1 X8.249 Y1.404 F15000.000
G1 X7.668 Y1.985 E0.02437 F2400.000
G1 X4.352 Y-1.439 F15000.000
G1 X4.840 Y-1.926 E0.02044 F2400.000
G1 E-3.50000 F1500.00000
G1 Z0.900 F15000.000
G1 X-3.700 Y-0.652 F15000.000
G1 Z0.700 F15000.000
G1 E3.50000 F1500.00000
G1 X-3.653 Y-0.480 E0.00514 F2400.000
G1 X-3.610 Y-0.000 E0.01392
G1 X-3.653 Y0.480 E0.01392
G1 X-3.781 Y0.945 E0.01392
G1 X-3.990 Y1.380 E0.01392
G1 X-4.274 Y1.770 E0.01392
G1 X-4.623 Y2.103 E0.01392
G1 X-5.025 Y2.369 E0.01392
G1 X-5.469 Y2.559 E0.01392
G1 X-5.939 Y2.666 E0.01392
G1 X-6.421 Y2.688 E0.01392
G1 X-6.899 Y2.623 E0.01392
G1 X-7.357 Y2.474 E0.01392
G1 X-7.782 Y2.245 E0.01392
G1 X-8.159 Y1.945 E0.01392
G1 X-8.477 Y1.581 E0.01392
G1 X-8.740 Y1.124 E0.01525
G1 X-8.894 Y0.716 E0.01257
G1 X-8.980 Y0.241 E0.01392
G1 X-8.980 Y-0.241 E0.01392
G1 X-8.894 Y-0.716 E0.01392
G1 X-8.724 Y-1.167 E0.01392
G1 X-8.477 Y-1.581 E0.01392
G1 X-8.159 Y-1.945 E0.01392
G1 X-7.782 Y-2.245 E0.01392
G1 X-7.357 Y-2.474 E0.01392
G1 X-6.899 Y-2.623 E0.01392
G1 X-6.374 Y-2.686 E0.01525
G1 X-5.939 Y-2.666 E0.01257 F2400.000
G1 X-5.469 Y-2.559 E0.01392
G1 X-5.025 Y-2.369 E0.01392
G1 X-4.623 Y-2.103 E0.01392
G1 X-4.274 Y-1.770 E0.01392
G1 X-3.990 Y-1.380 E0.01392
G1 X-3.781 Y-0.945 E0.01392
G1 X-3.716 Y-0.710 E0.00705
G1 X-3.372 Y-0.805 F15000.000
G1 X-3.300 Y-0.544 E0.00780 F2400.000
G1 X-3.251 Y-0.000 E0.01578
G1 X-3.300 Y0.544 E0.01578
G1 X-3.445 Y1.071 E0.01578
G1 X-3.683 Y1.564 E0.01578
G1 X-4.004 Y2.006 E0.01578
G1 X-4.399 Y2.384 E0.01578
G1 X-4.855 Y2.685 E0.01578
G1 X-5.358 Y2.900 E0.01578
G1 X-5.891 Y3.021 E0.01578
G1 X-6.437 Y3.046 E0.01578
G1 X-6.978 Y2.973 E0.01578
G1 X-7.498 Y2.804 E0.01578
G1 X-7.980 Y2.545 E0.01578
G1 X-8.407 Y2.204 E0.01578
G1 X-8.767 Y1.792 E0.01578
G1 X-9.047 Y1.323 E0.01578
G1 X-9.239 Y0.811 E0.01578
G1 X-9.337 Y0.273 E0.01578
G1 X-9.337 Y-0.273 E0.01578
G1 X-9.239 Y-0.811 E0.01578
G1 X-9.047 Y-1.323 E0.01578
G1 X-8.767 Y-1.792 E0.01578
G1 X-8.407 Y-2.204 E0.01578
G1 X-7.980 Y-2.545 E0.01578
G1 X-7.498 Y-2.804 E0.01578
G1 X-6.978 Y-2.973 E0.01578
G1 X-6.358 Y-3.042 E0.01802
G1 X-5.891 Y-3.021 E0.01350 F2400.000
G1 X-5.358 Y-2.900 E0.01578
G1 X-4.855 Y-2.685 E0.01578
G1 X-4.399 Y-2.384 E0.01578
G1 X-4.004 Y-2.006 E0.01578
G1 X-3.683 Y-1.564 E0.01578
G1 X-3.445 Y-1.071 E0.01578
G1 X-3.388 Y-0.863 E0.00624
G1 X-3.562 Y-0.612 F15000.000
G1 X-3.898 Y0.655 F15000.000
G1 X-6.959 Y-2.406 E0.12492 F2400.000
G1 X-8.772 Y-0.150 E0.08352
G1 X-4.201 Y1.367 E0.13901
G1 X-7.484 Y2.119 E0.09722
G1 X-8.407 Y1.196 E0.03768
G1 E-3.50000 F1500.00000
G1 Z1.100 F15000.000
G1 X8.893 Y-0.628 F15000.000
G1 Z0.700 F15000.000
G1 E3.50000 F1500.00000
G1 X8.934 Y-0.480 E0.00442 F2400.000
