; generated by Slic3r 1.2.9 on 2019-04-16 at 17:26:53

; external perimeters extrusion width = 0.40mm
; perimeters extrusion width = 0.40mm
; infill extrusion width = 0.40mm
; solid infill extrusion width = 0.40mm
; top infill extrusion width = 0.40mm

M107
M83
T0
M116
G21 ; set units to millimeters
G90 ; use absolute coordinates
M83 ; use relative distances for extrusion
G1 E-3.50000 F1500.00000
G1 Z0.400 F15000.000
G1 X-2.957 Y1.996 F15000.000
G1 Z0.300 F15000.000
G1 E3.50000 F1500.00000
G1 X-21.915 Y-26.084 E2.61107 F960.000
G1 X-22.510 Y-27.670 E0.13052
G1 X-22.321 Y-29.353 E0.13052
G1 X-21.391 Y-30.769 E0.13052
G1 X-19.920 Y-31.609 E0.13052
G1 X-18.902 Y-31.754 E0.07929
G1 X18.950 Y-31.754 E2.91707
G1 X20.597 Y-31.360 E0.13052
G1 X21.887 Y-30.262 E0.13052 F960.000
G1 X22.586 Y-28.119 E0.17373
G1 X22.586 Y27.949 E4.32085
G1 X22.191 Y29.596 E0.13052
G1 X21.093 Y30.885 E0.13052
G1 X19.530 Y31.538 E0.13052
G1 X17.841 Y31.411 E0.13052
G1 X15.937 Y29.983 E0.18346
G1 X-2.924 Y2.046 E2.59766
G1 E-3.50000 F1500.00000
G1 Z0.700 F15000.000
G1 X0.805 Y-27.133 F15000.000
G1 Z0.300 F15000.000
G1 E3.50000 F1500.00000
G1 X17.964 Y-27.133 E1.32237 F720.000
G1 X17.964 Y22.922 E3.85751
G1 X17.667 Y22.989 E0.02346 F720.000
G1 X15.436 Y18.330 E0.39817
G1 X14.580 Y16.675 E0.14357
G1 X13.618 Y15.061 E0.14478
G1 X12.569 Y13.521 E0.14357
G1 X-16.967 Y-27.133 E3.87264
G1 X0.745 Y-27.133 E1.36505
G1 X0.745 Y-27.769 F15000.000
G1 X18.600 Y-27.769 E1.37598 F720.000
G1 X18.600 Y25.720 E4.12215
G1 X18.303 Y25.788 E0.02346 F720.000
G1 X14.866 Y18.613 E0.61309
G1 X14.024 Y16.983 E0.14135
G1 X13.082 Y15.403 E0.14182
G1 X12.050 Y13.887 E0.14135
G1 X-18.215 Y-27.769 E3.96803
G1 X0.685 Y-27.769 E1.45656
G1 X0.945 Y-27.422 F15000.000
G1 X-10.664 Y-19.292 F15000.000
G1 X17.579 Y8.951 E3.10732 F960.000
G1 X17.579 Y9.859 E0.07059
G1 X-8.253 Y-15.974 E2.84208
G1 X-5.843 Y-12.655 F15000.000
G1 X17.579 Y10.766 E2.57683 F960.000
G1 X17.579 Y11.674 E0.07059
G1 X-3.432 Y-9.337 E2.31158
G1 X-1.021 Y-6.019 F15000.000
G1 X17.579 Y12.581 E2.04634 F960.000
G1 X17.579 Y13.489 E0.07059
G1 X1.390 Y-2.700 E1.78109
G1 X3.801 Y0.618 F15000.000
G1 X17.579 Y14.396 E1.51584 F960.000
G1 X17.579 Y15.303 E0.07059
G1 X6.212 Y3.936 E1.25060
G1 X8.623 Y7.255 F15000.000
G1 X17.579 Y16.211 E0.98535 F960.000
G1 X17.579 Y17.118 E0.07059
G1 X11.034 Y10.573 E0.72010
G1 X13.330 Y13.777 F15000.000
G1 X17.579 Y18.026 E0.46743 F960.000
G1 X17.579 Y18.933 E0.07059
G1 X14.853 Y16.207 E0.29995
G1 X15.826 Y18.088 F15000.000
G1 X17.579 Y19.840 E0.19282 F960.000
G1 X16.989 Y20.158 E0.05210
G1 X16.661 Y19.830 E0.03618
G1 X17.579 Y-26.438 F15000.000
G1 X17.269 Y-26.748 E0.03407 F960.000
G1 X16.362 Y-26.748 E0.07059
G1 X17.579 Y-25.531 E0.13390
G1 X17.579 Y-24.623 E0.07059
G1 X15.454 Y-26.748 E0.23374
G1 X14.547 Y-26.748 E0.07059
G1 X17.579 Y-23.716 E0.33357
G1 X17.579 Y-22.808 E0.07059
G1 X13.640 Y-26.748 E0.43341
G1 X12.732 Y-26.748 E0.07059
G1 X17.579 Y-21.901 E0.53324
G1 X17.579 Y-20.993 E0.07059
G1 X11.825 Y-26.748 E0.63308
G1 X10.917 Y-26.748 E0.07059
G1 X17.579 Y-20.086 E0.73291
G1 X17.579 Y-19.179 E0.07059
G1 X10.010 Y-26.748 E0.83274
G1 X9.103 Y-26.748 E0.07059
G1 X17.579 Y-18.271 E0.93258
G1 X17.579 Y-17.364 E0.07059
G1 X8.195 Y-26.748 E1.03241
G1 X7.288 Y-26.748 E0.07059
G1 X17.579 Y-16.456 E1.13225
G1 X17.579 Y-15.549 E0.07059
G1 X6.380 Y-26.748 E1.23208
G1 X5.473 Y-26.748 E0.07059
G1 X17.579 Y-14.641 E1.33191
G1 X17.579 Y-13.734 E0.07059
G1 X4.565 Y-26.748 E1.43175
G1 X3.658 Y-26.748 E0.07059
G1 X17.579 Y-12.827 E1.53158
G1 X17.579 Y-11.919 E0.07059
G1 X2.751 Y-26.748 E1.63142
G1 X1.843 Y-26.748 E0.07059
G1 X17.579 Y-11.012 E1.73125
G1 X17.579 Y-10.104 E0.07059
G1 X0.936 Y-26.748 E1.83109
G1 X0.028 Y-26.748 E0.07059
G1 X17.579 Y-9.197 E1.93092
G1 X17.579 Y-8.290 E0.07059
G1 X-0.879 Y-26.748 E2.03075
G1 X-1.787 Y-26.748 E0.07059
G1 X17.579 Y-7.382 E2.13059
G1 X17.579 Y-6.475 E0.07059
G1 X-2.694 Y-26.748 E2.23042
G1 X-3.601 Y-26.748 E0.07059
G1 X17.579 Y-5.567 E2.33026
G1 X17.579 Y-4.660 E0.07059
G1 X-4.509 Y-26.748 E2.43009
G1 X-5.416 Y-26.748 E0.07059
G1 X17.579 Y-3.752 E2.52993
G1 X17.579 Y-2.845 E0.07059
G1 X-6.324 Y-26.748 E2.62976
G1 X-7.231 Y-26.748 E0.07059
G1 X17.579 Y-1.938 E2.72959
G1 X17.579 Y-1.030 E0.07059
G1 X-8.138 Y-26.748 E2.82943
G1 X-9.046 Y-26.748 E0.07059
G1 X17.579 Y-0.123 E2.92926
G1 X17.579 Y0.785 E0.07059
G1 X-9.953 Y-26.748 E3.02910
G1 X-10.861 Y-26.748 E0.07059
G1 X17.579 Y1.692 E3.12893
G1 X17.579 Y2.599 E0.07059
G1 X-11.768 Y-26.748 E3.22876
G1 X-12.676 Y-26.748 E0.07059
G1 X17.579 Y3.507 E3.32860
G1 X17.579 Y4.414 E0.07059
G1 X-13.583 Y-26.748 E3.42843
G1 X-14.490 Y-26.748 E0.07059
G1 X17.579 Y5.322 E3.52827
G1 X17.579 Y6.229 E0.07059
G1 X-15.398 Y-26.748 E3.62810
G1 X-15.486 Y-25.929 E0.06409
G1 X17.579 Y7.137 E3.63782
G1 X17.579 Y8.044 E0.07059
G1 X-13.075 Y-22.610 E3.37257
G1 X17.251 Y20.467 F15000.000
G1 X17.630 Y22.138 E0.13205 F960.000
G1 X17.886 Y23.266 F15000.000
G1 X18.266 Y24.936 E0.13205 F960.000
G1 E-3.50000 F1500.00000
G1 Z0.700 F15000.000
G1 X-2.794 Y-6.896 F15000.000
G1 Z0.500 F15000.000
G1 E3.50000 F1500.00000
G1 X-17.809 Y-27.562 E0.73727 F3600.000
G1 X18.393 Y-27.562 E1.04487
G1 X18.393 Y25.110 E1.52024
G1 X18.226 Y25.148 E0.00494 F3600.000
G1 X15.052 Y18.521 E0.21209
G1 X14.206 Y16.883 E0.05321
G1 X13.257 Y15.291 E0.05348
G1 X12.219 Y13.768 E0.05321
G1 X-2.759 Y-6.848 E0.73548
G1 X-3.048 Y-6.638 F15000.000
G1 X-18.509 Y-27.919 E0.75923 F3600.000
G1 X18.750 Y-27.919 E1.07540
G1 X18.750 Y26.682 E1.57592
G1 X18.583 Y26.720 E0.00494 F3600.000
G1 X14.732 Y18.680 E0.25730
G1 X13.893 Y17.056 E0.05274
G1 X12.956 Y15.483 E0.05285
G1 X11.927 Y13.973 E0.05274
G1 X-3.013 Y-6.589 E0.73359
G1 X-2.885 Y-7.003 F15000.000
G1 X-17.090 Y-26.875 F15000.000
G1 X-16.612 Y-27.354 E0.01956 F4800.000
G1 X-16.106 Y-27.354 E0.01461
G1 X-16.877 Y-26.582 E0.03153
G1 X-16.665 Y-26.290 E0.01046
G1 X-15.600 Y-27.354 E0.04350
G1 X-15.095 Y-27.354 E0.01461
G1 X-16.452 Y-25.997 E0.05547
G1 X-16.239 Y-25.704 E0.01046
G1 X-14.589 Y-27.354 E0.06744
G1 X-14.083 Y-27.354 E0.01461
G1 X-16.026 Y-25.411 E0.07941
G1 X-15.814 Y-25.118 E0.01046
G1 X-13.578 Y-27.354 E0.09138
G1 X-13.072 Y-27.354 E0.01461
G1 X-15.601 Y-24.825 E0.10335
G1 X-15.388 Y-24.532 E0.01046
G1 X-12.567 Y-27.354 E0.11531
G1 X-12.061 Y-27.354 E0.01461
G1 X-15.175 Y-24.240 E0.12728
G1 X-14.962 Y-23.947 E0.01046
G1 X-11.555 Y-27.354 E0.13925
G1 X-11.050 Y-27.354 E0.01461
G1 X-14.750 Y-23.654 E0.15122
G1 X-14.537 Y-23.361 E0.01046
G1 X-10.544 Y-27.354 E0.16319
G1 X-10.038 Y-27.354 E0.01461
G1 X-14.324 Y-23.068 E0.17516
G1 X-14.111 Y-22.775 E0.01046
G1 X-9.533 Y-27.354 E0.18713
G1 X-9.027 Y-27.354 E0.01461
G1 X-13.899 Y-22.482 E0.19910
G1 X-13.686 Y-22.189 E0.01046
G1 X-8.522 Y-27.354 E0.21107
G1 X-8.016 Y-27.354 E0.01461
G1 X-13.473 Y-21.897 E0.22304
G1 X-13.260 Y-21.604 E0.01046
G1 X-7.510 Y-27.354 E0.23501
G1 X-7.005 Y-27.354 E0.01461
G1 X-13.048 Y-21.311 E0.24698
G1 X-12.835 Y-21.018 E0.01046
G1 X-6.499 Y-27.354 E0.25895
G1 X-5.993 Y-27.354 E0.01461
G1 X-12.622 Y-20.725 E0.27092
G1 X-12.409 Y-20.432 E0.01046
G1 X-5.488 Y-27.354 E0.28288
G1 X-4.982 Y-27.354 E0.01461
G1 X-12.196 Y-20.139 E0.29485
G1 X-11.984 Y-19.847 E0.01046
G1 X-4.476 Y-27.354 E0.30682
G1 X-3.971 Y-27.354 E0.01461
G1 X-11.771 Y-19.554 E0.31879
G1 X-11.558 Y-19.261 E0.01046
G1 X-3.465 Y-27.354 E0.33076
G1 X-2.960 Y-27.354 E0.01461
G1 X-11.345 Y-18.968 E0.34273
G1 X-11.133 Y-18.675 E0.01046
G1 X-2.454 Y-27.354 E0.35470
G1 X-1.948 Y-27.354 E0.01461
G1 X-10.920 Y-18.382 E0.36667
G1 X-10.707 Y-18.089 E0.01046
G1 X-1.443 Y-27.354 E0.37864
G1 X-0.937 Y-27.354 E0.01461
G1 X-10.494 Y-17.797 E0.39061
G1 X-10.281 Y-17.504 E0.01046
G1 X-0.431 Y-27.354 E0.40258
G1 X0.074 Y-27.354 E0.01461
G1 X-10.069 Y-17.211 E0.41455
G1 X-9.856 Y-16.918 E0.01046
G1 X0.580 Y-27.354 E0.42652
G1 X1.086 Y-27.354 E0.01461
G1 X-9.643 Y-16.625 E0.43849
G1 X-9.430 Y-16.332 E0.01046
G1 X1.591 Y-27.354 E0.45045
G1 X2.097 Y-27.354 E0.01461
G1 X-9.218 Y-16.039 E0.46242
G1 X-9.005 Y-15.747 E0.01046
G1 X2.602 Y-27.354 E0.47439
G1 X3.108 Y-27.354 E0.01461
G1 X-8.792 Y-15.454 E0.48636
G1 X-8.579 Y-15.161 E0.01046
G1 X3.614 Y-27.354 E0.49833
G1 X4.119 Y-27.354 E0.01461
G1 X-8.366 Y-14.868 E0.51030
G1 X-8.154 Y-14.575 E0.01046
G1 X4.625 Y-27.354 E0.52227
G1 X5.131 Y-27.354 E0.01461
G1 X-7.941 Y-14.282 E0.53424
G1 X-7.728 Y-13.989 E0.01046
G1 X5.636 Y-27.354 E0.54621
G1 X6.142 Y-27.354 E0.01461
G1 X-7.515 Y-13.697 E0.55818
G1 X-7.303 Y-13.404 E0.01046
G1 X6.648 Y-27.354 E0.57015
G1 X7.153 Y-27.354 E0.01461
G1 X-7.090 Y-13.111 E0.58212
G1 X-6.877 Y-12.818 E0.01046
G1 X7.659 Y-27.354 E0.59409
G1 X8.164 Y-27.354 E0.01461
G1 X-6.664 Y-12.525 E0.60606
G1 X-6.451 Y-12.232 E0.01046
G1 X8.670 Y-27.354 E0.61802
G1 X9.176 Y-27.354 E0.01461
G1 X-6.239 Y-11.939 E0.62999
G1 X-6.026 Y-11.647 E0.01046
G1 X9.681 Y-27.354 E0.64196
G1 X10.187 Y-27.354 E0.01461
G1 X-5.813 Y-11.354 E0.65393
G1 X-5.600 Y-11.061 E0.01046
G1 X10.693 Y-27.354 E0.66590
G1 X11.198 Y-27.354 E0.01461
G1 X-5.388 Y-10.768 E0.67787
G1 X-5.175 Y-10.475 E0.01046
G1 X11.704 Y-27.354 E0.68984
G1 X12.210 Y-27.354 E0.01461
G1 X-4.962 Y-10.182 E0.70181
G1 X-4.749 Y-9.889 E0.01046
G1 X12.715 Y-27.354 E0.71378
G1 X13.221 Y-27.354 E0.01461
G1 X-4.537 Y-9.597 E0.72575
G1 X-4.324 Y-9.304 E0.01046
G1 X13.726 Y-27.354 E0.73772
G1 X14.232 Y-27.354 E0.01461
G1 X-4.111 Y-9.011 E0.74969
G1 X-3.898 Y-8.718 E0.01046
G1 X14.738 Y-27.354 E0.76166
G1 X15.243 Y-27.354 E0.01461
G1 X-3.685 Y-8.425 E0.77363
G1 X-3.473 Y-8.132 E0.01046
G1 X15.749 Y-27.354 E0.78559
G1 X16.255 Y-27.354 E0.01461
G1 X-3.260 Y-7.839 E0.79756
G1 X-3.047 Y-7.546 E0.01046
G1 X16.760 Y-27.354 E0.80953
G1 X17.266 Y-27.354 E0.01461
G1 X-2.834 Y-7.254 E0.82150
G1 X-2.622 Y-6.961 E0.01046
G1 X17.772 Y-27.354 E0.83347
G1 X18.185 Y-27.262 E0.01225
G1 X-2.409 Y-6.668 E0.84168
G1 X-2.196 Y-6.375 E0.01046
G1 X18.185 Y-26.756 E0.83299
G1 X18.185 Y-26.251 E0.01461
G1 X-1.983 Y-6.082 E0.82429
G1 X-1.770 Y-5.789 E0.01046
G1 X18.185 Y-25.745 E0.81559
G1 X18.185 Y-25.239 E0.01461
G1 X-1.558 Y-5.496 E0.80690
G1 X-1.345 Y-5.204 E0.01046
G1 X18.185 Y-24.734 E0.79820
G1 X18.185 Y-24.228 E0.01461
G1 X-1.132 Y-4.911 E0.78950
G1 X-0.919 Y-4.618 E0.01046
G1 X18.185 Y-23.722 E0.78081
G1 X18.185 Y-23.217 E0.01461
G1 X-0.707 Y-4.325 E0.77211
G1 X-0.494 Y-4.032 E0.01046
G1 X18.185 Y-22.711 E0.76342
G1 X18.185 Y-22.206 E0.01461
G1 X-0.281 Y-3.739 E0.75472
G1 X-0.068 Y-3.446 E0.01046
G1 X18.185 Y-21.700 E0.74602
G1 X18.185 Y-21.194 E0.01461
G1 X0.145 Y-3.154 E0.73733
G1 X0.357 Y-2.861 E0.01046
G1 X18.185 Y-20.689 E0.72863
G1 X18.185 Y-20.183 E0.01461
G1 X0.570 Y-2.568 E0.71994
G1 X0.783 Y-2.275 E0.01046
G1 X18.185 Y-19.677 E0.71124
G1 X18.185 Y-19.172 E0.01461
G1 X0.996 Y-1.982 E0.70254
G1 X1.208 Y-1.689 E0.01046
G1 X18.185 Y-18.666 E0.69385
G1 X18.185 Y-18.160 E0.01461
G1 X1.421 Y-1.396 E0.68515
G1 X1.634 Y-1.104 E0.01046
G1 X18.185 Y-17.655 E0.67645
G1 X18.185 Y-17.149 E0.01461
G1 X1.847 Y-0.811 E0.66776
G1 X2.060 Y-0.518 E0.01046
G1 X18.185 Y-16.644 E0.65906
G1 X18.185 Y-16.138 E0.01461
G1 X2.272 Y-0.225 E0.65037
G1 X2.485 Y0.068 E0.01046
G1 X18.185 Y-15.632 E0.64167
G1 X18.185 Y-15.127 E0.01461
G1 X2.698 Y0.361 E0.63297
G1 X2.911 Y0.654 E0.01046
G1 X18.185 Y-14.621 E0.62428
G1 X18.185 Y-14.115 E0.01461
G1 X3.123 Y0.946 E0.61558
G1 X3.336 Y1.239 E0.01046
G1 X18.185 Y-13.610 E0.60688
G1 X18.185 Y-13.104 E0.01461
G1 X3.549 Y1.532 E0.59819
G1 X3.762 Y1.825 E0.01046
G1 X18.185 Y-12.598 E0.58949
G1 X18.185 Y-12.093 E0.01461
G1 X3.974 Y2.118 E0.58080
G1 X4.187 Y2.411 E0.01046
G1 X18.185 Y-11.587 E0.57210
G1 X18.185 Y-11.082 E0.01461
G1 X4.400 Y2.704 E0.56340
G1 X4.613 Y2.996 E0.01046
G1 X18.185 Y-10.576 E0.55471
G1 X18.185 Y-10.070 E0.01461
G1 X4.826 Y3.289 E0.54601
G1 X5.038 Y3.582 E0.01046
G1 X18.185 Y-9.565 E0.53731
G1 X18.185 Y-9.059 E0.01461
G1 X5.251 Y3.875 E0.52862
G1 X5.464 Y4.168 E0.01046
G1 X18.185 Y-8.553 E0.51992
G1 X18.185 Y-8.048 E0.01461
G1 X5.677 Y4.461 E0.51123
G1 X5.889 Y4.754 E0.01046
G1 X18.185 Y-7.542 E0.50253
G1 X18.185 Y-7.036 E0.01461
G1 X6.102 Y5.046 E0.49383
G1 X6.315 Y5.339 E0.01046
G1 X18.185 Y-6.531 E0.48514
G1 X18.185 Y-6.025 E0.01461
G1 X6.528 Y5.632 E0.47644
G1 X6.741 Y5.925 E0.01046
G1 X18.185 Y-5.520 E0.46775
G1 X18.185 Y-5.014 E0.01461
G1 X6.953 Y6.218 E0.45905
G1 X7.166 Y6.511 E0.01046
G1 X18.185 Y-4.508 E0.45035
G1 X18.185 Y-4.003 E0.01461
G1 X7.379 Y6.804 E0.44166
G1 X7.592 Y7.096 E0.01046
G1 X18.185 Y-3.497 E0.43296
G1 X18.185 Y-2.991 E0.01461
G1 X7.804 Y7.389 E0.42426
G1 X8.017 Y7.682 E0.01046
G1 X18.185 Y-2.486 E0.41557
G1 X18.185 Y-1.980 E0.01461
G1 X8.230 Y7.975 E0.40687
G1 X8.443 Y8.268 E0.01046
G1 X18.185 Y-1.474 E0.39818
G1 X18.185 Y-0.969 E0.01461
G1 X8.656 Y8.561 E0.38948
G1 X8.868 Y8.854 E0.01046
G1 X18.185 Y-0.463 E0.38078
G1 X18.185 Y0.042 E0.01461
G1 X9.081 Y9.147 E0.37209
G1 X9.294 Y9.439 E0.01046
G1 X18.185 Y0.548 E0.36339
G1 X18.185 Y1.054 E0.01461
G1 X9.507 Y9.732 E0.35469
G1 X9.719 Y10.025 E0.01046
G1 X18.185 Y1.559 E0.34600
G1 X18.185 Y2.065 E0.01461
G1 X9.932 Y10.318 E0.33730
G1 X10.145 Y10.611 E0.01046
G1 X18.185 Y2.571 E0.32861
G1 X18.185 Y3.076 E0.01461
G1 X10.358 Y10.904 E0.31991
G1 X10.571 Y11.197 E0.01046
G1 X18.185 Y3.582 E0.31121
G1 X18.185 Y4.088 E0.01461
G1 X10.783 Y11.489 E0.30252
G1 X10.996 Y11.782 E0.01046
G1 X18.185 Y4.593 E0.29382
G1 X18.185 Y5.099 E0.01461
G1 X11.209 Y12.075 E0.28513
G1 X11.422 Y12.368 E0.01046
G1 X18.185 Y5.604 E0.27643
G1 X18.185 Y6.110 E0.01461
G1 X11.634 Y12.661 E0.26773
G1 X11.847 Y12.954 E0.01046
G1 X18.185 Y6.616 E0.25904
G1 X18.185 Y7.121 E0.01461
G1 X12.060 Y13.247 E0.25034
G1 X12.273 Y13.539 E0.01046
G1 X18.185 Y7.627 E0.24164
G1 X18.185 Y8.133 E0.01461
G1 X12.481 Y13.836 E0.23312
G1 X12.686 Y14.137 E0.01052
G1 X18.185 Y8.638 E0.22474
G1 X18.185 Y9.144 E0.01461
G1 X12.891 Y14.438 E0.21637
G1 X13.096 Y14.739 E0.01052
G1 X18.185 Y9.649 E0.20799
G1 X18.185 Y10.155 E0.01461
G1 X13.301 Y15.039 E0.19962
G1 X13.499 Y15.347 E0.01057
G1 X18.185 Y10.661 E0.19152
G1 X18.185 Y11.166 E0.01461
G1 X13.688 Y15.664 E0.18380
G1 X13.877 Y15.980 E0.01066
G1 X18.185 Y11.672 E0.17608
G1 X18.185 Y12.178 E0.01461
G1 X14.066 Y16.297 E0.16837
G1 X14.254 Y16.614 E0.01066
G1 X18.185 Y12.683 E0.16065
G1 X18.185 Y13.189 E0.01461
G1 X14.438 Y16.937 E0.15317
G1 X14.610 Y17.270 E0.01084
G1 X18.185 Y13.695 E0.14613
G1 X18.185 Y14.200 E0.01461
G1 X14.782 Y17.603 E0.13909
G1 X14.954 Y17.937 E0.01084
G1 X18.185 Y14.706 E0.13204
G1 X18.185 Y15.211 E0.01461
G1 X15.127 Y18.270 E0.12500
G1 X15.295 Y18.607 E0.01089
G1 X18.185 Y15.717 E0.11810
G1 X18.185 Y16.223 E0.01461
G1 X15.459 Y18.949 E0.11141
G1 X15.623 Y19.291 E0.01096
G1 X18.185 Y16.728 E0.10472
G1 X18.185 Y17.234 E0.01461
G1 X15.787 Y19.632 E0.09802
G1 X15.950 Y19.974 E0.01096
G1 X18.185 Y17.740 E0.09133
G1 X18.185 Y18.245 E0.01461
G1 X16.114 Y20.316 E0.08464
G1 X16.278 Y20.658 E0.01096
G1 X18.185 Y18.751 E0.07795
G1 X18.185 Y19.257 E0.01461
G1 X16.442 Y21.000 E0.07125
G1 X16.606 Y21.342 E0.01096
G1 X18.185 Y19.762 E0.06456
G1 X18.185 Y20.268 E0.01461
G1 X16.769 Y21.684 E0.05787
G1 X16.933 Y22.026 E0.01096
G1 X18.185 Y20.773 E0.05118
G1 X18.185 Y21.279 E0.01461
G1 X17.097 Y22.367 E0.04448
G1 X17.261 Y22.709 E0.01096
G1 X18.185 Y21.785 E0.03779
G1 X18.185 Y22.290 E0.01461
G1 X17.424 Y23.051 E0.03110
G1 X17.588 Y23.393 E0.01096
G1 X18.185 Y22.796 E0.02440
G1 X18.185 Y23.302 E0.01461
G1 X17.987 Y23.500 E0.00809
G1 X17.992 Y23.731 F15000.000
G1 X18.205 Y24.669 E0.02776 F4800.000
G1 X18.349 Y25.303 F15000.000
G1 X18.562 Y26.241 E0.02776 F4800.000
G1 E-3.50000 F1500.00000
G1 Z0.900 F15000.000
G1 X-7.723 Y-13.680 F15000.000
G1 Z0.700 F15000.000
G1 E3.50000 F1500.00000
G1 X-17.809 Y-27.562 E0.49526 F2400.000
G1 X18.393 Y-27.562 E1.04487
G1 X18.393 Y25.110 E1.52024
G1 X18.226 Y25.148 E0.00494 F2400.000
G1 X15.052 Y18.521 E0.21208
G1 X14.206 Y16.883 E0.05321
G1 X13.257 Y15.291 E0.05348
G1 X12.219 Y13.768 E0.05321
G1 X-7.687 Y-13.631 E0.97748
G1 X-7.976 Y-13.421 F15000.000
G1 X-18.509 Y-27.919 E0.51722 F2400.000
G1 X18.750 Y-27.919 E1.07540
G1 X18.750 Y26.682 E1.57592
