; generated by Slic3r 1.3.0 on 2020-06-27 at 16:23:11

; external perimeters extrusion width = 0.40mm (4.28mm^3/s)
; perimeters extrusion width = 0.40mm (4.28mm^3/s)
; infill extrusion width = 0.40mm (5.71mm^3/s)
; solid infill extrusion width = 0.40mm (5.71mm^3/s)
; top infill extrusion width = 0.40mm (5.71mm^3/s)

M107
M83
T0
M116
; Filament gcode

G21 ; set units to millimeters
G90 ; use absolute coordinates
M83 ; use relative distances for extrusion
G1 E-3.50000 F300.00000
G1 Z0.300 F15000.000
G1 X-15.586 Y10.497 F15000.000
G1 E3.50000 F300.00000
G1 F960
G1 X-15.586 Y-15.450 E1.99963
G1 X-15.191 Y-17.097 E0.13052
G1 X-14.093 Y-18.387 E0.13052
G1 X-11.950 Y-19.086 E0.17373
G1 X11.950 Y-19.086 E1.84187
G1 X13.597 Y-18.691 E0.13052
G1 X14.887 Y-17.593 E0.13052
G1 X15.586 Y-15.450 E0.17373
G1 X15.586 Y10.497 E1.99963
G1 X15.563 Y10.904 E0.03142
G1 X15.438 Y12.008 E0.08564
G1 X15.257 Y12.802 E0.06274
G1 X14.891 Y13.848 E0.08542
G1 X14.538 Y14.582 E0.06274
G1 X13.948 Y15.520 E0.08542
G1 X13.441 Y16.157 E0.06274
G1 X12.657 Y16.941 E0.08542
G1 X12.020 Y17.448 E0.06274
G1 X11.082 Y18.038 E0.08542
G1 X10.348 Y18.391 E0.06274
G1 X9.302 Y18.757 E0.08542
G1 X8.508 Y18.938 E0.06274
G1 X7.404 Y19.063 E0.08564
G1 X6.997 Y19.086 E0.03142
G1 X-6.997 Y19.086 E1.07848
G1 X-7.404 Y19.063 E0.03142
G1 X-8.508 Y18.938 E0.08564
G1 X-9.302 Y18.757 E0.06274
G1 X-10.348 Y18.391 E0.08542
G1 X-11.082 Y18.038 E0.06274
G1 X-12.020 Y17.448 E0.08542
G1 X-12.657 Y16.941 E0.06274
G1 X-13.441 Y16.157 E0.08542
G1 X-13.948 Y15.520 E0.06274
G1 X-14.538 Y14.582 E0.08542
G1 X-14.891 Y13.848 E0.06274
G1 X-15.257 Y12.802 E0.08542
G1 X-15.438 Y12.008 E0.06274
G1 X-15.563 Y10.904 E0.08564
G1 X-15.582 Y10.557 E0.02679
G1 E-3.50000 F300.00000
G1 X-10.964 Y3.237 F15000.000
G1 E3.50000 F300.00000
G1 F720
G1 X-10.964 Y-8.189 E0.88056
G1 X-9.898 Y-7.932 E0.08452
G1 X-7.459 Y-7.447 E0.19163
G1 X-5.005 Y-7.060 E0.19146
G1 X-2.537 Y-6.770 E0.19156
G1 X-0.000 Y-6.573 E0.19605
G1 X2.544 Y-6.476 E0.19622
G1 X5.332 Y-6.486 E0.21484
G1 X7.132 Y-6.549 E0.13886
G1 X9.584 Y-6.715 E0.18935
G1 X10.964 Y-6.858 E0.10696
G1 X10.964 Y10.442 E1.33324
G1 X10.859 Y11.381 E0.07281
G1 X10.566 Y12.217 E0.06830
G1 X10.094 Y12.968 E0.06830
G1 X9.468 Y13.594 E0.06830
G1 X8.717 Y14.066 E0.06830
G1 X7.881 Y14.359 E0.06830
G1 X6.942 Y14.464 E0.07281
G1 X3.036 Y14.464 E0.30104
G1 X3.036 Y13.678 E0.06062
G1 X3.625 Y13.335 E0.05256
G1 X4.639 Y12.372 E0.10773
G1 X5.405 Y11.203 E0.10773
G1 X5.881 Y9.888 E0.10773
G1 X6.043 Y8.498 E0.10787
G1 X5.871 Y7.070 E0.11087
G1 X5.366 Y5.721 E0.11101
G1 X4.556 Y4.530 E0.11101
G1 X3.487 Y3.564 E0.11101
G1 X2.220 Y2.879 E0.11101
G1 X0.826 Y2.514 E0.11101
G1 X-0.614 Y2.488 E0.11101
G1 X-2.019 Y2.804 E0.11101
G1 X-3.310 Y3.444 E0.11101
G1 X-4.412 Y4.371 E0.11101
G1 X-5.264 Y5.533 E0.11101
G1 X-5.817 Y6.863 E0.11101
G1 X-6.039 Y8.286 E0.11101
G1 X-5.918 Y9.721 E0.11101
G1 X-5.461 Y11.087 E0.11101
G1 X-4.694 Y12.306 E0.11101
G1 X-3.659 Y13.309 E0.11101
G1 X-3.036 Y13.675 E0.05574
G1 X-3.036 Y14.464 E0.06080
G1 X-6.942 Y14.464 E0.30104
G1 X-7.881 Y14.359 E0.07281
G1 X-8.717 Y14.066 E0.06830
G1 X-9.468 Y13.594 E0.06830
G1 X-10.094 Y12.968 E0.06830
G1 X-10.566 Y12.217 E0.06830
G1 X-10.859 Y11.381 E0.06830
G1 X-10.964 Y10.442 E0.07281
G1 X-10.964 Y3.297 E0.55061
G1 X-11.600 Y3.297 F15000.000
G1 F720
G1 X-11.600 Y-8.996 E0.94739
G1 X-9.762 Y-8.553 E0.14574
G1 X-7.348 Y-8.073 E0.18966
G1 X-4.919 Y-7.689 E0.18952
G1 X-2.475 Y-7.403 E0.18962
G1 X0.036 Y-7.208 E0.19412
G1 X2.555 Y-7.111 E0.19423
G1 X5.319 Y-7.122 E0.21305
G1 X7.100 Y-7.184 E0.13730
G1 X9.530 Y-7.348 E0.18767
G1 X11.600 Y-7.563 E0.16042
G1 X11.600 Y10.478 E1.39033
G1 X11.482 Y11.523 E0.08108
G1 X11.142 Y12.495 E0.07934
G1 X10.594 Y13.366 E0.07934
G1 X9.866 Y14.094 E0.07934
G1 X8.995 Y14.642 E0.07934
G1 X8.023 Y14.982 E0.07934
G1 X6.978 Y15.100 E0.08108
G1 X3.022 Y15.100 E0.30480
G1 X2.867 Y15.082 E0.01205
G1 X2.741 Y15.038 E0.01031
G1 X2.627 Y14.967 E0.01031
G1 X2.533 Y14.873 E0.01031
G1 X2.462 Y14.759 E0.01031
G1 X2.418 Y14.633 E0.01031
G1 X2.400 Y14.478 E0.01205
G1 X2.400 Y13.312 E0.08979
G1 X3.241 Y12.823 E0.07501
G1 X4.148 Y11.962 E0.09632
G1 X4.832 Y10.916 E0.09632
G1 X5.258 Y9.741 E0.09632
G1 X5.403 Y8.499 E0.09637
G1 X5.249 Y7.221 E0.09920
G1 X4.798 Y6.015 E0.09925
G1 X4.073 Y4.950 E0.09925
G1 X3.117 Y4.087 E0.09925
G1 X1.984 Y3.475 E0.09925
G1 X0.739 Y3.148 E0.09925
G1 X-0.549 Y3.125 E0.09925
G1 X-1.805 Y3.408 E0.09925
G1 X-2.959 Y3.980 E0.09925
G1 X-3.945 Y4.808 E0.09925
G1 X-4.707 Y5.847 E0.09925
G1 X-5.201 Y7.036 E0.09925
G1 X-5.399 Y8.309 E0.09925
G1 X-5.291 Y9.592 E0.09925
G1 X-4.883 Y10.813 E0.09925
G1 X-4.196 Y11.903 E0.09925
G1 X-3.272 Y12.800 E0.09925
G1 X-2.400 Y13.312 E0.07790
G1 X-2.400 Y14.478 E0.08986
G1 X-2.418 Y14.633 E0.01205
G1 X-2.462 Y14.759 E0.01031
G1 X-2.533 Y14.873 E0.01031
G1 X-2.627 Y14.967 E0.01031
G1 X-2.741 Y15.038 E0.01031
G1 X-2.867 Y15.082 E0.01031
G1 X-3.022 Y15.100 E0.01205
G1 X-6.978 Y15.100 E0.30480
G1 X-8.023 Y14.982 E0.08108
G1 X-8.995 Y14.642 E0.07934
G1 X-9.866 Y14.094 E0.07934
G1 X-10.594 Y13.366 E0.07934
G1 X-11.142 Y12.495 E0.07934
G1 X-11.482 Y11.523 E0.07934
G1 X-11.600 Y10.478 E0.08108
G1 X-11.600 Y3.357 E0.54874
G1 X-11.255 Y3.095 F15000.000
G1 E-3.50000 F300.00000
G1 X-10.396 Y9.904 F15000.000
G1 E3.50000 F300.00000
G1 F960
G1 X-10.396 Y10.474 E0.04427
G1 X-10.362 Y10.776 E0.02364
G1 X-6.395 Y6.809 E0.43588
G1 X-6.563 Y7.883 E0.08444
G1 X-10.220 Y11.540 E0.40188
G1 X-10.057 Y12.007 E0.03842
G1 X-9.950 Y12.177 E0.01556
G1 X-6.562 Y8.788 E0.37233
G1 X-6.491 Y9.624 E0.06517
G1 X-9.583 Y12.715 E0.33967
G1 X-9.128 Y13.167 E0.04979
G1 X-6.294 Y10.333 E0.31140
G1 X-6.067 Y11.012 E0.05563
G1 X-8.572 Y13.516 E0.27522
G1 X-8.507 Y13.557 E0.00592
G1 X-7.914 Y13.765 E0.04885
G1 X-5.768 Y11.619 E0.23577
G1 X-5.418 Y12.175 E0.05105
G1 X-7.122 Y13.879 E0.18728
G1 X-6.974 Y13.896 E0.01162
G1 X-6.233 Y13.896 E0.05756
G1 X-5.050 Y12.713 E0.12995
G1 X-4.590 Y13.160 E0.04979
G1 X-5.326 Y13.896 E0.08094
G1 E-3.50000 F300.00000
G1 X9.001 Y13.162 F15000.000
G1 E3.50000 F300.00000
G1 F960
G1 X9.662 Y12.501 E0.07261
G1 X10.057 Y11.872 E0.05770
G1 X10.302 Y11.171 E0.05773
G1 X10.330 Y10.927 E0.01908
G1 X7.427 Y13.830 E0.31897
G1 X6.839 Y13.896 E0.04598
G1 X6.454 Y13.896 E0.02986
G1 X10.396 Y9.954 E0.43311
G1 X10.396 Y9.048 E0.07041
G1 X5.548 Y13.896 E0.53267
G1 X4.642 Y13.896 E0.07041
G1 X10.396 Y8.142 E0.63224
G1 X10.396 Y7.236 E0.07041
G1 X5.594 Y12.038 E0.52760
G1 X5.909 Y11.556 E0.04469
G1 X6.330 Y10.395 E0.09593
G1 X10.396 Y6.329 E0.44674
G1 X10.396 Y5.423 E0.07041
G1 X6.531 Y9.288 E0.42467
G1 X6.615 Y8.564 E0.05662
G1 X6.587 Y8.326 E0.01863
G1 X10.396 Y4.517 E0.41855
G1 X10.396 Y3.611 E0.07041
G1 X6.490 Y7.517 E0.42922
G1 X6.426 Y6.986 E0.04160
G1 X6.341 Y6.760 E0.01876
G1 X10.396 Y2.705 E0.44554
G1 X10.396 Y1.798 E0.07041
G1 X6.094 Y6.100 E0.47267
G1 X5.838 Y5.451 E0.05427
G1 X10.396 Y0.892 E0.50086
G1 X10.396 Y-0.014 E0.07041
G1 X5.471 Y4.911 E0.54117
G1 X5.104 Y4.372 E0.05068
G1 X10.396 Y-0.920 E0.58148
G1 X10.396 Y-1.826 E0.07041
G1 X4.667 Y3.902 E0.62945
G1 X4.191 Y3.472 E0.04985
G1 X10.396 Y-2.733 E0.68177
G1 X10.396 Y-3.639 E0.07041
G1 X3.698 Y3.060 E0.73600
G1 X3.109 Y2.742 E0.05195
G1 X10.396 Y-4.545 E0.80063
G1 X10.396 Y-5.451 E0.07041
G1 X2.521 Y2.424 E0.86526
G1 X2.387 Y2.351 E0.01182
G1 X1.833 Y2.206 E0.04454
G1 X10.244 Y-6.205 E0.92412
G1 X9.251 Y-6.118 E0.07743
G1 X1.115 Y2.017 E0.89390
G1 X0.846 Y1.947 E0.02157
G1 X0.289 Y1.937 E0.04331
G1 X8.279 Y-6.052 E0.87784
G1 X7.307 Y-5.987 E0.07569
G1 X-0.601 Y1.921 E0.86887
G1 X-0.746 Y1.919 E0.01127
G1 X-1.725 Y2.139 E0.07794
G1 X6.365 Y-5.951 E0.88890
G1 X5.426 Y-5.919 E0.07299
G1 X-3.213 Y2.721 E0.94922
G1 X-3.728 Y2.976 E0.04465
G1 X-4.947 Y4.001 E0.12377
G1 X-5.889 Y5.286 E0.12377
G1 X-5.969 Y5.476 E0.01602
G1 X-10.396 Y9.904 E0.48648
G1 X-10.396 Y8.998 E0.07041
G1 X4.516 Y-5.915 E1.63847
G1 X3.606 Y-5.911 E0.07067
G1 X-10.396 Y8.091 E1.53852
G1 X-10.396 Y7.185 E0.07041
G1 X2.697 Y-5.908 E1.43858
G1 X1.820 Y-5.937 E0.06816
G1 X-10.396 Y6.279 E1.34224
G1 X-10.396 Y5.373 E0.07041
G1 X0.947 Y-5.971 E1.24633
G1 X0.074 Y-6.004 E0.06787
G1 X-10.396 Y4.466 E1.15043
G1 X-10.396 Y3.560 E0.07041
G1 X-0.768 Y-6.068 E1.05785
G1 X-1.609 Y-6.133 E0.06553
G1 X-10.396 Y2.654 E0.96546
G1 X-10.396 Y1.748 E0.07041
G1 X-2.450 Y-6.198 E0.87307
G1 X-3.264 Y-6.291 E0.06364
G1 X-10.396 Y0.842 E0.78364
G1 X-10.396 Y-0.065 E0.07041
G1 X-4.075 Y-6.386 E0.69453
G1 X-4.886 Y-6.481 E0.06344
G1 X-10.396 Y-0.971 E0.60543
G1 X-10.396 Y-1.877 E0.07041
G1 X-5.674 Y-6.600 E0.51889
G1 X-6.456 Y-6.723 E0.06157
G1 X-10.396 Y-2.783 E0.43289
G1 X-10.396 Y-3.689 E0.07041
G1 X-7.239 Y-6.847 E0.34689
G1 X-8.004 Y-6.988 E0.06044
G1 X-10.396 Y-4.596 E0.26284
G1 X-10.396 Y-5.502 E0.07041
G1 X-8.760 Y-7.138 E0.17979
G1 X-9.516 Y-7.289 E0.05988
G1 X-10.396 Y-6.408 E0.09674
G1 X-10.396 Y-7.314 E0.07041
G1 X-10.261 Y-7.449 E0.01483
G1 E-3.50000 F300.00000
G1 X3.560 Y13.783 F15000.000
G1 E3.50000 F300.00000
G1 F960
G1 X3.353 Y13.938 E0.00165
G1 E-3.50000 F300.00000
G1 X-3.353 Y13.944 F15000.000
G1 E3.50000 F300.00000
G1 F960
G1 X-3.606 Y13.752 E0.00253
G1 E-3.50000 F300.00000
G1 X-8.813 Y-14.464 F15000.000
G1 E3.50000 F300.00000
G1 F720
G1 X10.964 Y-14.464 E1.52415
G1 X10.964 Y-11.964 E0.19272
G1 X9.677 Y-11.820 E0.09983
G1 X7.389 Y-11.643 E0.17685
G1 X5.097 Y-11.551 E0.17680
G1 X2.800 Y-11.545 E0.17700
G1 X0.406 Y-11.631 E0.18461
G1 X-2.026 Y-11.818 E0.18798
G1 X-4.297 Y-12.087 E0.17626
G1 X-6.723 Y-12.474 E0.18932
G1 X-9.093 Y-12.958 E0.18640
G1 X-10.964 Y-13.430 E0.14873
G1 X-10.964 Y-14.464 E0.07969
G1 X-8.873 Y-14.464 E0.16117
G1 X-8.873 Y-15.100 F15000.000
G1 F720
G1 X11.600 Y-15.100 E1.57776
G1 X11.600 Y-11.395 E0.28553
G1 X9.737 Y-11.187 E0.14449
G1 X7.426 Y-11.009 E0.17858
G1 X5.110 Y-10.916 E0.17862
G1 X2.789 Y-10.909 E0.17887
G1 X0.370 Y-10.996 E0.18657
G1 X-2.088 Y-11.186 E0.18997
G1 X-4.385 Y-11.457 E0.17825
G1 X-6.837 Y-11.849 E0.19138
G1 X-9.234 Y-12.339 E0.18857
G1 X-11.600 Y-12.935 E0.18801
G1 X-11.600 Y-15.100 E0.16684
G1 X-8.933 Y-15.100 E0.20553
G1 X-8.601 Y-14.807 F15000.000
G1 X-8.798 Y-13.686 F15000.000
G1 F960
G1 X-9.414 Y-13.763 E0.05683
G1 F960
G1 X-10.030 Y-13.839 E0.04949
G1 F960
G1 X-10.647 Y-13.916 E0.04215
G1 E-3.50000 F300.00000
G1 X-8.207 Y-13.761 F15000.000
G1 E3.50000 F300.00000
G1 F960
G1 X-8.072 Y-13.896 E0.01539
G1 X-7.131 Y-13.896 E0.07595
G1 X-7.772 Y-13.256 E0.07307
G1 X-6.990 Y-13.096 E0.06436
G1 X-6.190 Y-13.896 E0.09130
G1 X-5.249 Y-13.896 E0.07595
G1 X-6.191 Y-12.954 E0.10747
G1 X-5.379 Y-12.825 E0.06632
G1 X-4.308 Y-13.896 E0.12226
G1 X-3.366 Y-13.896 E0.07595
G1 X-4.567 Y-12.695 E0.13705
G1 X-3.736 Y-12.585 E0.06764
G1 X-2.425 Y-13.896 E0.14963
G1 X-1.484 Y-13.896 E0.07595
G1 X-2.895 Y-12.486 E0.16097
G1 X-2.053 Y-12.386 E0.06840
G1 X-0.543 Y-13.896 E0.17231
G1 X0.398 Y-13.896 E0.07595
G1 X-1.180 Y-12.318 E0.18008
G1 X-0.306 Y-12.251 E0.07072
G1 X1.340 Y-13.896 E0.18776
G1 X2.281 Y-13.896 E0.07595
G1 X0.576 Y-12.191 E0.19457
G1 X1.484 Y-12.158 E0.07334
G1 X3.222 Y-13.896 E0.19832
G1 X4.163 Y-13.896 E0.07595
G1 X2.392 Y-12.125 E0.20207
G1 X3.323 Y-12.114 E0.07506
G1 X5.104 Y-13.896 E0.20333
G1 X6.045 Y-13.896 E0.07595
G1 X4.266 Y-12.117 E0.20302
G1 X5.016 Y-12.119 E0.06045
G1 X5.218 Y-12.127 E0.01634
G1 X6.987 Y-13.896 E0.20184
G1 X7.928 Y-13.896 E0.07595
G1 X6.199 Y-12.167 E0.19734
G1 X7.179 Y-12.206 E0.07920
G1 X8.869 Y-13.896 E0.19283
G1 X9.810 Y-13.896 E0.07595
G1 X8.195 Y-12.281 E0.18433
G1 X9.215 Y-12.360 E0.08253
G1 X10.396 Y-13.541 E0.13482
G1 X10.396 Y-12.600 E0.07595
G1 X10.261 Y-12.465 E0.01540
G1 E-3.50000 F300.00000
G1 Z0.500 F15000.000
G1 X11.393 Y1.281 F15000.000
G1 E3.50000 F300.00000
G1 F2421.73
G1 X11.393 Y10.466 E0.26511
G1 X11.279 Y11.477 E0.02936
G1 X10.954 Y12.404 E0.02837
G1 X10.432 Y13.237 E0.02837
G1 X9.737 Y13.932 E0.02837
G1 X8.904 Y14.454 E0.02837
G1 X7.977 Y14.779 E0.02837
G1 X6.966 Y14.893 E0.02936
G1 X3.034 Y14.893 E0.11348
G1 X2.831 Y14.851 E0.00598
G1 X2.696 Y14.743 E0.00500
G1 X2.621 Y14.587 E0.00500
G1 X2.607 Y14.466 E0.00350
G1 X2.607 Y13.432 E0.02986
G1 X3.366 Y12.989 E0.02535
G1 X4.308 Y12.096 E0.03747
G1 X5.019 Y11.010 E0.03747
G1 X5.461 Y9.789 E0.03747
G1 X5.611 Y8.499 E0.03750
G1 X5.452 Y7.172 E0.03858
G1 X4.983 Y5.919 E0.03861
G1 X4.230 Y4.813 E0.03861
G1 X3.238 Y3.917 E0.03861
G1 X2.265 Y3.391 E0.03192
G1 X2.061 Y3.281 E0.00669
G1 X0.767 Y2.941 E0.03861
G1 X-0.570 Y2.918 E0.03861
G1 X-1.875 Y3.211 E0.03861
G1 X-3.074 Y3.805 E0.03861
G1 X-4.097 Y4.666 E0.03861
G1 X-4.888 Y5.745 E0.03861
G1 X-5.402 Y6.980 E0.03861
G1 X-5.608 Y8.301 E0.03861
G1 X-5.511 Y9.449 E0.03324
G1 X-5.496 Y9.634 E0.00537
G1 X-5.071 Y10.903 E0.03861
G1 X-4.358 Y12.035 E0.03861
G1 X-3.398 Y12.966 E0.03861
G1 X-2.607 Y13.430 E0.02647
G1 X-2.607 Y14.466 E0.02990
G1 X-2.649 Y14.669 E0.00598
G1 X-2.757 Y14.804 E0.00500
G1 X-2.913 Y14.879 E0.00500
G1 X-3.034 Y14.893 E0.00350
G1 X-6.966 Y14.893 E0.11348
G1 X-7.977 Y14.779 E0.02936
G1 X-8.904 Y14.454 E0.02837
G1 X-9.737 Y13.932 E0.02837
G1 X-10.432 Y13.237 E0.02837
G1 X-10.954 Y12.404 E0.02837
G1 X-11.279 Y11.477 E0.02837
G1 X-11.393 Y10.466 E0.02936
G1 X-11.393 Y-8.712 E0.55353
G1 X-9.895 Y-8.350 E0.04447
G1 X-7.475 Y-7.869 E0.07123
G1 X-5.042 Y-7.484 E0.07109
G1 X-2.591 Y-7.196 E0.07121
G1 X-0.077 Y-7.001 E0.07279
G1 X2.446 Y-6.904 E0.07288
G1 X5.264 Y-6.916 E0.08132
G1 X5.897 Y-6.935 E0.01827
G1 X7.654 Y-7.017 E0.05077
G1 X9.267 Y-7.128 E0.04667
G1 X11.393 Y-7.349 E0.06169
G1 X11.393 Y1.221 E0.24736
G1 X11.750 Y1.221 F15000.000
G1 F3600
G1 X11.750 Y10.486 E0.26742
G1 X11.629 Y11.557 E0.03110
G1 X11.278 Y12.560 E0.03069
G1 X10.712 Y13.461 E0.03069
G1 X9.961 Y14.212 E0.03069
G1 X9.060 Y14.778 E0.03069
G1 X8.057 Y15.129 E0.03069
G1 X6.986 Y15.250 E0.03110
G1 X3.014 Y15.250 E0.11464
G1 X2.833 Y15.230 E0.00524
G1 X2.675 Y15.174 E0.00484
G1 X2.533 Y15.085 E0.00484
G1 X2.415 Y14.967 E0.00484
G1 X2.326 Y14.825 E0.00484
G1 X2.270 Y14.667 E0.00484
G1 X2.250 Y14.486 E0.00524
G1 X2.250 Y13.226 E0.03636
G1 X3.150 Y12.702 E0.03008
G1 X4.032 Y11.865 E0.03507
G1 X4.697 Y10.849 E0.03507
G1 X5.111 Y9.707 E0.03507
G1 X5.252 Y8.500 E0.03508
G1 X5.103 Y7.257 E0.03612
G1 X4.663 Y6.085 E0.03613
G1 X3.959 Y5.050 E0.03613
G1 X3.030 Y4.211 E0.03613
G1 X1.929 Y3.615 E0.03613
G1 X0.718 Y3.298 E0.03613
G1 X-0.534 Y3.275 E0.03613
G1 X-1.755 Y3.550 E0.03613
G1 X-2.877 Y4.106 E0.03613
G1 X-3.835 Y4.912 E0.03613
G1 X-4.575 Y5.921 E0.03613
G1 X-5.055 Y7.077 E0.03613
G1 X-5.249 Y8.314 E0.03613
G1 X-5.143 Y9.562 E0.03613
G1 X-4.746 Y10.749 E0.03613
G1 X-4.079 Y11.808 E0.03613
G1 X-3.180 Y12.679 E0.03613
G1 X-2.250 Y13.226 E0.03114
G1 X-2.250 Y14.486 E0.03638
G1 X-2.270 Y14.667 E0.00524
G1 X-2.326 Y14.825 E0.00484
G1 X-2.415 Y14.967 E0.00484
G1 X-2.533 Y15.085 E0.00484
G1 X-2.675 Y15.174 E0.00484
G1 X-2.833 Y15.230 E0.00484
G1 X-3.014 Y15.250 E0.00524
G1 X-6.986 Y15.250 E0.11464
G1 X-8.057 Y15.129 E0.03110
G1 X-9.060 Y14.778 E0.03069
G1 X-9.961 Y14.212 E0.03069
G1 X-10.712 Y13.461 E0.03069
G1 X-11.278 Y12.560 E0.03069
G1 X-11.629 Y11.557 E0.03069
G1 X-11.750 Y10.486 E0.03110
G1 X-11.750 Y-9.166 E0.56720
G1 X-9.818 Y-8.699 E0.05736
G1 X-7.412 Y-8.220 E0.07082
G1 X-4.993 Y-7.838 E0.07068
G1 X-2.557 Y-7.552 E0.07080
G1 X-0.056 Y-7.357 E0.07239
G1 X2.452 Y-7.261 E0.07246
G1 X5.258 Y-7.273 E0.08097
G1 X5.883 Y-7.292 E0.01805
G1 X7.633 Y-7.374 E0.05057
G1 X9.236 Y-7.484 E0.04638
G1 X11.750 Y-7.745 E0.07295
G1 X11.750 Y1.161 E0.25706
G1 X11.424 Y1.452 F15000.000
G1 X11.074 Y-6.915 F15000.000
G1 F3228.98
G1 X10.998 Y-6.991 E0.00312
G1 X10.538 Y-6.943 E0.01344
G1 X11.074 Y-6.407 E0.02201
G1 X11.074 Y-5.899 E0.01475
G1 X10.077 Y-6.895 E0.04091
G1 X9.617 Y-6.848 E0.01344
G1 X11.074 Y-5.391 E0.05981
G1 X11.074 Y-4.883 E0.01475
G1 X9.154 Y-6.803 E0.07885
G1 X8.678 Y-6.770 E0.01384
G1 X11.074 Y-4.375 E0.09837
G1 X11.074 Y-3.867 E0.01475
G1 X8.203 Y-6.738 E0.11789
G1 X7.728 Y-6.705 E0.01384
G1 X11.074 Y-3.359 E0.13741
G1 X11.074 Y-2.851 E0.01475
G1 X7.244 Y-6.680 E0.15726
G1 X6.759 Y-6.658 E0.01411
G1 X11.074 Y-2.343 E0.17719
G1 X11.074 Y-1.835 E0.01475
G1 X6.274 Y-6.635 E0.19712
