; generated by Slic3r 1.2.9 on 2020-08-23 at 16:35:30

; external perimeters extrusion width = 0.40mm
; perimeters extrusion width = 0.40mm
; infill extrusion width = 0.40mm
; solid infill extrusion width = 0.40mm
; top infill extrusion width = 0.40mm

M107
M83
T0
M116
G21 ; set units to millimeters
G90 ; use absolute coordinates
M83 ; use relative distances for extrusion
G1 E-4.20000 F1500.00000
G1 Z1.000 F15000.000
G1 X15.586 Y0.000 F15000.000
G1 Z0.300 F15000.000
G1 E4.20000 F1500.00000
G1 X15.586 Y10.498 E0.80900 F960.000
G1 X15.568 Y10.854 E0.02750
G1 X15.415 Y12.407 E0.12029
G1 X15.276 Y13.106 E0.05492
G1 X14.824 Y14.598 E0.12010
G1 X14.551 Y15.256 E0.05493
G1 X13.816 Y16.630 E0.12010
G1 X13.420 Y17.223 E0.05493
G1 X12.432 Y18.428 E0.12010
G1 X11.928 Y18.932 E0.05492
G1 X10.723 Y19.920 E0.12010
G1 X10.130 Y20.316 E0.05493
G1 X8.756 Y21.051 E0.12010
G1 X8.098 Y21.324 E0.05492
G1 X6.606 Y21.776 E0.12010
G1 X5.907 Y21.915 E0.05493
G1 X4.354 Y22.068 E0.12029
G1 X3.998 Y22.086 E0.02750
G1 X-3.998 Y22.086 E0.61615
G1 X-4.354 Y22.068 E0.02750
G1 X-5.907 Y21.915 E0.12029
G1 X-6.606 Y21.776 E0.05493
G1 X-8.098 Y21.324 E0.12010
G1 X-8.756 Y21.051 E0.05492
G1 X-10.130 Y20.316 E0.12010
G1 X-10.723 Y19.920 E0.05493
G1 X-11.928 Y18.932 E0.12010
G1 X-12.432 Y18.428 E0.05492
G1 X-13.420 Y17.223 E0.12010
G1 X-13.816 Y16.630 E0.05493
G1 X-14.551 Y15.256 E0.12010
G1 X-14.824 Y14.598 E0.05493
G1 X-15.276 Y13.106 E0.12010
G1 X-15.415 Y12.407 E0.05493
G1 X-15.568 Y10.854 E0.12029
G1 X-15.586 Y10.498 E0.02750
G1 X-15.586 Y-18.450 E2.23086
G1 X-15.191 Y-20.097 E0.13052
G1 X-14.093 Y-21.387 E0.13052
G1 X-11.950 Y-22.086 E0.17373
G1 X11.950 Y-22.086 E1.84187
G1 X13.597 Y-21.691 E0.13052
G1 X14.887 Y-20.593 E0.13052 F960.000
G1 X15.586 Y-18.450 E0.17373
G1 X15.586 Y-0.060 E1.41723
G1 E-4.20000 F1500.00000
G1 Z1.300 F15000.000
G1 X10.964 Y4.356 F15000.000
G1 Z0.300 F15000.000
G1 E4.20000 F1500.00000
G1 X10.964 Y10.449 E0.46954 F720.000
G1 X10.826 Y11.858 E0.10908
G1 X10.430 Y13.163 E0.10514
G1 X9.787 Y14.366 E0.10514
G1 X8.921 Y15.421 E0.10514
G1 X7.866 Y16.287 E0.10514
G1 X6.663 Y16.930 E0.10514
G1 X5.358 Y17.326 E0.10514
G1 X3.949 Y17.464 E0.10908
G1 X3.036 Y17.464 E0.07040
G1 X3.036 Y16.678 E0.06062
G1 X3.625 Y16.335 E0.05256
G1 X4.639 Y15.372 E0.10773
G1 X5.405 Y14.203 E0.10773
G1 X5.881 Y12.888 E0.10773
G1 X6.043 Y11.498 E0.10787
G1 X5.871 Y10.070 E0.11087
G1 X5.366 Y8.721 E0.11101
G1 X4.556 Y7.530 E0.11101
G1 X3.487 Y6.564 E0.11101
G1 X2.220 Y5.879 E0.11101
G1 X0.826 Y5.514 E0.11101
G1 X-0.614 Y5.488 E0.11101
G1 X-2.019 Y5.804 E0.11101
G1 X-3.310 Y6.444 E0.11101
G1 X-4.412 Y7.371 E0.11101
G1 X-5.264 Y8.533 E0.11101
G1 X-5.817 Y9.863 E0.11101
G1 X-6.039 Y11.286 E0.11101
G1 X-5.918 Y12.721 E0.11101
G1 X-5.461 Y14.087 E0.11101
G1 X-4.694 Y15.306 E0.11101
G1 X-3.659 Y16.309 E0.11101
G1 X-3.036 Y16.675 E0.05574
G1 X-3.036 Y17.464 E0.06080
G1 X-3.949 Y17.464 E0.07040
G1 X-5.358 Y17.326 E0.10908
G1 X-6.663 Y16.930 E0.10514
G1 X-7.866 Y16.287 E0.10514
G1 X-8.921 Y15.421 E0.10514
G1 X-9.787 Y14.366 E0.10514
G1 X-10.430 Y13.163 E0.10514
G1 X-10.826 Y11.858 E0.10514
G1 X-10.964 Y10.449 E0.10908
G1 X-10.964 Y-8.189 E1.43636
G1 X-9.898 Y-7.932 E0.08452
G1 X-7.459 Y-7.447 E0.19163 F720.000
G1 X-5.005 Y-7.060 E0.19146
G1 X-2.537 Y-6.770 E0.19156
G1 X-0.000 Y-6.573 E0.19605
G1 X2.544 Y-6.476 E0.19622
G1 X5.332 Y-6.486 E0.21484
G1 X7.132 Y-6.549 E0.13886
G1 X9.584 Y-6.715 E0.18935
G1 X10.964 Y-6.858 E0.10696
G1 X10.964 Y4.296 E0.85964
G1 X11.600 Y4.296 F15000.000
G1 X11.600 Y10.480 E0.47657 F720.000
G1 X11.452 Y11.982 E0.11631
G1 X11.020 Y13.408 E0.11479
G1 X10.318 Y14.721 E0.11479
G1 X9.373 Y15.873 E0.11479
G1 X8.221 Y16.818 E0.11479
G1 X6.908 Y17.520 E0.11479
G1 X5.482 Y17.952 E0.11479
G1 X3.980 Y18.100 E0.11631
G1 X2.400 Y18.100 E0.12179
G1 X2.400 Y16.312 E0.13776
G1 X3.241 Y15.823 E0.07501
G1 X4.148 Y14.962 E0.09632
G1 X4.832 Y13.916 E0.09632
G1 X5.258 Y12.741 E0.09632
G1 X5.403 Y11.499 E0.09637
G1 X5.249 Y10.221 E0.09920
G1 X4.798 Y9.015 E0.09925
G1 X4.073 Y7.950 E0.09925
G1 X3.117 Y7.087 E0.09925
G1 X1.984 Y6.475 E0.09925
G1 X0.739 Y6.148 E0.09925
G1 X-0.549 Y6.125 E0.09925
G1 X-1.805 Y6.408 E0.09925
G1 X-2.959 Y6.980 E0.09925
G1 X-3.945 Y7.808 E0.09925
G1 X-4.707 Y8.847 E0.09925
G1 X-5.201 Y10.036 E0.09925
G1 X-5.399 Y11.309 E0.09925
G1 X-5.291 Y12.592 E0.09925
G1 X-4.883 Y13.813 E0.09925
G1 X-4.196 Y14.903 E0.09925
G1 X-3.272 Y15.800 E0.09925
G1 X-2.400 Y16.312 E0.07790
G1 X-2.400 Y18.100 E0.13783
G1 X-3.980 Y18.100 E0.12179
G1 X-5.482 Y17.952 E0.11631
G1 X-6.908 Y17.520 E0.11479
G1 X-8.221 Y16.818 E0.11479
G1 X-9.373 Y15.873 E0.11479
G1 X-10.318 Y14.721 E0.11479
G1 X-11.020 Y13.408 E0.11479
G1 X-11.452 Y11.982 E0.11479
G1 X-11.600 Y10.480 E0.11631
G1 X-11.600 Y-8.996 E1.50098
G1 X-9.762 Y-8.553 E0.14574
G1 X-7.348 Y-8.073 E0.18966 F720.000
G1 X-4.919 Y-7.689 E0.18952
G1 X-2.475 Y-7.403 E0.18962
G1 X0.036 Y-7.208 E0.19412
G1 X2.555 Y-7.111 E0.19423
G1 X5.319 Y-7.122 E0.21305
G1 X7.100 Y-7.184 E0.13730
G1 X9.530 Y-7.348 E0.18767
G1 X11.600 Y-7.563 E0.16042
G1 X11.600 Y4.236 E0.90935
G1 X11.254 Y4.496 F15000.000
G1 X5.446 Y7.976 F15000.000
G1 X10.195 Y12.725 E0.52679 F960.000
G1 X9.932 Y13.378 E0.05516
G1 X6.174 Y9.619 E0.41689
G1 X6.354 Y10.715 E0.08706
G1 X9.613 Y13.974 E0.36155
G1 X9.238 Y14.514 E0.05156
G1 X6.396 Y11.671 E0.31530
G1 X6.300 Y12.491 E0.06472
G1 X8.826 Y15.016 E0.28013
G1 X8.354 Y15.459 E0.05077
G1 X6.126 Y13.232 E0.24710
G1 X5.883 Y13.903 E0.05603
G1 X7.851 Y15.871 E0.21836
G1 X7.281 Y16.216 E0.05226
G1 X5.591 Y14.526 E0.18746
G1 X5.229 Y15.079 E0.05184
G1 X6.685 Y16.535 E0.16147
G1 X5.998 Y16.763 E0.05676
G1 X4.856 Y15.621 E0.12674
G1 X4.386 Y16.066 E0.05077
G1 X5.279 Y16.959 E0.09899
G1 X4.446 Y17.041 E0.06565
G1 X3.917 Y16.512 E0.05867
G1 E-4.20000 F1500.00000
G1 Z1.300 F15000.000
G1 X-5.969 Y16.691 F15000.000
G1 Z0.300 F15000.000
G1 E4.20000 F1500.00000
G1 X-10.191 Y12.469 E0.46832 F960.000
G1 X-10.483 Y11.261 E0.09747
G1 X-4.761 Y16.983 E0.63474
G1 X-3.751 Y17.079 E0.07964
G1 X-10.579 Y10.251 E0.75749
G1 X-10.579 Y9.336 E0.07177
G1 X-5.967 Y13.948 E0.51164
G1 X-6.321 Y12.679 E0.10331
G1 X-10.579 Y8.421 E0.47240
G1 X-10.579 Y7.506 E0.07177
G1 X-6.405 Y11.680 E0.46306
G1 X-6.339 Y10.831 E0.06680
G1 X-10.579 Y6.591 E0.47036
G1 X-10.579 Y5.676 E0.07177
G1 X-6.215 Y10.039 E0.48407
G1 X-5.980 Y9.359 E0.05644
G1 X-10.579 Y4.761 E0.51013
G1 X-10.579 Y3.846 E0.07177
G1 X-5.712 Y8.713 E0.53992
G1 X-5.380 Y8.130 E0.05264
G1 X-10.579 Y2.931 E0.57670
G1 X-10.579 Y2.016 E0.07177
G1 X-4.993 Y7.602 E0.61964
G1 X-4.591 Y7.089 E0.05111
G1 X-10.579 Y1.101 E0.66429
G1 X-10.579 Y0.186 E0.07177
G1 X-4.094 Y6.671 E0.71943
G1 X-3.597 Y6.254 E0.05094
G1 X-10.579 Y-0.729 E0.77457
G1 X-10.579 Y-1.644 E0.07177
G1 X-3.016 Y5.919 E0.83898
G1 X-2.404 Y5.616 E0.05356
G1 X-10.579 Y-2.559 E0.90684
G1 X-10.579 Y-3.474 E0.07177
G1 X-1.733 Y5.372 E0.98125
G1 X-0.986 Y5.204 E0.06005
G1 X-10.579 Y-4.389 E1.06411
G1 X-10.579 Y-5.304 E0.07177
G1 X-0.167 Y5.108 E1.15499
G1 X0.764 Y5.125 E0.07307
G1 X-10.579 Y-6.218 E1.25832
G1 X-10.579 Y-7.133 E0.07177
G1 X1.916 Y5.361 E1.38604
G1 X3.525 Y6.055 F15000.000
G1 X-10.075 Y-7.545 E1.50868 F960.000
G1 X-8.933 Y-7.317 E0.09134
G1 X10.408 Y12.023 E2.14550
G1 X10.514 Y11.215 E0.06394
G1 X-7.791 Y-7.090 E2.03065
G1 X-6.700 Y-6.914 E0.08673
G1 X10.579 Y10.365 E1.91674
G1 X10.579 Y9.450 E0.07177
G1 X-5.613 Y-6.742 E1.79624
G1 X-4.558 Y-6.602 E0.08348
G1 X10.579 Y8.535 E1.67920
G1 X10.579 Y7.620 E0.07177
G1 X-3.522 Y-6.481 E1.56420
G1 X-2.495 Y-6.369 E0.08099
G1 X10.579 Y6.705 E1.45034
G1 X10.579 Y5.790 E0.07177
G1 X-1.503 Y-6.292 E1.34030
G1 X-0.511 Y-6.215 E0.07805
G1 X10.579 Y4.875 E1.23025
G1 X10.579 Y3.960 E0.07177
G1 X0.454 Y-6.165 E1.12315
G1 X1.406 Y-6.128 E0.07467
G1 X10.579 Y3.045 E1.01763
G1 X10.579 Y2.130 E0.07177
G1 X2.357 Y-6.092 E0.91210
G1 X3.270 Y-6.094 E0.07164
G1 X10.579 Y1.215 E0.81078
G1 X10.579 Y0.300 E0.07177
G1 X4.182 Y-6.097 E0.70967
G1 X5.093 Y-6.100 E0.07150
G1 X10.579 Y-0.615 E0.60855
G1 X10.579 Y-1.530 E0.07177
G1 X5.981 Y-6.128 E0.51009
G1 X6.865 Y-6.159 E0.06939
G1 X10.579 Y-2.444 E0.41202
G1 X10.579 Y-3.359 E0.07177
G1 X7.727 Y-6.212 E0.31641
G1 X8.584 Y-6.270 E0.06737
G1 X10.579 Y-4.274 E0.22136
G1 X10.579 Y-5.189 E0.07177
G1 X9.440 Y-6.328 E0.12630
G1 X10.271 Y-6.412 E0.06549
G1 X10.579 Y-6.104 E0.03415
G1 E-4.20000 F1500.00000
G1 Z1.300 F15000.000
G1 X-8.816 Y14.758 F15000.000
G1 Z0.300 F15000.000
G1 E4.20000 F1500.00000
G1 X-8.258 Y15.316 E0.06189 F960.000
G1 E-4.20000 F1500.00000
G1 Z1.300 F15000.000
G1 X2.069 Y-17.464 F15000.000
G1 Z0.300 F15000.000
G1 E4.20000 F1500.00000
G1 X10.964 Y-17.464 E0.68555 F720.000
G1 X10.964 Y-11.967 E0.42369
G1 X9.225 Y-11.778 E0.13479 F720.000
G1 X7.390 Y-11.643 E0.14183
G1 X5.361 Y-11.559 E0.15649
G1 X2.798 Y-11.545 E0.19749
G1 X0.407 Y-11.631 E0.18440
G1 X-2.312 Y-11.849 E0.21021
G1 X-4.297 Y-12.086 E0.15407
G1 X-6.723 Y-12.474 E0.18938
G1 X-9.093 Y-12.958 E0.18640
G1 X-10.964 Y-13.430 E0.14873
G1 X-10.964 Y-17.464 E0.31089
G1 X2.009 Y-17.464 E0.99978
G1 X2.009 Y-18.100 F15000.000
G1 X11.600 Y-18.100 E0.73916 F720.000
G1 X11.600 Y-11.396 E0.51664
G1 X9.283 Y-11.145 E0.17961 F720.000
G1 X7.427 Y-11.009 E0.14345
G1 X5.376 Y-10.923 E0.15815
G1 X2.789 Y-10.909 E0.19940
G1 X0.370 Y-10.996 E0.18649
G1 X-2.375 Y-11.216 E0.21224
G1 X-4.385 Y-11.457 E0.15599
G1 X-6.837 Y-11.849 E0.19140
G1 X-9.234 Y-12.339 E0.18857
G1 X-11.600 Y-12.935 E0.18801
G1 X-11.600 Y-18.100 E0.39804
G1 X1.949 Y-18.100 E1.04414
G1 X2.209 Y-17.754 F15000.000
G1 X10.579 Y-16.769 F15000.000
G1 X10.269 Y-17.079 E0.03454 F960.000
G1 X9.349 Y-17.079 E0.07257
G1 X10.579 Y-15.849 E0.13718
G1 X10.579 Y-14.929 E0.07257
G1 X8.429 Y-17.079 E0.23981
G1 X7.509 Y-17.079 E0.07257
G1 X10.579 Y-14.009 E0.34244
G1 X10.579 Y-13.089 E0.07257
G1 X6.589 Y-17.079 E0.44507
G1 X5.669 Y-17.079 E0.07257
G1 X10.462 Y-12.286 E0.53464
G1 X9.632 Y-12.196 E0.06587
G1 X4.749 Y-17.079 E0.54467
G1 X3.829 Y-17.079 E0.07257
G1 X8.785 Y-12.123 E0.55284
G1 X7.928 Y-12.060 E0.06778
G1 X2.909 Y-17.079 E0.55987
G1 X1.989 Y-17.079 E0.07257
G1 X7.058 Y-12.010 E0.56546
G1 X6.175 Y-11.973 E0.06972
G1 X1.069 Y-17.079 E0.56958
G1 X0.149 Y-17.079 E0.07257
G1 X5.285 Y-11.943 E0.57293
G1 X4.370 Y-11.938 E0.07218
G1 X-0.771 Y-17.079 E0.57349
G1 X-1.691 Y-17.079 E0.07257
G1 X3.455 Y-11.933 E0.57405
G1 X2.522 Y-11.945 E0.07355
G1 X-2.611 Y-17.079 E0.57267
G1 X-3.531 Y-17.079 E0.07257
G1 X1.568 Y-11.980 E0.56882
G1 X0.613 Y-12.014 E0.07535
G1 X-4.451 Y-17.079 E0.56496
G1 X-5.371 Y-17.079 E0.07257
G1 X-0.385 Y-12.093 E0.55624
G1 X-1.385 Y-12.173 E0.07915
G1 X-6.292 Y-17.079 E0.54729
G1 X-7.212 Y-17.079 E0.07257
G1 X-2.397 Y-12.265 E0.53705
G1 X-3.442 Y-12.390 E0.08302
G1 X-8.132 Y-17.079 E0.52311
G1 X-9.052 Y-17.079 E0.07257
G1 X-4.506 Y-12.533 E0.50705
G1 X-5.601 Y-12.708 E0.08746
G1 X-9.972 Y-17.079 E0.48754
G1 X-10.579 Y-16.766 E0.05388
G1 X-6.707 Y-12.895 E0.43188
G1 X-7.864 Y-13.131 E0.09310
G1 X-10.579 Y-15.846 E0.30289
G1 X-10.579 Y-14.926 E0.07257
G1 X-9.031 Y-13.379 E0.17262
G1 X-10.262 Y-13.689 E0.10008
G1 X-10.579 Y-14.006 E0.03539
G1 E-4.20000 F1500.00000
G1 Z1.300 F15000.000
G1 X2.884 Y-6.906 F15000.000
G1 Z0.500 F15000.000
G1 E4.20000 F1500.00000
G1 X5.264 Y-6.916 E0.06869 F3154.252
G1 X7.654 Y-7.017 E0.06904
G1 X9.267 Y-7.128 E0.04667
G1 X11.393 Y-7.349 E0.06169
G1 X11.393 Y10.470 E0.51432
G1 X11.248 Y11.942 E0.04268
G1 X10.827 Y13.328 E0.04181
G1 X10.145 Y14.606 E0.04181
G1 X9.226 Y15.726 E0.04181
G1 X8.106 Y16.645 E0.04181
G1 X6.828 Y17.327 E0.04181
G1 X5.442 Y17.748 E0.04181
G1 X3.970 Y17.893 E0.04268
G1 X2.607 Y17.893 E0.03934
G1 X2.607 Y16.432 E0.04218
G1 X3.366 Y15.989 E0.02535
G1 X4.308 Y15.096 E0.03747
G1 X5.019 Y14.010 E0.03747
G1 X5.461 Y12.789 E0.03747
G1 X5.611 Y11.499 E0.03750
G1 X5.452 Y10.172 E0.03858
G1 X4.983 Y8.919 E0.03861
G1 X4.230 Y7.813 E0.03861
G1 X3.238 Y6.917 E0.03861
G1 X2.061 Y6.281 E0.03861
G1 X0.767 Y5.941 E0.03861
G1 X-0.570 Y5.918 E0.03861
G1 X-1.875 Y6.211 E0.03861
G1 X-3.074 Y6.805 E0.03861
G1 X-4.097 Y7.666 E0.03861
G1 X-4.888 Y8.745 E0.03861
G1 X-5.402 Y9.980 E0.03861
G1 X-5.608 Y11.301 E0.03861
G1 X-5.496 Y12.634 E0.03861
G1 X-5.071 Y13.903 E0.03861
G1 X-4.358 Y15.035 E0.03861
G1 X-3.398 Y15.966 E0.03861
G1 X-2.607 Y16.430 E0.02647
G1 X-2.607 Y17.893 E0.04222
G1 X-3.970 Y17.893 E0.03934
G1 X-5.442 Y17.748 E0.04268
G1 X-6.828 Y17.327 E0.04181
G1 X-8.106 Y16.645 E0.04181
G1 X-9.226 Y15.726 E0.04181
G1 X-10.145 Y14.606 E0.04181
G1 X-10.827 Y13.328 E0.04181
G1 X-11.248 Y11.942 E0.04181
G1 X-11.393 Y10.470 E0.04268
G1 X-11.393 Y-8.712 E0.55365
G1 X-11.000 Y-8.617 E0.01168
G1 X-9.895 Y-8.350 E0.03280 F3154.252
G1 X-7.475 Y-7.869 E0.07123
G1 X-5.042 Y-7.484 E0.07109
G1 X-2.591 Y-7.196 E0.07121
G1 X-0.077 Y-7.001 E0.07279
G1 X2.446 Y-6.904 E0.07288
G1 X2.824 Y-6.906 E0.01091
G1 X2.823 Y-7.263 F15000.000
G1 X5.258 Y-7.273 E0.07029 F3154.252
G1 X7.633 Y-7.374 E0.06862
G1 X9.236 Y-7.484 E0.04638
G1 X11.750 Y-7.745 E0.07295
G1 X11.750 Y10.488 E0.52626
G1 X11.600 Y12.012 E0.04420
G1 X11.159 Y13.465 E0.04384
G1 X10.443 Y14.805 E0.04384
G1 X9.479 Y15.979 E0.04384
G1 X8.305 Y16.943 E0.04384
G1 X6.965 Y17.659 E0.04384
G1 X5.512 Y18.100 E0.04384
G1 X3.988 Y18.250 E0.04420
G1 X2.250 Y18.250 E0.05016
G1 X2.250 Y16.226 E0.05841
G1 X3.150 Y15.702 E0.03008
G1 X4.032 Y14.865 E0.03507
G1 X4.697 Y13.849 E0.03507
G1 X5.111 Y12.707 E0.03507
G1 X5.252 Y11.500 E0.03508
G1 X5.103 Y10.257 E0.03612
G1 X4.663 Y9.085 E0.03613
G1 X3.959 Y8.050 E0.03613
G1 X3.030 Y7.211 E0.03613
G1 X2.095 Y6.705 E0.03068
G1 X1.929 Y6.615 E0.00545
G1 X0.718 Y6.298 E0.03613
G1 X-0.534 Y6.275 E0.03613
G1 X-1.755 Y6.550 E0.03613
G1 X-2.877 Y7.106 E0.03613
G1 X-3.835 Y7.912 E0.03613
G1 X-4.575 Y8.921 E0.03613
G1 X-5.055 Y10.077 E0.03613
G1 X-5.249 Y11.314 E0.03613
G1 X-5.143 Y12.562 E0.03613
G1 X-4.746 Y13.749 E0.03613
G1 X-4.079 Y14.808 E0.03613
G1 X-3.180 Y15.679 E0.03613
G1 X-2.250 Y16.226 E0.03114
G1 X-2.250 Y18.250 E0.05843
G1 X-3.988 Y18.250 E0.05016
G1 X-5.512 Y18.100 E0.04420
G1 X-6.965 Y17.659 E0.04384
G1 X-8.305 Y16.943 E0.04384
G1 X-9.479 Y15.979 E0.04384
G1 X-10.443 Y14.805 E0.04384
G1 X-11.159 Y13.465 E0.04384
G1 X-11.600 Y12.012 E0.04384
G1 X-11.750 Y10.488 E0.04420
G1 X-11.750 Y-9.166 E0.56725
G1 X-10.916 Y-8.964 E0.02477
G1 X-9.818 Y-8.699 E0.03259 F3154.252
G1 X-7.412 Y-8.220 E0.07082
G1 X-4.993 Y-7.838 E0.07068
G1 X-2.557 Y-7.552 E0.07080
G1 X-0.056 Y-7.357 E0.07239
G1 X2.763 Y-7.263 E0.08141
G1 X3.020 Y-6.915 F15000.000
G1 X-11.185 Y-8.231 F15000.000
G1 X-10.997 Y-8.419 E0.00767 F4205.670
G1 X-10.590 Y-8.321 E0.01208
G1 X-11.185 Y-7.726 E0.02428
G1 X-11.185 Y-7.221 E0.01458
G1 X-10.183 Y-8.222 E0.04089
G1 X-9.773 Y-8.128 E0.01216
G1 X-11.185 Y-6.716 E0.05765
G1 X-11.185 Y-6.211 E0.01458
G1 X-9.352 Y-8.044 E0.07484
G1 X-8.931 Y-7.960 E0.01240
G1 X-11.185 Y-5.706 E0.09203
G1 X-11.185 Y-5.201 E0.01458
G1 X-8.509 Y-7.876 E0.10922
G1 X-8.088 Y-7.793 E0.01240
G1 X-11.185 Y-4.696 E0.12642
G1 X-11.185 Y-4.191 E0.01458
G1 X-7.667 Y-7.709 E0.14361
G1 X-7.239 Y-7.632 E0.01256
G1 X-11.185 Y-3.686 E0.16109
G1 X-11.185 Y-3.181 E0.01458
G1 X-6.803 Y-7.563 E0.17890
G1 X-6.367 Y-7.494 E0.01274
G1 X-11.185 Y-2.676 E0.19670
G1 X-11.185 Y-2.171 E0.01458
G1 X-5.930 Y-7.425 E0.21450
G1 X-5.494 Y-7.357 E0.01274
G1 X-11.185 Y-1.666 E0.23230
G1 X-11.185 Y-1.161 E0.01458
G1 X-5.058 Y-7.288 E0.25010
G1 X-4.608 Y-7.233 E0.01308
G1 X-11.185 Y-0.656 E0.26847
G1 X-11.185 Y-0.151 E0.01458
G1 X-4.156 Y-7.179 E0.28691
G1 X-3.704 Y-7.126 E0.01313
G1 X-11.185 Y0.354 E0.30536
G1 X-11.185 Y0.859 E0.01458
G1 X-3.253 Y-7.073 E0.32381
G1 X-2.801 Y-7.020 E0.01313
G1 X-11.185 Y1.364 E0.34226
G1 X-11.185 Y1.869 E0.01458
G1 X-2.342 Y-6.974 E0.36099
G1 X-1.873 Y-6.938 E0.01356
G1 X-11.185 Y2.374 E0.38012
G1 X-11.185 Y2.879 E0.01458
G1 X-1.404 Y-6.901 E0.39925
G1 X-0.936 Y-6.865 E0.01356
G1 X-11.185 Y3.384 E0.41837
G1 X-11.185 Y3.889 E0.01458
G1 X-0.467 Y-6.828 E0.43750
G1 X0.002 Y-6.793 E0.01358
G1 X-11.185 Y4.394 E0.45665
G1 X-11.185 Y4.899 E0.01458
G1 X0.488 Y-6.774 E0.47651
G1 X0.975 Y-6.755 E0.01405
G1 X-11.185 Y5.404 E0.49636
