; generated by Slic3r 0.9.10b on 2013-08-10 at 16:50:36

; layer_height = 0.24
; perimeters = 2
; top_solid_layers = 3
; bottom_solid_layers = 3
; fill_density = 0.4
; perimeter_speed = 30
; infill_speed = 40
; travel_speed = 60
; nozzle_diameter = 0.5
; filament_diameter = 1.75
; extrusion_multiplier = 1
; perimeters extrusion width = 0.85mm
; infill extrusion width = 0.87mm
; solid infill extrusion width = 0.85mm
; top infill extrusion width = 0.85mm
; first layer extrusion width = 0.48mm

G21 ; set units to millimeters
M107
M104 S205 ; set temperature
G28 ; home all axes
G1 Z5 F200 ; lift nozzle
M109 S205 ; wait for temperature to be reached
G90 ; use absolute coordinates
M83 ; use relative distances for extrusion
G1 F1800.000 E-2.00000
G1 Z0.240 F3600.000
G1 X9.540 Y21.480
G1 F1800.000 E2.00000
G1 X10.880 Y21.210 F540.000 E0.06605
G1 X167.880 Y6.050 E7.62198
G1 X168.500 Y6.020 E0.03000
G1 X188.500 Y6.020 E0.96646
G1 X189.770 Y6.140 E0.06164
G1 X190.980 Y6.510 E0.06114
G1 X192.100 Y7.110 E0.06140
G1 X193.090 Y7.910 E0.06151
G1 X193.890 Y8.900 E0.06151
G1 X194.490 Y10.020 E0.06140
G1 X194.860 Y11.230 E0.06114
G1 X194.980 Y12.500 E0.06164
G1 X194.980 Y187.500 E8.45650
G1 X194.860 Y188.770 E0.06164
G1 X194.490 Y189.980 E0.06114
G1 X193.890 Y191.100 E0.06140
G1 X193.090 Y192.090 E0.06151
G1 X192.100 Y192.890 E0.06151
G1 X190.980 Y193.490 E0.06140
G1 X189.770 Y193.860 E0.06114
G1 X188.500 Y193.980 E0.06164
G1 X13.500 Y193.980 E8.45650
G1 X12.130 Y193.840 E0.06655
G1 X10.820 Y193.410 E0.06663
G1 X9.630 Y192.710 E0.06672
G1 X8.620 Y191.770 E0.06667
G1 X7.830 Y190.640 E0.06663
G1 X7.290 Y189.370 E0.06669
G1 X7.040 Y188.020 E0.06635
G1 X5.040 Y163.190 E1.20374
G1 X5.020 Y162.670 E0.02515
G1 X5.020 Y27.660 E6.52407
G1 X5.160 Y26.300 E0.06607
G1 X5.580 Y25.010 E0.06556
G1 X6.270 Y23.830 E0.06605
G1 X7.180 Y22.820 E0.06569
G1 X8.290 Y22.020 E0.06612
G1 X9.473 Y21.509 E0.06229
G1 F1800.000 E-2.00000
G1 X175.478 Y175.305 F3600.000
G1 F1800.000 E2.00000
G1 X176.305 Y174.478 F540.000 E0.05649
G1 X177.346 Y173.948 E0.05645
G1 X178.500 Y173.764 E0.05648
G1 X179.654 Y173.948 E0.05648
G1 X180.695 Y174.478 E0.05646
G1 X181.522 Y175.305 E0.05649
G1 X182.052 Y176.346 E0.05645
G1 X182.236 Y177.500 E0.05648
G1 X182.052 Y178.654 E0.05648
G1 X181.522 Y179.695 E0.05645
G1 X180.695 Y180.522 E0.05649
G1 X179.654 Y181.052 E0.05646
G1 X178.500 Y181.236 E0.05648
G1 X177.346 Y181.052 E0.05648
G1 X176.305 Y180.522 E0.05645
G1 X175.478 Y179.695 E0.05649
G1 X174.948 Y178.654 E0.05646
G1 X174.764 Y177.500 E0.05648
G1 X174.948 Y176.346 E0.05648
G1 X175.445 Y175.369 E0.05295
G1 X175.875 Y175.593 F3600.000
G1 X176.593 Y174.875 F540.000 E0.04908
G1 X177.497 Y174.414 E0.04904
G1 X178.500 Y174.255 E0.04907
G1 X179.503 Y174.414 E0.04906
G1 X180.407 Y174.875 E0.04905
G1 X181.125 Y175.593 E0.04908
G1 X181.586 Y176.497 E0.04904
G1 X181.745 Y177.500 E0.04907
G1 X181.586 Y178.503 E0.04907
G1 X181.125 Y179.407 E0.04904
G1 X180.407 Y180.125 E0.04908
G1 X179.503 Y180.586 E0.04905
G1 X178.500 Y180.745 E0.04906
G1 X177.497 Y180.586 E0.04907
G1 X176.593 Y180.125 E0.04904
G1 X175.875 Y179.407 E0.04908
G1 X175.414 Y178.503 E0.04905
G1 X175.255 Y177.500 E0.04906
G1 X175.414 Y176.497 E0.04906
G1 X175.842 Y175.658 E0.04554
G1 X176.353 Y175.669 F3600.000
G1 F1800.000 E-2.00000
G1 X169.226 Y168.226 F3600.000
G1 F1800.000 E2.00000
G1 X169.226 Y13.226 F540.000 E7.49004
G1 X187.774 Y13.226 E0.89625
G1 X187.774 Y186.774 E8.38629
G1 X14.226 Y186.774 E8.38629
G1 X14.226 Y168.226 E0.89625
G1 X169.154 Y168.226 E7.48653
G1 X168.742 Y167.742 F3600.000
G1 X168.742 Y12.742 F378.000 E7.49004
G1 X188.258 Y12.742 E0.94305
G1 X188.258 Y187.258 E8.43310
G1 X13.742 Y187.258 E8.43310
G1 X13.742 Y167.742 E0.94305
G1 X168.670 Y167.742 E7.48653
G1 X169.226 Y167.742 F3600.000
G1 X169.577 Y163.778
G1 X179.341 Y173.543 F720.000 E0.66792
G1 X178.527 Y173.413 E0.03990
G1 X169.577 Y164.464 E0.61218
G1 X169.577 Y165.150 E0.03316
G1 X177.928 Y173.500 E0.57120
G1 X177.336 Y173.594 E0.02898
G1 X169.577 Y165.835 E0.53073
G1 X169.577 Y166.521 E0.03316
G1 X176.859 Y173.802 E0.49807
G1 X176.404 Y174.033 E0.02465
G1 X169.577 Y167.206 E0.46700
G1 X169.577 Y167.892 E0.03316
G1 X175.986 Y174.300 E0.43838
G1 X175.643 Y174.643 E0.02345
G1 X169.577 Y168.577 E0.41493
G1 X168.892 Y168.577 E0.03316
G1 X175.300 Y174.986 E0.43837
G1 X175.033 Y175.404 E0.02401
G1 X168.206 Y168.577 E0.46700
G1 X167.521 Y168.577 E0.03316
G1 X174.802 Y175.858 E0.49807
G1 X174.594 Y176.336 E0.02519
G1 X166.835 Y168.577 E0.53072
G1 X166.150 Y168.577 E0.03316
G1 X174.500 Y176.928 E0.57120
G1 X174.413 Y177.527 E0.02928
G1 X165.464 Y168.577 E0.61218
G1 X164.779 Y168.577 E0.03316
G1 X174.543 Y178.341 E0.66791
G1 X174.952 Y179.437 E0.05657
G1 X164.093 Y168.577 E0.74284
G1 X180.437 Y173.952 F3600.000
G1 X169.577 Y163.093 F720.000 E0.74284
G1 X169.577 Y162.407 E0.03316
G1 X187.423 Y180.253 E1.22071
G1 X187.423 Y179.567 E0.03316
G1 X169.577 Y161.722 E1.22071
G1 X169.577 Y161.036 E0.03316
G1 X187.423 Y178.881 E1.22071
G1 X187.423 Y178.196 E0.03316
G1 X169.577 Y160.351 E1.22071
G1 X169.577 Y159.665 E0.03316
G1 X187.423 Y177.510 E1.22071
G1 X187.423 Y176.825 E0.03316
G1 X169.577 Y158.980 E1.22071
G1 X169.577 Y158.294 E0.03316
G1 X187.423 Y176.139 E1.22071
G1 X187.423 Y175.454 E0.03316
G1 X169.577 Y157.608 E1.22071
G1 X169.577 Y156.923 E0.03316
G1 X187.423 Y174.768 E1.22071
G1 X187.423 Y174.082 E0.03316
G1 X169.577 Y156.237 E1.22071
G1 X169.577 Y155.552 E0.03316
G1 X187.423 Y173.397 E1.22071
G1 X187.423 Y172.711 E0.03316
G1 X169.577 Y154.866 E1.22071
G1 X169.577 Y154.181 E0.03316
G1 X187.423 Y172.026 E1.22071
G1 X187.423 Y171.340 E0.03316
G1 X169.577 Y153.495 E1.22071
G1 X169.577 Y152.810 E0.03316
G1 X187.423 Y170.655 E1.22071
G1 X187.423 Y169.969 E0.03316
G1 X169.577 Y152.124 E1.22071
G1 X169.577 Y151.438 E0.03316
G1 X187.423 Y169.284 E1.22071
G1 X187.423 Y168.598 E0.03316
G1 X169.577 Y150.753 E1.22071
G1 X169.577 Y150.067 E0.03316
G1 X187.423 Y167.912 E1.22071
G1 X187.423 Y167.227 E0.03316
G1 X169.577 Y149.382 E1.22071
G1 X169.577 Y148.696 E0.03316
G1 X187.423 Y166.541 E1.22071
G1 X187.423 Y165.856 E0.03316
G1 X169.577 Y148.011 E1.22071
G1 X169.577 Y147.325 E0.03316
G1 X187.423 Y165.170 E1.22071
G1 X187.423 Y164.485 E0.03316
G1 X169.577 Y146.639 E1.22071
G1 X169.577 Y145.954 E0.03316
G1 X187.423 Y163.799 E1.22071
G1 X187.423 Y163.113 E0.03316
G1 X169.577 Y145.268 E1.22071
G1 X169.577 Y144.583 E0.03316
G1 X187.423 Y162.428 E1.22071
G1 X187.423 Y161.742 E0.03316
G1 X169.577 Y143.897 E1.22071
G1 X169.577 Y143.212 E0.03316
G1 X187.423 Y161.057 E1.22071
G1 X187.423 Y160.371 E0.03316
G1 X169.577 Y142.526 E1.22071
G1 X169.577 Y141.841 E0.03316
G1 X187.423 Y159.686 E1.22071
G1 X187.423 Y159.000 E0.03316
G1 X169.577 Y141.155 E1.22071
G1 X169.577 Y140.469 E0.03316
G1 X187.423 Y158.315 E1.22071
G1 X187.423 Y157.629 E0.03316
G1 X169.577 Y139.784 E1.22071
G1 X169.577 Y139.098 E0.03316
G1 X187.423 Y156.943 E1.22071
G1 X187.423 Y156.258 E0.03316
G1 X169.577 Y138.413 E1.22071
G1 X169.577 Y137.727 E0.03316
G1 X187.423 Y155.572 E1.22071
G1 X187.423 Y154.887 E0.03316
G1 X169.577 Y137.042 E1.22071
G1 X169.577 Y136.356 E0.03316
G1 X187.423 Y154.201 E1.22071
G1 X187.423 Y153.516 E0.03316
G1 X169.577 Y135.670 E1.22071
G1 X169.577 Y134.985 E0.03316
G1 X187.423 Y152.830 E1.22071
G1 X187.423 Y152.145 E0.03316
G1 X169.577 Y134.299 E1.22071
G1 X169.577 Y133.614 E0.03316
G1 X187.423 Y151.459 E1.22071
G1 X187.423 Y150.773 E0.03316
G1 X169.577 Y132.928 E1.22071
G1 X169.577 Y132.243 E0.03316
G1 X187.423 Y150.088 E1.22071
G1 X187.423 Y149.402 E0.03316
G1 X169.577 Y131.557 E1.22071
G1 X169.577 Y130.872 E0.03316
G1 X187.423 Y148.717 E1.22071
G1 X187.423 Y148.031 E0.03316
G1 X169.577 Y130.186 E1.22071
G1 X169.577 Y129.500 E0.03316
G1 X187.423 Y147.346 E1.22071
G1 X187.423 Y146.660 E0.03316
G1 X169.577 Y128.815 E1.22071
G1 X169.577 Y128.129 E0.03316
G1 X187.423 Y145.974 E1.22071
G1 X187.423 Y145.289 E0.03316
G1 X169.577 Y127.444 E1.22071
G1 X169.577 Y126.758 E0.03316
G1 X187.423 Y144.603 E1.22071
G1 X187.423 Y143.918 E0.03316
G1 X169.577 Y126.073 E1.22071
G1 X169.577 Y125.387 E0.03316
G1 X187.423 Y143.232 E1.22071
G1 X187.423 Y142.547 E0.03316
G1 X169.577 Y124.702 E1.22071
G1 X169.577 Y124.016 E0.03316
G1 X187.423 Y141.861 E1.22071
G1 X187.423 Y141.176 E0.03316
G1 X169.577 Y123.330 E1.22071
G1 X169.577 Y122.645 E0.03316
G1 X187.423 Y140.490 E1.22071
G1 X187.423 Y139.804 E0.03316
G1 X169.577 Y121.959 E1.22071
G1 X169.577 Y121.274 E0.03316
G1 X187.423 Y139.119 E1.22071
G1 X187.423 Y138.433 E0.03316
G1 X169.577 Y120.588 E1.22071
G1 X169.577 Y119.903 E0.03316
G1 X187.423 Y137.748 E1.22071
G1 X187.423 Y137.062 E0.03316
G1 X169.577 Y119.217 E1.22071
G1 X169.577 Y118.531 E0.03316
G1 X187.423 Y136.377 E1.22071
G1 X187.423 Y135.691 E0.03316
G1 X169.577 Y117.846 E1.22071
G1 X169.577 Y117.160 E0.03316
G1 X187.423 Y135.005 E1.22071
G1 X187.423 Y134.320 E0.03316
G1 X169.577 Y116.475 E1.22071
G1 X169.577 Y115.789 E0.03316
G1 X187.423 Y133.634 E1.22071
G1 X187.423 Y132.949 E0.03316
G1 X169.577 Y115.104 E1.22071
G1 X169.577 Y114.418 E0.03316
G1 X187.423 Y132.263 E1.22071
G1 X187.423 Y131.578 E0.03316
G1 X169.577 Y113.733 E1.22071
G1 X169.577 Y113.047 E0.03316
G1 X187.423 Y130.892 E1.22071
G1 X187.423 Y130.207 E0.03316
G1 X169.577 Y112.361 E1.22071
G1 X169.577 Y111.676 E0.03316
G1 X187.423 Y129.521 E1.22071
G1 X187.423 Y128.835 E0.03316
G1 X169.577 Y110.990 E1.22071
G1 X169.577 Y110.305 E0.03316
G1 X187.423 Y128.150 E1.22071
G1 X187.423 Y127.464 E0.03316
G1 X169.577 Y109.619 E1.22071
G1 X169.577 Y108.934 E0.03316
G1 X187.423 Y126.779 E1.22071
G1 X187.423 Y126.093 E0.03316
G1 X169.577 Y108.248 E1.22071
G1 X169.577 Y107.563 E0.03316
G1 X187.423 Y125.408 E1.22071
G1 X187.423 Y124.722 E0.03316
G1 X169.577 Y106.877 E1.22071
G1 X169.577 Y106.191 E0.03316
G1 X187.423 Y124.037 E1.22071
G1 X187.423 Y123.351 E0.03316
G1 X169.577 Y105.506 E1.22071
G1 X169.577 Y104.820 E0.03316
G1 X187.423 Y122.665 E1.22071
G1 X187.423 Y121.980 E0.03316
G1 X169.577 Y104.135 E1.22071
G1 X169.577 Y103.449 E0.03316
G1 X187.423 Y121.294 E1.22071
G1 X187.423 Y120.609 E0.03316
G1 X169.577 Y102.764 E1.22071
G1 X169.577 Y102.078 E0.03316
G1 X187.423 Y119.923 E1.22071
G1 X187.423 Y119.238 E0.03316
G1 X169.577 Y101.392 E1.22071
G1 X169.577 Y100.707 E0.03316
G1 X187.423 Y118.552 E1.22071
G1 X187.423 Y117.866 E0.03316
G1 X169.577 Y100.021 E1.22071
G1 X169.577 Y99.336 E0.03316
G1 X187.423 Y117.181 E1.22071
G1 X187.423 Y116.495 E0.03316
G1 X169.577 Y98.650 E1.22071
G1 X169.577 Y97.965 E0.03316
G1 X187.423 Y115.810 E1.22071
G1 X187.423 Y115.124 E0.03316
G1 X169.577 Y97.279 E1.22071
G1 X169.577 Y96.594 E0.03316
G1 X187.423 Y114.439 E1.22071
G1 X187.423 Y113.753 E0.03316
G1 X169.577 Y95.908 E1.22071
G1 X169.577 Y95.222 E0.03316
G1 X187.423 Y113.068 E1.22071
G1 X187.423 Y112.382 E0.03316
G1 X169.577 Y94.537 E1.22071
G1 X169.577 Y93.851 E0.03316
G1 X187.423 Y111.696 E1.22071
G1 X187.423 Y111.011 E0.03316
G1 X169.577 Y93.166 E1.22071
G1 X169.577 Y92.480 E0.03316
G1 X187.423 Y110.325 E1.22071
G1 X187.423 Y109.640 E0.03316
G1 X169.577 Y91.795 E1.22071
G1 X169.577 Y91.109 E0.03316
G1 X187.423 Y108.954 E1.22071
G1 X187.423 Y108.269 E0.03316
G1 X169.577 Y90.423 E1.22071
G1 X169.577 Y89.738 E0.03316
G1 X187.423 Y107.583 E1.22071
G1 X187.423 Y106.898 E0.03316
G1 X169.577 Y89.052 E1.22071
G1 X169.577 Y88.367 E0.03316
G1 X187.423 Y106.212 E1.22071
G1 X187.423 Y105.526 E0.03316
G1 X169.577 Y87.681 E1.22071
G1 X169.577 Y86.996 E0.03316
G1 X187.423 Y104.841 E1.22071
G1 X187.423 Y104.155 E0.03316
G1 X169.577 Y86.310 E1.22071
G1 X169.577 Y85.625 E0.03316
G1 X187.423 Y103.470 E1.22071
G1 X187.423 Y102.784 E0.03316
G1 X169.577 Y84.939 E1.22071
G1 X169.577 Y84.253 E0.03316
G1 X187.423 Y102.099 E1.22071
G1 X187.423 Y101.413 E0.03316
G1 X169.577 Y83.568 E1.22071
G1 X169.577 Y82.882 E0.03316
G1 X187.423 Y100.727 E1.22071
G1 X187.423 Y100.042 E0.03316
G1 X169.577 Y82.197 E1.22071
G1 X169.577 Y81.511 E0.03316
G1 X187.423 Y99.356 E1.22071
G1 X187.423 Y98.671 E0.03316
G1 X169.577 Y80.826 E1.22071
G1 X169.577 Y80.140 E0.03316
G1 X187.423 Y97.985 E1.22071
G1 X187.423 Y97.300 E0.03316
G1 X169.577 Y79.455 E1.22071
G1 X169.577 Y78.769 E0.03316
G1 X187.423 Y96.614 E1.22071
G1 X187.423 Y95.929 E0.03316
G1 X169.577 Y78.083 E1.22071
G1 X169.577 Y77.398 E0.03316
G1 X187.423 Y95.243 E1.22071
G1 X187.423 Y94.557 E0.03316
G1 X169.577 Y76.712 E1.22071
G1 X169.577 Y76.027 E0.03316
G1 X187.423 Y93.872 E1.22071
G1 X187.423 Y93.186 E0.03316
G1 X169.577 Y75.341 E1.22071
G1 X169.577 Y74.656 E0.03316
G1 X187.423 Y92.501 E1.22071
G1 X187.423 Y91.815 E0.03316
G1 X169.577 Y73.970 E1.22071
G1 X169.577 Y73.284 E0.03316
G1 X187.423 Y91.130 E1.22071
G1 X187.423 Y90.444 E0.03316
G1 X169.577 Y72.599 E1.22071
G1 X169.577 Y71.913 E0.03316
G1 X187.423 Y89.758 E1.22071
G1 X187.423 Y89.073 E0.03316
G1 X169.577 Y71.228 E1.22071
G1 X169.577 Y70.542 E0.03316
G1 X187.423 Y88.387 E1.22071
G1 X187.423 Y87.702 E0.03316
G1 X169.577 Y69.857 E1.22071
G1 X169.577 Y69.171 E0.03316
G1 X187.423 Y87.016 E1.22071
G1 X187.423 Y86.331 E0.03316
G1 X169.577 Y68.486 E1.22071
G1 X169.577 Y67.800 E0.03316
G1 X187.423 Y85.645 E1.22071
G1 X187.423 Y84.960 E0.03316
G1 X169.577 Y67.114 E1.22071
G1 X169.577 Y66.429 E0.03316
G1 X187.423 Y84.274 E1.22071
G1 X187.423 Y83.588 E0.03316
G1 X169.577 Y65.743 E1.22071
G1 X169.577 Y65.058 E0.03316
G1 X187.423 Y82.903 E1.22071
G1 X187.423 Y82.217 E0.03316
G1 X169.577 Y64.372 E1.22071
G1 X169.577 Y63.687 E0.03316
G1 X187.423 Y81.532 E1.22071
G1 X187.423 Y80.846 E0.03316
G1 X169.577 Y63.001 E1.22071
G1 X169.577 Y62.316 E0.03316
G1 X187.423 Y80.161 E1.22071
G1 X187.423 Y79.475 E0.03316
G1 X169.577 Y61.630 E1.22071
G1 X169.577 Y60.944 E0.03316
G1 X187.423 Y78.790 E1.22071
G1 X187.423 Y78.104 E0.03316
G1 X169.577 Y60.259 E1.22071
G1 X169.577 Y59.573 E0.03316
G1 X187.423 Y77.418 E1.22071
G1 X187.423 Y76.733 E0.03316
G1 X169.577 Y58.888 E1.22071
G1 X169.577 Y58.202 E0.03316
G1 X187.423 Y76.047 E1.22071
G1 X187.423 Y75.362 E0.03316
G1 X169.577 Y57.517 E1.22071
G1 X169.577 Y56.831 E0.03316
G1 X187.423 Y74.676 E1.22071
G1 X187.423 Y73.991 E0.03316
G1 X169.577 Y56.145 E1.22071
G1 X169.577 Y55.460 E0.03316
G1 X187.423 Y73.305 E1.22071
G1 X187.423 Y72.619 E0.03316
G1 X169.577 Y54.774 E1.22071
G1 X169.577 Y54.089 E0.03316
G1 X187.423 Y71.934 E1.22071
G1 X187.423 Y71.248 E0.03316
G1 X169.577 Y53.403 E1.22071
G1 X169.577 Y52.718 E0.03316
G1 X187.423 Y70.563 E1.22071
G1 X187.423 Y69.877 E0.03316
G1 X169.577 Y52.032 E1.22071
G1 X169.577 Y51.347 E0.03316
G1 X187.423 Y69.192 E1.22071
G1 X187.423 Y68.506 E0.03316
G1 X169.577 Y50.661 E1.22071
G1 X169.577 Y49.975 E0.03316
G1 X187.423 Y67.821 E1.22071
G1 X187.423 Y67.135 E0.03316
G1 X169.577 Y49.290 E1.22071
G1 X169.577 Y48.604 E0.03316
G1 X187.423 Y66.449 E1.22071
G1 X187.423 Y65.764 E0.03316
G1 X169.577 Y47.919 E1.22071
G1 X169.577 Y47.233 E0.03316
G1 X187.423 Y65.078 E1.22071
G1 X187.423 Y64.393 E0.03316
G1 X169.577 Y46.548 E1.22071
G1 X169.577 Y45.862 E0.03316
G1 X187.423 Y63.707 E1.22071
G1 X187.423 Y63.022 E0.03316
G1 X169.577 Y45.176 E1.22071
G1 X169.577 Y44.491 E0.03316
G1 X187.423 Y62.336 E1.22071
G1 X187.423 Y61.651 E0.03316
G1 X169.577 Y43.805 E1.22071
G1 X169.577 Y43.120 E0.03316
G1 X187.423 Y60.965 E1.22071
G1 X187.423 Y60.279 E0.03316
G1 X169.577 Y42.434 E1.22071
G1 X169.577 Y41.749 E0.03316
G1 X187.423 Y59.594 E1.22071
G1 X187.423 Y58.908 E0.03316
G1 X169.577 Y41.063 E1.22071
G1 X169.577 Y40.378 E0.03316
G1 X187.423 Y58.223 E1.22071
G1 X187.423 Y57.537 E0.03316
G1 X169.577 Y39.692 E1.22071
G1 X169.577 Y39.006 E0.03316
G1 X187.423 Y56.852 E1.22071
G1 X187.423 Y56.166 E0.03316
G1 X169.577 Y38.321 E1.22071
G1 X169.577 Y37.635 E0.03316
G1 X187.423 Y55.480 E1.22071
G1 X187.423 Y54.795 E0.03316
G1 X169.577 Y36.950 E1.22071
G1 X169.577 Y36.264 E0.03316
G1 X187.423 Y54.109 E1.22071
G1 X187.423 Y53.424 E0.03316
G1 X169.577 Y35.579 E1.22071
G1 X169.577 Y34.893 E0.03316
G1 X187.423 Y52.738 E1.22071
G1 X187.423 Y52.053 E0.03316
G1 X169.577 Y34.208 E1.22071
G1 X169.577 Y33.522 E0.03316
G1 X187.423 Y51.367 E1.22071
G1 X187.423 Y50.682 E0.03316
