; generated by Slic3r 0.9.10b on 2013-08-10 at 16:54:03

; layer_height = 0.24
; perimeters = 2
; top_solid_layers = 3
; bottom_solid_layers = 3
; fill_density = 0.4
; perimeter_speed = 30
; infill_speed = 40
; travel_speed = 60
; nozzle_diameter = 0.5
; filament_diameter = 1.75
; extrusion_multiplier = 1
; perimeters extrusion width = 0.85mm
; infill extrusion width = 0.87mm
; solid infill extrusion width = 0.85mm
; top infill extrusion width = 0.85mm
; first layer extrusion width = 0.48mm

G21 ; set units to millimeters
M107
M104 S205 ; set temperature
G28 ; home all axes
G1 Z5 F200 ; lift nozzle
M109 S205 ; wait for temperature to be reached
G90 ; use absolute coordinates
M83 ; use relative distances for extrusion
G1 F1800.000 E-2.00000
G1 Z0.240 F3600.000
G1 X8.610 Y8.240
G1 F1800.000 E2.00000
G1 X9.620 Y7.300 F540.000 E0.06667
G1 X10.810 Y6.600 E0.06672
G1 X12.130 Y6.160 E0.06724
G1 X13.500 Y6.020 E0.06655
G1 X188.500 Y6.020 E8.45650
G1 X189.770 Y6.140 E0.06164
G1 X190.980 Y6.510 E0.06114
G1 X192.100 Y7.110 E0.06140
G1 X193.090 Y7.910 E0.06151
G1 X193.890 Y8.900 E0.06151
G1 X194.490 Y10.020 E0.06140
G1 X194.860 Y11.230 E0.06114
G1 X194.980 Y12.500 E0.06164
G1 X194.980 Y187.500 E8.45650
G1 X194.860 Y188.770 E0.06164
G1 X194.490 Y189.980 E0.06114
G1 X193.890 Y191.100 E0.06140
G1 X193.090 Y192.090 E0.06151
G1 X192.100 Y192.890 E0.06151
G1 X190.980 Y193.490 E0.06140
G1 X189.770 Y193.860 E0.06114
G1 X188.500 Y193.980 E0.06164
G1 X168.500 Y193.980 E0.96646
G1 X167.920 Y193.960 E0.02804
G1 X10.920 Y179.790 E7.61753
G1 X9.570 Y179.520 E0.06653
G1 X8.320 Y178.980 E0.06580
G1 X7.200 Y178.190 E0.06623
G1 X6.280 Y177.170 E0.06638
G1 X5.590 Y175.990 E0.06605
G1 X5.160 Y174.690 E0.06617
G1 X5.020 Y173.330 E0.06607
G1 X5.020 Y38.990 E6.49169
G1 X5.030 Y38.500 E0.02368
G1 X7.030 Y12.010 E1.28372
G1 X7.280 Y10.650 E0.06682
G1 X7.820 Y9.380 E0.06669
G1 X8.569 Y8.300 E0.06351
G1 F1800.000 E-2.00000
G1 X12.226 Y111.793 F3600.000
G1 F1800.000 E2.00000
G1 X163.774 Y111.793 F540.000 E7.32319
G1 X163.774 Y172.613 E2.93898
G1 X12.226 Y172.613 E7.32319
G1 X12.226 Y111.866 E2.93547
G1 X11.742 Y111.309 F3600.000
G1 X164.258 Y111.309 F378.000 E7.36999
G1 X164.258 Y173.097 E2.98579
G1 X11.742 Y173.097 E7.36999
G1 X11.742 Y111.381 E2.98228
G1 X12.162 Y111.551 F3600.000
G1 X13.186 Y172.262
G1 X12.577 Y171.653 F720.000 E0.04163
G1 X12.577 Y170.968 E0.03318
G1 X13.872 Y172.262 E0.08855
G1 X14.557 Y172.262 E0.03318
G1 X12.577 Y170.282 E0.13547
G1 X12.577 Y169.596 E0.03318
G1 X15.243 Y172.262 E0.18239
G1 X15.929 Y172.262 E0.03318
G1 X12.577 Y168.911 E0.22931
G1 X12.577 Y168.225 E0.03318
G1 X16.614 Y172.262 E0.27623
G1 X17.300 Y172.262 E0.03318
G1 X12.577 Y167.539 E0.32315
G1 X12.577 Y166.853 E0.03318
G1 X17.986 Y172.262 E0.37008
G1 X18.672 Y172.262 E0.03318
G1 X12.577 Y166.168 E0.41700
G1 X12.577 Y165.482 E0.03318
G1 X19.357 Y172.262 E0.46392
G1 X20.043 Y172.262 E0.03318
G1 X12.577 Y164.796 E0.51084
G1 X12.577 Y164.110 E0.03318
G1 X20.729 Y172.262 E0.55776
G1 X21.415 Y172.262 E0.03318
G1 X12.577 Y163.425 E0.60468
G1 X12.577 Y162.739 E0.03318
G1 X22.100 Y172.262 E0.65160
G1 X22.786 Y172.262 E0.03318
G1 X12.577 Y162.053 E0.69852
G1 X12.577 Y161.367 E0.03318
G1 X23.472 Y172.262 E0.74545
G1 X24.158 Y172.262 E0.03318
G1 X12.577 Y160.682 E0.79237
G1 X12.577 Y159.996 E0.03318
G1 X24.843 Y172.262 E0.83929
G1 X25.529 Y172.262 E0.03318
G1 X12.577 Y159.310 E0.88621
G1 X12.577 Y158.624 E0.03318
G1 X26.215 Y172.262 E0.93313
G1 X26.901 Y172.262 E0.03318
G1 X12.577 Y157.939 E0.98005
G1 X12.577 Y157.253 E0.03318
G1 X27.586 Y172.262 E1.02697
G1 X28.272 Y172.262 E0.03318
G1 X12.577 Y156.567 E1.07390
G1 X12.577 Y155.881 E0.03318
G1 X28.958 Y172.262 E1.12082
G1 X29.644 Y172.262 E0.03318
G1 X12.577 Y155.196 E1.16774
G1 X12.577 Y154.510 E0.03318
G1 X30.329 Y172.262 E1.21466
G1 X31.015 Y172.262 E0.03318
G1 X12.577 Y153.824 E1.26158
G1 X12.577 Y153.138 E0.03318
G1 X31.701 Y172.262 E1.30850
G1 X32.387 Y172.262 E0.03318
G1 X12.577 Y152.453 E1.35542
G1 X12.577 Y151.767 E0.03318
G1 X33.072 Y172.262 E1.40235
G1 X33.758 Y172.262 E0.03318
G1 X12.577 Y151.081 E1.44927
G1 X12.577 Y150.395 E0.03318
G1 X34.444 Y172.262 E1.49619
G1 X35.130 Y172.262 E0.03318
G1 X12.577 Y149.710 E1.54311
G1 X12.577 Y149.024 E0.03318
G1 X35.815 Y172.262 E1.59003
G1 X36.501 Y172.262 E0.03318
G1 X12.577 Y148.338 E1.63695
G1 X12.577 Y147.652 E0.03318
G1 X37.187 Y172.262 E1.68387
G1 X37.873 Y172.262 E0.03318
G1 X12.577 Y146.967 E1.73080
G1 X12.577 Y146.281 E0.03318
G1 X38.558 Y172.262 E1.77772
G1 X39.244 Y172.262 E0.03318
G1 X12.577 Y145.595 E1.82464
G1 X12.577 Y144.909 E0.03318
G1 X39.930 Y172.262 E1.87156
G1 X40.616 Y172.262 E0.03318
G1 X12.577 Y144.224 E1.91848
G1 X12.577 Y143.538 E0.03318
G1 X41.301 Y172.262 E1.96540
G1 X41.987 Y172.262 E0.03318
G1 X12.577 Y142.852 E2.01232
G1 X12.577 Y142.166 E0.03318
G1 X42.673 Y172.262 E2.05925
G1 X43.359 Y172.262 E0.03318
G1 X12.577 Y141.481 E2.10617
G1 X12.577 Y140.795 E0.03318
G1 X44.044 Y172.262 E2.15309
G1 X44.730 Y172.262 E0.03318
G1 X12.577 Y140.109 E2.20001
G1 X12.577 Y139.423 E0.03318
G1 X45.416 Y172.262 E2.24693
G1 X46.102 Y172.262 E0.03318
G1 X12.577 Y138.738 E2.29385
G1 X12.577 Y138.052 E0.03318
G1 X46.787 Y172.262 E2.34077
G1 X47.473 Y172.262 E0.03318
G1 X12.577 Y137.366 E2.38770
G1 X12.577 Y136.680 E0.03318
G1 X48.159 Y172.262 E2.43462
G1 X48.845 Y172.262 E0.03318
G1 X12.577 Y135.995 E2.48154
G1 X12.577 Y135.309 E0.03318
G1 X49.530 Y172.262 E2.52846
G1 X50.216 Y172.262 E0.03318
G1 X12.577 Y134.623 E2.57538
G1 X12.577 Y133.938 E0.03318
G1 X50.902 Y172.262 E2.62230
G1 X51.588 Y172.262 E0.03318
G1 X12.577 Y133.252 E2.66922
G1 X12.577 Y132.566 E0.03318
G1 X52.273 Y172.262 E2.71615
G1 X52.959 Y172.262 E0.03318
G1 X12.577 Y131.880 E2.76307
G1 X12.577 Y131.195 E0.03318
G1 X53.645 Y172.262 E2.80999
G1 X54.330 Y172.262 E0.03318
G1 X12.577 Y130.509 E2.85691
G1 X12.577 Y129.823 E0.03318
G1 X55.016 Y172.262 E2.90383
G1 X55.702 Y172.262 E0.03318
G1 X12.577 Y129.137 E2.95075
G1 X12.577 Y128.452 E0.03318
G1 X56.388 Y172.262 E2.99767
G1 X57.073 Y172.262 E0.03318
G1 X12.577 Y127.766 E3.04460
G1 X12.577 Y127.080 E0.03318
G1 X57.759 Y172.262 E3.09152
G1 X58.445 Y172.262 E0.03318
G1 X12.577 Y126.394 E3.13844
G1 X12.577 Y125.709 E0.03318
G1 X59.131 Y172.262 E3.18536
G1 X59.816 Y172.262 E0.03318
G1 X12.577 Y125.023 E3.23228
G1 X12.577 Y124.337 E0.03318
G1 X60.502 Y172.262 E3.27920
G1 X61.188 Y172.262 E0.03318
G1 X12.577 Y123.651 E3.32612
G1 X12.577 Y122.966 E0.03318
G1 X61.874 Y172.262 E3.37304
G1 X62.559 Y172.262 E0.03318
G1 X12.577 Y122.280 E3.41997
G1 X12.577 Y121.594 E0.03318
G1 X63.245 Y172.262 E3.46689
G1 X63.931 Y172.262 E0.03318
G1 X12.577 Y120.908 E3.51381
G1 X12.577 Y120.223 E0.03318
G1 X64.617 Y172.262 E3.56073
G1 X65.302 Y172.262 E0.03318
G1 X12.577 Y119.537 E3.60765
G1 X12.577 Y118.851 E0.03318
G1 X65.988 Y172.262 E3.65457
G1 X66.674 Y172.262 E0.03318
G1 X12.577 Y118.165 E3.70149
G1 X12.577 Y117.480 E0.03318
G1 X67.360 Y172.262 E3.74842
G1 X68.045 Y172.262 E0.03318
G1 X12.577 Y116.794 E3.79534
G1 X12.577 Y116.108 E0.03318
G1 X68.731 Y172.262 E3.84226
G1 X69.417 Y172.262 E0.03318
G1 X12.577 Y115.422 E3.88918
G1 X12.577 Y114.737 E0.03318
G1 X70.103 Y172.262 E3.93610
G1 X70.788 Y172.262 E0.03318
G1 X12.577 Y114.051 E3.98302
G1 X12.577 Y113.365 E0.03318
G1 X71.474 Y172.262 E4.02994
G1 X72.160 Y172.262 E0.03318
G1 X12.577 Y112.679 E4.07687
G1 X12.728 Y112.144 E0.02690
G1 X72.846 Y172.262 E4.11349
G1 X73.531 Y172.262 E0.03318
G1 X13.414 Y112.144 E4.11349
G1 X14.099 Y112.144 E0.03318
G1 X74.217 Y172.262 E4.11349
G1 X74.903 Y172.262 E0.03318
G1 X14.785 Y112.144 E4.11349
G1 X15.471 Y112.144 E0.03318
G1 X75.589 Y172.262 E4.11349
G1 X76.274 Y172.262 E0.03318
G1 X16.157 Y112.144 E4.11349
G1 X16.842 Y112.144 E0.03318
G1 X76.960 Y172.262 E4.11349
G1 X77.646 Y172.262 E0.03318
G1 X17.528 Y112.144 E4.11349
G1 X18.214 Y112.144 E0.03318
G1 X78.332 Y172.262 E4.11349
G1 X79.017 Y172.262 E0.03318
G1 X18.900 Y112.144 E4.11349
G1 X19.585 Y112.144 E0.03318
G1 X79.703 Y172.262 E4.11349
G1 X80.389 Y172.262 E0.03318
G1 X20.271 Y112.144 E4.11349
G1 X20.957 Y112.144 E0.03318
G1 X81.075 Y172.262 E4.11349
G1 X81.760 Y172.262 E0.03318
G1 X21.643 Y112.144 E4.11349
G1 X22.328 Y112.144 E0.03318
G1 X82.446 Y172.262 E4.11349
G1 X83.132 Y172.262 E0.03318
G1 X23.014 Y112.144 E4.11349
G1 X23.700 Y112.144 E0.03318
G1 X83.818 Y172.262 E4.11349
G1 X84.503 Y172.262 E0.03318
G1 X24.386 Y112.144 E4.11349
G1 X25.071 Y112.144 E0.03318
G1 X85.189 Y172.262 E4.11349
G1 X85.875 Y172.262 E0.03318
G1 X25.757 Y112.144 E4.11349
G1 X26.443 Y112.144 E0.03318
G1 X86.561 Y172.262 E4.11349
G1 X87.246 Y172.262 E0.03318
G1 X27.129 Y112.144 E4.11349
G1 X27.814 Y112.144 E0.03318
G1 X87.932 Y172.262 E4.11349
G1 X88.618 Y172.262 E0.03318
G1 X28.500 Y112.144 E4.11349
G1 X29.186 Y112.144 E0.03318
G1 X89.304 Y172.262 E4.11349
G1 X89.989 Y172.262 E0.03318
G1 X29.871 Y112.144 E4.11349
G1 X30.557 Y112.144 E0.03318
G1 X90.675 Y172.262 E4.11349
G1 X91.361 Y172.262 E0.03318
G1 X31.243 Y112.144 E4.11349
G1 X31.929 Y112.144 E0.03318
G1 X92.046 Y172.262 E4.11349
G1 X92.732 Y172.262 E0.03318
G1 X32.614 Y112.144 E4.11349
G1 X33.300 Y112.144 E0.03318
G1 X93.418 Y172.262 E4.11349
G1 X94.104 Y172.262 E0.03318
G1 X33.986 Y112.144 E4.11349
G1 X34.672 Y112.144 E0.03318
G1 X94.789 Y172.262 E4.11349
G1 X95.475 Y172.262 E0.03318
G1 X35.357 Y112.144 E4.11349
G1 X36.043 Y112.144 E0.03318
G1 X96.161 Y172.262 E4.11349
G1 X96.847 Y172.262 E0.03318
G1 X36.729 Y112.144 E4.11349
G1 X37.415 Y112.144 E0.03318
G1 X97.532 Y172.262 E4.11349
G1 X98.218 Y172.262 E0.03318
G1 X38.100 Y112.144 E4.11349
G1 X38.786 Y112.144 E0.03318
G1 X98.904 Y172.262 E4.11349
G1 X99.590 Y172.262 E0.03318
G1 X39.472 Y112.144 E4.11349
G1 X40.158 Y112.144 E0.03318
G1 X100.275 Y172.262 E4.11349
G1 X100.961 Y172.262 E0.03318
G1 X40.843 Y112.144 E4.11349
G1 X41.529 Y112.144 E0.03318
G1 X101.647 Y172.262 E4.11349
G1 X102.333 Y172.262 E0.03318
G1 X42.215 Y112.144 E4.11349
G1 X42.901 Y112.144 E0.03318
G1 X103.018 Y172.262 E4.11349
G1 X103.704 Y172.262 E0.03318
G1 X43.586 Y112.144 E4.11349
G1 X44.272 Y112.144 E0.03318
G1 X104.390 Y172.262 E4.11349
G1 X105.076 Y172.262 E0.03318
G1 X44.958 Y112.144 E4.11349
G1 X45.644 Y112.144 E0.03318
G1 X105.761 Y172.262 E4.11349
G1 X106.447 Y172.262 E0.03318
G1 X46.329 Y112.144 E4.11349
G1 X47.015 Y112.144 E0.03318
G1 X107.133 Y172.262 E4.11349
G1 X107.819 Y172.262 E0.03318
G1 X47.701 Y112.144 E4.11349
G1 X48.387 Y112.144 E0.03318
G1 X108.504 Y172.262 E4.11349
G1 X109.190 Y172.262 E0.03318
G1 X49.072 Y112.144 E4.11349
G1 X49.758 Y112.144 E0.03318
G1 X109.876 Y172.262 E4.11349
G1 X110.562 Y172.262 E0.03318
G1 X50.444 Y112.144 E4.11349
G1 X51.130 Y112.144 E0.03318
G1 X111.247 Y172.262 E4.11349
G1 X111.933 Y172.262 E0.03318
G1 X51.815 Y112.144 E4.11349
G1 X52.501 Y112.144 E0.03318
G1 X112.619 Y172.262 E4.11349
G1 X113.305 Y172.262 E0.03318
G1 X53.187 Y112.144 E4.11349
G1 X53.873 Y112.144 E0.03318
G1 X113.990 Y172.262 E4.11349
G1 X114.676 Y172.262 E0.03318
G1 X54.558 Y112.144 E4.11349
G1 X55.244 Y112.144 E0.03318
G1 X115.362 Y172.262 E4.11349
G1 X116.048 Y172.262 E0.03318
G1 X55.930 Y112.144 E4.11349
G1 X56.616 Y112.144 E0.03318
G1 X116.733 Y172.262 E4.11349
G1 X117.419 Y172.262 E0.03318
G1 X57.301 Y112.144 E4.11349
G1 X57.987 Y112.144 E0.03318
G1 X118.105 Y172.262 E4.11349
G1 X118.791 Y172.262 E0.03318
G1 X58.673 Y112.144 E4.11349
G1 X59.359 Y112.144 E0.03318
G1 X119.476 Y172.262 E4.11349
G1 X120.162 Y172.262 E0.03318
G1 X60.044 Y112.144 E4.11349
G1 X60.730 Y112.144 E0.03318
G1 X120.848 Y172.262 E4.11349
G1 X121.534 Y172.262 E0.03318
G1 X61.416 Y112.144 E4.11349
G1 X62.102 Y112.144 E0.03318
G1 X122.219 Y172.262 E4.11349
G1 X122.905 Y172.262 E0.03318
G1 X62.787 Y112.144 E4.11349
G1 X63.473 Y112.144 E0.03318
G1 X123.591 Y172.262 E4.11349
G1 X124.277 Y172.262 E0.03318
G1 X64.159 Y112.144 E4.11349
G1 X64.845 Y112.144 E0.03318
G1 X124.962 Y172.262 E4.11349
G1 X125.648 Y172.262 E0.03318
G1 X65.530 Y112.144 E4.11349
G1 X66.216 Y112.144 E0.03318
G1 X126.334 Y172.262 E4.11349
G1 X127.019 Y172.262 E0.03318
G1 X66.902 Y112.144 E4.11349
G1 X67.587 Y112.144 E0.03318
G1 X127.705 Y172.262 E4.11349
G1 X128.391 Y172.262 E0.03318
G1 X68.273 Y112.144 E4.11349
G1 X68.959 Y112.144 E0.03318
G1 X129.077 Y172.262 E4.11349
G1 X129.762 Y172.262 E0.03318
G1 X69.645 Y112.144 E4.11349
G1 X70.330 Y112.144 E0.03318
G1 X130.448 Y172.262 E4.11349
G1 X131.134 Y172.262 E0.03318
G1 X71.016 Y112.144 E4.11349
G1 X71.702 Y112.144 E0.03318
G1 X131.820 Y172.262 E4.11349
G1 X132.505 Y172.262 E0.03318
G1 X72.388 Y112.144 E4.11349
G1 X73.073 Y112.144 E0.03318
G1 X133.191 Y172.262 E4.11349
G1 X133.877 Y172.262 E0.03318
G1 X73.759 Y112.144 E4.11349
G1 X74.445 Y112.144 E0.03318
G1 X134.563 Y172.262 E4.11349
G1 X135.248 Y172.262 E0.03318
G1 X75.131 Y112.144 E4.11349
G1 X75.816 Y112.144 E0.03318
G1 X135.934 Y172.262 E4.11349
G1 X136.620 Y172.262 E0.03318
G1 X76.502 Y112.144 E4.11349
G1 X77.188 Y112.144 E0.03318
G1 X137.306 Y172.262 E4.11349
G1 X137.991 Y172.262 E0.03318
G1 X77.874 Y112.144 E4.11349
G1 X78.559 Y112.144 E0.03318
G1 X138.677 Y172.262 E4.11349
G1 X139.363 Y172.262 E0.03318
G1 X79.245 Y112.144 E4.11349
G1 X79.931 Y112.144 E0.03318
G1 X140.049 Y172.262 E4.11349
G1 X140.734 Y172.262 E0.03318
G1 X80.617 Y112.144 E4.11349
G1 X81.302 Y112.144 E0.03318
G1 X141.420 Y172.262 E4.11349
G1 X142.106 Y172.262 E0.03318
G1 X81.988 Y112.144 E4.11349
G1 X82.674 Y112.144 E0.03318
G1 X142.792 Y172.262 E4.11349
G1 X143.477 Y172.262 E0.03318
G1 X83.360 Y112.144 E4.11349
G1 X84.045 Y112.144 E0.03318
G1 X144.163 Y172.262 E4.11349
G1 X144.849 Y172.262 E0.03318
G1 X84.731 Y112.144 E4.11349
G1 X85.417 Y112.144 E0.03318
G1 X145.535 Y172.262 E4.11349
G1 X146.220 Y172.262 E0.03318
G1 X86.103 Y112.144 E4.11349
G1 X86.788 Y112.144 E0.03318
G1 X146.906 Y172.262 E4.11349
G1 X147.592 Y172.262 E0.03318
G1 X87.474 Y112.144 E4.11349
G1 X88.160 Y112.144 E0.03318
G1 X148.278 Y172.262 E4.11349
G1 X148.963 Y172.262 E0.03318
G1 X88.846 Y112.144 E4.11349
G1 X89.531 Y112.144 E0.03318
G1 X149.649 Y172.262 E4.11349
G1 X150.335 Y172.262 E0.03318
G1 X90.217 Y112.144 E4.11349
G1 X90.903 Y112.144 E0.03318
G1 X151.021 Y172.262 E4.11349
G1 X151.706 Y172.262 E0.03318
G1 X91.589 Y112.144 E4.11349
G1 X92.274 Y112.144 E0.03318
G1 X152.392 Y172.262 E4.11349
G1 X153.078 Y172.262 E0.03318
G1 X92.960 Y112.144 E4.11349
G1 X93.646 Y112.144 E0.03318
G1 X153.764 Y172.262 E4.11349
G1 X154.449 Y172.262 E0.03318
G1 X94.332 Y112.144 E4.11349
G1 X95.017 Y112.144 E0.03318
G1 X155.135 Y172.262 E4.11349
G1 X155.821 Y172.262 E0.03318
G1 X95.703 Y112.144 E4.11349
G1 X96.389 Y112.144 E0.03318
G1 X156.507 Y172.262 E4.11349
G1 X157.192 Y172.262 E0.03318
G1 X97.075 Y112.144 E4.11349
G1 X97.760 Y112.144 E0.03318
G1 X157.878 Y172.262 E4.11349
G1 X158.564 Y172.262 E0.03318
G1 X98.446 Y112.144 E4.11349
G1 X99.132 Y112.144 E0.03318
G1 X159.250 Y172.262 E4.11349
G1 X159.935 Y172.262 E0.03318
G1 X99.818 Y112.144 E4.11349
G1 X100.503 Y112.144 E0.03318
G1 X160.621 Y172.262 E4.11349
G1 X161.307 Y172.262 E0.03318
G1 X101.189 Y112.144 E4.11349
G1 X101.875 Y112.144 E0.03318
G1 X161.993 Y172.262 E4.11349
G1 X162.678 Y172.262 E0.03318
G1 X102.561 Y112.144 E4.11349
G1 X103.246 Y112.144 E0.03318
G1 X163.364 Y172.262 E4.11349
G1 X163.423 Y171.635 E0.03048
G1 X103.932 Y112.144 E4.07058
G1 X104.618 Y112.144 E0.03318
G1 X163.423 Y170.949 E4.02366
G1 X163.423 Y170.263 E0.03318
G1 X105.303 Y112.144 E3.97674
G1 X105.989 Y112.144 E0.03318
G1 X163.423 Y169.577 E3.92982
G1 X163.423 Y168.892 E0.03318
G1 X106.675 Y112.144 E3.88289
G1 X107.361 Y112.144 E0.03318
G1 X163.423 Y168.206 E3.83597
G1 X163.423 Y167.520 E0.03318
G1 X108.046 Y112.144 E3.78905
G1 X108.732 Y112.144 E0.03318
G1 X163.423 Y166.834 E3.74213
G1 X163.423 Y166.149 E0.03318
G1 X109.418 Y112.144 E3.69521
G1 X110.104 Y112.144 E0.03318
G1 X163.423 Y165.463 E3.64829
G1 X163.423 Y164.777 E0.03318
G1 X110.789 Y112.144 E3.60137
G1 X111.475 Y112.144 E0.03318
G1 X163.423 Y164.091 E3.55444
G1 X163.423 Y163.406 E0.03318
G1 X112.161 Y112.144 E3.50752
G1 X112.847 Y112.144 E0.03318
G1 X163.423 Y162.720 E3.46060
