; generated by Slic3r 0.9.10b on 2013-08-10 at 16:52:47

; layer_height = 0.24
; perimeters = 2
; top_solid_layers = 3
; bottom_solid_layers = 3
; fill_density = 0.4
; perimeter_speed = 30
; infill_speed = 40
; travel_speed = 60
; nozzle_diameter = 0.5
; filament_diameter = 1.75
; extrusion_multiplier = 1
; perimeters extrusion width = 0.85mm
; infill extrusion width = 0.87mm
; solid infill extrusion width = 0.85mm
; top infill extrusion width = 0.85mm
; first layer extrusion width = 0.48mm

G21 ; set units to millimeters
M107
M104 S205 ; set temperature
G28 ; home all axes
G1 Z5 F200 ; lift nozzle
M109 S205 ; wait for temperature to be reached
G90 ; use absolute coordinates
M83 ; use relative distances for extrusion
G1 F1800.000 E-2.00000
G1 Z0.240 F3600.000
G1 X6.910 Y7.910
G1 F1800.000 E2.00000
G1 X7.900 Y7.110 F540.000 E0.06151
G1 X9.020 Y6.510 E0.06140
G1 X10.230 Y6.140 E0.06114
G1 X11.500 Y6.020 E0.06164
G1 X31.500 Y6.020 E0.96646
G1 X32.130 Y6.050 E0.03048
G1 X188.460 Y21.210 E7.58975
G1 X189.780 Y21.480 E0.06511
G1 X191.020 Y22.020 E0.06536
G1 X192.130 Y22.800 E0.06556
G1 X193.040 Y23.800 E0.06534
G1 X193.730 Y24.970 E0.06564
G1 X194.160 Y26.250 E0.06525
G1 X194.310 Y27.600 E0.06564
G1 X194.980 Y99.600 E3.47940
G1 X194.980 Y162.670 E3.04772
G1 X194.960 Y163.190 E0.02515
G1 X192.960 Y188.020 E1.20374
G1 X192.710 Y189.370 E0.06635
G1 X192.170 Y190.640 E0.06669
G1 X191.380 Y191.770 E0.06663
G1 X190.370 Y192.710 E0.06667
G1 X189.180 Y193.410 E0.06672
G1 X187.870 Y193.840 E0.06663
G1 X186.500 Y193.980 E0.06655
G1 X11.500 Y193.980 E8.45650
G1 X10.230 Y193.860 E0.06164
G1 X9.020 Y193.490 E0.06114
G1 X7.900 Y192.890 E0.06140
G1 X6.910 Y192.090 E0.06151
G1 X6.110 Y191.100 E0.06151
G1 X5.510 Y189.980 E0.06140
G1 X5.140 Y188.770 E0.06114
G1 X5.020 Y187.500 E0.06164
G1 X5.020 Y12.500 E8.45650
G1 X5.140 Y11.230 E0.06164
G1 X5.510 Y10.020 E0.06114
G1 X6.110 Y8.900 E0.06140
G1 X6.864 Y7.967 E0.05800
G1 F1800.000 E-2.00000
G1 X36.226 Y101.126 F3600.000
G1 F1800.000 E2.00000
G1 X187.774 Y101.126 F540.000 E7.32319
G1 X187.774 Y161.946 E2.93898
G1 X36.226 Y161.946 E7.32319
G1 X36.226 Y101.199 E2.93547
G1 X35.742 Y100.642 F3600.000
G1 X188.258 Y100.642 F378.000 E7.36999
G1 X188.258 Y162.430 E2.98579
G1 X35.742 Y162.430 E7.36999
G1 X35.742 Y100.715 E2.98228
G1 X36.162 Y100.884 F3600.000
G1 X37.186 Y161.595
G1 X36.577 Y160.987 F720.000 E0.04163
G1 X36.577 Y160.301 E0.03318
G1 X37.872 Y161.595 E0.08855
G1 X38.557 Y161.595 E0.03318
G1 X36.577 Y159.615 E0.13547
G1 X36.577 Y158.930 E0.03318
G1 X39.243 Y161.595 E0.18239
G1 X39.929 Y161.595 E0.03318
G1 X36.577 Y158.244 E0.22931
G1 X36.577 Y157.558 E0.03318
G1 X40.614 Y161.595 E0.27623
G1 X41.300 Y161.595 E0.03318
G1 X36.577 Y156.872 E0.32315
G1 X36.577 Y156.187 E0.03318
G1 X41.986 Y161.595 E0.37008
G1 X42.672 Y161.595 E0.03318
G1 X36.577 Y155.501 E0.41700
G1 X36.577 Y154.815 E0.03318
G1 X43.357 Y161.595 E0.46392
G1 X44.043 Y161.595 E0.03318
G1 X36.577 Y154.129 E0.51084
G1 X36.577 Y153.444 E0.03318
G1 X44.729 Y161.595 E0.55776
G1 X45.415 Y161.595 E0.03318
G1 X36.577 Y152.758 E0.60468
G1 X36.577 Y152.072 E0.03318
G1 X46.100 Y161.595 E0.65160
G1 X46.786 Y161.595 E0.03318
G1 X36.577 Y151.386 E0.69852
G1 X36.577 Y150.701 E0.03318
G1 X47.472 Y161.595 E0.74545
G1 X48.158 Y161.595 E0.03318
G1 X36.577 Y150.015 E0.79237
G1 X36.577 Y149.329 E0.03318
G1 X48.843 Y161.595 E0.83929
G1 X49.529 Y161.595 E0.03318
G1 X36.577 Y148.643 E0.88621
G1 X36.577 Y147.958 E0.03318
G1 X50.215 Y161.595 E0.93313
G1 X50.901 Y161.595 E0.03318
G1 X36.577 Y147.272 E0.98005
G1 X36.577 Y146.586 E0.03318
G1 X51.586 Y161.595 E1.02697
G1 X52.272 Y161.595 E0.03318
G1 X36.577 Y145.900 E1.07390
G1 X36.577 Y145.215 E0.03318
G1 X52.958 Y161.595 E1.12082
G1 X53.644 Y161.595 E0.03318
G1 X36.577 Y144.529 E1.16774
G1 X36.577 Y143.843 E0.03318
G1 X54.329 Y161.595 E1.21466
G1 X55.015 Y161.595 E0.03318
G1 X36.577 Y143.157 E1.26158
G1 X36.577 Y142.472 E0.03318
G1 X55.701 Y161.595 E1.30850
G1 X56.387 Y161.595 E0.03318
G1 X36.577 Y141.786 E1.35542
G1 X36.577 Y141.100 E0.03318
G1 X57.072 Y161.595 E1.40235
G1 X57.758 Y161.595 E0.03318
G1 X36.577 Y140.414 E1.44927
G1 X36.577 Y139.729 E0.03318
G1 X58.444 Y161.595 E1.49619
G1 X59.130 Y161.595 E0.03318
G1 X36.577 Y139.043 E1.54311
G1 X36.577 Y138.357 E0.03318
G1 X59.815 Y161.595 E1.59003
G1 X60.501 Y161.595 E0.03318
G1 X36.577 Y137.671 E1.63695
G1 X36.577 Y136.986 E0.03318
G1 X61.187 Y161.595 E1.68387
G1 X61.873 Y161.595 E0.03318
G1 X36.577 Y136.300 E1.73080
G1 X36.577 Y135.614 E0.03318
G1 X62.558 Y161.595 E1.77772
G1 X63.244 Y161.595 E0.03318
G1 X36.577 Y134.929 E1.82464
G1 X36.577 Y134.243 E0.03318
G1 X63.930 Y161.595 E1.87156
G1 X64.616 Y161.595 E0.03318
G1 X36.577 Y133.557 E1.91848
G1 X36.577 Y132.871 E0.03318
G1 X65.301 Y161.595 E1.96540
G1 X65.987 Y161.595 E0.03318
G1 X36.577 Y132.186 E2.01232
G1 X36.577 Y131.500 E0.03318
G1 X66.673 Y161.595 E2.05925
G1 X67.359 Y161.595 E0.03318
G1 X36.577 Y130.814 E2.10617
G1 X36.577 Y130.128 E0.03318
G1 X68.044 Y161.595 E2.15309
G1 X68.730 Y161.595 E0.03318
G1 X36.577 Y129.443 E2.20001
G1 X36.577 Y128.757 E0.03318
G1 X69.416 Y161.595 E2.24693
G1 X70.102 Y161.595 E0.03318
G1 X36.577 Y128.071 E2.29385
G1 X36.577 Y127.385 E0.03318
G1 X70.787 Y161.595 E2.34077
G1 X71.473 Y161.595 E0.03318
G1 X36.577 Y126.700 E2.38770
G1 X36.577 Y126.014 E0.03318
G1 X72.159 Y161.595 E2.43462
G1 X72.845 Y161.595 E0.03318
G1 X36.577 Y125.328 E2.48154
G1 X36.577 Y124.642 E0.03318
G1 X73.530 Y161.595 E2.52846
G1 X74.216 Y161.595 E0.03318
G1 X36.577 Y123.957 E2.57538
G1 X36.577 Y123.271 E0.03318
G1 X74.902 Y161.595 E2.62230
G1 X75.588 Y161.595 E0.03318
G1 X36.577 Y122.585 E2.66922
G1 X36.577 Y121.899 E0.03318
G1 X76.273 Y161.595 E2.71615
G1 X76.959 Y161.595 E0.03318
G1 X36.577 Y121.214 E2.76307
G1 X36.577 Y120.528 E0.03318
G1 X77.645 Y161.595 E2.80999
G1 X78.330 Y161.595 E0.03318
G1 X36.577 Y119.842 E2.85691
G1 X36.577 Y119.156 E0.03318
G1 X79.016 Y161.595 E2.90383
G1 X79.702 Y161.595 E0.03318
G1 X36.577 Y118.471 E2.95075
G1 X36.577 Y117.785 E0.03318
G1 X80.388 Y161.595 E2.99767
G1 X81.073 Y161.595 E0.03318
G1 X36.577 Y117.099 E3.04460
G1 X36.577 Y116.413 E0.03318
G1 X81.759 Y161.595 E3.09152
G1 X82.445 Y161.595 E0.03318
G1 X36.577 Y115.728 E3.13844
G1 X36.577 Y115.042 E0.03318
G1 X83.131 Y161.595 E3.18536
G1 X83.816 Y161.595 E0.03318
G1 X36.577 Y114.356 E3.23228
G1 X36.577 Y113.670 E0.03318
G1 X84.502 Y161.595 E3.27920
G1 X85.188 Y161.595 E0.03318
G1 X36.577 Y112.985 E3.32612
G1 X36.577 Y112.299 E0.03318
G1 X85.874 Y161.595 E3.37304
G1 X86.559 Y161.595 E0.03318
G1 X36.577 Y111.613 E3.41997
G1 X36.577 Y110.927 E0.03318
G1 X87.245 Y161.595 E3.46689
G1 X87.931 Y161.595 E0.03318
G1 X36.577 Y110.242 E3.51381
G1 X36.577 Y109.556 E0.03318
G1 X88.617 Y161.595 E3.56073
G1 X89.302 Y161.595 E0.03318
G1 X36.577 Y108.870 E3.60765
G1 X36.577 Y108.184 E0.03318
G1 X89.988 Y161.595 E3.65457
G1 X90.674 Y161.595 E0.03318
G1 X36.577 Y107.499 E3.70149
G1 X36.577 Y106.813 E0.03318
G1 X91.360 Y161.595 E3.74842
G1 X92.045 Y161.595 E0.03318
G1 X36.577 Y106.127 E3.79534
G1 X36.577 Y105.441 E0.03318
G1 X92.731 Y161.595 E3.84226
G1 X93.417 Y161.595 E0.03318
G1 X36.577 Y104.756 E3.88918
G1 X36.577 Y104.070 E0.03318
G1 X94.103 Y161.595 E3.93610
G1 X94.788 Y161.595 E0.03318
G1 X36.577 Y103.384 E3.98302
G1 X36.577 Y102.698 E0.03318
G1 X95.474 Y161.595 E4.02994
G1 X96.160 Y161.595 E0.03318
G1 X36.577 Y102.013 E4.07687
G1 X36.728 Y101.477 E0.02690
G1 X96.846 Y161.595 E4.11349
G1 X97.531 Y161.595 E0.03318
G1 X37.414 Y101.477 E4.11349
G1 X38.099 Y101.477 E0.03318
G1 X98.217 Y161.595 E4.11349
G1 X98.903 Y161.595 E0.03318
G1 X38.785 Y101.477 E4.11349
G1 X39.471 Y101.477 E0.03318
G1 X99.589 Y161.595 E4.11349
G1 X100.274 Y161.595 E0.03318
G1 X40.157 Y101.477 E4.11349
G1 X40.842 Y101.477 E0.03318
G1 X100.960 Y161.595 E4.11349
G1 X101.646 Y161.595 E0.03318
G1 X41.528 Y101.477 E4.11349
G1 X42.214 Y101.477 E0.03318
G1 X102.332 Y161.595 E4.11349
G1 X103.017 Y161.595 E0.03318
G1 X42.900 Y101.477 E4.11349
G1 X43.585 Y101.477 E0.03318
G1 X103.703 Y161.595 E4.11349
G1 X104.389 Y161.595 E0.03318
G1 X44.271 Y101.477 E4.11349
G1 X44.957 Y101.477 E0.03318
G1 X105.075 Y161.595 E4.11349
G1 X105.760 Y161.595 E0.03318
G1 X45.643 Y101.477 E4.11349
G1 X46.328 Y101.477 E0.03318
G1 X106.446 Y161.595 E4.11349
G1 X107.132 Y161.595 E0.03318
G1 X47.014 Y101.477 E4.11349
G1 X47.700 Y101.477 E0.03318
G1 X107.818 Y161.595 E4.11349
G1 X108.503 Y161.595 E0.03318
G1 X48.386 Y101.477 E4.11349
G1 X49.071 Y101.477 E0.03318
G1 X109.189 Y161.595 E4.11349
G1 X109.875 Y161.595 E0.03318
G1 X49.757 Y101.477 E4.11349
G1 X50.443 Y101.477 E0.03318
G1 X110.561 Y161.595 E4.11349
G1 X111.246 Y161.595 E0.03318
G1 X51.129 Y101.477 E4.11349
G1 X51.814 Y101.477 E0.03318
G1 X111.932 Y161.595 E4.11349
G1 X112.618 Y161.595 E0.03318
G1 X52.500 Y101.477 E4.11349
G1 X53.186 Y101.477 E0.03318
G1 X113.304 Y161.595 E4.11349
G1 X113.989 Y161.595 E0.03318
G1 X53.871 Y101.477 E4.11349
G1 X54.557 Y101.477 E0.03318
G1 X114.675 Y161.595 E4.11349
G1 X115.361 Y161.595 E0.03318
G1 X55.243 Y101.477 E4.11349
G1 X55.929 Y101.477 E0.03318
G1 X116.046 Y161.595 E4.11349
G1 X116.732 Y161.595 E0.03318
G1 X56.614 Y101.477 E4.11349
G1 X57.300 Y101.477 E0.03318
G1 X117.418 Y161.595 E4.11349
G1 X118.104 Y161.595 E0.03318
G1 X57.986 Y101.477 E4.11349
G1 X58.672 Y101.477 E0.03318
G1 X118.789 Y161.595 E4.11349
G1 X119.475 Y161.595 E0.03318
G1 X59.357 Y101.477 E4.11349
G1 X60.043 Y101.477 E0.03318
G1 X120.161 Y161.595 E4.11349
G1 X120.847 Y161.595 E0.03318
G1 X60.729 Y101.477 E4.11349
G1 X61.415 Y101.477 E0.03318
G1 X121.532 Y161.595 E4.11349
G1 X122.218 Y161.595 E0.03318
G1 X62.100 Y101.477 E4.11349
G1 X62.786 Y101.477 E0.03318
G1 X122.904 Y161.595 E4.11349
G1 X123.590 Y161.595 E0.03318
G1 X63.472 Y101.477 E4.11349
G1 X64.158 Y101.477 E0.03318
G1 X124.275 Y161.595 E4.11349
G1 X124.961 Y161.595 E0.03318
G1 X64.843 Y101.477 E4.11349
G1 X65.529 Y101.477 E0.03318
G1 X125.647 Y161.595 E4.11349
G1 X126.333 Y161.595 E0.03318
G1 X66.215 Y101.477 E4.11349
G1 X66.901 Y101.477 E0.03318
G1 X127.018 Y161.595 E4.11349
G1 X127.704 Y161.595 E0.03318
G1 X67.586 Y101.477 E4.11349
G1 X68.272 Y101.477 E0.03318
G1 X128.390 Y161.595 E4.11349
G1 X129.076 Y161.595 E0.03318
G1 X68.958 Y101.477 E4.11349
G1 X69.644 Y101.477 E0.03318
G1 X129.761 Y161.595 E4.11349
G1 X130.447 Y161.595 E0.03318
G1 X70.329 Y101.477 E4.11349
G1 X71.015 Y101.477 E0.03318
G1 X131.133 Y161.595 E4.11349
G1 X131.819 Y161.595 E0.03318
G1 X71.701 Y101.477 E4.11349
G1 X72.387 Y101.477 E0.03318
G1 X132.504 Y161.595 E4.11349
G1 X133.190 Y161.595 E0.03318
G1 X73.072 Y101.477 E4.11349
G1 X73.758 Y101.477 E0.03318
G1 X133.876 Y161.595 E4.11349
G1 X134.562 Y161.595 E0.03318
G1 X74.444 Y101.477 E4.11349
G1 X75.130 Y101.477 E0.03318
G1 X135.247 Y161.595 E4.11349
G1 X135.933 Y161.595 E0.03318
G1 X75.815 Y101.477 E4.11349
G1 X76.501 Y101.477 E0.03318
G1 X136.619 Y161.595 E4.11349
G1 X137.305 Y161.595 E0.03318
G1 X77.187 Y101.477 E4.11349
G1 X77.873 Y101.477 E0.03318
G1 X137.990 Y161.595 E4.11349
G1 X138.676 Y161.595 E0.03318
G1 X78.558 Y101.477 E4.11349
G1 X79.244 Y101.477 E0.03318
G1 X139.362 Y161.595 E4.11349
G1 X140.048 Y161.595 E0.03318
G1 X79.930 Y101.477 E4.11349
G1 X80.616 Y101.477 E0.03318
G1 X140.733 Y161.595 E4.11349
G1 X141.419 Y161.595 E0.03318
G1 X81.301 Y101.477 E4.11349
G1 X81.987 Y101.477 E0.03318
G1 X142.105 Y161.595 E4.11349
G1 X142.791 Y161.595 E0.03318
G1 X82.673 Y101.477 E4.11349
G1 X83.359 Y101.477 E0.03318
G1 X143.476 Y161.595 E4.11349
G1 X144.162 Y161.595 E0.03318
G1 X84.044 Y101.477 E4.11349
G1 X84.730 Y101.477 E0.03318
G1 X144.848 Y161.595 E4.11349
G1 X145.534 Y161.595 E0.03318
G1 X85.416 Y101.477 E4.11349
G1 X86.102 Y101.477 E0.03318
G1 X146.219 Y161.595 E4.11349
G1 X146.905 Y161.595 E0.03318
G1 X86.787 Y101.477 E4.11349
G1 X87.473 Y101.477 E0.03318
G1 X147.591 Y161.595 E4.11349
G1 X148.277 Y161.595 E0.03318
G1 X88.159 Y101.477 E4.11349
G1 X88.845 Y101.477 E0.03318
G1 X148.962 Y161.595 E4.11349
G1 X149.648 Y161.595 E0.03318
G1 X89.530 Y101.477 E4.11349
G1 X90.216 Y101.477 E0.03318
G1 X150.334 Y161.595 E4.11349
G1 X151.019 Y161.595 E0.03318
G1 X90.902 Y101.477 E4.11349
G1 X91.587 Y101.477 E0.03318
G1 X151.705 Y161.595 E4.11349
G1 X152.391 Y161.595 E0.03318
G1 X92.273 Y101.477 E4.11349
G1 X92.959 Y101.477 E0.03318
G1 X153.077 Y161.595 E4.11349
G1 X153.762 Y161.595 E0.03318
G1 X93.645 Y101.477 E4.11349
G1 X94.330 Y101.477 E0.03318
G1 X154.448 Y161.595 E4.11349
G1 X155.134 Y161.595 E0.03318
G1 X95.016 Y101.477 E4.11349
G1 X95.702 Y101.477 E0.03318
G1 X155.820 Y161.595 E4.11349
G1 X156.505 Y161.595 E0.03318
G1 X96.388 Y101.477 E4.11349
G1 X97.073 Y101.477 E0.03318
G1 X157.191 Y161.595 E4.11349
G1 X157.877 Y161.595 E0.03318
G1 X97.759 Y101.477 E4.11349
G1 X98.445 Y101.477 E0.03318
G1 X158.563 Y161.595 E4.11349
G1 X159.248 Y161.595 E0.03318
G1 X99.131 Y101.477 E4.11349
G1 X99.816 Y101.477 E0.03318
G1 X159.934 Y161.595 E4.11349
G1 X160.620 Y161.595 E0.03318
G1 X100.502 Y101.477 E4.11349
G1 X101.188 Y101.477 E0.03318
G1 X161.306 Y161.595 E4.11349
G1 X161.991 Y161.595 E0.03318
G1 X101.874 Y101.477 E4.11349
G1 X102.559 Y101.477 E0.03318
G1 X162.677 Y161.595 E4.11349
G1 X163.363 Y161.595 E0.03318
G1 X103.245 Y101.477 E4.11349
G1 X103.931 Y101.477 E0.03318
G1 X164.049 Y161.595 E4.11349
G1 X164.734 Y161.595 E0.03318
G1 X104.617 Y101.477 E4.11349
G1 X105.302 Y101.477 E0.03318
G1 X165.420 Y161.595 E4.11349
G1 X166.106 Y161.595 E0.03318
G1 X105.988 Y101.477 E4.11349
G1 X106.674 Y101.477 E0.03318
G1 X166.792 Y161.595 E4.11349
G1 X167.477 Y161.595 E0.03318
G1 X107.360 Y101.477 E4.11349
G1 X108.045 Y101.477 E0.03318
G1 X168.163 Y161.595 E4.11349
G1 X168.849 Y161.595 E0.03318
G1 X108.731 Y101.477 E4.11349
G1 X109.417 Y101.477 E0.03318
G1 X169.535 Y161.595 E4.11349
G1 X170.220 Y161.595 E0.03318
G1 X110.103 Y101.477 E4.11349
G1 X110.788 Y101.477 E0.03318
G1 X170.906 Y161.595 E4.11349
G1 X171.592 Y161.595 E0.03318
G1 X111.474 Y101.477 E4.11349
G1 X112.160 Y101.477 E0.03318
G1 X172.278 Y161.595 E4.11349
G1 X172.963 Y161.595 E0.03318
G1 X112.846 Y101.477 E4.11349
G1 X113.531 Y101.477 E0.03318
G1 X173.649 Y161.595 E4.11349
G1 X174.335 Y161.595 E0.03318
G1 X114.217 Y101.477 E4.11349
G1 X114.903 Y101.477 E0.03318
G1 X175.021 Y161.595 E4.11349
G1 X175.706 Y161.595 E0.03318
G1 X115.589 Y101.477 E4.11349
G1 X116.274 Y101.477 E0.03318
G1 X176.392 Y161.595 E4.11349
G1 X177.078 Y161.595 E0.03318
G1 X116.960 Y101.477 E4.11349
G1 X117.646 Y101.477 E0.03318
G1 X177.764 Y161.595 E4.11349
G1 X178.449 Y161.595 E0.03318
G1 X118.332 Y101.477 E4.11349
G1 X119.017 Y101.477 E0.03318
G1 X179.135 Y161.595 E4.11349
G1 X179.821 Y161.595 E0.03318
G1 X119.703 Y101.477 E4.11349
G1 X120.389 Y101.477 E0.03318
G1 X180.507 Y161.595 E4.11349
G1 X181.192 Y161.595 E0.03318
G1 X121.075 Y101.477 E4.11349
G1 X121.760 Y101.477 E0.03318
G1 X181.878 Y161.595 E4.11349
G1 X182.564 Y161.595 E0.03318
G1 X122.446 Y101.477 E4.11349
G1 X123.132 Y101.477 E0.03318
G1 X183.250 Y161.595 E4.11349
G1 X183.935 Y161.595 E0.03318
G1 X123.818 Y101.477 E4.11349
G1 X124.503 Y101.477 E0.03318
G1 X184.621 Y161.595 E4.11349
G1 X185.307 Y161.595 E0.03318
G1 X125.189 Y101.477 E4.11349
G1 X125.875 Y101.477 E0.03318
G1 X185.993 Y161.595 E4.11349
G1 X186.678 Y161.595 E0.03318
G1 X126.561 Y101.477 E4.11349
G1 X127.246 Y101.477 E0.03318
G1 X187.364 Y161.595 E4.11349
G1 X187.423 Y160.968 E0.03048
G1 X127.932 Y101.477 E4.07058
G1 X128.618 Y101.477 E0.03318
G1 X187.423 Y160.282 E4.02366
G1 X187.423 Y159.597 E0.03318
G1 X129.303 Y101.477 E3.97674
G1 X129.989 Y101.477 E0.03318
G1 X187.423 Y158.911 E3.92982
G1 X187.423 Y158.225 E0.03318
G1 X130.675 Y101.477 E3.88289
G1 X131.361 Y101.477 E0.03318
G1 X187.423 Y157.539 E3.83597
G1 X187.423 Y156.854 E0.03318
G1 X132.046 Y101.477 E3.78905
G1 X132.732 Y101.477 E0.03318
G1 X187.423 Y156.168 E3.74213
G1 X187.423 Y155.482 E0.03318
G1 X133.418 Y101.477 E3.69521
G1 X134.104 Y101.477 E0.03318
G1 X187.423 Y154.796 E3.64829
G1 X187.423 Y154.111 E0.03318
G1 X134.789 Y101.477 E3.60137
G1 X135.475 Y101.477 E0.03318
G1 X187.423 Y153.425 E3.55444
G1 X187.423 Y152.739 E0.03318
