; generated by Slic3r 0.9.10b on 2013-08-10 at 16:53:28

; layer_height = 0.24
; perimeters = 2
; top_solid_layers = 3
; bottom_solid_layers = 3
; fill_density = 0.4
; perimeter_speed = 30
; infill_speed = 40
; travel_speed = 60
; nozzle_diameter = 0.5
; filament_diameter = 1.75
; extrusion_multiplier = 1
; perimeters extrusion width = 0.85mm
; infill extrusion width = 0.87mm
; solid infill extrusion width = 0.85mm
; top infill extrusion width = 0.85mm
; first layer extrusion width = 0.48mm

G21 ; set units to millimeters
M107
M104 S205 ; set temperature
G28 ; home all axes
G1 Z5 F200 ; lift nozzle
M109 S205 ; wait for temperature to be reached
G90 ; use absolute coordinates
M83 ; use relative distances for extrusion
G1 F1800.000 E-2.00000
G1 Z0.240 F3600.000
G1 X6.577 Y7.910
G1 F1800.000 E2.00000
G1 X7.567 Y7.110 F540.000 E0.06151
G1 X8.687 Y6.510 E0.06140
G1 X9.897 Y6.140 E0.06114
G1 X11.167 Y6.020 E0.06164
G1 X186.167 Y6.020 E8.45650
G1 X187.537 Y6.160 E0.06655
G1 X188.847 Y6.590 E0.06663
G1 X190.027 Y7.290 E0.06630
G1 X191.047 Y8.220 E0.06670
G1 X191.837 Y9.350 E0.06663
G1 X192.377 Y10.620 E0.06669
G1 X192.627 Y11.970 E0.06635
G1 X195.287 Y44.460 E1.57526
G1 X195.307 Y44.990 E0.02563
G1 X195.307 Y108.110 E3.05014
G1 X193.977 Y184.780 E3.70547
G1 X193.797 Y186.190 E0.06869
G1 X193.317 Y187.530 E0.06878
G1 X192.557 Y188.720 E0.06823
G1 X191.557 Y189.730 E0.06868
G1 X190.357 Y190.490 E0.06864
G1 X189.027 Y190.970 E0.06833
G1 X187.617 Y191.150 E0.06869
G1 X31.287 Y193.980 E7.55555
G1 X11.167 Y193.980 E0.97226
G1 X9.897 Y193.860 E0.06164
G1 X8.687 Y193.490 E0.06114
G1 X7.567 Y192.890 E0.06140
G1 X6.577 Y192.090 E0.06151
G1 X5.777 Y191.100 E0.06151
G1 X5.177 Y189.980 E0.06140
G1 X4.807 Y188.770 E0.06114
G1 X4.687 Y187.500 E0.06164
G1 X4.687 Y12.500 E8.45650
G1 X4.807 Y11.230 E0.06164
G1 X5.177 Y10.020 E0.06114
G1 X5.777 Y8.900 E0.06140
G1 X6.531 Y7.967 E0.05800
G1 F1800.000 E-2.00000
G1 X35.226 Y123.126 F3600.000
G1 F1800.000 E2.00000
G1 X186.774 Y123.126 F540.000 E7.32319
G1 X186.774 Y183.946 E2.93898
G1 X35.226 Y183.946 E7.32319
G1 X35.226 Y123.199 E2.93547
G1 X34.742 Y122.642 F3600.000
G1 X187.258 Y122.642 F378.000 E7.36999
G1 X187.258 Y184.430 E2.98579
G1 X34.742 Y184.430 E7.36999
G1 X34.742 Y122.715 E2.98228
G1 X35.162 Y122.884 F3600.000
G1 X36.186 Y183.595
G1 X35.577 Y182.987 F720.000 E0.04163
G1 X35.577 Y182.301 E0.03318
G1 X36.872 Y183.595 E0.08855
G1 X37.557 Y183.595 E0.03318
G1 X35.577 Y181.615 E0.13547
G1 X35.577 Y180.930 E0.03318
G1 X38.243 Y183.595 E0.18239
G1 X38.929 Y183.595 E0.03318
G1 X35.577 Y180.244 E0.22931
G1 X35.577 Y179.558 E0.03318
G1 X39.614 Y183.595 E0.27623
G1 X40.300 Y183.595 E0.03318
G1 X35.577 Y178.872 E0.32315
G1 X35.577 Y178.187 E0.03318
G1 X40.986 Y183.595 E0.37008
G1 X41.672 Y183.595 E0.03318
G1 X35.577 Y177.501 E0.41700
G1 X35.577 Y176.815 E0.03318
G1 X42.357 Y183.595 E0.46392
G1 X43.043 Y183.595 E0.03318
G1 X35.577 Y176.129 E0.51084
G1 X35.577 Y175.444 E0.03318
G1 X43.729 Y183.595 E0.55776
G1 X44.415 Y183.595 E0.03318
G1 X35.577 Y174.758 E0.60468
G1 X35.577 Y174.072 E0.03318
G1 X45.100 Y183.595 E0.65160
G1 X45.786 Y183.595 E0.03318
G1 X35.577 Y173.386 E0.69852
G1 X35.577 Y172.701 E0.03318
G1 X46.472 Y183.595 E0.74545
G1 X47.158 Y183.595 E0.03318
G1 X35.577 Y172.015 E0.79237
G1 X35.577 Y171.329 E0.03318
G1 X47.843 Y183.595 E0.83929
G1 X48.529 Y183.595 E0.03318
G1 X35.577 Y170.643 E0.88621
G1 X35.577 Y169.958 E0.03318
G1 X49.215 Y183.595 E0.93313
G1 X49.901 Y183.595 E0.03318
G1 X35.577 Y169.272 E0.98005
G1 X35.577 Y168.586 E0.03318
G1 X50.586 Y183.595 E1.02697
G1 X51.272 Y183.595 E0.03318
G1 X35.577 Y167.900 E1.07390
G1 X35.577 Y167.215 E0.03318
G1 X51.958 Y183.595 E1.12082
G1 X52.644 Y183.595 E0.03318
G1 X35.577 Y166.529 E1.16774
G1 X35.577 Y165.843 E0.03318
G1 X53.329 Y183.595 E1.21466
G1 X54.015 Y183.595 E0.03318
G1 X35.577 Y165.157 E1.26158
G1 X35.577 Y164.472 E0.03318
G1 X54.701 Y183.595 E1.30850
G1 X55.387 Y183.595 E0.03318
G1 X35.577 Y163.786 E1.35542
G1 X35.577 Y163.100 E0.03318
G1 X56.072 Y183.595 E1.40235
G1 X56.758 Y183.595 E0.03318
G1 X35.577 Y162.414 E1.44927
G1 X35.577 Y161.729 E0.03318
G1 X57.444 Y183.595 E1.49619
G1 X58.130 Y183.595 E0.03318
G1 X35.577 Y161.043 E1.54311
G1 X35.577 Y160.357 E0.03318
G1 X58.815 Y183.595 E1.59003
G1 X59.501 Y183.595 E0.03318
G1 X35.577 Y159.671 E1.63695
G1 X35.577 Y158.986 E0.03318
G1 X60.187 Y183.595 E1.68387
G1 X60.873 Y183.595 E0.03318
G1 X35.577 Y158.300 E1.73080
G1 X35.577 Y157.614 E0.03318
G1 X61.558 Y183.595 E1.77772
G1 X62.244 Y183.595 E0.03318
G1 X35.577 Y156.929 E1.82464
G1 X35.577 Y156.243 E0.03318
G1 X62.930 Y183.595 E1.87156
G1 X63.616 Y183.595 E0.03318
G1 X35.577 Y155.557 E1.91848
G1 X35.577 Y154.871 E0.03318
G1 X64.301 Y183.595 E1.96540
G1 X64.987 Y183.595 E0.03318
G1 X35.577 Y154.186 E2.01232
G1 X35.577 Y153.500 E0.03318
G1 X65.673 Y183.595 E2.05925
G1 X66.359 Y183.595 E0.03318
G1 X35.577 Y152.814 E2.10617
G1 X35.577 Y152.128 E0.03318
G1 X67.044 Y183.595 E2.15309
G1 X67.730 Y183.595 E0.03318
G1 X35.577 Y151.443 E2.20001
G1 X35.577 Y150.757 E0.03318
G1 X68.416 Y183.595 E2.24693
G1 X69.102 Y183.595 E0.03318
G1 X35.577 Y150.071 E2.29385
G1 X35.577 Y149.385 E0.03318
G1 X69.787 Y183.595 E2.34077
G1 X70.473 Y183.595 E0.03318
G1 X35.577 Y148.700 E2.38770
G1 X35.577 Y148.014 E0.03318
G1 X71.159 Y183.595 E2.43462
G1 X71.845 Y183.595 E0.03318
G1 X35.577 Y147.328 E2.48154
G1 X35.577 Y146.642 E0.03318
G1 X72.530 Y183.595 E2.52846
G1 X73.216 Y183.595 E0.03318
G1 X35.577 Y145.957 E2.57538
G1 X35.577 Y145.271 E0.03318
G1 X73.902 Y183.595 E2.62230
G1 X74.588 Y183.595 E0.03318
G1 X35.577 Y144.585 E2.66922
G1 X35.577 Y143.899 E0.03318
G1 X75.273 Y183.595 E2.71615
G1 X75.959 Y183.595 E0.03318
G1 X35.577 Y143.214 E2.76307
G1 X35.577 Y142.528 E0.03318
G1 X76.645 Y183.595 E2.80999
G1 X77.330 Y183.595 E0.03318
G1 X35.577 Y141.842 E2.85691
G1 X35.577 Y141.156 E0.03318
G1 X78.016 Y183.595 E2.90383
G1 X78.702 Y183.595 E0.03318
G1 X35.577 Y140.471 E2.95075
G1 X35.577 Y139.785 E0.03318
G1 X79.388 Y183.595 E2.99767
G1 X80.073 Y183.595 E0.03318
G1 X35.577 Y139.099 E3.04460
G1 X35.577 Y138.413 E0.03318
G1 X80.759 Y183.595 E3.09152
G1 X81.445 Y183.595 E0.03318
G1 X35.577 Y137.728 E3.13844
G1 X35.577 Y137.042 E0.03318
G1 X82.131 Y183.595 E3.18536
G1 X82.816 Y183.595 E0.03318
G1 X35.577 Y136.356 E3.23228
G1 X35.577 Y135.670 E0.03318
G1 X83.502 Y183.595 E3.27920
G1 X84.188 Y183.595 E0.03318
G1 X35.577 Y134.985 E3.32612
G1 X35.577 Y134.299 E0.03318
G1 X84.874 Y183.595 E3.37304
G1 X85.559 Y183.595 E0.03318
G1 X35.577 Y133.613 E3.41997
G1 X35.577 Y132.927 E0.03318
G1 X86.245 Y183.595 E3.46689
G1 X86.931 Y183.595 E0.03318
G1 X35.577 Y132.242 E3.51381
G1 X35.577 Y131.556 E0.03318
G1 X87.617 Y183.595 E3.56073
G1 X88.302 Y183.595 E0.03318
G1 X35.577 Y130.870 E3.60765
G1 X35.577 Y130.184 E0.03318
G1 X88.988 Y183.595 E3.65457
G1 X89.674 Y183.595 E0.03318
G1 X35.577 Y129.499 E3.70149
G1 X35.577 Y128.813 E0.03318
G1 X90.360 Y183.595 E3.74842
G1 X91.045 Y183.595 E0.03318
G1 X35.577 Y128.127 E3.79534
G1 X35.577 Y127.441 E0.03318
G1 X91.731 Y183.595 E3.84226
G1 X92.417 Y183.595 E0.03318
G1 X35.577 Y126.756 E3.88918
G1 X35.577 Y126.070 E0.03318
G1 X93.103 Y183.595 E3.93610
G1 X93.788 Y183.595 E0.03318
G1 X35.577 Y125.384 E3.98302
G1 X35.577 Y124.698 E0.03318
G1 X94.474 Y183.595 E4.02994
G1 X95.160 Y183.595 E0.03318
G1 X35.577 Y124.013 E4.07687
G1 X35.728 Y123.477 E0.02690
G1 X95.846 Y183.595 E4.11349
G1 X96.531 Y183.595 E0.03318
G1 X36.414 Y123.477 E4.11349
G1 X37.099 Y123.477 E0.03318
G1 X97.217 Y183.595 E4.11349
G1 X97.903 Y183.595 E0.03318
G1 X37.785 Y123.477 E4.11349
G1 X38.471 Y123.477 E0.03318
G1 X98.589 Y183.595 E4.11349
G1 X99.274 Y183.595 E0.03318
G1 X39.157 Y123.477 E4.11349
G1 X39.842 Y123.477 E0.03318
G1 X99.960 Y183.595 E4.11349
G1 X100.646 Y183.595 E0.03318
G1 X40.528 Y123.477 E4.11349
G1 X41.214 Y123.477 E0.03318
G1 X101.332 Y183.595 E4.11349
G1 X102.017 Y183.595 E0.03318
G1 X41.900 Y123.477 E4.11349
G1 X42.585 Y123.477 E0.03318
G1 X102.703 Y183.595 E4.11349
G1 X103.389 Y183.595 E0.03318
G1 X43.271 Y123.477 E4.11349
G1 X43.957 Y123.477 E0.03318
G1 X104.075 Y183.595 E4.11349
G1 X104.760 Y183.595 E0.03318
G1 X44.643 Y123.477 E4.11349
G1 X45.328 Y123.477 E0.03318
G1 X105.446 Y183.595 E4.11349
G1 X106.132 Y183.595 E0.03318
G1 X46.014 Y123.477 E4.11349
G1 X46.700 Y123.477 E0.03318
G1 X106.818 Y183.595 E4.11349
G1 X107.503 Y183.595 E0.03318
G1 X47.386 Y123.477 E4.11349
G1 X48.071 Y123.477 E0.03318
G1 X108.189 Y183.595 E4.11349
G1 X108.875 Y183.595 E0.03318
G1 X48.757 Y123.477 E4.11349
G1 X49.443 Y123.477 E0.03318
G1 X109.561 Y183.595 E4.11349
G1 X110.246 Y183.595 E0.03318
G1 X50.129 Y123.477 E4.11349
G1 X50.814 Y123.477 E0.03318
G1 X110.932 Y183.595 E4.11349
G1 X111.618 Y183.595 E0.03318
G1 X51.500 Y123.477 E4.11349
G1 X52.186 Y123.477 E0.03318
G1 X112.304 Y183.595 E4.11349
G1 X112.989 Y183.595 E0.03318
G1 X52.871 Y123.477 E4.11349
G1 X53.557 Y123.477 E0.03318
G1 X113.675 Y183.595 E4.11349
G1 X114.361 Y183.595 E0.03318
G1 X54.243 Y123.477 E4.11349
G1 X54.929 Y123.477 E0.03318
G1 X115.046 Y183.595 E4.11349
G1 X115.732 Y183.595 E0.03318
G1 X55.614 Y123.477 E4.11349
G1 X56.300 Y123.477 E0.03318
G1 X116.418 Y183.595 E4.11349
G1 X117.104 Y183.595 E0.03318
G1 X56.986 Y123.477 E4.11349
G1 X57.672 Y123.477 E0.03318
G1 X117.789 Y183.595 E4.11349
G1 X118.475 Y183.595 E0.03318
G1 X58.357 Y123.477 E4.11349
G1 X59.043 Y123.477 E0.03318
G1 X119.161 Y183.595 E4.11349
G1 X119.847 Y183.595 E0.03318
G1 X59.729 Y123.477 E4.11349
G1 X60.415 Y123.477 E0.03318
G1 X120.532 Y183.595 E4.11349
G1 X121.218 Y183.595 E0.03318
G1 X61.100 Y123.477 E4.11349
G1 X61.786 Y123.477 E0.03318
G1 X121.904 Y183.595 E4.11349
G1 X122.590 Y183.595 E0.03318
G1 X62.472 Y123.477 E4.11349
G1 X63.158 Y123.477 E0.03318
G1 X123.275 Y183.595 E4.11349
G1 X123.961 Y183.595 E0.03318
G1 X63.843 Y123.477 E4.11349
G1 X64.529 Y123.477 E0.03318
G1 X124.647 Y183.595 E4.11349
G1 X125.333 Y183.595 E0.03318
G1 X65.215 Y123.477 E4.11349
G1 X65.901 Y123.477 E0.03318
G1 X126.018 Y183.595 E4.11349
G1 X126.704 Y183.595 E0.03318
G1 X66.586 Y123.477 E4.11349
G1 X67.272 Y123.477 E0.03318
G1 X127.390 Y183.595 E4.11349
G1 X128.076 Y183.595 E0.03318
G1 X67.958 Y123.477 E4.11349
G1 X68.644 Y123.477 E0.03318
G1 X128.761 Y183.595 E4.11349
G1 X129.447 Y183.595 E0.03318
G1 X69.329 Y123.477 E4.11349
G1 X70.015 Y123.477 E0.03318
G1 X130.133 Y183.595 E4.11349
G1 X130.819 Y183.595 E0.03318
G1 X70.701 Y123.477 E4.11349
G1 X71.387 Y123.477 E0.03318
G1 X131.504 Y183.595 E4.11349
G1 X132.190 Y183.595 E0.03318
G1 X72.072 Y123.477 E4.11349
G1 X72.758 Y123.477 E0.03318
G1 X132.876 Y183.595 E4.11349
G1 X133.562 Y183.595 E0.03318
G1 X73.444 Y123.477 E4.11349
G1 X74.130 Y123.477 E0.03318
G1 X134.247 Y183.595 E4.11349
G1 X134.933 Y183.595 E0.03318
G1 X74.815 Y123.477 E4.11349
G1 X75.501 Y123.477 E0.03318
G1 X135.619 Y183.595 E4.11349
G1 X136.305 Y183.595 E0.03318
G1 X76.187 Y123.477 E4.11349
G1 X76.873 Y123.477 E0.03318
G1 X136.990 Y183.595 E4.11349
G1 X137.676 Y183.595 E0.03318
G1 X77.558 Y123.477 E4.11349
G1 X78.244 Y123.477 E0.03318
G1 X138.362 Y183.595 E4.11349
G1 X139.048 Y183.595 E0.03318
G1 X78.930 Y123.477 E4.11349
G1 X79.616 Y123.477 E0.03318
G1 X139.733 Y183.595 E4.11349
G1 X140.419 Y183.595 E0.03318
G1 X80.301 Y123.477 E4.11349
G1 X80.987 Y123.477 E0.03318
G1 X141.105 Y183.595 E4.11349
G1 X141.791 Y183.595 E0.03318
G1 X81.673 Y123.477 E4.11349
G1 X82.359 Y123.477 E0.03318
G1 X142.476 Y183.595 E4.11349
G1 X143.162 Y183.595 E0.03318
G1 X83.044 Y123.477 E4.11349
G1 X83.730 Y123.477 E0.03318
G1 X143.848 Y183.595 E4.11349
G1 X144.534 Y183.595 E0.03318
G1 X84.416 Y123.477 E4.11349
G1 X85.102 Y123.477 E0.03318
G1 X145.219 Y183.595 E4.11349
G1 X145.905 Y183.595 E0.03318
G1 X85.787 Y123.477 E4.11349
G1 X86.473 Y123.477 E0.03318
G1 X146.591 Y183.595 E4.11349
G1 X147.277 Y183.595 E0.03318
G1 X87.159 Y123.477 E4.11349
G1 X87.845 Y123.477 E0.03318
G1 X147.962 Y183.595 E4.11349
G1 X148.648 Y183.595 E0.03318
G1 X88.530 Y123.477 E4.11349
G1 X89.216 Y123.477 E0.03318
G1 X149.334 Y183.595 E4.11349
G1 X150.019 Y183.595 E0.03318
G1 X89.902 Y123.477 E4.11349
G1 X90.587 Y123.477 E0.03318
G1 X150.705 Y183.595 E4.11349
G1 X151.391 Y183.595 E0.03318
G1 X91.273 Y123.477 E4.11349
G1 X91.959 Y123.477 E0.03318
G1 X152.077 Y183.595 E4.11349
G1 X152.762 Y183.595 E0.03318
G1 X92.645 Y123.477 E4.11349
G1 X93.330 Y123.477 E0.03318
G1 X153.448 Y183.595 E4.11349
G1 X154.134 Y183.595 E0.03318
G1 X94.016 Y123.477 E4.11349
G1 X94.702 Y123.477 E0.03318
G1 X154.820 Y183.595 E4.11349
G1 X155.505 Y183.595 E0.03318
G1 X95.388 Y123.477 E4.11349
G1 X96.073 Y123.477 E0.03318
G1 X156.191 Y183.595 E4.11349
G1 X156.877 Y183.595 E0.03318
G1 X96.759 Y123.477 E4.11349
G1 X97.445 Y123.477 E0.03318
G1 X157.563 Y183.595 E4.11349
G1 X158.248 Y183.595 E0.03318
G1 X98.131 Y123.477 E4.11349
G1 X98.816 Y123.477 E0.03318
G1 X158.934 Y183.595 E4.11349
G1 X159.620 Y183.595 E0.03318
G1 X99.502 Y123.477 E4.11349
G1 X100.188 Y123.477 E0.03318
G1 X160.306 Y183.595 E4.11349
G1 X160.991 Y183.595 E0.03318
G1 X100.874 Y123.477 E4.11349
G1 X101.559 Y123.477 E0.03318
G1 X161.677 Y183.595 E4.11349
G1 X162.363 Y183.595 E0.03318
G1 X102.245 Y123.477 E4.11349
G1 X102.931 Y123.477 E0.03318
G1 X163.049 Y183.595 E4.11349
G1 X163.734 Y183.595 E0.03318
G1 X103.617 Y123.477 E4.11349
G1 X104.302 Y123.477 E0.03318
G1 X164.420 Y183.595 E4.11349
G1 X165.106 Y183.595 E0.03318
G1 X104.988 Y123.477 E4.11349
G1 X105.674 Y123.477 E0.03318
G1 X165.792 Y183.595 E4.11349
G1 X166.477 Y183.595 E0.03318
G1 X106.360 Y123.477 E4.11349
G1 X107.045 Y123.477 E0.03318
G1 X167.163 Y183.595 E4.11349
G1 X167.849 Y183.595 E0.03318
G1 X107.731 Y123.477 E4.11349
G1 X108.417 Y123.477 E0.03318
G1 X168.535 Y183.595 E4.11349
G1 X169.220 Y183.595 E0.03318
G1 X109.103 Y123.477 E4.11349
G1 X109.788 Y123.477 E0.03318
G1 X169.906 Y183.595 E4.11349
G1 X170.592 Y183.595 E0.03318
G1 X110.474 Y123.477 E4.11349
G1 X111.160 Y123.477 E0.03318
G1 X171.278 Y183.595 E4.11349
G1 X171.963 Y183.595 E0.03318
G1 X111.846 Y123.477 E4.11349
G1 X112.531 Y123.477 E0.03318
G1 X172.649 Y183.595 E4.11349
G1 X173.335 Y183.595 E0.03318
G1 X113.217 Y123.477 E4.11349
G1 X113.903 Y123.477 E0.03318
G1 X174.021 Y183.595 E4.11349
G1 X174.706 Y183.595 E0.03318
G1 X114.589 Y123.477 E4.11349
G1 X115.274 Y123.477 E0.03318
G1 X175.392 Y183.595 E4.11349
G1 X176.078 Y183.595 E0.03318
G1 X115.960 Y123.477 E4.11349
G1 X116.646 Y123.477 E0.03318
G1 X176.764 Y183.595 E4.11349
G1 X177.449 Y183.595 E0.03318
G1 X117.332 Y123.477 E4.11349
G1 X118.017 Y123.477 E0.03318
G1 X178.135 Y183.595 E4.11349
G1 X178.821 Y183.595 E0.03318
G1 X118.703 Y123.477 E4.11349
G1 X119.389 Y123.477 E0.03318
G1 X179.507 Y183.595 E4.11349
G1 X180.192 Y183.595 E0.03318
G1 X120.075 Y123.477 E4.11349
G1 X120.760 Y123.477 E0.03318
G1 X180.878 Y183.595 E4.11349
G1 X181.564 Y183.595 E0.03318
G1 X121.446 Y123.477 E4.11349
G1 X122.132 Y123.477 E0.03318
G1 X182.250 Y183.595 E4.11349
G1 X182.935 Y183.595 E0.03318
G1 X122.818 Y123.477 E4.11349
G1 X123.503 Y123.477 E0.03318
G1 X183.621 Y183.595 E4.11349
G1 X184.307 Y183.595 E0.03318
G1 X124.189 Y123.477 E4.11349
G1 X124.875 Y123.477 E0.03318
G1 X184.993 Y183.595 E4.11349
G1 X185.678 Y183.595 E0.03318
G1 X125.561 Y123.477 E4.11349
G1 X126.246 Y123.477 E0.03318
G1 X186.364 Y183.595 E4.11349
G1 X186.423 Y182.968 E0.03048
G1 X126.932 Y123.477 E4.07058
G1 X127.618 Y123.477 E0.03318
G1 X186.423 Y182.282 E4.02366
G1 X186.423 Y181.597 E0.03318
G1 X128.303 Y123.477 E3.97674
G1 X128.989 Y123.477 E0.03318
G1 X186.423 Y180.911 E3.92982
G1 X186.423 Y180.225 E0.03318
G1 X129.675 Y123.477 E3.88289
G1 X130.361 Y123.477 E0.03318
G1 X186.423 Y179.539 E3.83597
G1 X186.423 Y178.854 E0.03318
G1 X131.046 Y123.477 E3.78905
G1 X131.732 Y123.477 E0.03318
G1 X186.423 Y178.168 E3.74213
G1 X186.423 Y177.482 E0.03318
G1 X132.418 Y123.477 E3.69521
G1 X133.104 Y123.477 E0.03318
G1 X186.423 Y176.796 E3.64829
G1 X186.423 Y176.111 E0.03318
G1 X133.789 Y123.477 E3.60137
G1 X134.475 Y123.477 E0.03318
G1 X186.423 Y175.425 E3.55444
G1 X186.423 Y174.739 E0.03318
G1 X135.161 Y123.477 E3.50752
