; generated by Slic3r 0.9.10b on 2013-08-10 at 16:54:25

; layer_height = 0.24
; perimeters = 2
; top_solid_layers = 3
; bottom_solid_layers = 3
; fill_density = 0.4
; perimeter_speed = 30
; infill_speed = 40
; travel_speed = 60
; nozzle_diameter = 0.5
; filament_diameter = 1.75
; extrusion_multiplier = 1
; perimeters extrusion width = 0.85mm
; infill extrusion width = 0.87mm
; solid infill extrusion width = 0.85mm
; top infill extrusion width = 0.85mm
; first layer extrusion width = 0.48mm

G21 ; set units to millimeters
M107
M104 S205 ; set temperature
G28 ; home all axes
G1 Z5 F200 ; lift nozzle
M109 S205 ; wait for temperature to be reached
G90 ; use absolute coordinates
M83 ; use relative distances for extrusion
G1 F1800.000 E-2.00000
G1 Z0.240 F3600.000
G1 X19.900 Y29.017
G1 F1800.000 E2.00000
G1 X21.020 Y28.417 F540.000 E0.06140
G1 X22.230 Y28.047 E0.06114
G1 X23.500 Y27.927 E0.06164
G1 X176.500 Y27.927 E7.39340
G1 X177.770 Y28.047 E0.06164
G1 X178.980 Y28.417 E0.06114
G1 X180.100 Y29.017 E0.06140
G1 X181.090 Y29.817 E0.06151
G1 X181.890 Y30.807 E0.06151
G1 X182.490 Y31.927 E0.06140
G1 X182.860 Y33.137 E0.06114
G1 X182.980 Y34.407 E0.06164
G1 X182.980 Y168.747 E6.49169
G1 X182.860 Y170.017 E0.06164
G1 X182.490 Y171.227 E0.06114
G1 X181.890 Y172.347 E0.06140
G1 X181.090 Y173.337 E0.06151
G1 X180.100 Y174.137 E0.06151
G1 X178.980 Y174.737 E0.06140
G1 X177.770 Y175.107 E0.06114
G1 X176.500 Y175.227 E0.06164
G1 X23.500 Y175.227 E7.39340
G1 X22.230 Y175.107 E0.06164
G1 X21.020 Y174.737 E0.06114
G1 X19.900 Y174.137 E0.06140
G1 X18.910 Y173.337 E0.06151
G1 X18.110 Y172.347 E0.06151
G1 X17.510 Y171.227 E0.06140
G1 X17.140 Y170.017 E0.06114
G1 X17.020 Y168.747 E0.06164
G1 X17.020 Y34.407 E6.49169
G1 X17.140 Y33.137 E0.06164
G1 X17.510 Y31.927 E0.06114
G1 X18.110 Y30.807 E0.06140
G1 X18.910 Y29.817 E0.06151
G1 X19.843 Y29.063 E0.05800
G1 F1800.000 E-2.00000
G1 X24.226 Y107.207 F3600.000
G1 F1800.000 E2.00000
G1 X175.774 Y107.207 F540.000 E7.32319
G1 X175.774 Y168.027 E2.93898
G1 X24.226 Y168.027 E7.32319
G1 X24.226 Y107.279 E2.93547
G1 X23.742 Y106.723 F3600.000
G1 X176.258 Y106.723 F378.000 E7.36999
G1 X176.258 Y168.511 E2.98579
G1 X23.742 Y168.511 E7.36999
G1 X23.742 Y106.795 E2.98228
G1 X24.162 Y106.965 F3600.000
G1 X25.186 Y167.676
G1 X24.577 Y167.067 F720.000 E0.04163
G1 X24.577 Y166.381 E0.03318
G1 X25.872 Y167.676 E0.08855
G1 X26.557 Y167.676 E0.03318
G1 X24.577 Y165.696 E0.13547
G1 X24.577 Y165.010 E0.03318
G1 X27.243 Y167.676 E0.18239
G1 X27.929 Y167.676 E0.03318
G1 X24.577 Y164.324 E0.22931
G1 X24.577 Y163.638 E0.03318
G1 X28.614 Y167.676 E0.27623
G1 X29.300 Y167.676 E0.03318
G1 X24.577 Y162.953 E0.32315
G1 X24.577 Y162.267 E0.03318
G1 X29.986 Y167.676 E0.37008
G1 X30.672 Y167.676 E0.03318
G1 X24.577 Y161.581 E0.41700
G1 X24.577 Y160.895 E0.03318
G1 X31.357 Y167.676 E0.46392
G1 X32.043 Y167.676 E0.03318
G1 X24.577 Y160.210 E0.51084
G1 X24.577 Y159.524 E0.03318
G1 X32.729 Y167.676 E0.55776
G1 X33.415 Y167.676 E0.03318
G1 X24.577 Y158.838 E0.60468
G1 X24.577 Y158.153 E0.03318
G1 X34.100 Y167.676 E0.65160
G1 X34.786 Y167.676 E0.03318
G1 X24.577 Y157.467 E0.69852
G1 X24.577 Y156.781 E0.03318
G1 X35.472 Y167.676 E0.74545
G1 X36.158 Y167.676 E0.03318
G1 X24.577 Y156.095 E0.79237
G1 X24.577 Y155.410 E0.03318
G1 X36.843 Y167.676 E0.83929
G1 X37.529 Y167.676 E0.03318
G1 X24.577 Y154.724 E0.88621
G1 X24.577 Y154.038 E0.03318
G1 X38.215 Y167.676 E0.93313
G1 X38.901 Y167.676 E0.03318
G1 X24.577 Y153.352 E0.98005
G1 X24.577 Y152.667 E0.03318
G1 X39.586 Y167.676 E1.02697
G1 X40.272 Y167.676 E0.03318
G1 X24.577 Y151.981 E1.07390
G1 X24.577 Y151.295 E0.03318
G1 X40.958 Y167.676 E1.12082
G1 X41.644 Y167.676 E0.03318
G1 X24.577 Y150.609 E1.16774
G1 X24.577 Y149.924 E0.03318
G1 X42.329 Y167.676 E1.21466
G1 X43.015 Y167.676 E0.03318
G1 X24.577 Y149.238 E1.26158
G1 X24.577 Y148.552 E0.03318
G1 X43.701 Y167.676 E1.30850
G1 X44.387 Y167.676 E0.03318
G1 X24.577 Y147.866 E1.35542
G1 X24.577 Y147.181 E0.03318
G1 X45.072 Y167.676 E1.40235
G1 X45.758 Y167.676 E0.03318
G1 X24.577 Y146.495 E1.44927
G1 X24.577 Y145.809 E0.03318
G1 X46.444 Y167.676 E1.49619
G1 X47.130 Y167.676 E0.03318
G1 X24.577 Y145.123 E1.54311
G1 X24.577 Y144.438 E0.03318
G1 X47.815 Y167.676 E1.59003
G1 X48.501 Y167.676 E0.03318
G1 X24.577 Y143.752 E1.63695
G1 X24.577 Y143.066 E0.03318
G1 X49.187 Y167.676 E1.68387
G1 X49.873 Y167.676 E0.03318
G1 X24.577 Y142.380 E1.73080
G1 X24.577 Y141.695 E0.03318
G1 X50.558 Y167.676 E1.77772
G1 X51.244 Y167.676 E0.03318
G1 X24.577 Y141.009 E1.82464
G1 X24.577 Y140.323 E0.03318
G1 X51.930 Y167.676 E1.87156
G1 X52.616 Y167.676 E0.03318
G1 X24.577 Y139.637 E1.91848
G1 X24.577 Y138.952 E0.03318
G1 X53.301 Y167.676 E1.96540
G1 X53.987 Y167.676 E0.03318
G1 X24.577 Y138.266 E2.01232
G1 X24.577 Y137.580 E0.03318
G1 X54.673 Y167.676 E2.05925
G1 X55.359 Y167.676 E0.03318
G1 X24.577 Y136.894 E2.10617
G1 X24.577 Y136.209 E0.03318
G1 X56.044 Y167.676 E2.15309
G1 X56.730 Y167.676 E0.03318
G1 X24.577 Y135.523 E2.20001
G1 X24.577 Y134.837 E0.03318
G1 X57.416 Y167.676 E2.24693
G1 X58.102 Y167.676 E0.03318
G1 X24.577 Y134.151 E2.29385
G1 X24.577 Y133.466 E0.03318
G1 X58.787 Y167.676 E2.34077
G1 X59.473 Y167.676 E0.03318
G1 X24.577 Y132.780 E2.38770
G1 X24.577 Y132.094 E0.03318
G1 X60.159 Y167.676 E2.43462
G1 X60.845 Y167.676 E0.03318
G1 X24.577 Y131.408 E2.48154
G1 X24.577 Y130.723 E0.03318
G1 X61.530 Y167.676 E2.52846
G1 X62.216 Y167.676 E0.03318
G1 X24.577 Y130.037 E2.57538
G1 X24.577 Y129.351 E0.03318
G1 X62.902 Y167.676 E2.62230
G1 X63.588 Y167.676 E0.03318
G1 X24.577 Y128.665 E2.66922
G1 X24.577 Y127.980 E0.03318
G1 X64.273 Y167.676 E2.71615
G1 X64.959 Y167.676 E0.03318
G1 X24.577 Y127.294 E2.76307
G1 X24.577 Y126.608 E0.03318
G1 X65.645 Y167.676 E2.80999
G1 X66.330 Y167.676 E0.03318
G1 X24.577 Y125.922 E2.85691
G1 X24.577 Y125.237 E0.03318
G1 X67.016 Y167.676 E2.90383
G1 X67.702 Y167.676 E0.03318
G1 X24.577 Y124.551 E2.95075
G1 X24.577 Y123.865 E0.03318
G1 X68.388 Y167.676 E2.99767
G1 X69.073 Y167.676 E0.03318
G1 X24.577 Y123.179 E3.04460
G1 X24.577 Y122.494 E0.03318
G1 X69.759 Y167.676 E3.09152
G1 X70.445 Y167.676 E0.03318
G1 X24.577 Y121.808 E3.13844
G1 X24.577 Y121.122 E0.03318
G1 X71.131 Y167.676 E3.18536
G1 X71.816 Y167.676 E0.03318
G1 X24.577 Y120.437 E3.23228
G1 X24.577 Y119.751 E0.03318
G1 X72.502 Y167.676 E3.27920
G1 X73.188 Y167.676 E0.03318
G1 X24.577 Y119.065 E3.32612
G1 X24.577 Y118.379 E0.03318
G1 X73.874 Y167.676 E3.37304
G1 X74.559 Y167.676 E0.03318
G1 X24.577 Y117.694 E3.41997
G1 X24.577 Y117.008 E0.03318
G1 X75.245 Y167.676 E3.46689
G1 X75.931 Y167.676 E0.03318
G1 X24.577 Y116.322 E3.51381
G1 X24.577 Y115.636 E0.03318
G1 X76.617 Y167.676 E3.56073
G1 X77.302 Y167.676 E0.03318
G1 X24.577 Y114.951 E3.60765
G1 X24.577 Y114.265 E0.03318
G1 X77.988 Y167.676 E3.65457
G1 X78.674 Y167.676 E0.03318
G1 X24.577 Y113.579 E3.70149
G1 X24.577 Y112.893 E0.03318
G1 X79.360 Y167.676 E3.74842
G1 X80.045 Y167.676 E0.03318
G1 X24.577 Y112.208 E3.79534
G1 X24.577 Y111.522 E0.03318
G1 X80.731 Y167.676 E3.84226
G1 X81.417 Y167.676 E0.03318
G1 X24.577 Y110.836 E3.88918
G1 X24.577 Y110.150 E0.03318
G1 X82.103 Y167.676 E3.93610
G1 X82.788 Y167.676 E0.03318
G1 X24.577 Y109.465 E3.98302
G1 X24.577 Y108.779 E0.03318
G1 X83.474 Y167.676 E4.02994
G1 X84.160 Y167.676 E0.03318
G1 X24.577 Y108.093 E4.07687
G1 X24.728 Y107.558 E0.02690
G1 X84.846 Y167.676 E4.11349
G1 X85.531 Y167.676 E0.03318
G1 X25.414 Y107.558 E4.11349
G1 X26.099 Y107.558 E0.03318
G1 X86.217 Y167.676 E4.11349
G1 X86.903 Y167.676 E0.03318
G1 X26.785 Y107.558 E4.11349
G1 X27.471 Y107.558 E0.03318
G1 X87.589 Y167.676 E4.11349
G1 X88.274 Y167.676 E0.03318
G1 X28.157 Y107.558 E4.11349
G1 X28.842 Y107.558 E0.03318
G1 X88.960 Y167.676 E4.11349
G1 X89.646 Y167.676 E0.03318
G1 X29.528 Y107.558 E4.11349
G1 X30.214 Y107.558 E0.03318
G1 X90.332 Y167.676 E4.11349
G1 X91.017 Y167.676 E0.03318
G1 X30.900 Y107.558 E4.11349
G1 X31.585 Y107.558 E0.03318
G1 X91.703 Y167.676 E4.11349
G1 X92.389 Y167.676 E0.03318
G1 X32.271 Y107.558 E4.11349
G1 X32.957 Y107.558 E0.03318
G1 X93.075 Y167.676 E4.11349
G1 X93.760 Y167.676 E0.03318
G1 X33.643 Y107.558 E4.11349
G1 X34.328 Y107.558 E0.03318
G1 X94.446 Y167.676 E4.11349
G1 X95.132 Y167.676 E0.03318
G1 X35.014 Y107.558 E4.11349
G1 X35.700 Y107.558 E0.03318
G1 X95.818 Y167.676 E4.11349
G1 X96.503 Y167.676 E0.03318
G1 X36.386 Y107.558 E4.11349
G1 X37.071 Y107.558 E0.03318
G1 X97.189 Y167.676 E4.11349
G1 X97.875 Y167.676 E0.03318
G1 X37.757 Y107.558 E4.11349
G1 X38.443 Y107.558 E0.03318
G1 X98.561 Y167.676 E4.11349
G1 X99.246 Y167.676 E0.03318
G1 X39.129 Y107.558 E4.11349
G1 X39.814 Y107.558 E0.03318
G1 X99.932 Y167.676 E4.11349
G1 X100.618 Y167.676 E0.03318
G1 X40.500 Y107.558 E4.11349
G1 X41.186 Y107.558 E0.03318
G1 X101.304 Y167.676 E4.11349
G1 X101.989 Y167.676 E0.03318
G1 X41.871 Y107.558 E4.11349
G1 X42.557 Y107.558 E0.03318
G1 X102.675 Y167.676 E4.11349
G1 X103.361 Y167.676 E0.03318
G1 X43.243 Y107.558 E4.11349
G1 X43.929 Y107.558 E0.03318
G1 X104.046 Y167.676 E4.11349
G1 X104.732 Y167.676 E0.03318
G1 X44.614 Y107.558 E4.11349
G1 X45.300 Y107.558 E0.03318
G1 X105.418 Y167.676 E4.11349
G1 X106.104 Y167.676 E0.03318
G1 X45.986 Y107.558 E4.11349
G1 X46.672 Y107.558 E0.03318
G1 X106.789 Y167.676 E4.11349
G1 X107.475 Y167.676 E0.03318
G1 X47.357 Y107.558 E4.11349
G1 X48.043 Y107.558 E0.03318
G1 X108.161 Y167.676 E4.11349
G1 X108.847 Y167.676 E0.03318
G1 X48.729 Y107.558 E4.11349
G1 X49.415 Y107.558 E0.03318
G1 X109.532 Y167.676 E4.11349
G1 X110.218 Y167.676 E0.03318
G1 X50.100 Y107.558 E4.11349
G1 X50.786 Y107.558 E0.03318
G1 X110.904 Y167.676 E4.11349
G1 X111.590 Y167.676 E0.03318
G1 X51.472 Y107.558 E4.11349
G1 X52.158 Y107.558 E0.03318
G1 X112.275 Y167.676 E4.11349
G1 X112.961 Y167.676 E0.03318
G1 X52.843 Y107.558 E4.11349
G1 X53.529 Y107.558 E0.03318
G1 X113.647 Y167.676 E4.11349
G1 X114.333 Y167.676 E0.03318
G1 X54.215 Y107.558 E4.11349
G1 X54.901 Y107.558 E0.03318
G1 X115.018 Y167.676 E4.11349
G1 X115.704 Y167.676 E0.03318
G1 X55.586 Y107.558 E4.11349
G1 X56.272 Y107.558 E0.03318
G1 X116.390 Y167.676 E4.11349
G1 X117.076 Y167.676 E0.03318
G1 X56.958 Y107.558 E4.11349
G1 X57.644 Y107.558 E0.03318
G1 X117.761 Y167.676 E4.11349
G1 X118.447 Y167.676 E0.03318
G1 X58.329 Y107.558 E4.11349
G1 X59.015 Y107.558 E0.03318
G1 X119.133 Y167.676 E4.11349
G1 X119.819 Y167.676 E0.03318
G1 X59.701 Y107.558 E4.11349
G1 X60.387 Y107.558 E0.03318
G1 X120.504 Y167.676 E4.11349
G1 X121.190 Y167.676 E0.03318
G1 X61.072 Y107.558 E4.11349
G1 X61.758 Y107.558 E0.03318
G1 X121.876 Y167.676 E4.11349
G1 X122.562 Y167.676 E0.03318
G1 X62.444 Y107.558 E4.11349
G1 X63.130 Y107.558 E0.03318
G1 X123.247 Y167.676 E4.11349
G1 X123.933 Y167.676 E0.03318
G1 X63.815 Y107.558 E4.11349
G1 X64.501 Y107.558 E0.03318
G1 X124.619 Y167.676 E4.11349
G1 X125.305 Y167.676 E0.03318
G1 X65.187 Y107.558 E4.11349
G1 X65.873 Y107.558 E0.03318
G1 X125.990 Y167.676 E4.11349
G1 X126.676 Y167.676 E0.03318
G1 X66.558 Y107.558 E4.11349
G1 X67.244 Y107.558 E0.03318
G1 X127.362 Y167.676 E4.11349
G1 X128.048 Y167.676 E0.03318
G1 X67.930 Y107.558 E4.11349
G1 X68.616 Y107.558 E0.03318
G1 X128.733 Y167.676 E4.11349
G1 X129.419 Y167.676 E0.03318
G1 X69.301 Y107.558 E4.11349
G1 X69.987 Y107.558 E0.03318
G1 X130.105 Y167.676 E4.11349
G1 X130.791 Y167.676 E0.03318
G1 X70.673 Y107.558 E4.11349
G1 X71.359 Y107.558 E0.03318
G1 X131.476 Y167.676 E4.11349
G1 X132.162 Y167.676 E0.03318
G1 X72.044 Y107.558 E4.11349
G1 X72.730 Y107.558 E0.03318
G1 X132.848 Y167.676 E4.11349
G1 X133.534 Y167.676 E0.03318
G1 X73.416 Y107.558 E4.11349
G1 X74.102 Y107.558 E0.03318
G1 X134.219 Y167.676 E4.11349
G1 X134.905 Y167.676 E0.03318
G1 X74.787 Y107.558 E4.11349
G1 X75.473 Y107.558 E0.03318
G1 X135.591 Y167.676 E4.11349
G1 X136.277 Y167.676 E0.03318
G1 X76.159 Y107.558 E4.11349
G1 X76.845 Y107.558 E0.03318
G1 X136.962 Y167.676 E4.11349
G1 X137.648 Y167.676 E0.03318
G1 X77.530 Y107.558 E4.11349
G1 X78.216 Y107.558 E0.03318
G1 X138.334 Y167.676 E4.11349
G1 X139.019 Y167.676 E0.03318
G1 X78.902 Y107.558 E4.11349
G1 X79.587 Y107.558 E0.03318
G1 X139.705 Y167.676 E4.11349
G1 X140.391 Y167.676 E0.03318
G1 X80.273 Y107.558 E4.11349
G1 X80.959 Y107.558 E0.03318
G1 X141.077 Y167.676 E4.11349
G1 X141.762 Y167.676 E0.03318
G1 X81.645 Y107.558 E4.11349
G1 X82.330 Y107.558 E0.03318
G1 X142.448 Y167.676 E4.11349
G1 X143.134 Y167.676 E0.03318
G1 X83.016 Y107.558 E4.11349
G1 X83.702 Y107.558 E0.03318
G1 X143.820 Y167.676 E4.11349
G1 X144.505 Y167.676 E0.03318
G1 X84.388 Y107.558 E4.11349
G1 X85.073 Y107.558 E0.03318
G1 X145.191 Y167.676 E4.11349
G1 X145.877 Y167.676 E0.03318
G1 X85.759 Y107.558 E4.11349
G1 X86.445 Y107.558 E0.03318
G1 X146.563 Y167.676 E4.11349
G1 X147.248 Y167.676 E0.03318
G1 X87.131 Y107.558 E4.11349
G1 X87.816 Y107.558 E0.03318
G1 X147.934 Y167.676 E4.11349
G1 X148.620 Y167.676 E0.03318
G1 X88.502 Y107.558 E4.11349
G1 X89.188 Y107.558 E0.03318
G1 X149.306 Y167.676 E4.11349
G1 X149.991 Y167.676 E0.03318
G1 X89.874 Y107.558 E4.11349
G1 X90.559 Y107.558 E0.03318
G1 X150.677 Y167.676 E4.11349
G1 X151.363 Y167.676 E0.03318
G1 X91.245 Y107.558 E4.11349
G1 X91.931 Y107.558 E0.03318
G1 X152.049 Y167.676 E4.11349
G1 X152.734 Y167.676 E0.03318
G1 X92.617 Y107.558 E4.11349
G1 X93.302 Y107.558 E0.03318
G1 X153.420 Y167.676 E4.11349
G1 X154.106 Y167.676 E0.03318
G1 X93.988 Y107.558 E4.11349
G1 X94.674 Y107.558 E0.03318
G1 X154.792 Y167.676 E4.11349
G1 X155.477 Y167.676 E0.03318
G1 X95.360 Y107.558 E4.11349
G1 X96.045 Y107.558 E0.03318
G1 X156.163 Y167.676 E4.11349
G1 X156.849 Y167.676 E0.03318
G1 X96.731 Y107.558 E4.11349
G1 X97.417 Y107.558 E0.03318
G1 X157.535 Y167.676 E4.11349
G1 X158.220 Y167.676 E0.03318
G1 X98.103 Y107.558 E4.11349
G1 X98.788 Y107.558 E0.03318
G1 X158.906 Y167.676 E4.11349
G1 X159.592 Y167.676 E0.03318
G1 X99.474 Y107.558 E4.11349
G1 X100.160 Y107.558 E0.03318
G1 X160.278 Y167.676 E4.11349
G1 X160.963 Y167.676 E0.03318
G1 X100.846 Y107.558 E4.11349
G1 X101.531 Y107.558 E0.03318
G1 X161.649 Y167.676 E4.11349
G1 X162.335 Y167.676 E0.03318
G1 X102.217 Y107.558 E4.11349
G1 X102.903 Y107.558 E0.03318
G1 X163.021 Y167.676 E4.11349
G1 X163.706 Y167.676 E0.03318
G1 X103.589 Y107.558 E4.11349
G1 X104.274 Y107.558 E0.03318
G1 X164.392 Y167.676 E4.11349
G1 X165.078 Y167.676 E0.03318
G1 X104.960 Y107.558 E4.11349
G1 X105.646 Y107.558 E0.03318
G1 X165.764 Y167.676 E4.11349
G1 X166.449 Y167.676 E0.03318
G1 X106.332 Y107.558 E4.11349
G1 X107.017 Y107.558 E0.03318
G1 X167.135 Y167.676 E4.11349
G1 X167.821 Y167.676 E0.03318
G1 X107.703 Y107.558 E4.11349
G1 X108.389 Y107.558 E0.03318
G1 X168.507 Y167.676 E4.11349
G1 X169.192 Y167.676 E0.03318
G1 X109.075 Y107.558 E4.11349
G1 X109.760 Y107.558 E0.03318
G1 X169.878 Y167.676 E4.11349
G1 X170.564 Y167.676 E0.03318
G1 X110.446 Y107.558 E4.11349
G1 X111.132 Y107.558 E0.03318
G1 X171.250 Y167.676 E4.11349
G1 X171.935 Y167.676 E0.03318
G1 X111.818 Y107.558 E4.11349
G1 X112.503 Y107.558 E0.03318
G1 X172.621 Y167.676 E4.11349
G1 X173.307 Y167.676 E0.03318
G1 X113.189 Y107.558 E4.11349
G1 X113.875 Y107.558 E0.03318
G1 X173.993 Y167.676 E4.11349
G1 X174.678 Y167.676 E0.03318
G1 X114.561 Y107.558 E4.11349
G1 X115.246 Y107.558 E0.03318
G1 X175.364 Y167.676 E4.11349
G1 X175.423 Y167.048 E0.03048
G1 X115.932 Y107.558 E4.07058
G1 X116.618 Y107.558 E0.03318
G1 X175.423 Y166.363 E4.02366
G1 X175.423 Y165.677 E0.03318
G1 X117.303 Y107.558 E3.97674
G1 X117.989 Y107.558 E0.03318
G1 X175.423 Y164.991 E3.92982
G1 X175.423 Y164.305 E0.03318
G1 X118.675 Y107.558 E3.88289
G1 X119.361 Y107.558 E0.03318
G1 X175.423 Y163.620 E3.83597
G1 X175.423 Y162.934 E0.03318
G1 X120.046 Y107.558 E3.78905
G1 X120.732 Y107.558 E0.03318
G1 X175.423 Y162.248 E3.74213
G1 X175.423 Y161.562 E0.03318
G1 X121.418 Y107.558 E3.69521
G1 X122.104 Y107.558 E0.03318
G1 X175.423 Y160.877 E3.64829
G1 X175.423 Y160.191 E0.03318
G1 X122.789 Y107.558 E3.60137
G1 X123.475 Y107.558 E0.03318
G1 X175.423 Y159.505 E3.55444
G1 X175.423 Y158.819 E0.03318
G1 X124.161 Y107.558 E3.50752
G1 X124.847 Y107.558 E0.03318
G1 X175.423 Y158.134 E3.46060
