;(.../Engineering/Matt/pcb-gcode/pcb-gcode.ulp)
;(Copyright 2005 - 2012 by John Johnson)
;(See readme.txt for licensing terms.)
;(This file generated from the board:)
;(.../STEP-CON Mk 02 - Stepper motor controller (test carrier)/Carrier.brd)
;(Current profile is .../pcb-gcode/profiles/generic.pp  )
;(This file generated 24/08/2016 12:47)
;(Settings from pcb-machine.h)
;(spindle on time = 1000.0000)
;(  Tool Size)
;(0.1778 )
;(spindle speed = 30000.0000)
;(tool change at 0.0000 0.0000 5.0000 )
;(feed rate xy = F500.00 )
;(feed rate z  = F200.00 )
;(Z Axis Settings)
;(  High     Up        Down     Drill)
;(5.0000 	2.0000 	-0.2000 	-2.0000 )
;(Settings from pcb-defaults.h)
;(isolate min = 0.0250)
;(isolate max = 0.5000)
;(isolate step = 0.0800)
;(Generated bottom outlines, bottom drill, )
;(Unit of measure: mm)
;(Metric Mode)
G21
;(Absolute Coordinates)
G90
;S30000
G00 Z5.0000  F3000
G00 X0.0000 Y0.0000  F3000
;M03 S1
G04 P1000.000000
G00 Z2.0000  F3000
G00 X-1.0409 Y1.1276  F3000
G01 Z-0.2000 F200.00 
G01 X-1.1276 Y1.0409 F500.00 
G01 X-1.2294 Y0.9729 
G01 X-1.3426 Y0.9260 
G01 X-1.4627 Y0.9021 
G01 X-3.9404 Y0.9021 
G01 X-4.0606 Y0.9260 
G01 X-4.1738 Y0.9729 
G01 X-4.2756 Y1.0409 
G01 X-4.3623 Y1.1276 
G01 X-4.4303 Y1.2294 
G01 X-4.4772 Y1.3426 
G01 X-4.5011 Y1.4627 
G01 X-4.5011 Y13.1385 
G01 X-4.5127 Y13.1669 
G01 X-4.5353 Y13.2216 
G01 X-4.5364 Y13.2251 
G01 X-4.5476 Y13.2834 
G01 X-4.5592 Y13.3418 
G01 X-4.5596 Y13.3454 
G01 X-4.5592 Y13.4050 
G01 X-4.5592 Y13.4643 
G01 X-4.5589 Y13.4679 
G01 X-4.5469 Y13.5264 
G01 X-4.5353 Y13.5844 
G01 X-4.5343 Y13.5879 
G01 X-4.5111 Y13.6429 
G01 X-4.4884 Y13.6976 
G01 X-4.4867 Y13.7008 
G01 X-4.4533 Y13.7502 
G01 X-4.4204 Y13.7995 
G01 X-4.4181 Y13.8023 
G01 X-4.3757 Y13.8441 
G01 X-4.3338 Y13.8861 
G01 X-4.3309 Y13.8884 
G01 X-4.2811 Y13.9213 
G01 X-4.2319 Y13.9541 
G01 X-4.2287 Y13.9559 
G01 X-4.1733 Y13.9784 
G01 X-4.1187 Y14.0010 
G01 X-4.1056 Y14.0060 
G01 X-4.0504 Y14.0612 
G01 X-4.0074 Y14.1042 
G01 X-3.9651 Y14.1465 
G01 X-3.9083 Y14.2021 
G01 X-3.8785 Y14.2740 
G01 X-3.8551 Y14.3306 
G01 X-3.8324 Y14.3855 
G01 X-3.8011 Y14.4589 
G01 X-3.8011 Y14.5366 
G01 X-3.8011 Y14.5976 
G01 X-3.8011 Y14.6573 
G01 X-3.7026 Y31.5606 
G01 X-3.7026 Y31.6201 
G01 X-3.7023 Y31.6235 
G01 X-3.7011 Y31.6291 
G01 X-3.7011 Y31.7617 
G01 X-3.7011 Y31.8227 
G01 X-3.7011 Y31.8824 
G01 X-3.7003 Y31.9621 
G01 X-3.7302 Y32.0342 
G01 X-3.7535 Y32.0906 
G01 X-3.7763 Y32.1457 
G01 X-3.8060 Y32.2194 
G01 X-3.8612 Y32.2746 
G01 X-3.9042 Y32.3176 
G01 X-3.9465 Y32.3599 
G01 X-4.0021 Y32.4167 
G01 X-4.0740 Y32.4464 
G01 X-4.1307 Y32.4700 
G01 X-4.1855 Y32.4926 
G01 X-4.2589 Y32.5239 
G01 X-4.3367 Y32.5239 
G01 X-4.3977 Y32.5239 
G01 X-4.4573 Y32.5239 
G01 X-4.5918 Y32.5250 
G01 X-4.5975 Y32.5239 
G01 X-4.6010 Y32.5236 
G01 X-4.6603 Y32.5239 
G01 X-5.0340 Y32.5239 
G01 X-5.1541 Y32.5478 
G01 X-5.2673 Y32.5947 
G01 X-5.3692 Y32.6627 
G01 X-5.4558 Y32.7494 
G01 X-5.6192 Y32.9128 
G01 X-6.0908 Y33.1081 
G01 X-6.6012 Y33.1081 
G01 X-7.0728 Y32.9128 
G01 X-7.4338 Y32.5518 
G01 X-7.6291 Y32.0802 
G01 X-7.6291 Y31.5698 
G01 X-7.4338 Y31.0982 
G01 X-7.0728 Y30.7372 
G01 X-6.6012 Y30.5419 
G01 X-6.0908 Y30.5419 
G01 X-6.0242 Y30.5695 
G01 X-5.9678 Y30.5928 
G01 X-5.9127 Y30.6157 
G01 X-5.9092 Y30.6167 
G01 X-5.8512 Y30.6279 
G01 X-5.7926 Y30.6396 
G01 X-5.7890 Y30.6399 
G01 X-5.7296 Y30.6396 
G01 X-5.6701 Y30.6396 
G01 X-5.6665 Y30.6392 
G01 X-5.6082 Y30.6272 
G01 X-5.5499 Y30.6157 
G01 X-5.5464 Y30.6146 
G01 X-5.4917 Y30.5915 
G01 X-5.4367 Y30.5688 
G01 X-5.4335 Y30.5671 
G01 X-5.3842 Y30.5337 
G01 X-5.3349 Y30.5007 
G01 X-5.3321 Y30.4984 
G01 X-5.2902 Y30.4561 
G01 X-5.2483 Y30.4141 
G01 X-5.2460 Y30.4113 
G01 X-5.2132 Y30.3617 
G01 X-5.1802 Y30.3122 
G01 X-5.1785 Y30.3090 
G01 X-5.1561 Y30.2541 
G01 X-5.1333 Y30.1991 
G01 X-5.1323 Y30.1956 
G01 X-5.1211 Y30.1375 
G01 X-5.1094 Y30.0789 
G01 X-5.1091 Y30.0753 
G01 X-5.1094 Y30.0161 
G01 X-5.1094 Y29.9564 
G01 X-5.1273 Y26.9410 
G01 X-5.1273 Y26.8816 
G01 X-5.1276 Y26.8780 
G01 X-5.1396 Y26.8197 
G01 X-5.1512 Y26.7615 
G01 X-5.1522 Y26.7580 
G01 X-5.1753 Y26.7031 
G01 X-5.1980 Y26.6483 
G01 X-5.1998 Y26.6451 
G01 X-5.2331 Y26.5959 
G01 X-5.2661 Y26.5464 
G01 X-5.2684 Y26.5436 
G01 X-5.3106 Y26.5019 
G01 X-5.3527 Y26.4598 
G01 X-5.3555 Y26.4575 
G01 X-5.4051 Y26.4248 
G01 X-5.4546 Y26.3918 
G01 X-5.4578 Y26.3901 
G01 X-5.5129 Y26.3676 
G01 X-5.5678 Y26.3449 
G01 X-5.5712 Y26.3438 
G01 X-5.6296 Y26.3326 
G01 X-5.6879 Y26.3210 
G01 X-5.6915 Y26.3206 
G01 X-5.7509 Y26.3210 
G01 X-5.8104 Y26.3210 
G01 X-5.8140 Y26.3213 
G01 X-5.8724 Y26.3333 
G01 X-5.9306 Y26.3449 
G01 X-5.9340 Y26.3459 
G01 X-5.9890 Y26.3691 
G01 X-6.0610 Y26.3989 
G01 X-9.1404 Y26.3989 
G01 X-9.2606 Y26.4228 
G01 X-9.3738 Y26.4697 
G01 X-9.4756 Y26.5377 
G01 X-9.5623 Y26.6244 
G01 X-9.6303 Y26.7262 
G01 X-9.6772 Y26.8394 
G01 X-9.7011 Y26.9595 
G01 X-9.7011 Y41.4140 
G01 X-9.8075 Y41.6709 
G01 X-10.0041 Y41.8675 
G01 X-10.2610 Y41.9739 
G01 X-11.3267 Y41.9739 
G01 X-11.4448 Y41.9974 
G01 X-11.4468 Y41.9978 
G01 X-11.5067 Y42.0226 
G01 X-11.5600 Y42.0447 
G01 X-11.5849 Y42.0614 
G01 X-11.6618 Y42.1127 
G01 X-11.7485 Y42.1994 
G01 X-11.7698 Y42.2314 
G01 X-11.8070 Y42.2869 
G01 X-11.8669 Y42.3468 
G01 X-11.9370 Y42.3759 
G01 X-13.6130 Y42.3759 
G01 X-13.6831 Y42.3468 
G01 X-13.8145 Y42.2155 
G01 X-13.9163 Y42.1474 
G01 X-13.9760 Y42.1227 
G01 X-14.0295 Y42.1005 
G01 X-14.0585 Y42.0948 
G01 X-14.1497 Y42.0766 
G01 X-14.2722 Y42.0766 
G01 X-14.3664 Y42.0954 
G01 X-14.3923 Y42.1005 
G01 X-14.4653 Y42.1308 
G01 X-14.5055 Y42.1474 
G01 X-14.5458 Y42.1743 
G01 X-14.6074 Y42.2155 
G01 X-14.6857 Y42.2938 
G01 X-14.7086 Y42.3092 
G01 X-14.7341 Y42.3197 
G01 X-14.7612 Y42.3251 
G01 X-14.9531 Y42.3251 
G01 X-14.9531 Y42.2989 
G01 X-14.7523 Y42.2989 
G01 X-14.7105 Y42.2816 
G01 X-14.6784 Y42.2495 
G01 X-14.6611 Y42.2077 
G01 X-14.6611 Y40.3623 
G01 X-14.6784 Y40.3205 
G01 X-14.7105 Y40.2884 
G01 X-14.7523 Y40.2711 
G01 X-14.9531 Y40.2711 
G01 X-14.9531 Y40.2449 
G01 X-14.7612 Y40.2449 
G01 X-14.7341 Y40.2503 
G01 X-14.7086 Y40.2608 
G01 X-14.6857 Y40.2762 
G01 X-14.6082 Y40.3536 
G01 X-14.5474 Y40.3946 
G01 X-14.5055 Y40.4226 
G01 X-14.4680 Y40.4381 
G01 X-14.3923 Y40.4694 
G01 X-14.3691 Y40.4741 
G01 X-14.2722 Y40.4933 
G01 X-14.1497 Y40.4933 
G01 X-14.0619 Y40.4759 
G01 X-14.0295 Y40.4695 
G01 X-13.9779 Y40.4481 
G01 X-13.9163 Y40.4226 
G01 X-13.8145 Y40.3545 
G01 X-13.7285 Y40.2686 
G01 X-13.6831 Y40.2232 
G01 X-13.6130 Y40.1941 
G01 X-11.9370 Y40.1941 
G01 X-11.9079 Y40.2062 
G01 X-11.9022 Y40.2085 
G01 X-11.7820 Y40.2324 
G01 X-11.6595 Y40.2324 
G01 X-11.5394 Y40.2085 
G01 X-11.4262 Y40.1616 
G01 X-11.3244 Y40.0936 
G01 X-11.2377 Y40.0070 
G01 X-11.1710 Y39.9071 
G01 X-11.1697 Y39.9051 
G01 X-11.1228 Y39.7919 
G01 X-11.0989 Y39.6718 
G01 X-11.0989 Y36.5482 
G01 X-11.1228 Y36.4281 
G01 X-11.1697 Y36.3149 
G01 X-11.2377 Y36.2130 
G01 X-11.3244 Y36.1264 
G01 X-11.4262 Y36.0583 
G01 X-11.5394 Y36.0115 
G01 X-11.5462 Y36.0101 
G01 X-11.6595 Y35.9876 
G01 X-11.7820 Y35.9876 
G01 X-11.9022 Y36.0115 
G01 X-11.9370 Y36.0259 
G01 X-13.6130 Y36.0259 
G01 X-13.6831 Y35.9968 
G01 X-13.8145 Y35.8655 
G01 X-13.9163 Y35.7974 
G01 X-13.9760 Y35.7727 
G01 X-14.0295 Y35.7505 
G01 X-14.0585 Y35.7448 
G01 X-14.1497 Y35.7266 
G01 X-14.2722 Y35.7266 
G01 X-14.3664 Y35.7454 
G01 X-14.3923 Y35.7505 
G01 X-14.4653 Y35.7808 
G01 X-14.5055 Y35.7974 
G01 X-14.5458 Y35.8243 
G01 X-14.6074 Y35.8655 
G01 X-14.6857 Y35.9438 
G01 X-14.7086 Y35.9592 
G01 X-14.7341 Y35.9697 
G01 X-14.7612 Y35.9751 
G01 X-14.9531 Y35.9751 
G01 X-14.9531 Y35.9489 
G01 X-14.7523 Y35.9489 
G01 X-14.7105 Y35.9316 
G01 X-14.6784 Y35.8995 
G01 X-14.6611 Y35.8577 
G01 X-14.6611 Y34.0123 
G01 X-14.6784 Y33.9705 
G01 X-14.7105 Y33.9384 
G01 X-14.7523 Y33.9211 
G01 X-14.9531 Y33.9211 
G01 X-14.9531 Y33.8949 
G01 X-14.7612 Y33.8949 
G01 X-14.7341 Y33.9003 
G01 X-14.7086 Y33.9108 
G01 X-14.6857 Y33.9262 
G01 X-14.6074 Y34.0045 
G01 X-14.5368 Y34.0516 
G01 X-14.5055 Y34.0726 
G01 X-14.4504 Y34.0954 
G01 X-14.3923 Y34.1194 
G01 X-14.3515 Y34.1276 
G01 X-14.2722 Y34.1433 
G01 X-14.1497 Y34.1433 
G01 X-14.0399 Y34.1215 
G01 X-14.0295 Y34.1195 
G01 X-13.9655 Y34.0929 
G01 X-13.9163 Y34.0726 
G01 X-13.8145 Y34.0045 
G01 X-13.7751 Y33.9652 
G01 X-13.7601 Y33.9538 
G01 X-13.7319 Y33.9220 
G01 X-13.7019 Y33.8919 
G01 X-13.6914 Y33.8762 
G01 X-13.6789 Y33.8621 
G01 X-13.6574 Y33.8254 
G01 X-13.6338 Y33.7900 
G01 X-13.6266 Y33.7726 
G01 X-13.6171 Y33.7563 
G01 X-13.6032 Y33.7161 
G01 X-13.5869 Y33.6768 
G01 X-13.5832 Y33.6584 
G01 X-13.5771 Y33.6406 
G01 X-13.5713 Y33.5984 
G01 X-13.5630 Y33.5567 
G01 X-13.5630 Y33.5378 
G01 X-13.5605 Y33.5192 
G01 X-13.5630 Y33.4768 
G01 X-13.5630 Y33.4342 
G01 X-13.5667 Y33.4157 
G01 X-13.6217 Y32.5021 
G01 X-13.6217 Y32.4595 
G01 X-13.6254 Y32.4411 
G01 X-13.6265 Y32.4223 
G01 X-13.6373 Y32.3811 
G01 X-13.6456 Y32.3394 
G01 X-13.6528 Y32.3220 
G01 X-13.6576 Y32.3038 
G01 X-13.6762 Y32.2655 
G01 X-13.6925 Y32.2262 
G01 X-13.7030 Y32.2105 
G01 X-13.7112 Y32.1936 
G01 X-13.7369 Y32.1597 
G01 X-13.7606 Y32.1244 
G01 X-13.7739 Y32.1110 
G01 X-13.7853 Y32.0960 
G01 X-13.8171 Y32.0678 
G01 X-13.8472 Y32.0377 
G01 X-13.8629 Y32.0273 
G01 X-13.8770 Y32.0148 
G01 X-13.9137 Y31.9933 
G01 X-13.9490 Y31.9697 
G01 X-13.9665 Y31.9625 
G01 X-13.9827 Y31.9530 
G01 X-14.0229 Y31.9391 
G01 X-14.0622 Y31.9228 
G01 X-14.0807 Y31.9191 
G01 X-14.0985 Y31.9130 
G01 X-14.1407 Y31.9072 
G01 X-14.1824 Y31.8989 
G01 X-14.2012 Y31.8989 
G01 X-14.2199 Y31.8963 
G01 X-14.2623 Y31.8989 
G01 X-16.2664 Y31.8989 
G01 X-16.3866 Y31.9228 
G01 X-16.4998 Y31.9697 
G01 X-16.6016 Y32.0377 
G01 X-16.6883 Y32.1244 
G01 X-16.7563 Y32.2262 
G01 X-16.8032 Y32.3394 
G01 X-16.8271 Y32.4595 
G01 X-16.8271 Y33.3342 
G01 X-16.8032 Y33.4544 
G01 X-16.7563 Y33.5676 
G01 X-16.6883 Y33.6694 
G01 X-16.6016 Y33.7561 
G01 X-16.4998 Y33.8241 
G01 X-16.3866 Y33.8710 
G01 X-16.2664 Y33.8949 
G01 X-16.1969 Y33.8949 
G01 X-16.1969 Y33.9211 
G01 X-16.3977 Y33.9211 
G01 X-16.4395 Y33.9384 
G01 X-16.4716 Y33.9705 
G01 X-16.4889 Y34.0123 
G01 X-16.4889 Y35.8577 
G01 X-16.4716 Y35.8995 
G01 X-16.4395 Y35.9316 
G01 X-16.3977 Y35.9489 
G01 X-16.1969 Y35.9489 
G01 X-16.1969 Y35.9751 
G01 X-16.2664 Y35.9751 
G01 X-16.3866 Y35.9990 
G01 X-16.4998 Y36.0459 
G01 X-16.6016 Y36.1139 
G01 X-16.6883 Y36.2006 
G01 X-16.7563 Y36.3024 
G01 X-16.8032 Y36.4156 
G01 X-16.8271 Y36.5357 
G01 X-16.8271 Y38.8000 
G01 X-16.8562 Y38.8701 
G01 X-16.9099 Y38.9238 
G01 X-16.9800 Y38.9529 
G01 X-18.7075 Y38.9529 
G01 X-18.8276 Y38.9768 
G01 X-18.9408 Y39.0237 
G01 X-19.0426 Y39.0917 
G01 X-19.1293 Y39.1784 
G01 X-19.1973 Y39.2802 
G01 X-19.2442 Y39.3934 
G01 X-19.2681 Y39.5135 
G01 X-19.2681 Y45.8918 
G01 X-19.2442 Y46.0119 
G01 X-19.2173 Y46.0769 
G01 X-19.1973 Y46.1251 
G01 X-19.1293 Y46.2270 
G01 X-19.0426 Y46.3136 
G01 X-18.9408 Y46.3816 
G01 X-18.9152 Y46.3922 
G01 X-18.5749 Y46.7326 
G01 X-18.4882 Y46.8192 
G01 X-18.3864 Y46.8872 
G01 X-18.3214 Y46.9141 
G01 X-18.2732 Y46.9341 
G01 X-18.1531 Y46.9580 
G01 X-18.0305 Y46.9580 
G01 X-17.9104 Y46.9341 
G01 X-17.7972 Y46.8872 
G01 X-17.7952 Y46.8859 
G01 X-17.6954 Y46.8192 
G01 X-17.6087 Y46.7326 
G01 X-17.5407 Y46.6307 
G01 X-17.5138 Y46.5658 
G01 X-17.4938 Y46.5175 
G01 X-17.4699 Y46.3974 
G01 X-17.4699 Y45.9350 
G01 X-17.4408 Y45.8649 
G01 X-17.3871 Y45.8112 
G01 X-17.3170 Y45.7821 
G01 X-17.1384 Y45.7821 
G01 X-17.0945 Y45.7845 
G01 X-17.0773 Y45.7821 
G01 X-17.0600 Y45.7821 
G01 X-17.0168 Y45.7735 
G01 X-16.9732 Y45.7673 
G01 X-16.9568 Y45.7616 
G01 X-16.9398 Y45.7582 
G01 X-16.8992 Y45.7413 
G01 X-16.8576 Y45.7268 
G01 X-16.8427 Y45.7179 
G01 X-16.8267 Y45.7113 
G01 X-16.7900 Y45.6868 
G01 X-16.7521 Y45.6644 
G01 X-16.7392 Y45.6529 
G01 X-16.7248 Y45.6433 
G01 X-16.6936 Y45.6121 
G01 X-16.6608 Y45.5827 
G01 X-16.6504 Y45.5689 
G01 X-16.6382 Y45.5566 
G01 X-16.6137 Y45.5200 
G01 X-16.5873 Y45.4848 
G01 X-16.5798 Y45.4692 
G01 X-16.5701 Y45.4548 
G01 X-16.5533 Y45.4141 
G01 X-16.2398 Y44.7618 
G01 X-16.2302 Y44.7474 
G01 X-16.2133 Y44.7067 
G01 X-16.1942 Y44.6670 
G01 X-16.1899 Y44.6502 
G01 X-16.1598 Y44.5774 
G01 X-16.1011 Y44.5249 
G01 X-16.0867 Y44.5153 
G01 X-16.0555 Y44.4841 
G01 X-16.0227 Y44.4548 
G01 X-16.0123 Y44.4409 
G01 X-15.9566 Y44.3852 
G01 X-15.8823 Y44.3591 
G01 X-15.8653 Y44.3558 
G01 X-15.8246 Y44.3389 
G01 X-15.7830 Y44.3243 
G01 X-15.7681 Y44.3155 
G01 X-15.6953 Y44.2854 
G01 X-15.6167 Y44.2897 
G01 X-15.5997 Y44.2931 
G01 X-15.5556 Y44.2931 
G01 X-15.5117 Y44.2955 
G01 X-15.4945 Y44.2931 
G01 X-11.5610 Y44.2931 
G01 X-11.3041 Y44.3995 
G01 X-11.1075 Y44.5961 
G01 X-11.0011 Y44.8530 
G01 X-11.0011 Y61.8890 
G01 X-11.1075 Y62.1459 
G01 X-11.3041 Y62.3425 
G01 X-11.5610 Y62.4489 
G01 X-19.3140 Y62.4489 
G01 X-19.5709 Y62.3425 
G01 X-19.7675 Y62.1459 
G01 X-19.8739 Y61.8890 
G01 X-19.8739 Y55.1385 
G01 X-19.8978 Y55.0184 
G01 X-19.9447 Y54.9052 
G01 X-20.0127 Y54.8034 
G01 X-20.0994 Y54.7167 
G01 X-20.2012 Y54.6487 
G01 X-20.3144 Y54.6018 
G01 X-20.4345 Y54.5779 
G01 X-25.3470 Y54.5779 
G01 X-25.6039 Y54.4715 
G01 X-25.8005 Y54.2749 
G01 X-25.9069 Y54.0180 
G01 X-25.9069 Y50.2189 
G01 X-25.9308 Y50.0987 
G01 X-25.9497 Y50.0532 
G01 X-25.9777 Y49.9855 
G01 X-26.0457 Y49.8837 
G01 X-26.1324 Y49.7970 
G01 X-26.2342 Y49.7290 
G01 X-26.3474 Y49.6821 
G01 X-26.4675 Y49.6582 
G01 X-26.5901 Y49.6582 
G01 X-26.7102 Y49.6821 
G01 X-26.7693 Y49.7066 
G01 X-26.8234 Y49.7290 
G01 X-27.1858 Y49.8791 
G01 X-27.6962 Y49.8791 
G01 X-28.1678 Y49.6838 
G01 X-28.5288 Y49.3228 
G01 X-28.7241 Y48.8512 
G01 X-28.7241 Y48.3408 
G01 X-28.5288 Y47.8692 
G01 X-28.1678 Y47.5082 
G01 X-27.6802 Y47.3063 
G01 X-27.6782 Y47.3049 
G01 X-27.5784 Y47.2382 
G01 X-27.4931 Y47.1529 
G01 X-27.4237 Y47.0497 
G01 X-27.3768 Y46.9365 
G01 X-27.3529 Y46.8164 
G01 X-27.3529 Y46.0135 
G01 X-27.3768 Y45.8934 
G01 X-27.4237 Y45.7802 
G01 X-27.4917 Y45.6784 
G01 X-27.5784 Y45.5917 
G01 X-27.6802 Y45.5237 
G01 X-27.7934 Y45.4768 
G01 X-27.9135 Y45.4529 
G01 X-34.2390 Y45.4529 
G01 X-34.4959 Y45.3465 
G01 X-34.6925 Y45.1499 
G01 X-34.7989 Y44.8930 
G01 X-34.7989 Y44.5429 
G01 X-34.8228 Y44.4227 
G01 X-34.8697 Y44.3096 
G01 X-34.8989 Y44.2390 
G01 X-34.8989 Y41.0135 
G01 X-34.9228 Y40.8934 
G01 X-34.9697 Y40.7802 
G01 X-35.0377 Y40.6784 
G01 X-35.1244 Y40.5917 
G01 X-35.2262 Y40.5237 
G01 X-35.3394 Y40.4768 
G01 X-35.4595 Y40.4529 
G01 X-41.2405 Y40.4529 
G01 X-41.3606 Y40.4768 
G01 X-41.4738 Y40.5237 
G01 X-41.5756 Y40.5917 
G01 X-41.6623 Y40.6784 
G01 X-41.7303 Y40.7802 
G01 X-41.7772 Y40.8934 
G01 X-41.8011 Y41.0135 
G01 X-41.8011 Y47.1470 
G01 X-41.9075 Y47.4039 
G01 X-42.1041 Y47.6005 
G01 X-42.3610 Y47.7069 
G01 X-46.1405 Y47.7069 
G01 X-46.2606 Y47.7308 
G01 X-46.3738 Y47.7777 
G01 X-46.4756 Y47.8457 
G01 X-46.5623 Y47.9324 
G01 X-46.6303 Y48.0342 
G01 X-46.6772 Y48.1474 
G01 X-46.7011 Y48.2675 
G01 X-46.7011 Y49.3470 
G01 X-46.8075 Y49.6039 
G01 X-47.0041 Y49.8005 
G01 X-47.2610 Y49.9069 
G01 X-47.8023 Y49.9069 
G01 X-47.8275 Y49.9119 
G01 X-47.9224 Y49.9308 
G01 X-47.9874 Y49.9577 
G01 X-48.0356 Y49.9777 
G01 X-48.1050 Y50.0241 
G01 X-48.1375 Y50.0457 
G01 X-48.2241 Y50.1324 
G01 X-48.2640 Y50.1921 
G01 X-48.6946 Y50.6227 
G01 X-49.1451 Y50.8093 
G01 X-49.1838 Y50.8225 
G01 X-49.2016 Y50.8327 
G01 X-49.2205 Y50.8405 
G01 X-49.2545 Y50.8633 
G01 X-49.2899 Y50.8837 
G01 X-49.3053 Y50.8972 
G01 X-49.3224 Y50.9086 
G01 X-49.3513 Y50.9375 
G01 X-49.3820 Y50.9645 
G01 X-49.3945 Y50.9808 
G01 X-49.4090 Y50.9952 
G01 X-49.4317 Y51.0292 
G01 X-49.4566 Y51.0617 
G01 X-49.4657 Y51.0801 
G01 X-49.4770 Y51.0971 
G01 X-49.4927 Y51.1349 
G01 X-49.5108 Y51.1716 
G01 X-49.5161 Y51.1914 
G01 X-49.5239 Y51.2103 
G01 X-49.5319 Y51.2504 
G01 X-49.5425 Y51.2899 
G01 X-49.5438 Y51.3103 
G01 X-49.5478 Y51.3304 
G01 X-49.5478 Y51.3713 
G01 X-49.5505 Y51.4121 
G01 X-49.5478 Y51.4324 
G01 X-49.5478 Y51.4529 
G01 X-49.5398 Y51.4930 
G01 X-49.5345 Y51.5336 
G01 X-49.5279 Y51.5530 
G01 X-49.5239 Y51.5731 
G01 X-49.5083 Y51.6109 
G01 X-49.4951 Y51.6496 
G01 X-49.4849 Y51.6673 
G01 X-49.4770 Y51.6862 
G01 X-49.4543 Y51.7203 
G01 X-49.4339 Y51.7557 
G01 X-49.4203 Y51.7711 
G01 X-49.4090 Y51.7881 
G01 X-49.3801 Y51.8170 
G01 X-49.3531 Y51.8478 
G01 X-49.3368 Y51.8602 
G01 X-49.3224 Y51.8747 
G01 X-49.2884 Y51.8974 
G01 X-49.2559 Y51.9224 
G01 X-49.2375 Y51.9314 
G01 X-49.2205 Y51.9428 
G01 X-49.1827 Y51.9584 
G01 X-49.1460 Y51.9765 
G01 X-49.1262 Y51.9818 
G01 X-49.1073 Y51.9897 
G01 X-49.0685 Y51.9974 
G01 X-48.8978 Y52.0681 
G01 X-48.7371 Y52.1609 
G01 X-48.5900 Y52.2738 
G01 X-48.4588 Y52.4050 
G01 X-48.3459 Y52.5521 
G01 X-48.2531 Y52.7128 
G01 X-48.2509 Y52.7181 
G01 X-48.2831 Y52.7181 
G01 X-48.3371 Y52.6121 
G01 X-48.4656 Y52.4352 
G01 X-48.6202 Y52.2806 
G01 X-48.7971 Y52.1521 
G01 X-48.9918 Y52.0529 
G01 X-49.1998 Y51.9853 
G01 X-49.4157 Y51.9511 
G01 X-52.1843 Y51.9511 
G01 X-52.4002 Y51.9853 
G01 X-52.6082 Y52.0529 
G01 X-52.8029 Y52.1521 
G01 X-52.9798 Y52.2806 
G01 X-53.1344 Y52.4352 
G01 X-53.2629 Y52.6121 
G01 X-53.3169 Y52.7181 
G01 X-53.3491 Y52.7181 
G01 X-53.3469 Y52.7128 
G01 X-53.2541 Y52.5521 
G01 X-53.1412 Y52.4050 
G01 X-53.0100 Y52.2738 
G01 X-52.8629 Y52.1609 
G01 X-52.7022 Y52.0681 
G01 X-52.5315 Y51.9974 
G01 X-52.4927 Y51.9897 
G01 X-52.4738 Y51.9818 
G01 X-52.4540 Y51.9765 
G01 X-52.4173 Y51.9584 
G01 X-52.3795 Y51.9428 
G01 X-52.3625 Y51.9314 
G01 X-52.3441 Y51.9224 
G01 X-52.3116 Y51.8974 
G01 X-52.2776 Y51.8747 
G01 X-52.2632 Y51.8602 
G01 X-52.2469 Y51.8478 
G01 X-52.2199 Y51.8170 
G01 X-52.1910 Y51.7881 
G01 X-52.1796 Y51.7711 
G01 X-52.1661 Y51.7557 
G01 X-52.1457 Y51.7203 
G01 X-52.1230 Y51.6862 
G01 X-52.1151 Y51.6673 
G01 X-52.1049 Y51.6496 
G01 X-52.0917 Y51.6109 
G01 X-52.0761 Y51.5731 
G01 X-52.0721 Y51.5530 
G01 X-52.0655 Y51.5336 
G01 X-52.0602 Y51.4930 
G01 X-52.0522 Y51.4529 
G01 X-52.0522 Y51.4324 
G01 X-52.0495 Y51.4121 
G01 X-52.0522 Y51.3713 
G01 X-52.0522 Y51.3304 
G01 X-52.0562 Y51.3103 
G01 X-52.0575 Y51.2899 
G01 X-52.0681 Y51.2504 
G01 X-52.0761 Y51.2103 
G01 X-52.0839 Y51.1914 
G01 X-52.0892 Y51.1716 
G01 X-52.1073 Y51.1349 
G01 X-52.1230 Y51.0971 
G01 X-52.1343 Y51.0801 
G01 X-52.1434 Y51.0617 
G01 X-52.1683 Y51.0292 
G01 X-52.1910 Y50.9952 
G01 X-52.2055 Y50.9808 
G01 X-52.2180 Y50.9645 
G01 X-52.2487 Y50.9375 
G01 X-52.2776 Y50.9086 
G01 X-52.2947 Y50.8972 
G01 X-52.3101 Y50.8837 
G01 X-52.3455 Y50.8633 
G01 X-52.3795 Y50.8405 
G01 X-52.3984 Y50.8327 
G01 X-52.4162 Y50.8225 
G01 X-52.4549 Y50.8093 
G01 X-52.9054 Y50.6227 
G01 X-53.3177 Y50.2104 
G01 X-53.5409 Y49.6716 
G01 X-53.5409 Y49.0884 
G01 X-53.3177 Y48.5496 
G01 X-52.9054 Y48.1373 
G01 X-52.4560 Y47.9511 
G01 X-52.3541 Y47.8831 
G01 X-52.2675 Y47.7964 
G01 X-52.2458 Y47.7640 
G01 X-52.1994 Y47.6946 
G01 X-52.1794 Y47.6463 
G01 X-52.1525 Y47.5814 
G01 X-52.1368 Y47.5022 
G01 X-52.1286 Y47.4612 
G01 X-52.1286 Y47.3387 
G01 X-52.1525 Y47.2186 
G01 X-52.1714 Y47.1731 
G01 X-52.1994 Y47.1054 
G01 X-52.2675 Y47.0036 
G01 X-52.3541 Y46.9169 
G01 X-52.3865 Y46.8953 
G01 X-52.4560 Y46.8489 
G01 X-52.5628 Y46.8046 
G01 X-52.9054 Y46.6627 
G01 X-53.3177 Y46.2504 
G01 X-53.5409 Y45.7116 
G01 X-53.5409 Y45.1284 
G01 X-53.3177 Y44.5896 
G01 X-52.9054 Y44.1773 
G01 X-52.3666 Y43.9541 
G01 X-49.2334 Y43.9541 
G01 X-48.6946 Y44.1773 
G01 X-48.3516 Y44.5203 
G01 X-48.2498 Y44.5883 
G01 X-48.1366 Y44.6352 
G01 X-48.0165 Y44.6591 
G01 X-45.4595 Y44.6591 
G01 X-45.3394 Y44.6352 
G01 X-45.2262 Y44.5883 
G01 X-45.1244 Y44.5203 
G01 X-45.0377 Y44.4336 
G01 X-44.9697 Y44.3318 
G01 X-44.9228 Y44.2186 
G01 X-44.8989 Y44.0984 
G01 X-44.8989 Y38.5626 
G01 X-44.8959 Y38.5276 
G01 X-44.8989 Y38.5015 
G01 X-44.8989 Y38.4752 
G01 X-44.9057 Y38.4408 
G01 X-44.9097 Y38.4059 
G01 X-44.9177 Y38.3809 
G01 X-44.9228 Y38.3551 
G01 X-44.9362 Y38.3227 
G01 X-44.9469 Y38.2892 
G01 X-44.9596 Y38.2662 
G01 X-44.9697 Y38.2419 
G01 X-44.9892 Y38.2127 
G01 X-45.0062 Y38.1820 
G01 X-45.0231 Y38.1619 
G01 X-45.0377 Y38.1401 
G01 X-45.0626 Y38.1152 
G01 X-45.0852 Y38.0884 
G01 X-45.1058 Y38.0720 
G01 X-45.1244 Y38.0534 
G01 X-45.1536 Y38.0339 
G01 X-45.1810 Y38.0120 
G01 X-45.2044 Y38.0000 
G01 X-45.2262 Y37.9854 
G01 X-45.2587 Y37.9719 
G01 X-45.2899 Y37.9558 
G01 X-45.3151 Y37.9486 
G01 X-45.3394 Y37.9385 
G01 X-45.3738 Y37.9317 
G01 X-45.4076 Y37.9219 
G01 X-45.4338 Y37.9197 
G01 X-45.4595 Y37.9146 
G01 X-45.4947 Y37.9146 
G01 X-45.5297 Y37.9117 
G01 X-45.5558 Y37.9146 
G01 X-45.5820 Y37.9146 
G01 X-45.6165 Y37.9215 
G01 X-45.6514 Y37.9254 
G01 X-45.6764 Y37.9334 
G01 X-45.7022 Y37.9385 
G01 X-45.7346 Y37.9519 
G01 X-45.8336 Y37.9835 
G01 X-45.8593 Y37.9886 
G01 X-45.8918 Y38.0020 
G01 X-45.9252 Y38.0127 
G01 X-45.9482 Y38.0254 
G01 X-46.0778 Y38.0791 
G01 X-46.0978 Y38.0791 
G01 X-46.1323 Y38.0859 
G01 X-46.1672 Y38.0899 
G01 X-46.1863 Y38.0960 
G01 X-46.3260 Y38.0842 
G01 X-46.3518 Y38.0791 
G01 X-46.3869 Y38.0791 
G01 X-46.4219 Y38.0761 
G01 X-46.4480 Y38.0791 
G01 X-46.5882 Y38.0791 
G01 X-46.6067 Y38.0714 
G01 X-46.6412 Y38.0646 
G01 X-46.6750 Y38.0548 
G01 X-46.7011 Y38.0526 
G01 X-46.7269 Y38.0475 
G01 X-46.7620 Y38.0475 
G01 X-48.9549 Y37.8629 
G01 X-48.9807 Y37.8578 
G01 X-49.0158 Y37.8578 
G01 X-49.0508 Y37.8549 
G01 X-49.0769 Y37.8578 
G01 X-49.1032 Y37.8578 
G01 X-49.1376 Y37.8647 
G01 X-49.1725 Y37.8686 
G01 X-49.1976 Y37.8766 
G01 X-49.2233 Y37.8817 
G01 X-49.2334 Y37.8859 
G01 X-52.3666 Y37.8859 
G01 X-52.9054 Y37.6627 
G01 X-53.3177 Y37.2504 
G01 X-53.5409 Y36.7116 
G01 X-53.5409 Y36.1284 
G01 X-53.3177 Y35.5896 
G01 X-52.9054 Y35.1773 
G01 X-52.5691 Y35.0380 
G01 X-52.4892 Y35.0049 
G01 X-52.4560 Y34.9911 
G01 X-52.3541 Y34.9231 
G01 X-52.2688 Y34.8378 
G01 X-52.2232 Y34.7702 
G01 X-52.1994 Y34.7346 
G01 X-52.1525 Y34.6214 
G01 X-52.1384 Y34.5504 
G01 X-52.1286 Y34.5012 
G01 X-52.1286 Y34.3787 
G01 X-52.1525 Y34.2586 
G01 X-52.1908 Y34.1662 
G01 X-52.1994 Y34.1454 
G01 X-52.2675 Y34.0436 
G01 X-52.3527 Y33.9583 
G01 X-52.4203 Y33.9127 
G01 X-52.4559 Y33.8889 
G01 X-52.4849 Y33.8769 
G01 X-52.5691 Y33.8420 
G01 X-52.9054 Y33.7027 
G01 X-53.3177 Y33.2904 
G01 X-53.5409 Y32.7516 
G01 X-53.5409 Y32.1684 
G01 X-53.3177 Y31.6296 
G01 X-52.9054 Y31.2173 
G01 X-52.5691 Y31.0780 
G01 X-52.4892 Y31.0449 
G01 X-52.4560 Y31.0311 
G01 X-52.3541 Y30.9631 
G01 X-52.2688 Y30.8778 
G01 X-52.2232 Y30.8102 
G01 X-52.1994 Y30.7746 
G01 X-52.1525 Y30.6614 
G01 X-52.1384 Y30.5904 
G01 X-52.1286 Y30.5413 
G01 X-52.1286 Y30.4187 
G01 X-52.1525 Y30.2986 
G01 X-52.1908 Y30.2062 
G01 X-52.1994 Y30.1854 
G01 X-52.2675 Y30.0836 
G01 X-52.3527 Y29.9983 
G01 X-52.4203 Y29.9527 
G01 X-52.4559 Y29.9289 
G01 X-52.4849 Y29.9169 
G01 X-52.5691 Y29.8820 
G01 X-52.9054 Y29.7427 
G01 X-53.3177 Y29.3304 
G01 X-53.5409 Y28.7916 
G01 X-53.5409 Y28.2084 
G01 X-53.3177 Y27.6696 
G01 X-52.9054 Y27.2573 
G01 X-52.5568 Y27.1129 
G01 X-52.4560 Y27.0711 
G01 X-52.3893 Y27.0266 
G01 X-52.3541 Y27.0031 
G01 X-52.2675 Y26.9164 
G01 X-52.1994 Y26.8146 
G01 X-52.1725 Y26.7496 
G01 X-52.1525 Y26.7014 
G01 X-52.1286 Y26.5813 
G01 X-52.1286 Y26.4587 
G01 X-52.1363 Y26.4200 
G01 X-52.1525 Y26.3386 
G01 X-52.1806 Y26.2709 
G01 X-52.1994 Y26.2254 
G01 X-52.2440 Y26.1587 
G01 X-52.2675 Y26.1236 
G01 X-52.3541 Y26.0369 
G01 X-52.4560 Y25.9689 
G01 X-52.9054 Y25.7827 
G01 X-53.3177 Y25.3704 
G01 X-53.5409 Y24.8316 
G01 X-53.5409 Y24.2484 
G01 X-53.3177 Y23.7096 
G01 X-52.9054 Y23.2973 
G01 X-52.3666 Y23.0741 
G01 X-49.2334 Y23.0741 
G01 X-48.9875 Y23.1760 
G01 X-48.9307 Y23.1995 
G01 X-48.8758 Y23.2222 
G01 X-48.8727 Y23.2232 
G01 X-48.8143 Y23.2345 
G01 X-48.7556 Y23.2461 
G01 X-48.7525 Y23.2464 
G01 X-48.6931 Y23.2461 
G01 X-48.6331 Y23.2461 
G01 X-46.6742 Y23.2358 
G01 X-46.6143 Y23.2358 
G01 X-46.6112 Y23.2355 
G01 X-46.6033 Y23.2339 
G01 X-46.3567 Y23.2339 
G01 X-46.2957 Y23.2339 
G01 X-46.2358 Y23.2339 
G01 X-46.0399 Y23.2326 
G01 X-45.8606 Y23.3069 
G01 X-45.8041 Y23.3303 
G01 X-45.7489 Y23.3531 
G01 X-45.6455 Y23.3950 
G01 X-45.5902 Y23.4179 
G01 X-45.5872 Y23.4188 
G01 X-45.5286 Y23.4302 
G01 X-45.4700 Y23.4418 
G01 X-45.4669 Y23.4421 
G01 X-45.4072 Y23.4418 
G01 X-45.3475 Y23.4418 
G01 X-45.3444 Y23.4415 
G01 X-45.2857 Y23.4295 
G01 X-45.2274 Y23.4179 
G01 X-45.2244 Y23.4170 
G01 X-45.1694 Y23.3939 
G01 X-45.1142 Y23.3711 
G01 X-45.1114 Y23.3695 
G01 X-45.0622 Y23.3363 
G01 X-45.0124 Y23.3030 
G01 X-45.0099 Y23.3010 
G01 X-44.9680 Y23.2587 
G01 X-44.9257 Y23.2164 
G01 X-44.9237 Y23.2139 
G01 X-44.8909 Y23.1643 
G01 X-44.8577 Y23.1145 
G01 X-44.8562 Y23.1117 
G01 X-44.8337 Y23.0566 
G01 X-44.8108 Y23.0013 
G01 X-44.8099 Y22.9983 
G01 X-44.7985 Y22.9398 
G01 X-44.7869 Y22.8812 
G01 X-44.7866 Y22.8780 
G01 X-44.7869 Y22.8183 
G01 X-44.7869 Y17.9765 
G01 X-44.8108 Y17.8564 
G01 X-44.8577 Y17.7432 
G01 X-44.9257 Y17.6414 
G01 X-45.0124 Y17.5547 
G01 X-45.1142 Y17.4867 
G01 X-45.2274 Y17.4398 
G01 X-45.3475 Y17.4159 
G01 X-48.0115 Y17.4159 
G01 X-48.1316 Y17.4398 
G01 X-48.1771 Y17.4587 
G01 X-48.2448 Y17.4867 
G01 X-48.3466 Y17.5547 
G01 X-48.4333 Y17.6414 
G01 X-48.6946 Y17.9027 
G01 X-49.2334 Y18.1259 
G01 X-52.3666 Y18.1259 
G01 X-52.9054 Y17.9027 
G01 X-53.3177 Y17.4904 
G01 X-53.5409 Y16.9516 
G01 X-53.5409 Y16.3684 
G01 X-53.3177 Y15.8296 
G01 X-52.9054 Y15.4173 
G01 X-52.5691 Y15.2780 
G01 X-52.4892 Y15.2449 
G01 X-52.4560 Y15.2311 
G01 X-52.3541 Y15.1631 
G01 X-52.2688 Y15.0778 
G01 X-52.2232 Y15.0102 
G01 X-52.1994 Y14.9746 
G01 X-52.1525 Y14.8614 
G01 X-52.1384 Y14.7904 
G01 X-52.1286 Y14.7413 
G01 X-52.1286 Y14.6187 
G01 X-52.1525 Y14.4986 
G01 X-52.1908 Y14.4062 
G01 X-52.1994 Y14.3854 
G01 X-52.2675 Y14.2836 
G01 X-52.3527 Y14.1983 
G01 X-52.4203 Y14.1527 
G01 X-52.4559 Y14.1289 
G01 X-52.4849 Y14.1169 
G01 X-52.5691 Y14.0820 
G01 X-52.9054 Y13.9427 
G01 X-53.3177 Y13.5304 
G01 X-53.5409 Y12.9916 
G01 X-53.5409 Y12.4084 
G01 X-53.3177 Y11.8696 
G01 X-52.9054 Y11.4573 
G01 X-52.5691 Y11.3180 
G01 X-52.4892 Y11.2849 
G01 X-52.4560 Y11.2711 
G01 X-52.3541 Y11.2031 
G01 X-52.2688 Y11.1178 
G01 X-52.2232 Y11.0502 
G01 X-52.1994 Y11.0146 
G01 X-52.1525 Y10.9014 
G01 X-52.1384 Y10.8304 
G01 X-52.1286 Y10.7812 
G01 X-52.1286 Y10.6587 
G01 X-52.1525 Y10.5386 
G01 X-52.1908 Y10.4462 
G01 X-52.1994 Y10.4254 
G01 X-52.2675 Y10.3236 
G01 X-52.3527 Y10.2383 
G01 X-52.4203 Y10.1927 
G01 X-52.4559 Y10.1689 
G01 X-52.4849 Y10.1569 
G01 X-52.5691 Y10.1220 
G01 X-52.9054 Y9.9827 
G01 X-53.3177 Y9.5704 
G01 X-53.5409 Y9.0316 
G01 X-53.5409 Y8.5895 
G01 X-53.5406 Y8.5293 
G01 X-53.5409 Y8.5267 
G01 X-53.5525 Y8.4683 
G01 X-53.5640 Y8.4091 
G01 X-53.5648 Y8.4065 
G01 X-53.5822 Y8.3646 
G01 X-53.5800 Y7.8543 
G01 X-53.3827 Y7.3836 
G01 X-53.0202 Y7.0241 
G01 X-52.5478 Y6.8308 
G01 X-42.9588 Y6.8716 
G01 X-42.8978 Y6.8719 
G01 X-42.8376 Y6.8722 
G01 X-42.6419 Y6.8719 
G01 X-42.4629 Y6.9469 
G01 X-42.4061 Y6.9708 
G01 X-42.3512 Y6.9938 
G01 X-42.2404 Y7.0394 
G01 X-42.1308 Y7.0848 
G01 X-42.1272 Y7.0863 
G01 X-42.0070 Y7.1102 
G01 X-41.8845 Y7.1102 
G01 X-41.7644 Y7.0863 
G01 X-41.6512 Y7.0394 
G01 X-41.5494 Y6.9713 
G01 X-41.4627 Y6.8847 
G01 X-41.3947 Y6.7829 
G01 X-41.3478 Y6.6697 
G01 X-41.3239 Y6.5495 
G01 X-41.3239 Y1.4627 
G01 X-41.3478 Y1.3426 
G01 X-41.3947 Y1.2294 
G01 X-41.4627 Y1.1276 
G01 X-41.5494 Y1.0409 
G01 X-41.6512 Y0.9729 
G01 X-41.7644 Y0.9260 
G01 X-41.8845 Y0.9021 
G01 X-57.2612 Y0.9021 
G01 X-57.3814 Y0.9260 
G01 X-57.4946 Y0.9729 
G01 X-57.5964 Y1.0409 
G01 X-57.6831 Y1.1276 
G01 X-57.7511 Y1.2294 
G01 X-57.7980 Y1.3426 
G01 X-57.8219 Y1.4627 
G01 X-57.8219 Y66.0362 
G01 X-57.7980 Y66.1564 
G01 X-57.7511 Y66.2696 
G01 X-57.6831 Y66.3714 
G01 X-57.5964 Y66.4581 
G01 X-57.4946 Y66.5261 
G01 X-57.3814 Y66.5730 
G01 X-57.2612 Y66.5969 
G01 X-57.1387 Y66.5969 
G01 X-1.4627 Y66.5969 
G01 X-1.3426 Y66.5730 
G01 X-1.2294 Y66.5261 
G01 X-1.1276 Y66.4581 
G01 X-1.0409 Y66.3714 
G01 X-0.9729 Y66.2696 
G01 X-0.9260 Y66.1564 
G01 X-0.9021 Y66.0362 
G01 X-0.9021 Y1.4627 
G01 X-0.9260 Y1.3426 
G01 X-0.9729 Y1.2294 
G01 X-1.0409 Y1.1276 
G00 Z2.0000  F3000
G00 X-4.7169 Y1.2286  F3000
G01 Z-0.2000 F200.00 
G01 X-4.8036 Y1.1419 F500.00 
G01 X-4.9054 Y1.0739 
G01 X-5.0186 Y1.0270 
G01 X-5.1387 Y1.0031 
G01 X-40.6863 Y1.0031 
G01 X-40.8064 Y1.0270 
G01 X-40.9196 Y1.0739 
G01 X-41.0214 Y1.1419 
G01 X-41.1081 Y1.2286 
G01 X-41.1761 Y1.3304 
G01 X-41.2230 Y1.4436 
G01 X-41.2469 Y1.5637 
G01 X-41.2469 Y11.9611 
G01 X-42.7313 Y11.9611 
G01 X-42.7358 Y11.9603 
G01 X-42.7925 Y11.9611 
G01 X-42.8492 Y11.9611 
G01 X-42.8537 Y11.9620 
G01 X-48.3017 Y12.0416 
G01 X-48.3371 Y11.9721 
G01 X-48.4656 Y11.7952 
G01 X-48.6202 Y11.6406 
G01 X-48.7971 Y11.5121 
G01 X-48.9918 Y11.4129 
G01 X-49.1998 Y11.3453 
G01 X-49.4157 Y11.3111 
G01 X-52.1843 Y11.3111 
G01 X-52.4002 Y11.3453 
G01 X-52.6082 Y11.4129 
G01 X-52.8029 Y11.5121 
G01 X-52.9798 Y11.6406 
G01 X-53.1344 Y11.7952 
G01 X-53.2629 Y11.9721 
G01 X-53.3621 Y12.1668 
G01 X-53.4297 Y12.3748 
G01 X-53.4639 Y12.5907 
G01 X-53.4639 Y12.8093 
G01 X-53.4297 Y13.0252 
G01 X-53.3621 Y13.2332 
G01 X-53.2629 Y13.4279 
G01 X-53.1344 Y13.6048 
G01 X-52.9798 Y13.7594 
G01 X-52.8029 Y13.8879 
G01 X-52.6082 Y13.9871 
G01 X-52.4002 Y14.0547 
G01 X-52.1843 Y14.0889 
G01 X-49.4157 Y14.0889 
G01 X-49.1998 Y14.0547 
G01 X-48.9918 Y13.9871 
G01 X-48.7971 Y13.8879 
G01 X-48.6202 Y13.7594 
G01 X-48.4656 Y13.6048 
G01 X-48.3371 Y13.4279 
G01 X-48.2642 Y13.2849 
G01 X-43.4099 Y13.2140 
G01 X-43.4099 Y25.4112 
G01 X-43.3860 Y25.5314 
G01 X-43.3391 Y25.6446 
G01 X-43.2711 Y25.7464 
G01 X-43.1844 Y25.8331 
G01 X-43.0826 Y25.9011 
G01 X-42.9694 Y25.9480 
G01 X-42.8492 Y25.9719 
G01 X-37.9969 Y25.9719 
G01 X-37.9969 Y26.0613 
G01 X-37.9730 Y26.1814 
G01 X-37.9261 Y26.2946 
G01 X-37.8581 Y26.3964 
G01 X-37.7714 Y26.4831 
G01 X-37.6696 Y26.5511 
G01 X-37.5564 Y26.5980 
G01 X-37.5377 Y26.6017 
G01 X-37.5205 Y26.6110 
G01 X-37.4882 Y26.6297 
G01 X-37.4839 Y26.6308 
G01 X-37.4800 Y26.6329 
G01 X-37.4436 Y26.6416 
G01 X-37.4075 Y26.6513 
G01 X-37.4031 Y26.6513 
G01 X-37.3988 Y26.6523 
G01 X-37.3614 Y26.6513 
G01 X-35.9309 Y26.6513 
G01 X-35.8891 Y26.6340 
G01 X-35.8570 Y26.6019 
G01 X-35.8397 Y26.5601 
G01 X-35.8397 Y26.1083 
G01 X-35.8570 Y26.0665 
G01 X-35.8891 Y26.0344 
G01 X-35.9309 Y26.0171 
G01 X-36.7531 Y26.0171 
G01 X-36.7531 Y25.2887 
G01 X-36.7770 Y25.1686 
G01 X-36.8239 Y25.0554 
G01 X-36.8919 Y24.9536 
G01 X-36.9786 Y24.8669 
G01 X-37.0804 Y24.7989 
G01 X-37.1936 Y24.7520 
G01 X-37.3137 Y24.7281 
G01 X-42.1661 Y24.7281 
G01 X-42.1661 Y13.2049 
G01 X-40.5637 Y13.2049 
G01 X-40.4436 Y13.1810 
G01 X-40.3304 Y13.1341 
G01 X-40.2286 Y13.0661 
G01 X-40.1419 Y12.9794 
G01 X-40.0739 Y12.8776 
G01 X-40.0270 Y12.7644 
G01 X-40.0031 Y12.6442 
G01 X-40.0031 Y2.2469 
G01 X-5.8219 Y2.2469 
G01 X-5.8219 Y12.3781 
G01 X-17.9031 Y12.3781 
G01 X-17.9031 Y8.1689 
G01 X-17.6023 Y8.1689 
G01 X-17.5605 Y8.1516 
G01 X-17.5284 Y8.1195 
G01 X-17.5111 Y8.0777 
G01 X-17.5111 Y6.2323 
G01 X-17.5284 Y6.1905 
G01 X-17.5605 Y6.1584 
G01 X-17.6023 Y6.1411 
G01 X-19.2477 Y6.1411 
G01 X-19.2895 Y6.1584 
G01 X-19.3216 Y6.1905 
G01 X-19.3389 Y6.2323 
G01 X-19.3389 Y8.0777 
G01 X-19.3216 Y8.1195 
G01 X-19.2895 Y8.1516 
G01 X-19.2477 Y8.1689 
G01 X-19.1469 Y8.1689 
G01 X-19.1469 Y13.0612 
G01 X-19.1230 Y13.1814 
G01 X-19.0761 Y13.2946 
G01 X-19.0081 Y13.3964 
G01 X-18.9214 Y13.4831 
G01 X-18.8196 Y13.5511 
G01 X-18.7064 Y13.5980 
G01 X-18.5862 Y13.6219 
G01 X-5.1387 Y13.6219 
G01 X-5.0186 Y13.5980 
G01 X-4.9054 Y13.5511 
G01 X-4.8036 Y13.4831 
G01 X-4.7169 Y13.3964 
G01 X-4.6489 Y13.2946 
G01 X-4.6020 Y13.1814 
G01 X-4.5781 Y13.0612 
G01 X-4.5781 Y1.5637 
G01 X-4.6020 Y1.4436 
G01 X-4.6489 Y1.3304 
G01 X-4.7169 Y1.2286 
G00 Z2.0000  F3000
G00 X-6.0377 Y2.5494  F3000
G01 Z-0.2000 F200.00 
G01 X-6.1244 Y2.4627 F500.00 
G01 X-6.2262 Y2.3947 
G01 X-6.3394 Y2.3478 
G01 X-6.4595 Y2.3239 
G01 X-39.3655 Y2.3239 
G01 X-39.4856 Y2.3478 
G01 X-39.5988 Y2.3947 
G01 X-39.7006 Y2.4627 
G01 X-39.7873 Y2.5494 
G01 X-39.8553 Y2.6512 
G01 X-39.9022 Y2.7644 
G01 X-39.9261 Y2.8845 
G01 X-39.9261 Y12.7220 
G01 X-40.0325 Y12.9789 
G01 X-40.2291 Y13.1755 
G01 X-40.4860 Y13.2819 
G01 X-41.5284 Y13.2819 
G01 X-41.6486 Y13.3058 
G01 X-41.7618 Y13.3527 
G01 X-41.8636 Y13.4207 
G01 X-41.9503 Y13.5074 
G01 X-42.0183 Y13.6092 
G01 X-42.0652 Y13.7224 
G01 X-42.0891 Y13.8425 
G01 X-42.0891 Y24.0905 
G01 X-42.0652 Y24.2106 
G01 X-42.0183 Y24.3238 
G01 X-41.9503 Y24.4256 
G01 X-41.8636 Y24.5123 
G01 X-41.7618 Y24.5803 
G01 X-41.6486 Y24.6272 
G01 X-41.5284 Y24.6511 
G01 X-37.2360 Y24.6511 
G01 X-36.9791 Y24.7575 
G01 X-36.7825 Y24.9541 
G01 X-36.6761 Y25.2110 
G01 X-36.6761 Y25.3794 
G01 X-36.6522 Y25.4996 
G01 X-36.6053 Y25.6128 
G01 X-36.5373 Y25.7146 
G01 X-36.4506 Y25.8013 
G01 X-36.3488 Y25.8693 
G01 X-36.2356 Y25.9162 
G01 X-36.1155 Y25.9401 
G01 X-35.9156 Y25.9401 
G01 X-35.8455 Y25.9692 
G01 X-35.7918 Y26.0229 
G01 X-35.7627 Y26.0930 
G01 X-35.7627 Y27.0087 
G01 X-35.7388 Y27.1289 
G01 X-35.6933 Y27.2388 
G01 X-35.6919 Y27.2420 
G01 X-35.6239 Y27.3439 
G01 X-35.5372 Y27.4305 
G01 X-35.4354 Y27.4986 
G01 X-35.3222 Y27.5455 
G01 X-35.2020 Y27.5694 
G01 X-35.0795 Y27.5694 
G01 X-34.9594 Y27.5455 
G01 X-34.8797 Y27.5124 
G01 X-34.8462 Y27.4986 
G01 X-34.7630 Y27.4641 
G01 X-34.2492 Y27.4641 
G01 X-34.2342 Y27.5411 
G01 X-34.7477 Y27.5411 
G01 X-34.7895 Y27.5584 
G01 X-34.8216 Y27.5905 
G01 X-34.8389 Y27.6323 
G01 X-34.8389 Y28.6171 
G01 X-37.0364 Y28.6171 
G01 X-37.4080 Y28.6069 
G01 X-37.4892 Y28.6263 
G01 X-37.5626 Y28.6660 
G01 X-37.6233 Y28.7234 
G01 X-37.6670 Y28.7945 
G01 X-37.6908 Y28.8745 
G01 X-37.6931 Y28.9580 
G01 X-37.6737 Y29.0392 
G01 X-37.6340 Y29.1126 
G01 X-37.5766 Y29.1733 
G01 X-37.5055 Y29.2170 
G01 X-37.4255 Y29.2408 
G01 X-37.0868 Y29.2502 
G01 X-37.0825 Y29.2513 
G01 X-37.0451 Y29.2513 
G01 X-37.0078 Y29.2523 
G01 X-37.0035 Y29.2513 
G01 X-34.8389 Y29.2513 
G01 X-34.8389 Y32.0777 
G01 X-34.8216 Y32.1195 
G01 X-34.7895 Y32.1516 
G01 X-34.7477 Y32.1689 
G01 X-32.9545 Y32.1689 
G01 X-32.9373 Y32.1861 
G01 X-35.2227 Y32.1861 
G01 X-35.2645 Y32.2034 
G01 X-35.2966 Y32.2355 
G01 X-35.3139 Y32.2773 
G01 X-35.3139 Y34.2227 
G01 X-35.2966 Y34.2645 
G01 X-35.2645 Y34.2966 
G01 X-35.2227 Y34.3139 
G01 X-31.1773 Y34.3139 
G01 X-31.1355 Y34.2966 
G01 X-31.1034 Y34.2645 
G01 X-31.0861 Y34.2227 
G01 X-31.0861 Y33.7921 
G01 X-30.6139 Y33.7921 
G01 X-30.6139 Y34.2227 
G01 X-30.5966 Y34.2645 
G01 X-30.5645 Y34.2966 
G01 X-30.5227 Y34.3139 
G01 X-28.8773 Y34.3139 
G01 X-28.8355 Y34.2966 
G01 X-28.8034 Y34.2645 
G01 X-28.7861 Y34.2227 
G01 X-28.7861 Y33.2773 
G01 X-28.8034 Y33.2355 
G01 X-28.8355 Y33.2034 
G01 X-28.8773 Y33.1861 
G01 X-29.0031 Y33.1861 
G01 X-29.0520 Y33.1730 
G01 X-28.6219 Y33.1818 
G01 X-28.6219 Y36.7246 
G01 X-28.6220 Y36.7850 
G01 X-28.6101 Y36.8457 
G01 X-28.5983 Y36.9052 
G01 X-28.5746 Y36.9628 
G01 X-28.5594 Y36.9997 
G01 X-28.6160 Y37.0563 
G01 X-28.7275 Y37.2099 
G01 X-28.8137 Y37.3790 
G01 X-28.8724 Y37.5596 
G01 X-28.9021 Y37.7471 
G01 X-28.9021 Y37.9369 
G01 X-28.8724 Y38.1244 
G01 X-28.8137 Y38.3050 
G01 X-28.7275 Y38.4741 
G01 X-28.6160 Y38.6277 
G01 X-28.4817 Y38.7620 
G01 X-28.3281 Y38.8735 
G01 X-28.1590 Y38.9597 
G01 X-27.9784 Y39.0184 
G01 X-27.7909 Y39.0481 
G01 X-27.6011 Y39.0481 
G01 X-27.4136 Y39.0184 
G01 X-27.2330 Y38.9597 
G01 X-27.0639 Y38.8735 
G01 X-26.9103 Y38.7620 
G01 X-26.7760 Y38.6277 
G01 X-26.6644 Y38.4741 
G01 X-26.5783 Y38.3050 
G01 X-26.5196 Y38.1244 
G01 X-26.4899 Y37.9369 
G01 X-26.4899 Y37.7471 
G01 X-26.5196 Y37.5596 
G01 X-26.5783 Y37.3790 
G01 X-26.6644 Y37.2099 
G01 X-26.7760 Y37.0563 
G01 X-26.9103 Y36.9220 
G01 X-27.0639 Y36.8105 
G01 X-27.2330 Y36.7243 
G01 X-27.3423 Y36.6887 
G01 X-27.3781 Y36.6019 
G01 X-27.3781 Y33.1387 
G01 X-27.4020 Y33.0186 
G01 X-27.4489 Y32.9054 
G01 X-27.5169 Y32.8036 
G01 X-27.6036 Y32.7169 
G01 X-27.7054 Y32.6489 
G01 X-27.8186 Y32.6020 
G01 X-27.8249 Y32.6008 
G01 X-27.8776 Y32.5703 
G01 X-27.9582 Y32.5487 
G01 X-28.5626 Y32.5487 
G01 X-29.6588 Y32.5263 
G01 X-29.6809 Y32.5171 
G01 X-30.1067 Y32.5171 
G01 X-30.1453 Y32.5163 
G01 X-30.1485 Y32.5171 
G01 X-30.5391 Y32.5171 
G01 X-30.5809 Y32.5344 
G01 X-30.6130 Y32.5665 
G01 X-30.6303 Y32.6083 
G01 X-30.6303 Y33.0601 
G01 X-30.6130 Y33.1019 
G01 X-30.5809 Y33.1340 
G01 X-30.5391 Y33.1513 
G01 X-30.1132 Y33.1513 
G01 X-29.3409 Y33.1671 
G01 X-30.1489 Y33.1671 
G01 X-30.1833 Y33.1579 
G01 X-31.0687 Y33.1579 
G01 X-31.0861 Y33.1405 
G01 X-31.0861 Y32.2773 
G01 X-31.1034 Y32.2355 
G01 X-31.1355 Y32.2034 
G01 X-31.1773 Y32.1861 
G01 X-32.0404 Y32.1861 
G01 X-32.0577 Y32.1689 
G01 X-31.7023 Y32.1689 
G01 X-31.6605 Y32.1516 
G01 X-31.6284 Y32.1195 
G01 X-31.6111 Y32.0777 
G01 X-31.6111 Y27.6323 
G01 X-31.6284 Y27.5905 
G01 X-31.6605 Y27.5584 
G01 X-31.7023 Y27.5411 
G01 X-32.2927 Y27.5411 
G01 X-32.2156 Y27.4641 
G01 X-31.6870 Y27.4641 
G01 X-31.6238 Y27.4903 
G01 X-31.5138 Y27.5359 
G01 X-31.5106 Y27.5372 
G01 X-31.3905 Y27.5611 
G01 X-31.2679 Y27.5611 
G01 X-31.1478 Y27.5372 
G01 X-31.0346 Y27.4903 
G01 X-31.0326 Y27.4889 
G01 X-30.9328 Y27.4222 
G01 X-30.8475 Y27.3370 
G01 X-30.7781 Y27.2338 
G01 X-30.7312 Y27.1206 
G01 X-30.7073 Y27.0004 
G01 X-30.7073 Y26.7430 
G01 X-30.7034 Y26.7336 
G01 X-30.6804 Y26.6781 
G01 X-30.6751 Y26.6514 
G01 X-29.9465 Y26.6513 
G01 X-29.9422 Y26.6523 
G01 X-29.9049 Y26.6513 
G01 X-29.6809 Y26.6513 
G01 X-29.6650 Y26.6447 
G01 X-29.5245 Y26.6408 
G01 X-29.4445 Y26.6170 
G01 X-29.3734 Y26.5733 
G01 X-29.3160 Y26.5126 
G01 X-29.2763 Y26.4392 
G01 X-29.2569 Y26.3580 
G01 X-29.2592 Y26.2745 
G01 X-29.2830 Y26.1945 
G01 X-29.3267 Y26.1234 
G01 X-29.3874 Y26.0660 
G01 X-29.4608 Y26.0263 
G01 X-29.5420 Y26.0069 
G01 X-29.9136 Y26.0171 
G01 X-30.6655 Y26.0171 
G01 X-30.6804 Y25.9422 
G01 X-30.7195 Y25.8479 
G01 X-30.7273 Y25.8290 
G01 X-30.7953 Y25.7271 
G01 X-30.8820 Y25.6405 
G01 X-30.9632 Y25.5863 
G01 X-30.9838 Y25.5725 
G01 X-31.1038 Y25.5228 
G01 X-31.4648 Y25.1618 
G01 X-31.6601 Y24.6902 
G01 X-31.6601 Y24.1798 
G01 X-31.4648 Y23.7082 
G01 X-31.1038 Y23.3472 
G01 X-30.6322 Y23.1519 
G01 X-30.1218 Y23.1519 
G01 X-29.6502 Y23.3472 
G01 X-29.4126 Y23.5848 
G01 X-29.3972 Y23.6043 
G01 X-29.3694 Y23.6280 
G01 X-29.3435 Y23.6539 
G01 X-29.3229 Y23.6677 
G01 X-29.3040 Y23.6838 
G01 X-29.2721 Y23.7016 
G01 X-29.2417 Y23.7220 
G01 X-29.2187 Y23.7314 
G01 X-29.1764 Y23.7551 
G01 X-29.1715 Y23.7593 
G01 X-29.1456 Y23.7852 
G01 X-29.1250 Y23.7990 
G01 X-29.1062 Y23.8150 
G01 X-29.0742 Y23.8329 
G01 X-29.0438 Y23.8532 
G01 X-29.0209 Y23.8627 
G01 X-28.9992 Y23.8748 
G01 X-28.9644 Y23.8861 
G01 X-28.9306 Y23.9001 
G01 X-28.9063 Y23.9050 
G01 X-28.8827 Y23.9126 
G01 X-28.8463 Y23.9169 
G01 X-28.8104 Y23.9240 
G01 X-28.7857 Y23.9240 
G01 X-28.7610 Y23.9269 
G01 X-28.7245 Y23.9240 
G01 X-28.6879 Y23.9240 
G01 X-28.6636 Y23.9192 
G01 X-28.6389 Y23.9172 
G01 X-28.6037 Y23.9073 
G01 X-28.5678 Y23.9001 
G01 X-28.5449 Y23.8906 
G01 X-28.5210 Y23.8839 
G01 X-28.4884 Y23.8672 
G01 X-28.4546 Y23.8532 
G01 X-28.4340 Y23.8395 
G01 X-28.4119 Y23.8282 
G01 X-28.3832 Y23.8055 
G01 X-28.3528 Y23.7852 
G01 X-28.3352 Y23.7677 
G01 X-28.3158 Y23.7523 
G01 X-28.2920 Y23.7244 
G01 X-27.9558 Y23.3882 
G01 X-27.4842 Y23.1929 
G01 X-26.9738 Y23.1929 
G01 X-26.5022 Y23.3882 
G01 X-26.1627 Y23.7277 
G01 X-26.1039 Y23.7865 
G01 X-26.0761 Y23.8143 
G01 X-25.9961 Y23.8678 
G01 X-25.9742 Y23.8824 
G01 X-25.8957 Y23.9149 
G01 X-25.8610 Y23.9293 
G01 X-25.7890 Y23.9436 
G01 X-25.7409 Y23.9532 
G01 X-25.6803 Y23.9532 
G01 X-25.6184 Y23.9532 
G01 X-25.5403 Y23.9377 
G01 X-25.4982 Y23.9293 
G01 X-25.4245 Y23.8988 
G01 X-25.3851 Y23.8824 
G01 X-25.3037 Y23.8280 
G01 X-25.2832 Y23.8144 
G01 X-25.2259 Y23.7570 
G01 X-25.1966 Y23.7277 
G01 X-25.1548 Y23.6653 
G01 X-24.7768 Y23.2872 
G01 X-24.3052 Y23.0919 
G01 X-23.7948 Y23.0919 
G01 X-23.3232 Y23.2872 
G01 X-23.0732 Y23.5373 
G01 X-22.9713 Y23.6053 
G01 X-22.8581 Y23.6522 
G01 X-22.7380 Y23.6761 
G01 X-15.8570 Y23.6761 
G01 X-15.6001 Y23.7825 
G01 X-15.4035 Y23.9791 
G01 X-15.2971 Y24.2360 
G01 X-15.2971 Y29.9404 
G01 X-15.2732 Y30.0606 
G01 X-15.2263 Y30.1738 
G01 X-15.1583 Y30.2756 
G01 X-15.0716 Y30.3623 
G01 X-14.9698 Y30.4303 
G01 X-14.8566 Y30.4772 
G01 X-14.7364 Y30.5011 
G01 X-13.0822 Y30.5011 
G01 X-13.0635 Y30.5037 
G01 X-13.0210 Y30.5011 
G01 X-12.9785 Y30.5011 
G01 X-12.9600 Y30.4974 
G01 X-12.8819 Y30.4927 
G01 X-12.8085 Y30.5229 
G01 X-12.7922 Y30.5324 
G01 X-12.7520 Y30.5462 
G01 X-12.7127 Y30.5625 
G01 X-12.6942 Y30.5662 
G01 X-12.6203 Y30.5917 
G01 X-12.5639 Y30.6477 
G01 X-12.5525 Y30.6627 
G01 X-12.5207 Y30.6909 
G01 X-12.4906 Y30.7210 
G01 X-12.4749 Y30.7315 
G01 X-12.4164 Y30.7834 
G01 X-12.3857 Y30.8566 
G01 X-12.3810 Y30.8749 
G01 X-12.3624 Y30.9131 
G01 X-12.3461 Y30.9524 
G01 X-12.3356 Y30.9681 
G01 X-12.2882 Y31.0655 
G01 X-12.2719 Y31.1048 
G01 X-12.2614 Y31.1205 
G01 X-12.2532 Y31.1374 
G01 X-12.2275 Y31.1713 
G01 X-12.2039 Y31.2067 
G01 X-12.1905 Y31.2200 
G01 X-12.1791 Y31.2350 
G01 X-12.1473 Y31.2632 
G01 X-12.1172 Y31.2933 
G01 X-12.1016 Y31.3038 
G01 X-12.0875 Y31.3162 
G01 X-12.0508 Y31.3377 
G01 X-12.0154 Y31.3613 
G01 X-11.9980 Y31.3685 
G01 X-11.9817 Y31.3781 
G01 X-11.9415 Y31.3919 
G01 X-11.9022 Y31.4082 
G01 X-11.8837 Y31.4119 
G01 X-11.8659 Y31.4180 
G01 X-11.8238 Y31.4238 
G01 X-11.7820 Y31.4321 
G01 X-11.7632 Y31.4321 
G01 X-11.7446 Y31.4347 
G01 X-11.7021 Y31.4321 
G01 X-11.6595 Y31.4321 
G01 X-11.6411 Y31.4284 
G01 X-11.6223 Y31.4273 
G01 X-11.5811 Y31.4165 
G01 X-11.5394 Y31.4082 
G01 X-11.5220 Y31.4010 
G01 X-11.5038 Y31.3962 
G01 X-11.4655 Y31.3776 
G01 X-11.4262 Y31.3613 
G01 X-11.4106 Y31.3509 
G01 X-11.3936 Y31.3426 
G01 X-11.3597 Y31.3169 
G01 X-11.3244 Y31.2933 
G01 X-11.3110 Y31.2800 
G01 X-11.2960 Y31.2686 
G01 X-11.2678 Y31.2368 
G01 X-11.2377 Y31.2067 
G01 X-11.2273 Y31.1910 
G01 X-11.2148 Y31.1769 
G01 X-11.1933 Y31.1402 
G01 X-11.1697 Y31.1048 
G01 X-11.1625 Y31.0874 
G01 X-11.1530 Y31.0711 
G01 X-11.1391 Y31.0309 
G01 X-11.1228 Y30.9916 
G01 X-11.1191 Y30.9732 
G01 X-11.1130 Y30.9553 
G01 X-11.1072 Y30.9132 
G01 X-11.0989 Y30.8715 
G01 X-11.0989 Y30.8526 
G01 X-11.0963 Y30.8340 
G01 X-11.0989 Y30.7915 
G01 X-11.0989 Y25.5610 
G01 X-10.9925 Y25.3041 
G01 X-10.7959 Y25.1075 
G01 X-10.5390 Y25.0011 
G01 X-7.4595 Y25.0011 
G01 X-7.3394 Y24.9772 
G01 X-7.2262 Y24.9303 
G01 X-7.1244 Y24.8623 
G01 X-7.0377 Y24.7756 
G01 X-6.9697 Y24.6738 
G01 X-6.9228 Y24.5606 
G01 X-6.8989 Y24.4404 
G01 X-6.8989 Y20.9545 
G01 X-6.9228 Y20.8344 
G01 X-6.9697 Y20.7212 
G01 X-7.0377 Y20.6194 
G01 X-7.1244 Y20.5327 
G01 X-7.2262 Y20.4647 
G01 X-7.3394 Y20.4178 
G01 X-7.4595 Y20.3939 
G01 X-7.5820 Y20.3939 
G01 X-12.0076 Y20.3939 
G01 X-12.1277 Y20.4178 
G01 X-12.2201 Y20.4561 
G01 X-12.2409 Y20.4647 
G01 X-12.2902 Y20.4976 
G01 X-12.3428 Y20.5327 
G01 X-12.4294 Y20.6194 
G01 X-12.4669 Y20.6568 
G01 X-12.5370 Y20.6859 
G01 X-13.9130 Y20.6859 
G01 X-13.9608 Y20.6661 
G01 X-13.9936 Y20.6525 
G01 X-14.0407 Y20.6431 
G01 X-14.1137 Y20.6286 
G01 X-14.2363 Y20.6286 
G01 X-14.3241 Y20.6461 
G01 X-14.3564 Y20.6525 
G01 X-14.4370 Y20.6859 
G01 X-15.8130 Y20.6859 
G01 X-15.8831 Y20.6568 
G01 X-15.9368 Y20.6031 
G01 X-15.9687 Y20.5262 
G01 X-16.0136 Y20.4591 
G01 X-16.0367 Y20.4244 
G01 X-16.1220 Y20.3391 
G01 X-16.1833 Y20.2977 
G01 X-16.2252 Y20.2697 
G01 X-16.2627 Y20.2542 
G01 X-16.3384 Y20.2228 
G01 X-16.3577 Y20.2190 
G01 X-16.4585 Y20.1989 
G01 X-34.7280 Y20.1989 
G01 X-34.8481 Y20.2228 
G01 X-34.9613 Y20.2697 
G01 X-35.0611 Y20.3364 
G01 X-35.0632 Y20.3377 
G01 X-35.1498 Y20.4244 
G01 X-35.2178 Y20.5262 
G01 X-35.2195 Y20.5302 
G01 X-35.3042 Y20.7348 
G01 X-35.6652 Y21.0958 
G01 X-36.1368 Y21.2911 
G01 X-36.6472 Y21.2911 
G01 X-37.1188 Y21.0958 
G01 X-37.4798 Y20.7348 
G01 X-37.6751 Y20.2632 
G01 X-37.6751 Y19.7528 
G01 X-37.4798 Y19.2812 
G01 X-37.1891 Y18.9905 
G01 X-37.1024 Y18.9038 
G01 X-37.0344 Y18.8020 
G01 X-36.9875 Y18.6888 
G01 X-36.9636 Y18.5687 
G01 X-36.9636 Y18.4462 
G01 X-36.9875 Y18.3260 
G01 X-37.0344 Y18.2128 
G01 X-37.0748 Y18.1523 
G01 X-37.1948 Y17.8626 
G01 X-37.2629 Y17.7607 
G01 X-37.3495 Y17.6741 
G01 X-37.5798 Y17.4438 
G01 X-37.7751 Y16.9722 
G01 X-37.7751 Y16.4618 
G01 X-37.5798 Y15.9902 
G01 X-37.2188 Y15.6292 
G01 X-36.7472 Y15.4339 
G01 X-36.2368 Y15.4339 
G01 X-35.7652 Y15.6292 
G01 X-35.4042 Y15.9902 
G01 X-35.2089 Y16.4618 
G01 X-35.2089 Y16.4734 
G01 X-35.1850 Y16.5936 
G01 X-35.1381 Y16.7068 
G01 X-35.0701 Y16.8086 
G01 X-34.9834 Y16.8953 
G01 X-34.8816 Y16.9633 
G01 X-34.7684 Y17.0102 
G01 X-34.6482 Y17.0341 
G01 X-13.1860 Y17.0341 
G01 X-12.9291 Y17.1405 
G01 X-12.7325 Y17.3371 
G01 X-12.6261 Y17.5940 
G01 X-12.6261 Y18.3776 
G01 X-12.6022 Y18.4977 
G01 X-12.5553 Y18.6109 
G01 X-12.4873 Y18.7128 
G01 X-12.4006 Y18.7994 
G01 X-12.3428 Y18.8573 
G01 X-12.2409 Y18.9253 
G01 X-12.1277 Y18.9722 
G01 X-12.0076 Y18.9961 
G01 X-10.6845 Y18.9961 
G01 X-10.5644 Y18.9722 
G01 X-10.4512 Y18.9253 
G01 X-10.3494 Y18.8573 
G01 X-10.2627 Y18.7706 
G01 X-10.1947 Y18.6688 
G01 X-10.1478 Y18.5556 
G01 X-10.1239 Y18.4354 
G01 X-10.1239 Y18.3723 
G01 X-10.1223 Y18.3625 
G01 X-10.1239 Y18.3111 
G01 X-10.1239 Y18.2597 
G01 X-10.1258 Y18.2500 
G01 X-10.1288 Y18.1571 
G01 X-10.1109 Y18.0671 
G01 X-10.1109 Y17.2870 
G01 X-10.0911 Y17.2392 
G01 X-10.0775 Y17.2064 
G01 X-10.0681 Y17.1593 
G01 X-10.0536 Y17.0862 
G01 X-10.0536 Y16.9637 
G01 X-10.0711 Y16.8759 
G01 X-10.0775 Y16.8436 
G01 X-10.1109 Y16.7630 
G01 X-10.1109 Y15.3870 
G01 X-10.0749 Y15.3001 
G01 X-10.0552 Y15.2584 
G01 X-10.0515 Y15.2436 
G01 X-10.0457 Y15.2295 
G01 X-10.0366 Y15.1842 
G01 X-10.0255 Y15.1395 
G01 X-10.0247 Y15.1243 
G01 X-10.0218 Y15.1094 
G01 X-10.0218 Y15.0632 
G01 X-10.0195 Y15.0172 
G01 X-10.0218 Y15.0021 
G01 X-10.0218 Y14.9869 
G01 X-10.0308 Y14.9416 
G01 X-10.0356 Y14.9092 
G01 X-10.0356 Y14.8940 
G01 X-10.0446 Y14.8487 
G01 X-10.0514 Y14.8031 
G01 X-10.0565 Y14.7888 
G01 X-10.0595 Y14.7738 
G01 X-10.0739 Y14.7390 
G01 X-10.0739 Y14.7129 
G01 X-10.0717 Y14.6668 
G01 X-10.0739 Y14.6517 
G01 X-10.0739 Y14.6365 
G01 X-10.0829 Y14.5913 
G01 X-10.0867 Y14.5654 
G01 X-10.0776 Y14.5288 
G01 X-10.0769 Y14.5136 
G01 X-10.0739 Y14.4986 
G01 X-10.0739 Y14.4526 
G01 X-10.0717 Y14.4065 
G01 X-10.0671 Y14.3821 
G01 X-10.0671 Y14.3211 
G01 X-10.0671 Y14.2596 
G01 X-10.0779 Y14.2051 
G01 X-10.0909 Y14.1395 
G01 X-10.1131 Y14.0859 
G01 X-10.1378 Y14.0263 
G01 X-10.1764 Y13.9686 
G01 X-10.2059 Y13.9244 
G01 X-10.2598 Y13.8704 
G01 X-10.2925 Y13.8378 
G01 X-10.3500 Y13.7994 
G01 X-10.3943 Y13.7697 
G01 X-10.4496 Y13.7468 
G01 X-10.5075 Y13.7228 
G01 X-10.5680 Y13.7108 
G01 X-10.6276 Y13.6989 
G01 X-10.6887 Y13.6989 
G01 X-10.7501 Y13.6989 
G01 X-18.6640 Y13.6989 
G01 X-18.9209 Y13.5925 
G01 X-19.1175 Y13.3959 
G01 X-19.2239 Y13.1390 
G01 X-19.2239 Y8.5224 
G01 X-19.2478 Y8.4023 
G01 X-19.2947 Y8.2891 
G01 X-19.3627 Y8.1872 
G01 X-19.3868 Y8.1631 
G01 X-19.4159 Y8.0930 
G01 X-19.4159 Y6.2170 
G01 X-19.3868 Y6.1469 
G01 X-19.3331 Y6.0932 
G01 X-19.2630 Y6.0641 
G01 X-17.5870 Y6.0641 
G01 X-17.5169 Y6.0932 
G01 X-17.3855 Y6.2245 
G01 X-17.2837 Y6.2926 
G01 X-17.2240 Y6.3173 
G01 X-17.1705 Y6.3394 
G01 X-17.1415 Y6.3452 
G01 X-17.0503 Y6.3633 
G01 X-16.9278 Y6.3633 
G01 X-16.8336 Y6.3446 
G01 X-16.8077 Y6.3394 
G01 X-16.7347 Y6.3092 
G01 X-16.6945 Y6.2926 
G01 X-16.6542 Y6.2657 
G01 X-16.5926 Y6.2245 
G01 X-16.5143 Y6.1462 
G01 X-16.4914 Y6.1308 
G01 X-16.4659 Y6.1203 
G01 X-16.4388 Y6.1149 
G01 X-16.2469 Y6.1149 
G01 X-16.2469 Y6.1411 
G01 X-16.4477 Y6.1411 
G01 X-16.4895 Y6.1584 
G01 X-16.5216 Y6.1905 
G01 X-16.5389 Y6.2323 
G01 X-16.5389 Y8.0777 
G01 X-16.5216 Y8.1195 
G01 X-16.4895 Y8.1516 
G01 X-16.4477 Y8.1689 
G01 X-16.2469 Y8.1689 
G01 X-16.2469 Y8.1951 
G01 X-16.4388 Y8.1951 
G01 X-16.4659 Y8.1897 
G01 X-16.4914 Y8.1792 
G01 X-16.5143 Y8.1638 
G01 X-16.5918 Y8.0864 
G01 X-16.6526 Y8.0454 
G01 X-16.6945 Y8.0174 
G01 X-16.7320 Y8.0019 
G01 X-16.8077 Y7.9706 
G01 X-16.8309 Y7.9659 
G01 X-16.9278 Y7.9466 
G01 X-17.0503 Y7.9466 
G01 X-17.1381 Y7.9641 
G01 X-17.1705 Y7.9705 
G01 X-17.2221 Y7.9919 
G01 X-17.2836 Y8.0174 
G01 X-17.3855 Y8.0855 
G01 X-17.4714 Y8.1714 
G01 X-17.5307 Y8.2307 
G01 X-17.6006 Y8.2774 
G01 X-17.6873 Y8.3640 
G01 X-17.7540 Y8.4639 
G01 X-17.7553 Y8.4659 
G01 X-17.8022 Y8.5791 
G01 X-17.8261 Y8.6992 
G01 X-17.8261 Y11.7404 
G01 X-17.8022 Y11.8606 
G01 X-17.7553 Y11.9738 
G01 X-17.6873 Y12.0756 
G01 X-17.6006 Y12.1623 
G01 X-17.4988 Y12.2303 
G01 X-17.3856 Y12.2772 
G01 X-17.2655 Y12.3011 
G01 X-17.0757 Y12.3011 
G01 X-16.9556 Y12.2772 
G01 X-16.8424 Y12.2303 
G01 X-16.7406 Y12.1623 
G01 X-16.6539 Y12.0756 
G01 X-16.5859 Y11.9738 
G01 X-16.5390 Y11.8606 
G01 X-16.5353 Y11.8419 
G01 X-16.4889 Y11.8419 
G01 X-16.4889 Y12.1427 
G01 X-16.4716 Y12.1845 
G01 X-16.4395 Y12.2166 
G01 X-16.3977 Y12.2339 
G01 X-14.7523 Y12.2339 
G01 X-14.7105 Y12.2166 
G01 X-14.6784 Y12.1845 
G01 X-14.6611 Y12.1427 
G01 X-14.6611 Y10.2973 
G01 X-14.6784 Y10.2555 
G01 X-14.7105 Y10.2234 
G01 X-14.7523 Y10.2061 
G01 X-14.9531 Y10.2061 
G01 X-14.9531 Y10.1799 
G01 X-14.7612 Y10.1799 
G01 X-14.7341 Y10.1853 
G01 X-14.7086 Y10.1958 
G01 X-14.6937 Y10.2058 
G01 X-14.6570 Y10.2303 
G01 X-14.6140 Y10.2482 
G01 X-14.5438 Y10.2772 
G01 X-14.4237 Y10.3011 
G01 X-14.3631 Y10.3011 
G01 X-14.3012 Y10.3011 
G01 X-14.2793 Y10.2968 
G01 X-14.1810 Y10.2772 
G01 X-14.1274 Y10.2551 
G01 X-14.0678 Y10.2304 
G01 X-14.0070 Y10.1897 
G01 X-13.9660 Y10.1623 
G01 X-13.9233 Y10.1197 
G01 X-13.8794 Y10.0757 
G01 X-13.8354 Y10.0099 
G01 X-13.8113 Y9.9738 
G01 X-13.7935 Y9.9308 
G01 X-13.7644 Y9.8607 
G01 X-13.7405 Y9.7405 
G01 X-13.7405 Y9.6799 
G01 X-13.7405 Y9.6180 
G01 X-13.7449 Y9.5961 
G01 X-13.7644 Y9.4979 
G01 X-13.7931 Y9.4285 
G01 X-13.8113 Y9.3847 
G01 X-13.9581 Y9.0302 
G01 X-13.9581 Y8.8395 
G01 X-13.9581 Y8.7789 
G01 X-13.9581 Y8.7170 
G01 X-13.9722 Y8.6460 
G01 X-13.9820 Y8.5969 
G01 X-14.0065 Y8.5376 
G01 X-14.0289 Y8.4837 
G01 X-14.0573 Y8.4411 
G01 X-14.0969 Y8.3819 
G01 X-14.1254 Y8.3534 
G01 X-14.1836 Y8.2952 
G01 X-14.2290 Y8.2648 
G01 X-14.2854 Y8.2272 
G01 X-14.3332 Y8.2074 
G01 X-14.3986 Y8.1803 
G01 X-14.4548 Y8.1691 
G01 X-14.5187 Y8.1564 
G01 X-14.5794 Y8.1564 
G01 X-14.6412 Y8.1564 
G01 X-14.7123 Y8.1705 
G01 X-14.7614 Y8.1803 
G01 X-14.7842 Y8.1897 
G01 X-14.8112 Y8.1951 
G01 X-15.0031 Y8.1951 
G01 X-15.0031 Y8.1689 
G01 X-14.8023 Y8.1689 
G01 X-14.7605 Y8.1516 
G01 X-14.7284 Y8.1195 
G01 X-14.7111 Y8.0777 
G01 X-14.7111 Y7.7769 
G01 X-14.6052 Y7.7769 
G01 X-14.6005 Y7.7839 
G01 X-14.5461 Y7.8654 
G01 X-14.4594 Y7.9520 
G01 X-14.3576 Y8.0200 
G01 X-14.2444 Y8.0669 
G01 X-14.1242 Y8.0908 
G01 X-14.0017 Y8.0908 
G01 X-13.8816 Y8.0669 
G01 X-13.7873 Y8.0279 
G01 X-13.7684 Y8.0200 
G01 X-13.7480 Y8.0064 
G01 X-13.6666 Y7.9520 
G01 X-13.5799 Y7.8654 
G01 X-13.4018 Y7.6872 
G01 X-12.9302 Y7.4919 
G01 X-12.4198 Y7.4919 
G01 X-11.9482 Y7.6872 
G01 X-11.5872 Y8.0482 
G01 X-11.3919 Y8.5198 
G01 X-11.3919 Y9.0302 
G01 X-11.5594 Y9.4346 
G01 X-11.5797 Y9.4837 
G01 X-11.6063 Y9.5478 
G01 X-11.6302 Y9.6679 
G01 X-11.6302 Y9.7904 
G01 X-11.6063 Y9.9106 
G01 X-11.5594 Y10.0238 
G01 X-11.5580 Y10.0258 
G01 X-11.4913 Y10.1256 
G01 X-11.4047 Y10.2123 
G01 X-11.3029 Y10.2803 
G01 X-11.2379 Y10.3072 
G01 X-11.1897 Y10.3272 
G01 X-11.0695 Y10.3511 
G01 X-8.4095 Y10.3511 
G01 X-8.2894 Y10.3272 
G01 X-8.1762 Y10.2803 
G01 X-8.0744 Y10.2123 
G01 X-7.9877 Y10.1256 
G01 X-7.9197 Y10.0238 
G01 X-7.8728 Y9.9106 
G01 X-7.8489 Y9.7904 
G01 X-7.8489 Y6.4506 
G01 X-7.8483 Y6.3926 
G01 X-7.8489 Y6.3894 
G01 X-7.8489 Y6.3861 
G01 X-7.8602 Y6.3293 
G01 X-7.8709 Y6.2722 
G01 X-7.8722 Y6.2692 
G01 X-7.8728 Y6.2659 
G01 X-7.8949 Y6.2125 
G01 X-7.9166 Y6.1586 
G01 X-7.9184 Y6.1558 
G01 X-7.9197 Y6.1527 
G01 X-7.9519 Y6.1045 
G01 X-7.9836 Y6.0560 
G01 X-7.9859 Y6.0536 
G01 X-7.9877 Y6.0509 
G01 X-8.0288 Y6.0098 
G01 X-8.0693 Y5.9685 
G01 X-8.0720 Y5.9666 
G01 X-8.0744 Y5.9643 
G01 X-8.1227 Y5.9320 
G01 X-8.1704 Y5.8993 
G01 X-8.1735 Y5.8980 
G01 X-8.1762 Y5.8962 
G01 X-8.2298 Y5.8740 
G01 X-8.2831 Y5.8513 
G01 X-8.2863 Y5.8506 
G01 X-8.2894 Y5.8493 
G01 X-8.3463 Y5.8380 
G01 X-8.7507 Y5.7531 
G01 X-8.7538 Y5.7518 
G01 X-8.8105 Y5.7406 
G01 X-8.8674 Y5.7286 
G01 X-8.8707 Y5.7286 
G01 X-8.8739 Y5.7279 
G01 X-8.9319 Y5.7279 
G01 X-8.9899 Y5.7273 
G01 X-8.9931 Y5.7279 
G01 X-8.9964 Y5.7279 
G01 X-9.0532 Y5.7392 
G01 X-9.1103 Y5.7500 
G01 X-9.1133 Y5.7512 
G01 X-9.1166 Y5.7518 
G01 X-9.1700 Y5.7740 
G01 X-9.2239 Y5.7956 
G01 X-9.2267 Y5.7975 
G01 X-9.3729 Y5.8580 
G01 X-9.7671 Y5.8580 
G01 X-10.1314 Y5.7071 
G01 X-10.3929 Y5.4456 
G01 X-10.4720 Y5.3665 
G01 X-10.4795 Y5.3590 
G01 X-10.5813 Y5.2909 
G01 X-10.6463 Y5.2640 
G01 X-10.6945 Y5.2441 
G01 X-10.8147 Y5.2202 
G01 X-10.9372 Y5.2202 
G01 X-10.9653 Y5.2258 
G01 X-11.0573 Y5.2441 
G01 X-11.1705 Y5.2909 
G01 X-11.2197 Y5.3238 
G01 X-11.2724 Y5.3590 
G01 X-11.3590 Y5.4456 
G01 X-11.4881 Y5.5747 
G01 X-11.4881 Y5.5377 
G01 X-11.1960 Y5.2456 
G01 X-11.1960 Y4.4884 
G01 X-11.4881 Y4.1963 
G01 X-11.4881 Y4.1593 
G01 X-11.3590 Y4.2884 
G01 X-11.2829 Y4.3645 
G01 X-11.2724 Y4.3750 
G01 X-11.2238 Y4.4074 
G01 X-11.1705 Y4.4431 
G01 X-11.0573 Y4.4899 
G01 X-10.9687 Y4.5076 
G01 X-10.9372 Y4.5138 
G01 X-10.8147 Y4.5138 
G01 X-10.6945 Y4.4899 
G01 X-10.6490 Y4.4711 
G01 X-10.5813 Y4.4431 
G01 X-10.4795 Y4.3750 
G01 X-10.3929 Y4.2884 
G01 X-10.1314 Y4.0269 
G01 X-9.7671 Y3.8760 
G01 X-9.3729 Y3.8760 
G01 X-9.0086 Y4.0269 
G01 X-8.8332 Y4.2023 
G01 X-8.7927 Y4.2437 
G01 X-8.7899 Y4.2456 
G01 X-8.7876 Y4.2479 
G01 X-8.7394 Y4.2801 
G01 X-8.6915 Y4.3129 
G01 X-8.6885 Y4.3142 
G01 X-8.6857 Y4.3160 
G01 X-8.6321 Y4.3382 
G01 X-8.5788 Y4.3609 
G01 X-8.5756 Y4.3616 
G01 X-8.5725 Y4.3629 
G01 X-8.5155 Y4.3742 
G01 X-7.1973 Y4.6509 
G01 X-7.1943 Y4.6522 
G01 X-7.1375 Y4.6635 
G01 X-7.0807 Y4.6754 
G01 X-7.0774 Y4.6754 
G01 X-7.0741 Y4.6761 
G01 X-7.0162 Y4.6761 
G01 X-7.0108 Y4.6762 
G01 X-6.9994 Y4.6809 
G01 X-6.9459 Y4.7037 
G01 X-6.9427 Y4.7044 
G01 X-6.9396 Y4.7057 
G01 X-6.8829 Y4.7169 
G01 X-6.8704 Y4.7196 
G01 X-6.8212 Y4.7532 
G01 X-6.8181 Y4.7545 
G01 X-6.8154 Y4.7563 
G01 X-6.7619 Y4.7785 
G01 X-6.7085 Y4.8013 
G01 X-6.7053 Y4.8019 
G01 X-6.7022 Y4.8032 
G01 X-6.6455 Y4.8145 
G01 X-6.5886 Y4.8264 
G01 X-6.5853 Y4.8265 
G01 X-6.5820 Y4.8271 
G01 X-6.5241 Y4.8271 
G01 X-6.4661 Y4.8277 
G01 X-6.4629 Y4.8271 
G01 X-6.4595 Y4.8271 
G01 X-6.4027 Y4.8158 
G01 X-6.3457 Y4.8051 
G01 X-6.3427 Y4.8039 
G01 X-6.3394 Y4.8032 
G01 X-6.2858 Y4.7810 
G01 X-6.2321 Y4.7594 
G01 X-6.2293 Y4.7576 
G01 X-6.2262 Y4.7563 
G01 X-6.1780 Y4.7241 
G01 X-6.1295 Y4.6924 
G01 X-6.1271 Y4.6901 
G01 X-6.1244 Y4.6883 
G01 X-6.0833 Y4.6472 
G01 X-6.0420 Y4.6067 
G01 X-6.0401 Y4.6040 
G01 X-6.0377 Y4.6016 
G01 X-6.0055 Y4.5534 
G01 X-5.9728 Y4.5056 
G01 X-5.9715 Y4.5025 
G01 X-5.9697 Y4.4998 
G01 X-5.9475 Y4.4463 
G01 X-5.9247 Y4.3929 
G01 X-5.9241 Y4.3897 
G01 X-5.9228 Y4.3866 
G01 X-5.9115 Y4.3299 
G01 X-5.8996 Y4.2730 
G01 X-5.8995 Y4.2697 
G01 X-5.8989 Y4.2665 
G01 X-5.8989 Y4.2085 
G01 X-5.8983 Y4.1505 
G01 X-5.8989 Y4.1473 
G01 X-5.8989 Y2.8845 
G01 X-5.9228 Y2.7644 
G01 X-5.9697 Y2.6512 
G01 X-6.0377 Y2.5494 
G00 Z2.0000  F3000
G00 X-6.7485 Y4.8962  F3000
G01 Z-0.2000 F200.00 
G01 X-6.7512 Y4.8943 F500.00 
G01 X-6.7536 Y4.8919 
G01 X-6.8019 Y4.8597 
G01 X-6.8496 Y4.8270 
G01 X-6.8527 Y4.8257 
G01 X-6.8554 Y4.8239 
G01 X-6.9090 Y4.8017 
G01 X-6.9623 Y4.7790 
G01 X-6.9655 Y4.7783 
G01 X-6.9686 Y4.7770 
G01 X-7.0255 Y4.7657 
G01 X-8.7853 Y4.3963 
G01 X-8.8600 Y4.2844 
G01 X-8.9874 Y4.1570 
G01 X-9.1371 Y4.0570 
G01 X-9.3034 Y3.9881 
G01 X-9.4800 Y3.9530 
G01 X-9.6600 Y3.9530 
G01 X-9.8366 Y3.9881 
G01 X-10.0029 Y4.0570 
G01 X-10.1526 Y4.1570 
G01 X-10.2799 Y4.2844 
G01 X-10.3800 Y4.4341 
G01 X-10.4489 Y4.6004 
G01 X-10.4840 Y4.7770 
G01 X-10.4840 Y4.9570 
G01 X-10.4489 Y5.1336 
G01 X-10.3800 Y5.2999 
G01 X-10.2799 Y5.4496 
G01 X-10.1526 Y5.5769 
G01 X-10.0029 Y5.6770 
G01 X-9.8366 Y5.7459 
G01 X-9.6600 Y5.7810 
G01 X-9.4800 Y5.7810 
G01 X-9.3034 Y5.7459 
G01 X-9.1371 Y5.6770 
G01 X-9.0418 Y5.6133 
G01 X-7.7719 Y5.8799 
G01 X-7.7719 Y10.4281 
G01 X-11.8611 Y10.4281 
G01 X-11.8611 Y10.2973 
G01 X-11.8784 Y10.2555 
G01 X-11.9105 Y10.2234 
G01 X-11.9523 Y10.2061 
G01 X-12.1111 Y10.2061 
G01 X-12.0959 Y9.8336 
G01 X-12.0429 Y9.8065 
G01 X-11.8893 Y9.6950 
G01 X-11.7550 Y9.5607 
G01 X-11.6434 Y9.4071 
G01 X-11.5573 Y9.2380 
G01 X-11.4986 Y9.0574 
G01 X-11.4689 Y8.8699 
G01 X-11.4689 Y8.6801 
G01 X-11.4986 Y8.4926 
G01 X-11.5573 Y8.3120 
G01 X-11.6434 Y8.1429 
G01 X-11.7550 Y7.9893 
G01 X-11.8893 Y7.8550 
G01 X-12.0429 Y7.7435 
G01 X-12.2120 Y7.6573 
G01 X-12.3926 Y7.5986 
G01 X-12.5801 Y7.5689 
G01 X-12.7699 Y7.5689 
G01 X-12.9574 Y7.5986 
G01 X-13.1380 Y7.6573 
G01 X-13.3071 Y7.7435 
G01 X-13.4607 Y7.8550 
G01 X-13.5950 Y7.9893 
G01 X-13.7065 Y8.1429 
G01 X-13.7927 Y8.3120 
G01 X-13.8514 Y8.4926 
G01 X-13.8811 Y8.6801 
G01 X-13.8811 Y8.8699 
G01 X-13.8514 Y9.0574 
G01 X-13.7927 Y9.2380 
G01 X-13.7065 Y9.4071 
G01 X-13.5950 Y9.5607 
G01 X-13.4607 Y9.6950 
G01 X-13.3387 Y9.7836 
G01 X-13.3559 Y10.2061 
G01 X-13.5977 Y10.2061 
G01 X-13.6395 Y10.2234 
G01 X-13.6716 Y10.2555 
G01 X-13.6889 Y10.2973 
G01 X-13.6889 Y12.1427 
G01 X-13.6716 Y12.1845 
G01 X-13.6395 Y12.2166 
G01 X-13.5977 Y12.2339 
G01 X-11.9523 Y12.2339 
G01 X-11.9105 Y12.2166 
G01 X-11.8784 Y12.1845 
G01 X-11.8611 Y12.1427 
G01 X-11.8611 Y11.6719 
G01 X-7.0887 Y11.6719 
G01 X-6.9686 Y11.6480 
G01 X-6.8554 Y11.6011 
G01 X-6.7536 Y11.5331 
G01 X-6.6669 Y11.4464 
G01 X-6.5989 Y11.3446 
G01 X-6.5520 Y11.2314 
G01 X-6.5281 Y11.1113 
G01 X-6.5281 Y5.3783 
G01 X-6.5275 Y5.3203 
G01 X-6.5281 Y5.3171 
G01 X-6.5281 Y5.3137 
G01 X-6.5394 Y5.2570 
G01 X-6.5501 Y5.1999 
G01 X-6.5514 Y5.1968 
G01 X-6.5520 Y5.1936 
G01 X-6.5741 Y5.1402 
G01 X-6.5958 Y5.0863 
G01 X-6.5976 Y5.0835 
G01 X-6.5989 Y5.0804 
G01 X-6.6311 Y5.0322 
G01 X-6.6628 Y4.9837 
G01 X-6.6651 Y4.9813 
G01 X-6.6669 Y4.9786 
G01 X-6.7081 Y4.9375 
G01 X-6.7485 Y4.8962 
G00 Z2.0000  F3000
G00 X-12.7807 Y5.4889  F3000
G01 Z-0.2000 F200.00 
G01 X-12.7319 Y5.5377 F500.00 
G01 X-12.7319 Y5.5747 
G01 X-12.8177 Y5.4889 
G01 X-12.7807 Y5.4889 
G00 Z2.0000  F3000
G00 X-14.7357 Y6.1462  F3000
G01 Z-0.2000 F200.00 
G01 X-14.7162 Y6.1657 F500.00 
G01 X-14.7008 Y6.1886 
G01 X-14.6903 Y6.2141 
G01 X-14.6849 Y6.2412 
G01 X-14.6849 Y6.5331 
G01 X-14.7111 Y6.5331 
G01 X-14.7111 Y6.2323 
G01 X-14.7284 Y6.1905 
G01 X-14.7605 Y6.1584 
G01 X-14.8023 Y6.1411 
G01 X-14.9781 Y6.1411 
G01 X-14.9781 Y6.1149 
G01 X-14.8112 Y6.1149 
G01 X-14.7841 Y6.1203 
G01 X-14.7586 Y6.1308 
G01 X-14.7357 Y6.1462 
G00 Z2.0000  F3000
G00 X-16.2469 Y10.1799  F3000
G01 Z-0.2000 F200.00 
G01 X-16.2469 Y10.2061 F500.00 
G01 X-16.3977 Y10.2061 
G01 X-16.4395 Y10.2234 
G01 X-16.4716 Y10.2555 
G01 X-16.4889 Y10.2973 
G01 X-16.4889 Y10.5981 
G01 X-16.5151 Y10.5981 
G01 X-16.5151 Y10.3062 
G01 X-16.5097 Y10.2791 
G01 X-16.4992 Y10.2536 
G01 X-16.4838 Y10.2307 
G01 X-16.4643 Y10.2112 
G01 X-16.4414 Y10.1958 
G01 X-16.4159 Y10.1853 
G01 X-16.3888 Y10.1799 
G01 X-16.2469 Y10.1799 
G00 Z2.0000  F3000
G00 X-23.7979 Y10.3641  F3000
G01 Z-0.2000 F200.00 
G01 X-23.9809 Y10.8059 F500.00 
G01 X-24.3191 Y11.1441 
G01 X-24.7609 Y11.3271 
G01 X-25.2391 Y11.3271 
G01 X-25.6809 Y11.1441 
G01 X-26.0191 Y10.8059 
G01 X-26.2021 Y10.3641 
G01 X-26.2021 Y9.8859 
G01 X-26.0191 Y9.4441 
G01 X-25.6809 Y9.1059 
G01 X-25.2391 Y8.9229 
G01 X-24.7609 Y8.9229 
G01 X-24.3191 Y9.1059 
G01 X-23.9809 Y9.4441 
G01 X-23.7979 Y9.8859 
G01 X-23.7979 Y10.3641 
G00 Z2.0000  F3000
G00 X-33.7979 Y10.2391  F3000
G01 Z-0.2000 F200.00 
G01 X-33.9809 Y10.6809 F500.00 
G01 X-34.3191 Y11.0191 
G01 X-34.7609 Y11.2021 
G01 X-35.2391 Y11.2021 
G01 X-35.6809 Y11.0191 
G01 X-36.0191 Y10.6809 
G01 X-36.2021 Y10.2391 
G01 X-36.2021 Y9.7609 
G01 X-36.0191 Y9.3191 
G01 X-35.6809 Y8.9809 
G01 X-35.2391 Y8.7979 
G01 X-34.7609 Y8.7979 
G01 X-34.3191 Y8.9809 
G01 X-33.9809 Y9.3191 
G01 X-33.7979 Y9.7609 
G01 X-33.7979 Y10.2391 
G00 Z2.0000  F3000
G00 X-35.5720 Y15.9313  F3000
G01 Z-0.2000 F200.00 
G01 X-35.7063 Y15.7970 F500.00 
G01 X-35.8599 Y15.6854 
G01 X-36.0290 Y15.5993 
G01 X-36.2096 Y15.5406 
G01 X-36.3971 Y15.5109 
G01 X-36.5869 Y15.5109 
G01 X-36.7744 Y15.5406 
G01 X-36.9550 Y15.5993 
G01 X-37.1241 Y15.6854 
G01 X-37.2777 Y15.7970 
G01 X-37.4120 Y15.9313 
G01 X-37.5235 Y16.0849 
G01 X-37.6097 Y16.2540 
G01 X-37.6684 Y16.4346 
G01 X-37.6981 Y16.6221 
G01 X-37.6981 Y16.8119 
G01 X-37.6684 Y16.9994 
G01 X-37.6097 Y17.1800 
G01 X-37.5235 Y17.3491 
G01 X-37.4120 Y17.5027 
G01 X-37.2777 Y17.6370 
G01 X-37.1241 Y17.7485 
G01 X-37.1139 Y17.7538 
G01 X-37.1139 Y17.7943 
G01 X-37.0900 Y17.9144 
G01 X-37.0431 Y18.0276 
G01 X-36.9751 Y18.1294 
G01 X-36.8884 Y18.2161 
G01 X-36.7866 Y18.2841 
G01 X-36.6734 Y18.3310 
G01 X-36.5532 Y18.3549 
G01 X-13.9469 Y18.3549 
G01 X-13.9469 Y18.8058 
G01 X-13.9716 Y18.8305 
G01 X-13.9889 Y18.8723 
G01 X-13.9889 Y20.5177 
G01 X-13.9716 Y20.5595 
G01 X-13.9395 Y20.5916 
G01 X-13.8977 Y20.6089 
G01 X-12.5523 Y20.6089 
G01 X-12.5105 Y20.5916 
G01 X-12.4784 Y20.5595 
G01 X-12.4611 Y20.5177 
G01 X-12.4611 Y20.3169 
G01 X-6.8219 Y20.3169 
G01 X-6.8219 Y25.0781 
G01 X-10.4612 Y25.0781 
G01 X-10.5814 Y25.1020 
G01 X-10.6946 Y25.1489 
G01 X-10.7964 Y25.2169 
G01 X-10.8831 Y25.3036 
G01 X-10.9511 Y25.4054 
G01 X-10.9980 Y25.5186 
G01 X-11.0219 Y25.6387 
G01 X-11.0219 Y40.6531 
G01 X-11.8611 Y40.6531 
G01 X-11.8611 Y40.3623 
G01 X-11.8784 Y40.3205 
G01 X-11.9105 Y40.2884 
G01 X-11.9523 Y40.2711 
G01 X-13.5977 Y40.2711 
G01 X-13.6395 Y40.2884 
G01 X-13.6716 Y40.3205 
G01 X-13.6889 Y40.3623 
G01 X-13.6889 Y42.2077 
G01 X-13.6716 Y42.2495 
G01 X-13.6395 Y42.2816 
G01 X-13.5977 Y42.2989 
G01 X-11.9523 Y42.2989 
G01 X-11.9105 Y42.2816 
G01 X-11.8784 Y42.2495 
G01 X-11.8611 Y42.2077 
G01 X-11.8611 Y41.8969 
G01 X-10.3387 Y41.8969 
G01 X-10.2186 Y41.8730 
G01 X-10.1054 Y41.8261 
G01 X-10.0036 Y41.7581 
G01 X-9.9169 Y41.6714 
G01 X-9.8489 Y41.5696 
G01 X-9.8020 Y41.4564 
G01 X-9.7781 Y41.3362 
G01 X-9.7781 Y26.3219 
G01 X-6.1387 Y26.3219 
G01 X-6.0186 Y26.2980 
G01 X-5.9054 Y26.2511 
G01 X-5.8036 Y26.1831 
G01 X-5.7169 Y26.0964 
G01 X-5.6489 Y25.9946 
G01 X-5.6020 Y25.8814 
G01 X-5.5781 Y25.7613 
G01 X-5.5781 Y19.6337 
G01 X-5.6020 Y19.5136 
G01 X-5.6489 Y19.4004 
G01 X-5.7169 Y19.2986 
G01 X-5.8036 Y19.2119 
G01 X-5.9054 Y19.1439 
G01 X-6.0186 Y19.0970 
G01 X-6.1387 Y19.0731 
G01 X-8.8031 Y19.0731 
G01 X-8.8031 Y18.7389 
G01 X-8.2973 Y18.7389 
G01 X-8.2555 Y18.7216 
G01 X-8.2234 Y18.6895 
G01 X-8.2061 Y18.6477 
G01 X-8.2061 Y17.3023 
G01 X-8.2234 Y17.2605 
G01 X-8.2555 Y17.2284 
G01 X-8.2973 Y17.2111 
G01 X-9.9427 Y17.2111 
G01 X-9.9845 Y17.2284 
G01 X-10.0166 Y17.2605 
G01 X-10.0339 Y17.3023 
G01 X-10.0339 Y18.1704 
G01 X-10.0369 Y18.1884 
G01 X-10.0469 Y18.2387 
G01 X-10.0469 Y18.2487 
G01 X-10.0485 Y18.2585 
G01 X-10.0469 Y18.3099 
G01 X-10.0469 Y19.0731 
G01 X-12.4611 Y19.0731 
G01 X-12.4611 Y18.8723 
G01 X-12.4784 Y18.8305 
G01 X-12.5105 Y18.7984 
G01 X-12.5523 Y18.7811 
G01 X-12.7031 Y18.7811 
G01 X-12.7031 Y17.6717 
G01 X-12.7270 Y17.5516 
G01 X-12.7739 Y17.4384 
G01 X-12.8419 Y17.3366 
G01 X-12.9286 Y17.2499 
G01 X-13.0304 Y17.1819 
G01 X-13.1436 Y17.1350 
G01 X-13.2637 Y17.1111 
G01 X-35.3519 Y17.1111 
G01 X-35.3156 Y16.9994 
G01 X-35.2859 Y16.8119 
G01 X-35.2859 Y16.6221 
G01 X-35.3156 Y16.4346 
G01 X-35.3743 Y16.2540 
G01 X-35.4605 Y16.0849 
G01 X-35.5720 Y15.9313 
G00 Z2.0000  F3000
G00 X-35.9665 Y18.8781  F3000
G01 Z-0.2000 F200.00 
G01 X-36.1096 Y18.8316 F500.00 
G01 X-36.2971 Y18.8019 
G01 X-36.4869 Y18.8019 
G01 X-36.6744 Y18.8316 
G01 X-36.8550 Y18.8903 
G01 X-37.0241 Y18.9764 
G01 X-37.1777 Y19.0880 
G01 X-37.3120 Y19.2223 
G01 X-37.4235 Y19.3759 
G01 X-37.5097 Y19.5450 
G01 X-37.5684 Y19.7256 
G01 X-37.5981 Y19.9131 
G01 X-37.5981 Y20.1029 
G01 X-37.5684 Y20.2904 
G01 X-37.5097 Y20.4710 
G01 X-37.4235 Y20.6401 
G01 X-37.3120 Y20.7937 
G01 X-37.1777 Y20.9280 
G01 X-37.0241 Y21.0395 
G01 X-36.8550 Y21.1257 
G01 X-36.6744 Y21.1844 
G01 X-36.4869 Y21.2141 
G01 X-36.2971 Y21.2141 
G01 X-36.1096 Y21.1844 
G01 X-35.9290 Y21.1257 
G01 X-35.7599 Y21.0395 
G01 X-35.6063 Y20.9280 
G01 X-35.4720 Y20.7937 
G01 X-35.3605 Y20.6401 
G01 X-35.2743 Y20.4710 
G01 X-35.2156 Y20.2904 
G01 X-35.1889 Y20.1219 
G01 X-15.8889 Y20.1219 
G01 X-15.8889 Y20.5177 
G01 X-15.8716 Y20.5595 
G01 X-15.8395 Y20.5916 
G01 X-15.7977 Y20.6089 
G01 X-14.4523 Y20.6089 
G01 X-14.4105 Y20.5916 
G01 X-14.3784 Y20.5595 
G01 X-14.3611 Y20.5177 
G01 X-14.3611 Y18.8723 
G01 X-14.3784 Y18.8305 
G01 X-14.4105 Y18.7984 
G01 X-14.4523 Y18.7811 
G01 X-15.7977 Y18.7811 
G01 X-15.8395 Y18.7984 
G01 X-15.8716 Y18.8305 
G01 X-15.8889 Y18.8723 
G01 X-15.8889 Y18.8781 
G01 X-35.9665 Y18.8781 
G00 Z2.0000  F3000
G00 X-35.9309 Y26.6671  F3000
G01 Z-0.2000 F200.00 
G01 X-38.0531 Y26.6671 F500.00 
G01 X-38.0531 Y26.5887 
G01 X-38.0770 Y26.4686 
G01 X-38.1239 Y26.3554 
G01 X-38.1919 Y26.2536 
G01 X-38.2786 Y26.1669 
G01 X-38.3804 Y26.0989 
G01 X-38.4936 Y26.0520 
G01 X-38.6137 Y26.0281 
G01 X-43.4661 Y26.0281 
G01 X-43.4661 Y16.6557 
G01 X-43.4900 Y16.5356 
G01 X-43.5369 Y16.4224 
G01 X-43.6049 Y16.3206 
G01 X-43.6916 Y16.2339 
G01 X-43.7934 Y16.1659 
G01 X-43.9066 Y16.1190 
G01 X-44.0267 Y16.0951 
G01 X-48.2540 Y16.0951 
G01 X-48.3371 Y15.9321 
G01 X-48.4656 Y15.7552 
G01 X-48.6202 Y15.6006 
G01 X-48.7971 Y15.4721 
G01 X-48.9918 Y15.3729 
G01 X-49.1998 Y15.3053 
G01 X-49.4157 Y15.2711 
G01 X-52.1843 Y15.2711 
G01 X-52.4002 Y15.3053 
G01 X-52.6082 Y15.3729 
G01 X-52.8029 Y15.4721 
G01 X-52.9798 Y15.6006 
G01 X-53.1344 Y15.7552 
G01 X-53.2629 Y15.9321 
G01 X-53.3621 Y16.1268 
G01 X-53.4297 Y16.3348 
G01 X-53.4639 Y16.5507 
G01 X-53.4639 Y16.7693 
G01 X-53.4297 Y16.9852 
G01 X-53.3621 Y17.1931 
G01 X-53.2629 Y17.3879 
G01 X-53.1344 Y17.5648 
G01 X-52.9798 Y17.7194 
G01 X-52.8029 Y17.8479 
G01 X-52.6082 Y17.9471 
G01 X-52.4002 Y18.0147 
G01 X-52.1843 Y18.0489 
G01 X-49.4157 Y18.0489 
G01 X-49.1998 Y18.0147 
G01 X-48.9918 Y17.9471 
G01 X-48.7971 Y17.8479 
G01 X-48.6202 Y17.7194 
G01 X-48.4656 Y17.5648 
G01 X-48.3371 Y17.3879 
G01 X-48.3121 Y17.3389 
G01 X-44.7099 Y17.3389 
G01 X-44.7099 Y26.7112 
G01 X-44.6860 Y26.8314 
G01 X-44.6391 Y26.9446 
G01 X-44.5711 Y27.0464 
G01 X-44.4844 Y27.1331 
G01 X-44.3826 Y27.2011 
G01 X-44.2694 Y27.2480 
G01 X-44.1493 Y27.2719 
G01 X-38.6137 Y27.2719 
G01 X-38.5118 Y27.2516 
G01 X-38.4632 Y27.2797 
G01 X-38.3825 Y27.3013 
G01 X-35.9309 Y27.3013 
G01 X-35.8891 Y27.2840 
G01 X-35.8570 Y27.2519 
G01 X-35.8397 Y27.2101 
G01 X-35.8397 Y26.7583 
G01 X-35.8570 Y26.7165 
G01 X-35.8891 Y26.6844 
G01 X-35.9309 Y26.6671 
G00 Z2.0000  F3000
G00 X-35.9309 Y27.3171  F3000
G01 Z-0.2000 F200.00 
G01 X-42.8707 Y27.3171 F500.00 
G01 X-42.8745 Y27.3181 
G01 X-44.7267 Y27.3181 
G01 X-44.7685 Y27.3354 
G01 X-44.8006 Y27.3675 
G01 X-44.8179 Y27.4093 
G01 X-44.8179 Y30.7226 
G01 X-44.8219 Y30.7427 
G01 X-44.8219 Y44.7361 
G01 X-48.3147 Y44.7361 
G01 X-48.3371 Y44.6921 
G01 X-48.4656 Y44.5152 
G01 X-48.6202 Y44.3606 
G01 X-48.7971 Y44.2321 
G01 X-48.9918 Y44.1329 
G01 X-49.1998 Y44.0653 
G01 X-49.4157 Y44.0311 
G01 X-52.1843 Y44.0311 
G01 X-52.4002 Y44.0653 
G01 X-52.6082 Y44.1329 
G01 X-52.8029 Y44.2321 
G01 X-52.9798 Y44.3606 
G01 X-53.1344 Y44.5152 
G01 X-53.2629 Y44.6921 
G01 X-53.3621 Y44.8868 
G01 X-53.4297 Y45.0948 
G01 X-53.4639 Y45.3107 
G01 X-53.4639 Y45.5293 
G01 X-53.4297 Y45.7452 
G01 X-53.3621 Y45.9532 
G01 X-53.2629 Y46.1479 
G01 X-53.1344 Y46.3248 
G01 X-52.9798 Y46.4794 
G01 X-52.8029 Y46.6079 
G01 X-52.6082 Y46.7071 
G01 X-52.4002 Y46.7747 
G01 X-52.1843 Y46.8089 
G01 X-49.4157 Y46.8089 
G01 X-49.1998 Y46.7747 
G01 X-48.9918 Y46.7071 
G01 X-48.7971 Y46.6079 
G01 X-48.6202 Y46.4794 
G01 X-48.4656 Y46.3248 
G01 X-48.3371 Y46.1479 
G01 X-48.2515 Y45.9799 
G01 X-44.1387 Y45.9799 
G01 X-44.0186 Y45.9560 
G01 X-43.9054 Y45.9091 
G01 X-43.8036 Y45.8411 
G01 X-43.7169 Y45.7544 
G01 X-43.6489 Y45.6526 
G01 X-43.6020 Y45.5394 
G01 X-43.5781 Y45.4192 
G01 X-43.5781 Y31.1019 
G01 X-38.3307 Y31.1019 
G01 X-38.2947 Y31.1379 
G01 X-38.2224 Y31.1797 
G01 X-38.1417 Y31.2013 
G01 X-35.9309 Y31.2013 
G01 X-35.8891 Y31.1840 
G01 X-35.8570 Y31.1519 
G01 X-35.8397 Y31.1101 
G01 X-35.8397 Y30.6583 
G01 X-35.8570 Y30.6165 
G01 X-35.8891 Y30.5844 
G01 X-35.9309 Y30.5671 
G01 X-37.4832 Y30.5671 
G01 X-37.4801 Y30.5513 
G01 X-35.9309 Y30.5513 
G01 X-35.8891 Y30.5340 
G01 X-35.8570 Y30.5019 
G01 X-35.8397 Y30.4601 
G01 X-35.8397 Y30.0083 
G01 X-35.8570 Y29.9665 
G01 X-35.8891 Y29.9344 
G01 X-35.9309 Y29.9171 
G01 X-37.8339 Y29.9171 
G01 X-37.8942 Y29.8921 
G01 X-36.8113 Y29.8921 
G01 X-36.7891 Y29.9013 
G01 X-35.9309 Y29.9013 
G01 X-35.8891 Y29.8840 
G01 X-35.8570 Y29.8519 
G01 X-35.8397 Y29.8101 
G01 X-35.8397 Y29.3583 
G01 X-35.8570 Y29.3165 
G01 X-35.8891 Y29.2844 
G01 X-35.9309 Y29.2671 
G01 X-36.2931 Y29.2671 
G01 X-36.3274 Y29.2579 
G01 X-37.7079 Y29.2579 
G01 X-37.7079 Y28.6015 
G01 X-37.6767 Y28.6024 
G01 X-37.6721 Y28.6013 
G01 X-35.9309 Y28.6013 
G01 X-35.8891 Y28.5840 
G01 X-35.8570 Y28.5519 
G01 X-35.8397 Y28.5101 
G01 X-35.8397 Y28.0583 
G01 X-35.8570 Y28.0165 
G01 X-35.8891 Y27.9844 
G01 X-35.9309 Y27.9671 
G01 X-37.7046 Y27.9671 
G01 X-37.9787 Y27.9591 
G01 X-37.9832 Y27.9579 
G01 X-38.0204 Y27.9579 
G01 X-38.0575 Y27.9568 
G01 X-38.0621 Y27.9579 
G01 X-38.0667 Y27.9579 
G01 X-38.1026 Y27.9675 
G01 X-38.1341 Y27.9750 
G01 X-38.1391 Y27.9729 
G01 X-39.8609 Y27.9729 
G01 X-39.9027 Y27.9902 
G01 X-39.9348 Y28.0223 
G01 X-39.9521 Y28.0641 
G01 X-39.9521 Y29.7859 
G01 X-39.9348 Y29.8277 
G01 X-39.9044 Y29.8581 
G01 X-40.1861 Y29.8581 
G01 X-40.1861 Y27.9513 
G01 X-35.9309 Y27.9513 
G01 X-35.8891 Y27.9340 
G01 X-35.8570 Y27.9019 
G01 X-35.8397 Y27.8601 
G01 X-35.8397 Y27.4083 
G01 X-35.8570 Y27.3665 
G01 X-35.8891 Y27.3344 
G01 X-35.9309 Y27.3171 
G00 Z2.0000  F3000
G00 X-35.9309 Y31.2171  F3000
G01 Z-0.2000 F200.00 
G01 X-40.2805 Y31.2171 F500.00 
G01 X-40.2934 Y31.2148 
G01 X-40.3221 Y31.2171 
G01 X-40.3509 Y31.2171 
G01 X-40.3636 Y31.2205 
G01 X-40.3766 Y31.2216 
G01 X-40.4038 Y31.2313 
G01 X-40.4316 Y31.2387 
G01 X-40.4429 Y31.2452 
G01 X-40.4552 Y31.2497 
G01 X-40.4790 Y31.2661 
G01 X-40.5039 Y31.2805 
G01 X-40.5132 Y31.2897 
G01 X-40.8715 Y31.5376 
G01 X-40.9750 Y31.4994 
G01 X-41.0960 Y31.4802 
G01 X-41.2184 Y31.4850 
G01 X-41.3375 Y31.5135 
G01 X-41.3953 Y31.5401 
G01 X-43.4227 Y31.5401 
G01 X-43.4645 Y31.5574 
G01 X-43.4966 Y31.5895 
G01 X-43.5139 Y31.6313 
G01 X-43.5139 Y38.6767 
G01 X-43.4966 Y38.7185 
G01 X-43.4645 Y38.7506 
G01 X-43.4227 Y38.7679 
G01 X-40.4773 Y38.7679 
G01 X-40.4355 Y38.7506 
G01 X-40.4034 Y38.7185 
G01 X-40.3861 Y38.6767 
G01 X-40.3861 Y31.9729 
G01 X-40.2102 Y31.8513 
G01 X-35.9309 Y31.8513 
G01 X-35.8891 Y31.8340 
G01 X-35.8570 Y31.8019 
G01 X-35.8397 Y31.7601 
G01 X-35.8397 Y31.3083 
G01 X-35.8570 Y31.2665 
G01 X-35.8891 Y31.2344 
G01 X-35.9309 Y31.2171 
G00 Z2.0000  F3000
G00 X-35.9309 Y31.8671  F3000
G01 Z-0.2000 F200.00 
G01 X-39.0066 Y31.8671 F500.00 
G01 X-39.0454 Y31.8664 
G01 X-39.0481 Y31.8671 
G01 X-39.0509 Y31.8671 
G01 X-39.0887 Y31.8772 
G01 X-39.1264 Y31.8866 
G01 X-39.1289 Y31.8880 
G01 X-39.1316 Y31.8887 
G01 X-39.1655 Y31.9083 
G01 X-39.2637 Y31.9627 
G01 X-39.2844 Y31.9489 
G01 X-39.3976 Y31.9020 
G01 X-39.5177 Y31.8781 
G01 X-39.6403 Y31.8781 
G01 X-39.7604 Y31.9020 
G01 X-39.8736 Y31.9489 
G01 X-39.9754 Y32.0169 
G01 X-40.0621 Y32.1036 
G01 X-40.1301 Y32.2054 
G01 X-40.1770 Y32.3186 
G01 X-40.2009 Y32.4387 
G01 X-40.2009 Y38.3402 
G01 X-40.1770 Y38.4604 
G01 X-40.1301 Y38.5736 
G01 X-40.0621 Y38.6754 
G01 X-39.9754 Y38.7621 
G01 X-39.8736 Y38.8301 
G01 X-39.7604 Y38.8770 
G01 X-39.6403 Y38.9009 
G01 X-33.3759 Y38.9009 
G01 X-33.3759 Y43.2152 
G01 X-33.3520 Y43.3354 
G01 X-33.3051 Y43.4486 
G01 X-33.2371 Y43.5504 
G01 X-33.1504 Y43.6371 
G01 X-33.0486 Y43.7051 
G01 X-32.9354 Y43.7520 
G01 X-32.8152 Y43.7759 
G01 X-25.8299 Y43.7759 
G01 X-25.8299 Y53.9402 
G01 X-25.8060 Y54.0604 
G01 X-25.7591 Y54.1736 
G01 X-25.6911 Y54.2754 
G01 X-25.6044 Y54.3621 
G01 X-25.5026 Y54.4301 
G01 X-25.3894 Y54.4770 
G01 X-25.2692 Y54.5009 
G01 X-19.7969 Y54.5009 
G01 X-19.7969 Y61.8113 
G01 X-19.7730 Y61.9314 
G01 X-19.7261 Y62.0446 
G01 X-19.6581 Y62.1464 
G01 X-19.5714 Y62.2331 
G01 X-19.4696 Y62.3011 
G01 X-19.3564 Y62.3480 
G01 X-19.2362 Y62.3719 
G01 X-11.6387 Y62.3719 
G01 X-11.5186 Y62.3480 
G01 X-11.4054 Y62.3011 
G01 X-11.3036 Y62.2331 
G01 X-11.2169 Y62.1464 
G01 X-11.1489 Y62.0446 
G01 X-11.1020 Y61.9314 
G01 X-11.0781 Y61.8113 
G01 X-11.0781 Y44.9307 
G01 X-11.1020 Y44.8106 
G01 X-11.1489 Y44.6974 
G01 X-11.2169 Y44.5956 
G01 X-11.3036 Y44.5089 
G01 X-11.4054 Y44.4409 
G01 X-11.5186 Y44.3940 
G01 X-11.6387 Y44.3701 
G01 X-15.5578 Y44.3701 
G01 X-15.6018 Y44.3677 
G01 X-15.6189 Y44.3701 
G01 X-15.6363 Y44.3701 
G01 X-15.6795 Y44.3787 
G01 X-15.7231 Y44.3849 
G01 X-15.7394 Y44.3906 
G01 X-15.7564 Y44.3940 
G01 X-15.7971 Y44.4109 
G01 X-15.8387 Y44.4254 
G01 X-15.8536 Y44.4343 
G01 X-15.8696 Y44.4409 
G01 X-15.9062 Y44.4654 
G01 X-15.9441 Y44.4878 
G01 X-15.9570 Y44.4993 
G01 X-15.9714 Y44.5089 
G01 X-16.0026 Y44.5401 
G01 X-16.0354 Y44.5695 
G01 X-16.0458 Y44.5833 
G01 X-16.0581 Y44.5956 
G01 X-16.0826 Y44.6322 
G01 X-16.1090 Y44.6674 
G01 X-16.1165 Y44.6830 
G01 X-16.1261 Y44.6974 
G01 X-16.1430 Y44.7381 
G01 X-16.6817 Y45.8591 
G01 X-17.3017 Y45.8591 
G01 X-17.3435 Y45.8764 
G01 X-17.3756 Y45.9085 
G01 X-17.3929 Y45.9503 
G01 X-17.3929 Y47.7957 
G01 X-17.3756 Y47.8375 
G01 X-17.3435 Y47.8696 
G01 X-17.3017 Y47.8869 
G01 X-15.6563 Y47.8869 
G01 X-15.6145 Y47.8696 
G01 X-15.5824 Y47.8375 
G01 X-15.5651 Y47.7957 
G01 X-15.5651 Y46.4071 
G01 X-15.1839 Y45.6139 
G01 X-12.3219 Y45.6139 
G01 X-12.3219 Y61.1281 
G01 X-18.5531 Y61.1281 
G01 X-18.5531 Y53.8177 
G01 X-18.5770 Y53.6976 
G01 X-18.6239 Y53.5844 
G01 X-18.6919 Y53.4826 
G01 X-18.7786 Y53.3959 
G01 X-18.8804 Y53.3279 
G01 X-18.9936 Y53.2810 
G01 X-19.1137 Y53.2571 
G01 X-24.5861 Y53.2571 
G01 X-24.5861 Y43.0927 
G01 X-24.6100 Y42.9726 
G01 X-24.6569 Y42.8594 
G01 X-24.7249 Y42.7576 
G01 X-24.8116 Y42.6709 
G01 X-24.9134 Y42.6029 
G01 X-25.0266 Y42.5560 
G01 X-25.1467 Y42.5321 
G01 X-32.1321 Y42.5321 
G01 X-32.1321 Y38.2177 
G01 X-32.1560 Y38.0976 
G01 X-32.2029 Y37.9844 
G01 X-32.2709 Y37.8826 
G01 X-32.3576 Y37.7959 
G01 X-32.4594 Y37.7279 
G01 X-32.5726 Y37.6810 
G01 X-32.6927 Y37.6571 
G01 X-38.9571 Y37.6571 
G01 X-38.9571 Y32.5179 
G01 X-38.9272 Y32.5013 
G01 X-35.9309 Y32.5013 
G01 X-35.8891 Y32.4840 
G01 X-35.8570 Y32.4519 
G01 X-35.8397 Y32.4101 
G01 X-35.8397 Y31.9583 
G01 X-35.8570 Y31.9165 
G01 X-35.8891 Y31.8844 
G01 X-35.9309 Y31.8671 
G00 Z2.0000  F3000
G00 X-35.9309 Y32.5171  F3000
G01 Z-0.2000 F200.00 
G01 X-37.9948 Y32.5171 F500.00 
G01 X-37.9970 Y32.5165 
G01 X-38.0365 Y32.5171 
G01 X-38.0759 Y32.5171 
G01 X-38.0782 Y32.5177 
G01 X-38.0805 Y32.5177 
G01 X-38.1185 Y32.5285 
G01 X-38.1566 Y32.5387 
G01 X-38.1586 Y32.5399 
G01 X-38.1608 Y32.5405 
G01 X-38.1669 Y32.5442 
G01 X-38.2064 Y32.5520 
G01 X-38.3196 Y32.5989 
G01 X-38.4214 Y32.6669 
G01 X-38.5081 Y32.7536 
G01 X-38.5761 Y32.8554 
G01 X-38.6230 Y32.9686 
G01 X-38.6469 Y33.0887 
G01 X-38.6469 Y36.7863 
G01 X-38.6230 Y36.9064 
G01 X-38.5761 Y37.0196 
G01 X-38.5081 Y37.1214 
G01 X-38.4214 Y37.2081 
G01 X-38.3196 Y37.2761 
G01 X-38.2064 Y37.3230 
G01 X-38.0862 Y37.3469 
G01 X-31.8219 Y37.3469 
G01 X-31.8219 Y41.6613 
G01 X-31.7980 Y41.7814 
G01 X-31.7511 Y41.8946 
G01 X-31.6831 Y41.9964 
G01 X-31.5964 Y42.0831 
G01 X-31.4946 Y42.1511 
G01 X-31.3814 Y42.1980 
G01 X-31.2613 Y42.2219 
G01 X-24.0219 Y42.2219 
G01 X-24.0219 Y52.3862 
G01 X-23.9980 Y52.5064 
G01 X-23.9511 Y52.6196 
G01 X-23.8831 Y52.7214 
G01 X-23.7964 Y52.8081 
G01 X-23.6946 Y52.8761 
G01 X-23.5814 Y52.9230 
G01 X-23.4612 Y52.9469 
G01 X-18.1719 Y52.9469 
G01 X-18.1719 Y59.7463 
G01 X-18.1480 Y59.8664 
G01 X-18.1011 Y59.9796 
G01 X-18.0331 Y60.0814 
G01 X-17.9464 Y60.1681 
G01 X-17.8446 Y60.2361 
G01 X-17.7314 Y60.2830 
G01 X-17.6112 Y60.3069 
G01 X-17.4639 Y60.3069 
G01 X-17.4639 Y60.6077 
G01 X-17.4466 Y60.6495 
G01 X-17.4145 Y60.6816 
G01 X-17.3727 Y60.6989 
G01 X-15.7273 Y60.6989 
G01 X-15.6855 Y60.6816 
G01 X-15.6534 Y60.6495 
G01 X-15.6361 Y60.6077 
G01 X-15.6361 Y58.7623 
G01 X-15.6534 Y58.7205 
G01 X-15.6855 Y58.6884 
G01 X-15.7273 Y58.6711 
G01 X-16.9281 Y58.6711 
G01 X-16.9281 Y52.2637 
G01 X-16.9520 Y52.1436 
G01 X-16.9989 Y52.0304 
G01 X-17.0669 Y51.9286 
G01 X-17.1536 Y51.8419 
G01 X-17.2554 Y51.7739 
G01 X-17.3686 Y51.7270 
G01 X-17.4887 Y51.7031 
G01 X-22.7781 Y51.7031 
G01 X-22.7781 Y41.5387 
G01 X-22.8020 Y41.4186 
G01 X-22.8489 Y41.3054 
G01 X-22.9169 Y41.2036 
G01 X-23.0036 Y41.1169 
G01 X-23.1054 Y41.0489 
G01 X-23.2186 Y41.0020 
G01 X-23.3387 Y40.9781 
G01 X-30.5781 Y40.9781 
G01 X-30.5781 Y36.6637 
G01 X-30.6020 Y36.5436 
G01 X-30.6489 Y36.4304 
G01 X-30.7169 Y36.3286 
G01 X-30.8036 Y36.2419 
G01 X-30.9054 Y36.1739 
G01 X-31.0186 Y36.1270 
G01 X-31.1387 Y36.1031 
G01 X-37.4031 Y36.1031 
G01 X-37.4031 Y33.1513 
G01 X-35.9309 Y33.1513 
G01 X-35.8891 Y33.1340 
G01 X-35.8570 Y33.1019 
G01 X-35.8397 Y33.0601 
G01 X-35.8397 Y32.6083 
G01 X-35.8570 Y32.5665 
G01 X-35.8891 Y32.5344 
G01 X-35.9309 Y32.5171 
G00 Z2.0000  F3000
G00 X-35.9309 Y33.1671  F3000
G01 Z-0.2000 F200.00 
G01 X-37.0184 Y33.1671 F500.00 
G01 X-37.0599 Y33.1671 
G01 X-37.1009 Y33.1671 
G01 X-37.1419 Y33.1781 
G01 X-37.1816 Y33.1887 
G01 X-37.2184 Y33.2100 
G01 X-37.2539 Y33.2305 
G01 X-37.2839 Y33.2604 
G01 X-37.3129 Y33.2895 
G01 X-37.3341 Y33.3262 
G01 X-37.3547 Y33.3618 
G01 X-37.3657 Y33.4028 
G01 X-37.3763 Y33.4425 
G01 X-37.3763 Y33.4849 
G01 X-37.3763 Y33.5259 
G01 X-37.3671 Y35.1007 
G01 X-37.3671 Y35.1417 
G01 X-37.3561 Y35.1827 
G01 X-37.3455 Y35.2224 
G01 X-37.3290 Y35.2510 
G01 X-37.3230 Y35.2814 
G01 X-37.2761 Y35.3946 
G01 X-37.2081 Y35.4964 
G01 X-37.1214 Y35.5831 
G01 X-37.0196 Y35.6511 
G01 X-36.9064 Y35.6980 
G01 X-36.7863 Y35.7219 
G01 X-30.4509 Y35.7219 
G01 X-30.4509 Y40.0363 
G01 X-30.4270 Y40.1564 
G01 X-30.3801 Y40.2696 
G01 X-30.3121 Y40.3714 
G01 X-30.2254 Y40.4581 
G01 X-30.1236 Y40.5261 
G01 X-30.0104 Y40.5730 
G01 X-29.8903 Y40.5969 
G01 X-22.3969 Y40.5969 
G01 X-22.3969 Y50.3242 
G01 X-22.3730 Y50.4444 
G01 X-22.3261 Y50.5576 
G01 X-22.2581 Y50.6594 
G01 X-22.1714 Y50.7461 
G01 X-22.0696 Y50.8141 
G01 X-21.9564 Y50.8610 
G01 X-21.8362 Y50.8849 
G01 X-14.4969 Y50.8849 
G01 X-14.4969 Y51.1511 
G01 X-14.5477 Y51.1511 
G01 X-14.5895 Y51.1684 
G01 X-14.6216 Y51.2005 
G01 X-14.6389 Y51.2423 
G01 X-14.6389 Y52.8877 
G01 X-14.6216 Y52.9295 
G01 X-14.5895 Y52.9616 
G01 X-14.5477 Y52.9789 
G01 X-13.2023 Y52.9789 
G01 X-13.1605 Y52.9616 
G01 X-13.1284 Y52.9295 
G01 X-13.1111 Y52.8877 
G01 X-13.1111 Y51.2423 
G01 X-13.1284 Y51.2005 
G01 X-13.1605 Y51.1684 
G01 X-13.2023 Y51.1511 
G01 X-13.2531 Y51.1511 
G01 X-13.2531 Y50.2017 
G01 X-13.2770 Y50.0816 
G01 X-13.3239 Y49.9684 
G01 X-13.3919 Y49.8666 
G01 X-13.4786 Y49.7799 
G01 X-13.5804 Y49.7119 
G01 X-13.6936 Y49.6650 
G01 X-13.8137 Y49.6411 
G01 X-21.1531 Y49.6411 
G01 X-21.1531 Y39.9137 
G01 X-21.1770 Y39.7936 
G01 X-21.2239 Y39.6804 
G01 X-21.2919 Y39.5786 
G01 X-21.3786 Y39.4919 
G01 X-21.4804 Y39.4239 
G01 X-21.5936 Y39.3770 
G01 X-21.7137 Y39.3531 
G01 X-29.2071 Y39.3531 
G01 X-29.2071 Y35.0387 
G01 X-29.2310 Y34.9186 
G01 X-29.2779 Y34.8054 
G01 X-29.3459 Y34.7036 
G01 X-29.4326 Y34.6169 
G01 X-29.5344 Y34.5489 
G01 X-29.6476 Y34.5020 
G01 X-29.7677 Y34.4781 
G01 X-35.8861 Y34.4781 
G01 X-35.8861 Y33.7810 
G01 X-35.8570 Y33.7519 
G01 X-35.8397 Y33.7101 
G01 X-35.8397 Y33.2583 
G01 X-35.8570 Y33.2165 
G01 X-35.8891 Y33.1844 
G01 X-35.9309 Y33.1671 
G00 Z2.0000  F3000
G00 X-30.6130 Y32.4519  F3000
G01 Z-0.2000 F200.00 
G01 X-30.5809 Y32.4840 F500.00 
G01 X-30.5391 Y32.5013 
G01 X-27.5077 Y32.5013 
G01 X-26.9980 Y33.8112 
G01 X-27.0139 Y33.8292 
G01 X-27.0757 Y33.9349 
G01 X-27.1158 Y34.0507 
G01 X-27.1324 Y34.1720 
G01 X-27.1251 Y34.2943 
G01 X-27.0941 Y34.4128 
G01 X-25.7420 Y37.1939 
G01 X-25.7615 Y37.2209 
G01 X-25.8477 Y37.3900 
G01 X-25.9064 Y37.5706 
G01 X-25.9361 Y37.7581 
G01 X-25.9361 Y37.9479 
G01 X-25.9064 Y38.1354 
G01 X-25.8477 Y38.3160 
G01 X-25.7615 Y38.4851 
G01 X-25.6500 Y38.6387 
G01 X-25.5157 Y38.7730 
G01 X-25.3621 Y38.8845 
G01 X-25.1930 Y38.9707 
G01 X-25.0124 Y39.0294 
G01 X-24.8249 Y39.0591 
G01 X-24.6351 Y39.0591 
G01 X-24.4476 Y39.0294 
G01 X-24.2670 Y38.9707 
G01 X-24.0979 Y38.8845 
G01 X-23.9443 Y38.7730 
G01 X-23.8100 Y38.6387 
G01 X-23.6985 Y38.4851 
G01 X-23.6123 Y38.3160 
G01 X-23.5536 Y38.1354 
G01 X-23.5239 Y37.9479 
G01 X-23.5239 Y37.7581 
G01 X-23.5536 Y37.5706 
G01 X-23.6123 Y37.3900 
G01 X-23.6985 Y37.2209 
G01 X-23.8100 Y37.0673 
G01 X-23.9443 Y36.9330 
G01 X-24.0979 Y36.8214 
G01 X-24.2670 Y36.7353 
G01 X-24.4476 Y36.6766 
G01 X-24.6240 Y36.6487 
G01 X-25.9755 Y33.8690 
G01 X-26.0495 Y33.7714 
G01 X-26.1412 Y33.6901 
G01 X-26.2469 Y33.6282 
G01 X-26.3627 Y33.5882 
G01 X-26.4066 Y33.5822 
G01 X-26.9890 Y32.0854 
G01 X-26.9953 Y32.0618 
G01 X-27.0041 Y32.0466 
G01 X-27.0104 Y32.0303 
G01 X-27.0249 Y32.0106 
G01 X-27.0371 Y31.9895 
G01 X-27.0494 Y31.9771 
G01 X-27.0598 Y31.9630 
G01 X-27.0788 Y31.9477 
G01 X-27.0961 Y31.9305 
G01 X-27.1113 Y31.9217 
G01 X-27.1249 Y31.9107 
G01 X-27.1473 Y31.9009 
G01 X-27.1684 Y31.8887 
G01 X-27.1853 Y31.8842 
G01 X-27.2014 Y31.8771 
G01 X-27.2255 Y31.8734 
G01 X-27.2491 Y31.8671 
G01 X-27.2666 Y31.8671 
G01 X-27.2839 Y31.8644 
G01 X-27.3082 Y31.8671 
G01 X-30.5391 Y31.8671 
G01 X-30.5809 Y31.8844 
G01 X-30.6130 Y31.9165 
G01 X-30.6303 Y31.9583 
G01 X-30.6303 Y32.4101 
G01 X-30.6130 Y32.4519 
G00 Z2.0000  F3000
G00 X-30.6130 Y31.8019  F3000
G01 Z-0.2000 F200.00 
G01 X-30.5809 Y31.8340 F500.00 
G01 X-30.5391 Y31.8513 
G01 X-27.1156 Y31.8513 
G01 X-26.5840 Y32.4980 
G01 X-26.5734 Y32.6073 
G01 X-26.5347 Y32.7105 
G01 X-25.5002 Y34.1589 
G01 X-25.5145 Y34.2358 
G01 X-25.5132 Y34.3583 
G01 X-25.4879 Y34.4781 
G01 X-25.4398 Y34.5908 
G01 X-23.5425 Y37.3619 
G01 X-23.4550 Y37.4475 
G01 X-23.3523 Y37.5144 
G01 X-23.2386 Y37.5600 
G01 X-23.1182 Y37.5825 
G01 X-22.9957 Y37.5812 
G01 X-22.8759 Y37.5559 
G01 X-22.7632 Y37.5078 
G01 X-22.7580 Y37.5042 
G01 X-20.6139 Y37.6620 
G01 X-20.6139 Y38.7847 
G01 X-20.5966 Y38.8265 
G01 X-20.5889 Y38.8342 
G01 X-20.5889 Y46.7314 
G01 X-20.6735 Y46.8479 
G01 X-20.7597 Y47.0170 
G01 X-20.8184 Y47.1976 
G01 X-20.8481 Y47.3851 
G01 X-20.8481 Y47.5749 
G01 X-20.8184 Y47.7624 
G01 X-20.7597 Y47.9430 
G01 X-20.6735 Y48.1121 
G01 X-20.5620 Y48.2657 
G01 X-20.4524 Y48.3753 
G01 X-20.5061 Y48.6475 
G01 X-20.5179 Y48.7067 
G01 X-20.5179 Y48.7690 
G01 X-20.5179 Y48.8293 
G01 X-20.5056 Y48.8910 
G01 X-20.4940 Y48.9494 
G01 X-20.4700 Y49.0074 
G01 X-20.4471 Y49.0626 
G01 X-20.4130 Y49.1136 
G01 X-20.3791 Y49.1644 
G01 X-20.3364 Y49.2071 
G01 X-20.2924 Y49.2511 
G01 X-20.2421 Y49.2847 
G01 X-20.1906 Y49.3191 
G01 X-20.1340 Y49.3426 
G01 X-20.0774 Y49.3660 
G01 X-20.0168 Y49.3781 
G01 X-19.9572 Y49.3899 
G01 X-19.8950 Y49.3899 
G01 X-13.6547 Y49.3899 
G01 X-13.5346 Y49.3660 
G01 X-13.4214 Y49.3191 
G01 X-13.3196 Y49.2511 
G01 X-13.2329 Y49.1644 
G01 X-13.1649 Y49.0626 
G01 X-13.1180 Y48.9494 
G01 X-13.0941 Y48.8293 
G01 X-13.0941 Y47.8869 
G01 X-12.8563 Y47.8869 
G01 X-12.8145 Y47.8696 
G01 X-12.7824 Y47.8375 
G01 X-12.7651 Y47.7957 
G01 X-12.7651 Y45.9503 
G01 X-12.7824 Y45.9085 
G01 X-12.8145 Y45.8764 
G01 X-12.8563 Y45.8591 
G01 X-14.5017 Y45.8591 
G01 X-14.5435 Y45.8764 
G01 X-14.5756 Y45.9085 
G01 X-14.5929 Y45.9503 
G01 X-14.5929 Y47.7957 
G01 X-14.5756 Y47.8375 
G01 X-14.5435 Y47.8696 
G01 X-14.5017 Y47.8869 
G01 X-14.3379 Y47.8869 
G01 X-14.3379 Y48.1461 
G01 X-18.6351 Y48.1461 
G01 X-18.6105 Y48.1121 
G01 X-18.5243 Y47.9430 
G01 X-18.4656 Y47.7624 
G01 X-18.4359 Y47.5749 
G01 X-18.4359 Y47.3851 
G01 X-18.4656 Y47.1976 
G01 X-18.5243 Y47.0170 
G01 X-18.6105 Y46.8479 
G01 X-18.7220 Y46.6943 
G01 X-18.8563 Y46.5600 
G01 X-19.0099 Y46.4485 
G01 X-19.1790 Y46.3623 
G01 X-19.3451 Y46.3083 
G01 X-19.3451 Y38.8759 
G01 X-16.9953 Y38.8759 
G01 X-16.9535 Y38.8586 
G01 X-16.9214 Y38.8265 
G01 X-16.9041 Y38.7847 
G01 X-16.9041 Y26.5887 
G01 X-16.9280 Y26.4686 
G01 X-16.9749 Y26.3554 
G01 X-17.0429 Y26.2536 
G01 X-17.1296 Y26.1669 
G01 X-17.2314 Y26.0989 
G01 X-17.2429 Y26.0941 
G01 X-17.2953 Y25.9330 
G01 X-17.3815 Y25.7639 
G01 X-17.4930 Y25.6103 
G01 X-17.6273 Y25.4760 
G01 X-17.7809 Y25.3645 
G01 X-17.9500 Y25.2783 
G01 X-18.1306 Y25.2196 
G01 X-18.3181 Y25.1899 
G01 X-18.5079 Y25.1899 
G01 X-18.6954 Y25.2196 
G01 X-18.8760 Y25.2783 
G01 X-19.0451 Y25.3645 
G01 X-19.1987 Y25.4760 
G01 X-19.3330 Y25.6103 
G01 X-19.4445 Y25.7639 
G01 X-19.4693 Y25.8124 
G01 X-25.4340 Y26.0308 
G01 X-25.5532 Y26.0590 
G01 X-25.6645 Y26.1100 
G01 X-25.7638 Y26.1818 
G01 X-25.8363 Y26.2598 
G01 X-25.9321 Y26.3150 
G01 X-26.0100 Y26.3929 
G01 X-26.0652 Y26.4884 
G01 X-26.0937 Y26.5949 
G01 X-26.0937 Y26.6203 
G01 X-27.4405 Y27.9671 
G01 X-30.5391 Y27.9671 
G01 X-30.5809 Y27.9844 
G01 X-30.6130 Y28.0165 
G01 X-30.6303 Y28.0583 
G01 X-30.6303 Y28.5101 
G01 X-30.6130 Y28.5519 
G01 X-30.5809 Y28.5840 
G01 X-30.5391 Y28.6013 
G01 X-27.2675 Y28.6013 
G01 X-27.1868 Y28.5797 
G01 X-27.1145 Y28.5379 
G01 X-27.0555 Y28.4789 
G01 X-25.7256 Y27.1490 
G01 X-25.6242 Y27.2115 
G01 X-25.5094 Y27.2542 
G01 X-25.3885 Y27.2737 
G01 X-19.4248 Y27.0554 
G01 X-19.3330 Y27.1817 
G01 X-19.1987 Y27.3160 
G01 X-19.0451 Y27.4275 
G01 X-18.8760 Y27.5137 
G01 X-18.6954 Y27.5724 
G01 X-18.5079 Y27.6021 
G01 X-18.3181 Y27.6021 
G01 X-18.1479 Y27.5751 
G01 X-18.1479 Y34.8861 
G01 X-20.5227 Y34.8861 
G01 X-20.5645 Y34.9034 
G01 X-20.5966 Y34.9355 
G01 X-20.6139 Y34.9773 
G01 X-20.6139 Y36.6186 
G01 X-22.6465 Y36.4690 
G01 X-23.0129 Y35.9337 
G01 X-22.9867 Y35.9600 
G01 X-22.8331 Y36.0715 
G01 X-22.6640 Y36.1577 
G01 X-22.4834 Y36.2164 
G01 X-22.2959 Y36.2461 
G01 X-22.1061 Y36.2461 
G01 X-21.9186 Y36.2164 
G01 X-21.7380 Y36.1577 
G01 X-21.5689 Y36.0715 
G01 X-21.4153 Y35.9600 
G01 X-21.2810 Y35.8257 
G01 X-21.1695 Y35.6721 
G01 X-21.0833 Y35.5030 
G01 X-21.0246 Y35.3224 
G01 X-20.9949 Y35.1349 
G01 X-20.9949 Y34.9451 
G01 X-21.0246 Y34.7576 
G01 X-21.0833 Y34.5770 
G01 X-21.1695 Y34.4079 
G01 X-21.2810 Y34.2543 
G01 X-21.4153 Y34.1200 
G01 X-21.5689 Y34.0085 
G01 X-21.7380 Y33.9223 
G01 X-21.9186 Y33.8636 
G01 X-22.1061 Y33.8339 
G01 X-22.2959 Y33.8339 
G01 X-22.4834 Y33.8636 
G01 X-22.6264 Y33.9101 
G01 X-25.4760 Y31.1733 
G01 X-25.5960 Y31.1072 
G01 X-25.7290 Y31.0744 
G01 X-25.7787 Y31.0754 
G01 X-26.0503 Y30.7098 
G01 X-26.0621 Y30.6895 
G01 X-26.0751 Y30.6764 
G01 X-26.0861 Y30.6616 
G01 X-26.1045 Y30.6470 
G01 X-26.1211 Y30.6305 
G01 X-26.1371 Y30.6212 
G01 X-26.1516 Y30.6097 
G01 X-26.1731 Y30.6004 
G01 X-26.1934 Y30.5887 
G01 X-26.2113 Y30.5839 
G01 X-26.2282 Y30.5766 
G01 X-26.2514 Y30.5732 
G01 X-26.2740 Y30.5671 
G01 X-26.2925 Y30.5671 
G01 X-26.3108 Y30.5644 
G01 X-26.3341 Y30.5671 
G01 X-30.5391 Y30.5671 
G01 X-30.5809 Y30.5844 
G01 X-30.6130 Y30.6165 
G01 X-30.6303 Y30.6583 
G01 X-30.6303 Y31.1101 
G01 X-30.6130 Y31.1519 
G01 X-30.5809 Y31.1840 
G01 X-30.5391 Y31.2013 
G01 X-26.4753 Y31.2013 
G01 X-26.2878 Y31.4536 
G01 X-26.3086 Y31.5380 
G01 X-26.3058 Y31.6750 
G01 X-26.2677 Y31.8066 
G01 X-26.1968 Y31.9238 
G01 X-25.9745 Y32.1373 
G01 X-26.0388 Y32.1081 
G01 X-26.0907 Y32.0994 
G01 X-26.7042 Y31.3530 
G01 X-26.7121 Y31.3395 
G01 X-26.7307 Y31.3209 
G01 X-26.7474 Y31.3006 
G01 X-26.7600 Y31.2915 
G01 X-26.7711 Y31.2805 
G01 X-26.7939 Y31.2673 
G01 X-26.8153 Y31.2520 
G01 X-26.8299 Y31.2465 
G01 X-26.8434 Y31.2387 
G01 X-26.8688 Y31.2319 
G01 X-26.8934 Y31.2227 
G01 X-26.9090 Y31.2211 
G01 X-26.9241 Y31.2171 
G01 X-26.9504 Y31.2171 
G01 X-26.9765 Y31.2145 
G01 X-26.9919 Y31.2171 
G01 X-30.5391 Y31.2171 
G01 X-30.5809 Y31.2344 
G01 X-30.6130 Y31.2665 
G01 X-30.6303 Y31.3083 
G01 X-30.6303 Y31.7601 
G01 X-30.6130 Y31.8019 
G00 Z2.0000  F3000
G00 X-30.6130 Y30.5019  F3000
G01 Z-0.2000 F200.00 
G01 X-30.5809 Y30.5340 F500.00 
G01 X-30.5391 Y30.5513 
G01 X-30.1514 Y30.5513 
G01 X-30.1101 Y30.5513 
G01 X-29.6809 Y30.5513 
G01 X-29.6786 Y30.5503 
G01 X-26.1739 Y30.5423 
G01 X-23.1065 Y32.7757 
G01 X-23.1072 Y32.8936 
G01 X-23.0841 Y33.0139 
G01 X-23.0378 Y33.1273 
G01 X-22.9704 Y33.2296 
G01 X-22.8843 Y33.3167 
G01 X-22.7828 Y33.3854 
G01 X-22.6699 Y33.4329 
G01 X-20.7987 Y33.8166 
G01 X-20.7787 Y33.8780 
G01 X-20.6925 Y34.0471 
G01 X-20.5810 Y34.2007 
G01 X-20.4467 Y34.3350 
G01 X-20.2931 Y34.4465 
G01 X-20.1240 Y34.5327 
G01 X-19.9434 Y34.5914 
G01 X-19.7559 Y34.6211 
G01 X-19.5661 Y34.6211 
G01 X-19.3786 Y34.5914 
G01 X-19.1980 Y34.5327 
G01 X-19.0289 Y34.4465 
G01 X-18.8753 Y34.3350 
G01 X-18.7410 Y34.2007 
G01 X-18.6294 Y34.0471 
G01 X-18.5433 Y33.8780 
G01 X-18.4846 Y33.6974 
G01 X-18.4549 Y33.5099 
G01 X-18.4549 Y33.3201 
G01 X-18.4846 Y33.1326 
G01 X-18.5433 Y32.9520 
G01 X-18.6294 Y32.7829 
G01 X-18.7410 Y32.6293 
G01 X-18.8753 Y32.4950 
G01 X-19.0289 Y32.3835 
G01 X-19.1980 Y32.2973 
G01 X-19.3786 Y32.2386 
G01 X-19.5661 Y32.2089 
G01 X-19.7559 Y32.2089 
G01 X-19.9434 Y32.2386 
G01 X-20.1240 Y32.2973 
G01 X-20.2931 Y32.3835 
G01 X-20.4467 Y32.4950 
G01 X-20.5496 Y32.5980 
G01 X-22.4201 Y32.2145 
G01 X-22.5426 Y32.2137 
G01 X-22.6629 Y32.2369 
G01 X-22.7310 Y32.2647 
G01 X-25.8646 Y29.9830 
G01 X-25.8769 Y29.9708 
G01 X-25.8982 Y29.9586 
G01 X-25.9181 Y29.9441 
G01 X-25.9343 Y29.9379 
G01 X-25.9493 Y29.9292 
G01 X-25.9731 Y29.9229 
G01 X-25.9960 Y29.9141 
G01 X-26.0132 Y29.9123 
G01 X-26.0300 Y29.9078 
G01 X-26.0546 Y29.9079 
G01 X-26.0790 Y29.9053 
G01 X-26.0962 Y29.9080 
G01 X-30.1097 Y29.9171 
G01 X-30.5391 Y29.9171 
G01 X-30.5809 Y29.9344 
G01 X-30.6130 Y29.9665 
G01 X-30.6303 Y30.0083 
G01 X-30.6303 Y30.4601 
G01 X-30.6130 Y30.5019 
G00 Z2.0000  F3000
G00 X-30.6130 Y29.8519  F3000
G01 Z-0.2000 F200.00 
G01 X-30.5809 Y29.8840 F500.00 
G01 X-30.5391 Y29.9013 
G01 X-27.9174 Y29.9013 
G01 X-27.8831 Y29.8921 
G01 X-25.3989 Y29.8921 
G01 X-25.2616 Y29.9355 
G01 X-25.2178 Y30.0333 
G01 X-25.1313 Y30.1395 
G01 X-25.0203 Y30.2198 
G01 X-22.6447 Y31.1252 
G01 X-22.6154 Y31.3104 
G01 X-22.5567 Y31.4910 
G01 X-22.4705 Y31.6601 
G01 X-22.3590 Y31.8137 
G01 X-22.2247 Y31.9480 
G01 X-22.0711 Y32.0595 
G01 X-21.9020 Y32.1457 
G01 X-21.7214 Y32.2044 
G01 X-21.5339 Y32.2341 
G01 X-21.3441 Y32.2341 
G01 X-21.1566 Y32.2044 
G01 X-20.9760 Y32.1457 
G01 X-20.8069 Y32.0595 
G01 X-20.6533 Y31.9480 
G01 X-20.5190 Y31.8137 
G01 X-20.4075 Y31.6601 
G01 X-20.3213 Y31.4910 
G01 X-20.2626 Y31.3104 
G01 X-20.2329 Y31.1229 
G01 X-20.2329 Y30.9331 
G01 X-20.2626 Y30.7456 
G01 X-20.3213 Y30.5650 
G01 X-20.4075 Y30.3959 
G01 X-20.5190 Y30.2423 
G01 X-20.6533 Y30.1080 
G01 X-20.8069 Y29.9964 
G01 X-20.9760 Y29.9103 
G01 X-21.1566 Y29.8516 
G01 X-21.3441 Y29.8219 
G01 X-21.5339 Y29.8219 
G01 X-21.7214 Y29.8516 
G01 X-21.9020 Y29.9103 
G01 X-22.0711 Y29.9964 
G01 X-22.2247 Y30.1080 
G01 X-22.2708 Y30.1541 
G01 X-24.6497 Y29.2474 
G01 X-24.7860 Y29.2334 
G01 X-24.9212 Y29.2552 
G01 X-25.0463 Y29.3112 
G01 X-25.0704 Y29.3308 
G01 X-25.2214 Y29.2831 
G01 X-25.2276 Y29.2795 
G01 X-25.2612 Y29.2705 
G01 X-25.2942 Y29.2601 
G01 X-25.3014 Y29.2597 
G01 X-25.3083 Y29.2579 
G01 X-25.3430 Y29.2579 
G01 X-25.3777 Y29.2564 
G01 X-25.3846 Y29.2579 
G01 X-30.2667 Y29.2579 
G01 X-30.3011 Y29.2671 
G01 X-30.5391 Y29.2671 
G01 X-30.5809 Y29.2844 
G01 X-30.6130 Y29.3165 
G01 X-30.6303 Y29.3583 
G01 X-30.6303 Y29.8101 
G01 X-30.6130 Y29.8519 
G00 Z2.0000  F3000
G00 X-30.6130 Y29.2019  F3000
G01 Z-0.2000 F200.00 
G01 X-30.5809 Y29.2340 F500.00 
G01 X-30.5391 Y29.2513 
G01 X-26.3656 Y29.2513 
G01 X-26.3238 Y29.2513 
G01 X-26.2832 Y29.2513 
G01 X-26.2810 Y29.2510 
G01 X-26.2418 Y29.2402 
G01 X-26.2026 Y29.2297 
G01 X-26.2005 Y29.2288 
G01 X-26.1655 Y29.2083 
G01 X-26.1303 Y29.1879 
G01 X-26.1000 Y29.1576 
G01 X-26.0713 Y29.1289 
G01 X-25.6416 Y28.6927 
G01 X-25.3530 Y28.6573 
G01 X-25.2655 Y28.7007 
G01 X-25.1311 Y28.7276 
G01 X-21.0963 Y28.4695 
G01 X-21.0331 Y28.5110 
G01 X-21.0611 Y28.6881 
G01 X-21.0611 Y28.8779 
G01 X-21.0314 Y29.0654 
G01 X-20.9727 Y29.2460 
G01 X-20.8865 Y29.4151 
G01 X-20.7750 Y29.5687 
G01 X-20.6407 Y29.7030 
G01 X-20.4871 Y29.8145 
G01 X-20.3180 Y29.9007 
G01 X-20.1374 Y29.9594 
G01 X-19.9499 Y29.9891 
G01 X-19.7601 Y29.9891 
G01 X-19.5726 Y29.9594 
G01 X-19.3920 Y29.9007 
G01 X-19.2229 Y29.8145 
G01 X-19.0693 Y29.7030 
G01 X-18.9350 Y29.5687 
G01 X-18.8235 Y29.4151 
G01 X-18.7373 Y29.2460 
G01 X-18.6786 Y29.0654 
G01 X-18.6489 Y28.8779 
G01 X-18.6489 Y28.6881 
G01 X-18.6786 Y28.5006 
G01 X-18.7373 Y28.3200 
G01 X-18.8235 Y28.1509 
G01 X-18.9350 Y27.9973 
G01 X-19.0693 Y27.8630 
G01 X-19.2229 Y27.7514 
G01 X-19.3920 Y27.6653 
G01 X-19.5726 Y27.6066 
G01 X-19.7601 Y27.5769 
G01 X-19.9499 Y27.5769 
G01 X-20.1374 Y27.6066 
G01 X-20.3180 Y27.6653 
G01 X-20.4871 Y27.7514 
G01 X-20.5712 Y27.8125 
G01 X-20.6368 Y27.7695 
G01 X-20.6540 Y27.7186 
G01 X-20.7299 Y27.6046 
G01 X-20.8328 Y27.5141 
G01 X-20.9555 Y27.4533 
G01 X-21.0898 Y27.4264 
G01 X-25.1976 Y27.6891 
G01 X-25.3274 Y27.7330 
G01 X-25.4414 Y27.8089 
G01 X-25.4568 Y27.8264 
G01 X-25.7807 Y27.8661 
G01 X-25.8829 Y27.9074 
G01 X-25.9710 Y27.9737 
G01 X-26.0388 Y28.0606 
G01 X-26.0819 Y28.1621 
G01 X-26.0941 Y28.2484 
G01 X-26.4577 Y28.6171 
G01 X-29.6809 Y28.6171 
G01 X-30.5391 Y28.6171 
G01 X-30.5809 Y28.6344 
G01 X-30.6130 Y28.6665 
G01 X-30.6303 Y28.7083 
G01 X-30.6303 Y29.1601 
G01 X-30.6130 Y29.2019 
G00 Z2.0000  F3000
G00 X-30.6130 Y27.9019  F3000
G01 Z-0.2000 F200.00 
G01 X-30.5809 Y27.9340 F500.00 
G01 X-30.5391 Y27.9513 
G01 X-27.9174 Y27.9513 
G01 X-27.8368 Y27.9297 
G01 X-27.7645 Y27.8879 
G01 X-27.2712 Y27.3947 
G01 X-27.2568 Y27.3951 
G01 X-27.1495 Y27.3696 
G01 X-27.0525 Y27.3172 
G01 X-26.9724 Y27.2415 
G01 X-26.9146 Y27.1476 
G01 X-26.8830 Y27.0420 
G01 X-26.8426 Y25.6186 
G01 X-26.7660 Y25.5937 
G01 X-26.5969 Y25.5075 
G01 X-26.4433 Y25.3960 
G01 X-26.3090 Y25.2617 
G01 X-26.1974 Y25.1081 
G01 X-26.1113 Y24.9390 
G01 X-26.0526 Y24.7584 
G01 X-26.0229 Y24.5709 
G01 X-26.0229 Y24.3811 
G01 X-26.0526 Y24.1936 
G01 X-26.1113 Y24.0130 
G01 X-26.1974 Y23.8439 
G01 X-26.3090 Y23.6903 
G01 X-26.4433 Y23.5560 
G01 X-26.5969 Y23.4444 
G01 X-26.7660 Y23.3583 
G01 X-26.9466 Y23.2996 
G01 X-27.1341 Y23.2699 
G01 X-27.3239 Y23.2699 
G01 X-27.5114 Y23.2996 
G01 X-27.6920 Y23.3583 
G01 X-27.8611 Y23.4444 
G01 X-28.0147 Y23.5560 
G01 X-28.1490 Y23.6903 
G01 X-28.2605 Y23.8439 
G01 X-28.3467 Y24.0130 
G01 X-28.4054 Y24.1936 
G01 X-28.4351 Y24.3811 
G01 X-28.4351 Y24.5709 
G01 X-28.4054 Y24.7584 
G01 X-28.3467 Y24.9390 
G01 X-28.2605 Y25.1081 
G01 X-28.1490 Y25.2617 
G01 X-28.0147 Y25.3960 
G01 X-27.8611 Y25.5075 
G01 X-27.6920 Y25.5937 
G01 X-27.6797 Y25.5977 
G01 X-27.7180 Y26.9446 
G01 X-28.0905 Y27.3171 
G01 X-28.2777 Y27.3171 
G01 X-28.2211 Y27.3074 
G01 X-28.1209 Y27.2613 
G01 X-28.0361 Y27.1909 
G01 X-27.9724 Y27.1009 
G01 X-27.9342 Y26.9975 
G01 X-27.9240 Y26.8877 
G01 X-27.9426 Y26.7791 
G01 X-29.0752 Y24.3173 
G01 X-29.0638 Y24.2723 
G01 X-29.0657 Y24.1353 
G01 X-29.1030 Y24.0035 
G01 X-29.1731 Y23.8858 
G01 X-29.2713 Y23.7903 
G01 X-29.3909 Y23.7234 
G01 X-29.4059 Y23.7196 
G01 X-29.4570 Y23.6493 
G01 X-29.5913 Y23.5150 
G01 X-29.7449 Y23.4034 
G01 X-29.9140 Y23.3173 
G01 X-30.0946 Y23.2586 
G01 X-30.2821 Y23.2289 
G01 X-30.4719 Y23.2289 
G01 X-30.6594 Y23.2586 
G01 X-30.8400 Y23.3173 
G01 X-31.0091 Y23.4034 
G01 X-31.1627 Y23.5150 
G01 X-31.2970 Y23.6493 
G01 X-31.4085 Y23.8029 
G01 X-31.4947 Y23.9720 
G01 X-31.5534 Y24.1526 
G01 X-31.5831 Y24.3401 
G01 X-31.5831 Y24.5299 
G01 X-31.5534 Y24.7174 
G01 X-31.4947 Y24.8980 
G01 X-31.4085 Y25.0671 
G01 X-31.2970 Y25.2207 
G01 X-31.1627 Y25.3550 
G01 X-31.0091 Y25.4665 
G01 X-30.8400 Y25.5527 
G01 X-30.6594 Y25.6114 
G01 X-30.4719 Y25.6411 
G01 X-30.2821 Y25.6411 
G01 X-30.0946 Y25.6114 
G01 X-29.9140 Y25.5527 
G01 X-29.7449 Y25.4665 
G01 X-29.5913 Y25.3550 
G01 X-29.5422 Y25.3058 
G01 X-28.9177 Y26.6631 
G01 X-28.9468 Y26.6671 
G01 X-30.1517 Y26.6671 
G01 X-30.5391 Y26.6671 
G01 X-30.5809 Y26.6844 
G01 X-30.6130 Y26.7165 
G01 X-30.6303 Y26.7583 
G01 X-30.6303 Y27.2101 
G01 X-30.6130 Y27.2519 
G01 X-30.5809 Y27.2840 
G01 X-30.5391 Y27.3013 
G01 X-28.9447 Y27.3013 
G01 X-28.9228 Y27.3040 
G01 X-28.9031 Y27.3013 
G01 X-28.5675 Y27.3013 
G01 X-28.5160 Y27.2875 
G01 X-28.4395 Y27.3158 
G01 X-28.4257 Y27.3171 
G01 X-30.5391 Y27.3171 
G01 X-30.5809 Y27.3344 
G01 X-30.6130 Y27.3665 
G01 X-30.6303 Y27.4083 
G01 X-30.6303 Y27.8601 
G01 X-30.6130 Y27.9019 
G00 Z2.0000  F3000
G00 X-24.9700 Y25.1607  F3000
G01 Z-0.2000 F200.00 
G01 X-24.8357 Y25.2950 F500.00 
G01 X-24.6821 Y25.4065 
G01 X-24.5130 Y25.4927 
G01 X-24.3324 Y25.5514 
G01 X-24.1449 Y25.5811 
G01 X-23.9551 Y25.5811 
G01 X-23.7676 Y25.5514 
G01 X-23.5870 Y25.4927 
G01 X-23.4179 Y25.4065 
G01 X-23.2643 Y25.2950 
G01 X-23.1300 Y25.1607 
G01 X-23.0185 Y25.0071 
G01 X-23.0132 Y24.9969 
G01 X-16.6179 Y24.9969 
G01 X-16.6179 Y31.2613 
G01 X-16.5940 Y31.3814 
G01 X-16.5471 Y31.4946 
G01 X-16.4791 Y31.5964 
G01 X-16.3924 Y31.6831 
G01 X-16.2906 Y31.7511 
G01 X-16.1774 Y31.7980 
G01 X-16.0572 Y31.8219 
G01 X-13.5856 Y31.8219 
G01 X-13.4591 Y33.9211 
G01 X-13.5977 Y33.9211 
G01 X-13.6395 Y33.9384 
G01 X-13.6716 Y33.9705 
G01 X-13.6889 Y34.0123 
G01 X-13.6889 Y35.8577 
G01 X-13.6716 Y35.8995 
G01 X-13.6395 Y35.9316 
G01 X-13.5977 Y35.9489 
G01 X-11.9523 Y35.9489 
G01 X-11.9105 Y35.9316 
G01 X-11.8784 Y35.8995 
G01 X-11.8611 Y35.8577 
G01 X-11.8611 Y34.0123 
G01 X-11.8784 Y33.9705 
G01 X-11.9105 Y33.9384 
G01 X-11.9523 Y33.9211 
G01 X-12.2131 Y33.9211 
G01 X-12.3781 Y31.1813 
G01 X-12.3781 Y31.1387 
G01 X-12.3818 Y31.1203 
G01 X-12.3829 Y31.1015 
G01 X-12.3937 Y31.0603 
G01 X-12.4020 Y31.0186 
G01 X-12.4092 Y31.0012 
G01 X-12.4140 Y30.9830 
G01 X-12.4326 Y30.9447 
G01 X-12.4489 Y30.9054 
G01 X-12.4594 Y30.8897 
G01 X-12.4676 Y30.8728 
G01 X-12.4933 Y30.8390 
G01 X-12.5169 Y30.8036 
G01 X-12.5303 Y30.7902 
G01 X-12.5417 Y30.7752 
G01 X-12.5735 Y30.7470 
G01 X-12.6036 Y30.7169 
G01 X-12.6192 Y30.7065 
G01 X-12.6333 Y30.6940 
G01 X-12.6700 Y30.6725 
G01 X-12.7054 Y30.6489 
G01 X-12.7228 Y30.6417 
G01 X-12.7391 Y30.6322 
G01 X-12.7793 Y30.6183 
G01 X-12.8186 Y30.6020 
G01 X-12.8371 Y30.5983 
G01 X-12.8549 Y30.5922 
G01 X-12.8970 Y30.5864 
G01 X-12.9387 Y30.5781 
G01 X-12.9576 Y30.5781 
G01 X-12.9763 Y30.5755 
G01 X-13.0187 Y30.5781 
G01 X-15.3741 Y30.5781 
G01 X-15.3741 Y24.3137 
G01 X-15.3980 Y24.1936 
G01 X-15.4449 Y24.0804 
G01 X-15.5129 Y23.9786 
G01 X-15.5996 Y23.8919 
G01 X-15.7014 Y23.8239 
G01 X-15.8146 Y23.7770 
G01 X-15.9347 Y23.7531 
G01 X-23.0132 Y23.7531 
G01 X-23.0185 Y23.7429 
G01 X-23.1300 Y23.5893 
G01 X-23.2643 Y23.4550 
G01 X-23.4179 Y23.3435 
G01 X-23.5870 Y23.2573 
G01 X-23.7676 Y23.1986 
G01 X-23.9551 Y23.1689 
G01 X-24.1449 Y23.1689 
G01 X-24.3324 Y23.1986 
G01 X-24.5130 Y23.2573 
G01 X-24.6821 Y23.3435 
G01 X-24.8357 Y23.4550 
G01 X-24.9700 Y23.5893 
G01 X-25.0815 Y23.7429 
G01 X-25.1677 Y23.9120 
G01 X-25.2264 Y24.0926 
G01 X-25.2561 Y24.2801 
G01 X-25.2561 Y24.4699 
G01 X-25.2264 Y24.6574 
G01 X-25.1677 Y24.8380 
G01 X-25.0815 Y25.0071 
G01 X-24.9700 Y25.1607 
G00 Z2.0000  F3000
G00 X-25.7853 Y32.3190  F3000
G01 Z-0.2000 F200.00 
G01 X-23.3462 Y34.6615 F500.00 
G01 X-23.3774 Y34.7576 
G01 X-23.4071 Y34.9451 
G01 X-23.4071 Y35.1349 
G01 X-23.3774 Y35.3224 
G01 X-23.3286 Y35.4727 
G01 X-24.4134 Y33.8881 
G01 X-24.5010 Y33.8025 
G01 X-24.6037 Y33.7356 
G01 X-24.7174 Y33.6900 
G01 X-24.8197 Y33.6708 
G01 X-25.7853 Y32.3190 
G00 Z2.0000  F3000
G00 X-19.6546 Y31.8145  F3000
G01 Z-0.2000 F200.00 
G01 X-19.6225 Y31.8466 F500.00 
G01 X-19.5807 Y31.8639 
G01 X-18.5193 Y31.8639 
G01 X-18.4775 Y31.8466 
G01 X-18.4454 Y31.8145 
G01 X-18.4281 Y31.7727 
G01 X-18.4281 Y30.4573 
G01 X-18.4454 Y30.4155 
G01 X-18.4775 Y30.3834 
G01 X-18.5193 Y30.3661 
G01 X-19.5807 Y30.3661 
G01 X-19.6225 Y30.3834 
G01 X-19.6546 Y30.4155 
G01 X-19.6719 Y30.4573 
G01 X-19.6719 Y31.7727 
G01 X-19.6546 Y31.8145 
G00 Z2.0000  F3000
G00 X-16.4643 Y40.2762  F3000
G01 Z-0.2000 F200.00 
G01 X-16.4414 Y40.2608 F500.00 
G01 X-16.4159 Y40.2503 
G01 X-16.3888 Y40.2449 
G01 X-16.1969 Y40.2449 
G01 X-16.1969 Y40.2711 
G01 X-16.3977 Y40.2711 
G01 X-16.4395 Y40.2884 
G01 X-16.4716 Y40.3205 
G01 X-16.4889 Y40.3623 
G01 X-16.4889 Y40.6631 
G01 X-16.5151 Y40.6631 
G01 X-16.5151 Y40.3712 
G01 X-16.5097 Y40.3441 
G01 X-16.4992 Y40.3186 
G01 X-16.4838 Y40.2957 
G01 X-16.4643 Y40.2762 
G00 Z2.0000  F3000
G00 X-16.4889 Y41.9069  F3000
G01 Z-0.2000 F200.00 
G01 X-16.4889 Y42.2077 F500.00 
G01 X-16.4716 Y42.2495 
G01 X-16.4395 Y42.2816 
G01 X-16.3977 Y42.2989 
G01 X-16.2219 Y42.2989 
G01 X-16.2219 Y42.3251 
G01 X-16.3888 Y42.3251 
G01 X-16.4159 Y42.3197 
G01 X-16.4414 Y42.3092 
G01 X-16.4643 Y42.2938 
