;(.../Engineering/Matt/pcb-gcode/pcb-gcode.ulp)
;(Copyright 2005 - 2012 by John Johnson)
;(See readme.txt for licensing terms.)
;(This file generated from the board:)
;(.../STEP-CON Mk 02 - Stepper motor controller (test carrier)/Carrier.brd)
;(Current profile is .../pcb-gcode/profiles/generic.pp  )
;(This file generated 24/08/2016 12:48)
;(Settings from pcb-machine.h)
;(spindle on time = 1000.0000)
;(spindle speed = 20000.0000)
;(tool change at 0.0000 0.0000 5.0000 )
;(feed rate xy = F0.00  )
;(feed rate z  = F500.00 )
;(Z Axis Settings)
;(  High     Up        Down     Drill)
;(5.0000 	2.0000 	-0.2000 	-2.0000 )
;(Settings from pcb-defaults.h)
;(isolate min = 0.0250)
;(isolate max = 0.5000)
;(isolate step = 0.0800)
;(Generated bottom outlines, bottom drill, )
;(Unit of measure: mm)
;( Tool|       Size       |  Min Sub |  Max Sub |   Count )
;( T01  0.600mm 0.0236in 0.0000in 0.0000in )
;( T02  0.813mm 0.0320in 0.0000in 0.0000in )
;( T03  1.700mm 0.0669in 0.0000in 0.0000in )
;(Metric Mode)
G21
;(Absolute Coordinates)
G90
;S20000
G00 Z5.0000  F3000
G00 X0.0000 Y0.0000  F3000
;M03 S1
G04 P1000.000000
;M03 S0
;M06 T01  ; 0.6000 
G01 Z0.0000 F500.00 
;M06 
G00 Z2.0000  F3000
;M03 S1
G04 P1000.000000
G00 X-6.2460 Y35.9000  F3000
G01 Z-2.0000 F500.00 
G00 Z2.0000  F3000
G00 X-6.3460 Y31.8250  F3000
G01 Z-2.0000 F500.00 
G00 Z2.0000  F3000
G00 X-8.4000 Y28.0620  F3000
G01 Z-2.0000 F500.00 
G00 Z2.0000  F3000
G00 X-8.4453 Y22.2021  F3000
G01 Z-2.0000 F500.00 
G00 Z2.0000  F3000
G00 X-18.4130 Y26.3960  F3000
G01 Z-2.0000 F500.00 
G00 Z2.0000  F3000
G00 X-19.8550 Y28.7830  F3000
G01 Z-2.0000 F500.00 
G00 Z2.0000  F3000
G00 X-21.4390 Y31.0280  F3000
G01 Z-2.0000 F500.00 
G00 Z2.0000  F3000
G00 X-19.6610 Y33.4150  F3000
G01 Z-2.0000 F500.00 
G00 Z2.0000  F3000
G00 X-22.2010 Y35.0400  F3000
G01 Z-2.0000 F500.00 
G00 Z2.0000  F3000
G00 X-24.7300 Y37.8530  F3000
G01 Z-2.0000 F500.00 
G00 Z2.0000  F3000
G00 X-27.6960 Y37.8420  F3000
G01 Z-2.0000 F500.00 
G00 Z2.0000  F3000
G00 X-27.4410 Y48.5960  F3000
G01 Z-2.0000 F500.00 
G00 Z2.0000  F3000
G00 X-19.6420 Y47.4800  F3000
G01 Z-2.0000 F500.00 
G00 Z2.0000  F3000
G00 X-15.4280 Y54.7420  F3000
G01 Z-2.0000 F500.00 
G00 Z2.0000  F3000
G00 X-13.6500 Y57.2000  F3000
G01 Z-2.0000 F500.00 
G00 Z2.0000  F3000
G00 X-6.5000 Y54.7420  F3000
G01 Z-2.0000 F500.00 
G00 Z2.0000  F3000
G00 X-24.9750 Y59.8750  F3000
G01 Z-2.0000 F500.00 
G00 Z2.0000  F3000
G00 X-35.0000 Y60.0000  F3000
G01 Z-2.0000 F500.00 
G00 Z2.0000  F3000
G00 X-46.3330 Y36.7960  F3000
G01 Z-2.0000 F500.00 
G00 Z2.0000  F3000
G00 X-42.0670 Y34.6330  F3000
G01 Z-2.0000 F500.00 
G00 Z2.0000  F3000
G00 X-46.2920 Y31.7790  F3000
G01 Z-2.0000 F500.00 
G00 Z2.0000  F3000
G00 X-46.2920 Y28.6710  F3000
G01 Z-2.0000 F500.00 
G00 Z2.0000  F3000
G00 X-42.8290 Y28.6000  F3000
G01 Z-2.0000 F500.00 
G00 Z2.0000  F3000
G00 X-39.0000 Y28.9250  F3000
G01 Z-2.0000 F500.00 
G00 Z2.0000  F3000
G00 X-46.2920 Y24.5170  F3000
G01 Z-2.0000 F500.00 
G00 Z2.0000  F3000
G00 X-36.3920 Y20.0080  F3000
G01 Z-2.0000 F500.00 
G00 Z2.0000  F3000
G00 X-36.4920 Y16.7170  F3000
G01 Z-2.0000 F500.00 
G00 Z2.0000  F3000
G00 X-35.0000 Y10.0000  F3000
G01 Z-2.0000 F500.00 
G00 Z2.0000  F3000
G00 X-42.9000 Y8.1550  F3000
G01 Z-2.0000 F500.00 
G00 Z2.0000  F3000
G00 X-25.0000 Y10.1250  F3000
G01 Z-2.0000 F500.00 
G00 Z2.0000  F3000
G00 X-12.6750 Y8.7750  F3000
G01 Z-2.0000 F500.00 
G00 Z2.0000  F3000
G00 X-24.0500 Y24.3750  F3000
G01 Z-2.0000 F500.00 
G00 Z2.0000  F3000
G00 X-27.2290 Y24.4760  F3000
G01 Z-2.0000 F500.00 
G00 Z2.0000  F3000
G00 X-30.3770 Y24.4350  F3000
G01 Z-2.0000 F500.00 
G00 Z2.0000  F3000
;M03 S0
G00 Z5.0000  F3000
G00 X0.0000 Y0.0000  F3000
;M06 T02  ; 0.8128 
G01 Z0.0000 F500.00 
;M06 
G00 Z2.0000  F3000
;M03 S1
G04 P1000.000000
G00 X-9.5700 Y4.8670  F3000
G01 Z-2.0000 F500.00 
G00 Z2.0000  F3000
G00 X-12.1100 Y4.8670  F3000
G01 Z-2.0000 F500.00 
G00 Z2.0000  F3000
;M03 S0
G00 Z5.0000  F3000
G00 X0.0000 Y0.0000  F3000
;M06 T03  ; 1.7000 
G01 Z0.0000 F500.00 
;M06 
G00 Z2.0000  F3000
;M03 S1
G04 P1000.000000
G00 X-50.8000 Y8.7400  F3000
G01 Z-2.0000 F500.00 
G00 Z2.0000  F3000
G00 X-50.8000 Y12.7000  F3000
G01 Z-2.0000 F500.00 
G00 Z2.0000  F3000
G00 X-50.8000 Y16.6600  F3000
G01 Z-2.0000 F500.00 
G00 Z2.0000  F3000
G00 X-50.8000 Y24.5400  F3000
G01 Z-2.0000 F500.00 
G00 Z2.0000  F3000
G00 X-50.8000 Y28.5000  F3000
G01 Z-2.0000 F500.00 
G00 Z2.0000  F3000
G00 X-50.8000 Y32.4600  F3000
G01 Z-2.0000 F500.00 
G00 Z2.0000  F3000
G00 X-50.8000 Y36.4200  F3000
G01 Z-2.0000 F500.00 
G00 Z2.0000  F3000
G00 X-50.8000 Y45.4200  F3000
G01 Z-2.0000 F500.00 
G00 Z2.0000  F3000
G00 X-50.8000 Y49.3800  F3000
G01 Z-2.0000 F500.00 
G00 Z2.0000  F3000
G00 X-50.8000 Y53.3400  F3000
G01 Z-2.0000 F500.00 
G00 Z2.0000  F3000
G00 X-50.8000 Y57.3000  F3000
G01 Z-2.0000 F500.00 
G00 Z2.0000  F3000
G00 X-50.8000 Y61.2600  F3000
G01 Z-2.0000 F500.00 
G00 Z2.0000  F3000
;T01 
G00 Z5.0000  F3000
;M03 S0
M0
