; generated by Slic3r 1.2.9 on 2020-09-07 at 12:12:23

; external perimeters extrusion width = 0.40mm
; perimeters extrusion width = 0.40mm
; infill extrusion width = 0.40mm
; solid infill extrusion width = 0.40mm
; top infill extrusion width = 0.40mm

M107
M83
T0
M116
G21 ; set units to millimeters
G90 ; use absolute coordinates
M83 ; use relative distances for extrusion
G1 E-4.20000 F1500.00000
G1 Z1.000 F15000.000
G1 X3.226 Y-1.052 F15000.000
G1 Z0.300 F15000.000
G1 E4.20000 F1500.00000
G1 X3.586 Y0.050 E0.08933 F960.000
G1 X3.586 Y22.950 E1.76480
G1 X3.191 Y24.597 E0.13052
G1 X2.093 Y25.887 E0.13052
G1 X-0.050 Y26.586 E0.17373
G1 X-9.979 Y26.586 E0.76521
G1 X-11.626 Y26.191 E0.13052
G1 X-12.550 Y25.521 E0.08796
G1 X-26.521 Y11.550 E1.52263
G1 X-27.406 Y10.106 E0.13052
G1 X-27.586 Y8.979 E0.08796
G1 X-27.586 Y3.050 E0.45694
G1 X-27.191 Y1.403 E0.13052
G1 X-26.093 Y0.113 E0.13052
G1 X-24.768 Y-0.493 E0.11233
G1 X-11.768 Y-3.493 E1.02818
G1 X-10.950 Y-3.586 E0.06341
G1 X-0.050 Y-3.586 E0.84001
G1 X1.597 Y-3.191 E0.13052
G1 X2.887 Y-2.093 E0.13052 F960.000
G1 X3.208 Y-1.109 E0.07977
G1 E-4.20000 F1500.00000
G1 Z1.300 F15000.000
G1 X-15.960 Y6.029 F15000.000
G1 Z0.300 F15000.000
G1 E4.20000 F1500.00000
G1 X-15.850 Y6.627 E0.04684 F600.000
G1 X-15.892 Y7.208 E0.04489
G1 X-16.070 Y7.761 E0.04475
G1 X-16.376 Y8.254 E0.04470
G1 X-16.770 Y8.641 E0.04255
G1 X-17.292 Y8.953 E0.04687
G1 X-17.850 Y9.119 E0.04488
G1 X-18.430 Y9.146 E0.04475
G1 X-18.999 Y9.033 E0.04468
G1 X-19.509 Y8.796 E0.04334
G1 X-19.950 Y8.448 E0.04329
G1 X-20.307 Y7.992 E0.04463
G1 X-20.545 Y7.462 E0.04475
G1 X-20.649 Y6.891 E0.04475
G1 X-20.615 Y6.341 E0.04251
G1 X-20.439 Y5.759 E0.04681
G1 X-20.136 Y5.261 E0.04493
G1 X-19.724 Y4.852 E0.04476
G1 X-19.225 Y4.554 E0.04476
G1 X-18.670 Y4.384 E0.04473
G1 X-18.119 Y4.353 E0.04252 F600.000
G1 X-17.521 Y4.460 E0.04682
G1 X-16.991 Y4.703 E0.04490
G1 X-16.537 Y5.065 E0.04475
G1 X-16.183 Y5.525 E0.04472
G1 X-15.984 Y5.975 E0.03791
G1 X-15.574 Y6.134 F15000.000
G1 X-9.018 Y15.722 F15000.000
G1 X-8.409 Y15.301 E0.05707 F600.000
G1 X-7.691 Y15.041 E0.05880
G1 X-7.000 Y14.957 E0.05368 F600.000
G1 X-6.272 Y15.045 E0.05654
G1 X-5.586 Y15.305 E0.05654
G1 X-4.982 Y15.722 E0.05654
G1 X-4.495 Y16.271 E0.05654
G1 X-4.155 Y16.921 E0.05654
G1 X-3.979 Y17.633 E0.05654
G1 X-3.979 Y18.367 E0.05654
G1 X-4.155 Y19.079 E0.05654
G1 X-4.495 Y19.729 E0.05654
G1 X-4.982 Y20.278 E0.05654
G1 X-5.586 Y20.695 E0.05654
G1 X-6.272 Y20.955 E0.05654
G1 X-7.000 Y21.043 E0.05654
G1 X-7.735 Y20.954 E0.05707
G1 X-8.445 Y20.674 E0.05880
G1 X-9.018 Y20.278 E0.05368
G1 X-9.505 Y19.729 E0.05654
G1 X-9.845 Y19.079 E0.05654
G1 X-10.021 Y18.367 E0.05654
G1 X-10.021 Y17.633 E0.05654
G1 X-9.845 Y16.921 E0.05654
G1 X-9.505 Y16.271 E0.05654
G1 X-9.058 Y15.767 E0.05191
G1 X-8.593 Y16.201 F15000.000
G1 X-8.115 Y15.871 E0.04483 F600.000
G1 X-7.543 Y15.663 E0.04691
G1 X-7.000 Y15.597 E0.04213 F600.000
G1 X-6.425 Y15.667 E0.04464
G1 X-5.883 Y15.872 E0.04464
G1 X-5.407 Y16.201 E0.04464
G1 X-5.022 Y16.635 E0.04464
G1 X-4.753 Y17.148 E0.04464
G1 X-4.615 Y17.710 E0.04464
G1 X-4.615 Y18.290 E0.04464
G1 X-4.753 Y18.852 E0.04464
G1 X-5.022 Y19.365 E0.04464
G1 X-5.407 Y19.799 E0.04464
G1 X-5.883 Y20.128 E0.04464
G1 X-6.425 Y20.333 E0.04464
G1 X-7.000 Y20.403 E0.04464
G1 X-7.577 Y20.333 E0.04483
G1 X-8.144 Y20.109 E0.04691
G1 X-8.593 Y19.799 E0.04213
G1 X-8.978 Y19.365 E0.04464
G1 X-9.247 Y18.852 E0.04464
G1 X-9.385 Y18.290 E0.04464
G1 X-9.385 Y17.710 E0.04464
G1 X-9.247 Y17.148 E0.04464
G1 X-8.978 Y16.635 E0.04464
G1 X-8.633 Y16.246 E0.04002
G1 X-8.658 Y15.807 F15000.000
G1 X-9.964 Y3.585 F15000.000
G1 X-9.964 Y1.036 E0.19644 F720.000
G1 X-1.036 Y1.036 E0.68810
G1 X-1.036 Y21.964 E1.61289
G1 X-9.571 Y21.964 E0.65779 F720.000
G1 X-22.964 Y8.571 E1.45970
G1 X-22.964 Y4.036 E0.34952
G1 X-19.803 Y4.036 E0.24363
G1 X-20.639 Y4.864 E0.09069
G1 X-21.024 Y5.498 E0.05716
G1 X-21.244 Y6.228 E0.05875
G1 X-21.288 Y6.929 E0.05414
G1 X-21.156 Y7.652 E0.05667
G1 X-20.855 Y8.323 E0.05667
G1 X-20.404 Y8.900 E0.05646
G1 X-19.844 Y9.341 E0.05492
G1 X-19.197 Y9.641 E0.05495
G1 X-18.478 Y9.784 E0.05649
G1 X-17.744 Y9.750 E0.05668
G1 X-17.034 Y9.540 E0.05704
G1 X-16.378 Y9.147 E0.05889
G1 X-15.876 Y8.654 E0.05425
G1 X-15.490 Y8.030 E0.05653
G1 X-15.263 Y7.331 E0.05668
G1 X-15.211 Y6.592 E0.05707
G1 X-15.348 Y5.841 E0.05884
G1 X-15.633 Y5.198 E0.05421
G1 X-16.081 Y4.616 E0.05657
G1 X-16.489 Y4.291 E0.04018
G1 X-16.399 Y4.036 E0.02086
G1 X-9.964 Y4.036 E0.49591
G1 X-9.964 Y3.645 E0.03013
G1 X-10.600 Y3.400 F15000.000
G1 X-10.600 Y0.400 E0.23120 F720.000
G1 X-0.400 Y0.400 E0.78607
G1 X-0.400 Y22.600 E1.71085
G1 X-9.834 Y22.600 E0.72706 F720.000
G1 X-23.600 Y8.834 E1.50028
G1 X-23.600 Y3.400 E0.41880
G1 X-10.660 Y3.400 E0.99723
G1 X-10.200 Y3.400 F15000.000
G1 X-16.749 Y4.073 F15000.000
G1 X-17.387 Y3.938 E0.05022 F960.000
G1 X-18.072 Y3.877 E0.05302
G1 X-18.779 Y3.897 E0.05451
G1 X-18.947 Y3.923 E0.01311
G1 X-19.396 Y4.193 E0.04039
G1 X-19.799 Y4.505 E0.03932
G1 X-21.134 Y5.034 F15000.000
G1 X-21.747 Y4.421 E0.06842 F960.000
G1 X-22.579 Y4.510 E0.06603
G1 X-21.438 Y5.650 E0.12732
G1 X-21.632 Y6.378 E0.05939
G1 X-22.579 Y5.430 E0.10572
G1 X-22.579 Y6.351 E0.07267
G1 X-21.641 Y7.289 E0.10471
G1 X-21.207 Y8.643 E0.11223
G1 X-22.579 Y7.272 E0.15311
G1 X-22.579 Y8.192 E0.07267
G1 X-9.192 Y21.579 E1.49426
G1 X-9.924 Y19.927 F15000.000
G1 X-20.150 Y9.701 E1.14145 F960.000
G1 X-18.784 Y10.146 F15000.000
G1 X-10.406 Y18.524 E0.93518 F960.000
G1 X-10.386 Y17.623 E0.07110
G1 X-17.873 Y10.136 E0.83574
G1 X-17.147 Y9.941 E0.05932
G1 X-10.204 Y16.885 E0.77503
G1 X-9.890 Y16.278 E0.05391
G1 X-16.536 Y9.632 E0.74183
G1 X-16.005 Y9.242 E0.05198
G1 X-9.490 Y15.757 E0.72724
G1 X-9.013 Y15.314 E0.05142
G1 X-15.556 Y8.771 E0.73035
G1 X-15.203 Y8.203 E0.05277
G1 X-8.457 Y14.949 E0.75304
G1 X-7.782 Y14.704 E0.05671
G1 X-14.958 Y7.527 E0.80108
G1 X-14.843 Y6.722 E0.06419
G1 X-6.983 Y14.582 E0.87733
G1 X-5.950 Y14.695 E0.08206
G1 X-14.958 Y5.686 E1.00555
G1 X-15.303 Y4.421 E0.10351
G1 X-1.421 Y18.302 E1.54951
G1 X-1.421 Y17.382 E0.07267
G1 X-14.382 Y4.421 E1.44674
G1 X-13.461 Y4.421 E0.07267
G1 X-1.421 Y16.461 E1.34398
G1 X-1.421 Y15.541 E0.07267
G1 X-12.541 Y4.421 E1.24121
G1 X-11.620 Y4.421 E0.07267
G1 X-1.421 Y14.620 E1.13844
G1 X-1.421 Y13.699 E0.07267
G1 X-10.699 Y4.421 E1.03567
G1 X-9.779 Y4.421 E0.07267
G1 X-1.421 Y12.779 E0.93291
G1 X-1.421 Y11.858 E0.07267
G1 X-9.579 Y3.700 E0.91062
G1 X-9.579 Y2.779 E0.07267
G1 X-1.421 Y10.937 E0.91062
G1 X-1.421 Y10.017 E0.07267
G1 X-9.579 Y1.859 E0.91062
G1 X-9.096 Y1.421 E0.05145
G1 X-1.421 Y9.096 E0.85671
G1 X-1.421 Y8.175 E0.07267
G1 X-8.175 Y1.421 E0.75394
G1 X-7.255 Y1.421 E0.07267
G1 X-1.421 Y7.255 E0.65117
G1 X-1.421 Y6.334 E0.07267
G1 X-6.334 Y1.421 E0.54841
G1 X-5.413 Y1.421 E0.07267
G1 X-1.421 Y5.413 E0.44564
G1 X-1.421 Y4.493 E0.07267
G1 X-4.493 Y1.421 E0.34287
G1 X-3.572 Y1.421 E0.07267
G1 X-1.421 Y3.572 E0.24010
G1 X-1.421 Y2.651 E0.07267
G1 X-2.651 Y1.421 E0.13733
G1 X-1.731 Y1.421 E0.07267
G1 X-1.421 Y1.731 E0.03457
G1 X-3.719 Y16.925 F15000.000
G1 X-1.421 Y19.223 E0.25654 F960.000
G1 X-1.421 Y20.144 E0.07267
G1 X-3.594 Y17.971 E0.24250
G1 X-3.712 Y18.774 E0.06403
G1 X-1.421 Y21.064 E0.25568
G1 X-1.827 Y21.579 E0.05174
G1 X-3.963 Y19.443 E0.23845
G1 X-4.310 Y20.017 E0.05293
G1 X-2.748 Y21.579 E0.17437
G1 X-3.669 Y21.579 E0.07267
G1 X-4.742 Y20.505 E0.11988
G1 X-5.259 Y21.291 F15000.000
G1 X-6.172 Y21.455 E0.07153 F960.000
G1 X-7.017 Y21.504 E0.06524
G1 X-7.887 Y21.449 E0.06715
G1 X-8.740 Y21.286 E0.06694
G1 E-4.20000 F1500.00000
G1 Z1.300 F15000.000
G1 X-8.214 Y20.312 F15000.000
G1 Z0.500 F15000.000
G1 E4.20000 F1500.00000
G1 X-8.732 Y19.955 E0.01817 F2400.000
G1 X-9.149 Y19.484 E0.01817
G1 X-9.442 Y18.926 E0.01817
G1 X-9.592 Y18.315 E0.01817
G1 X-9.592 Y17.685 E0.01817
G1 X-9.442 Y17.074 E0.01817
G1 X-9.149 Y16.516 E0.01817
G1 X-8.732 Y16.045 E0.01817
G1 X-8.214 Y15.688 E0.01817
G1 X-7.625 Y15.464 E0.01817
G1 X-7.488 Y15.448 E0.00398
G1 X-7.000 Y15.388 E0.01419 F2400.000
G1 X-6.375 Y15.464 E0.01817
G1 X-5.786 Y15.688 E0.01817
G1 X-5.268 Y16.045 E0.01817
G1 X-4.851 Y16.516 E0.01817
G1 X-4.558 Y17.074 E0.01817
G1 X-4.408 Y17.685 E0.01817
G1 X-4.408 Y18.315 E0.01817
G1 X-4.558 Y18.926 E0.01817
G1 X-4.851 Y19.484 E0.01817
G1 X-5.268 Y19.955 E0.01817
G1 X-5.786 Y20.312 E0.01817
G1 X-6.375 Y20.536 E0.01817
G1 X-7.000 Y20.612 E0.01817
G1 X-7.625 Y20.536 E0.01817
G1 X-8.158 Y20.334 E0.01644
G1 X-8.031 Y20.000 F15000.000
G1 X-8.493 Y19.686 E0.01614 F2400.000
G1 X-8.853 Y19.279 E0.01567
G1 X-9.106 Y18.799 E0.01567
G1 X-9.235 Y18.271 E0.01567
G1 X-9.235 Y17.729 E0.01567
G1 X-9.106 Y17.201 E0.01567
G1 X-8.853 Y16.721 E0.01567
G1 X-8.493 Y16.314 E0.01567
G1 X-8.046 Y16.006 E0.01567
G1 X-7.539 Y15.814 E0.01567
G1 X-7.445 Y15.802 E0.00273
G1 X-7.000 Y15.748 E0.01294 F2400.000
G1 X-6.461 Y15.814 E0.01567
G1 X-5.954 Y16.006 E0.01567
G1 X-5.507 Y16.314 E0.01567
G1 X-5.147 Y16.721 E0.01567
G1 X-4.894 Y17.201 E0.01567
G1 X-4.765 Y17.729 E0.01567
G1 X-4.765 Y18.271 E0.01567
G1 X-4.894 Y18.799 E0.01567
G1 X-5.147 Y19.279 E0.01567
G1 X-5.507 Y19.686 E0.01567
G1 X-5.954 Y19.994 E0.01567
G1 X-6.461 Y20.186 E0.01567
G1 X-7.000 Y20.252 E0.01567
G1 X-7.539 Y20.186 E0.01567
G1 X-7.975 Y20.021 E0.01346
G1 X-8.376 Y20.201 F15000.000
G1 E-4.20000 F1500.00000
G1 Z1.500 F15000.000
G1 X-16.623 Y8.788 F15000.000
G1 Z0.500 F15000.000
G1 E4.20000 F1500.00000
G1 X-17.218 Y9.149 E0.02008 F2400.000
G1 X-17.830 Y9.327 E0.01840
G1 X-18.461 Y9.352 E0.01824
G1 X-19.076 Y9.226 E0.01811
G1 X-19.575 Y8.996 E0.01586
G1 X-20.095 Y8.599 E0.01890
G1 X-20.486 Y8.100 E0.01828
G1 X-20.744 Y7.523 E0.01825
G1 X-20.857 Y6.902 E0.01822
G1 X-20.817 Y6.271 E0.01823
G1 X-20.625 Y5.665 E0.01836
G1 X-20.297 Y5.129 E0.01814
G1 X-19.848 Y4.685 E0.01824
G1 X-19.305 Y4.361 E0.01824
G1 X-18.702 Y4.178 E0.01820
G1 X-18.139 Y4.146 E0.01625 F2400.000
G1 X-17.455 Y4.262 E0.02003
G1 X-16.876 Y4.530 E0.01843
G1 X-16.383 Y4.925 E0.01823
G1 X-16.000 Y5.425 E0.01818
G1 X-15.772 Y5.941 E0.01627
G1 X-15.641 Y6.623 E0.02005
G1 X-15.689 Y7.259 E0.01841
G1 X-15.886 Y7.859 E0.01823
G1 X-16.221 Y8.392 E0.01816
G1 X-16.580 Y8.746 E0.01455
G1 X-16.831 Y8.491 F15000.000
G1 X-17.363 Y8.819 E0.01804 F2400.000
G1 X-17.888 Y8.972 E0.01578
G1 X-18.432 Y8.993 E0.01572
G1 X-18.964 Y8.884 E0.01567
G1 X-19.390 Y8.689 E0.01352
G1 X-19.842 Y8.343 E0.01643
G1 X-20.178 Y7.914 E0.01572
G1 X-20.401 Y7.417 E0.01573
G1 X-20.498 Y6.881 E0.01572
G1 X-20.464 Y6.337 E0.01572
G1 X-20.299 Y5.816 E0.01577
G1 X-20.015 Y5.352 E0.01569
G1 X-19.628 Y4.969 E0.01573
G1 X-19.160 Y4.690 E0.01573
G1 X-18.639 Y4.532 E0.01571
G1 X-18.159 Y4.505 E0.01386 F2400.000
G1 X-17.562 Y4.606 E0.01749
G1 X-17.065 Y4.836 E0.01579
G1 X-16.640 Y5.176 E0.01572
G1 X-16.309 Y5.609 E0.01570
G1 X-16.115 Y6.048 E0.01387
G1 X-16.001 Y6.643 E0.01750
G1 X-16.042 Y7.189 E0.01579
G1 X-16.212 Y7.706 E0.01572
G1 X-16.501 Y8.167 E0.01570
G1 X-16.788 Y8.449 E0.01161
G1 X-16.789 Y8.889 F15000.000
G1 X-0.607 Y8.081 F15000.000
G1 X-0.607 Y22.393 E0.41309 F2400.000
G1 X-9.749 Y22.393 E0.26385 F2400.000
G1 X-23.393 Y8.749 E0.55694
G1 X-23.393 Y3.607 E0.14840
G1 X-10.393 Y3.607 E0.37521
G1 X-10.393 Y0.607 E0.08659
G1 X-0.607 Y0.607 E0.28245
G1 X-0.607 Y8.021 E0.21398
G1 X-0.250 Y8.021 F15000.000
G1 X-0.250 Y22.750 E0.42512 F2400.000
G1 X-9.896 Y22.750 E0.27842 F2400.000
G1 X-23.750 Y8.896 E0.56547
G1 X-23.750 Y3.250 E0.16297
G1 X-10.750 Y3.250 E0.37521
G1 X-10.750 Y0.250 E0.08659
G1 X-0.250 Y0.250 E0.30306
G1 X-0.250 Y7.961 E0.22255
G1 X-0.596 Y8.221 F15000.000
G1 X-7.943 Y15.329 F15000.000
G1 X-0.815 Y8.201 E0.29435 F2400.000
G1 X-0.815 Y8.711 E0.01492
G1 X-7.311 Y15.207 E0.26823
G1 X-6.804 Y15.212 E0.01479
G1 X-0.815 Y9.222 E0.24732
G1 X-0.815 Y9.733 E0.01492
G1 X-6.355 Y15.273 E0.22877
G1 X-5.985 Y15.414 E0.01157
G1 X-0.815 Y10.244 E0.21347
G1 X-0.815 Y10.755 E0.01492
G1 X-5.635 Y15.575 E0.19905
G1 X-5.333 Y15.784 E0.01072
G1 X-0.815 Y11.266 E0.18657
G1 X-0.815 Y11.777 E0.01492
G1 X-5.056 Y16.018 E0.17514
G1 X-4.816 Y16.289 E0.01057
G1 X-0.815 Y12.287 E0.16524
G1 X-0.815 Y12.798 E0.01492
G1 X-4.607 Y16.591 E0.15660
G1 X-4.431 Y16.926 E0.01105
G1 X-0.815 Y13.309 E0.14934
G1 X-0.815 Y13.820 E0.01492
G1 X-4.303 Y17.308 E0.14403
G1 X-4.202 Y17.718 E0.01232
G1 X-0.815 Y14.331 E0.13986
G1 X-0.815 Y14.842 E0.01492
G1 X-4.200 Y18.227 E0.13977
G1 X-4.302 Y18.840 E0.01815
G1 X-0.815 Y15.353 E0.14399
G1 X-0.815 Y15.863 E0.01492
G1 X-7.137 Y22.185 E0.26104
G1 X-6.626 Y22.185 E0.01492
G1 X-0.815 Y16.374 E0.23995
G1 X-0.815 Y16.885 E0.01492
G1 X-6.115 Y22.185 E0.21885
G1 X-5.604 Y22.185 E0.01492
G1 X-0.815 Y17.396 E0.19776
G1 X-0.815 Y17.907 E0.01492
G1 X-5.093 Y22.185 E0.17666
G1 X-4.582 Y22.185 E0.01492
G1 X-0.815 Y18.418 E0.15557
G1 X-0.815 Y18.929 E0.01492
G1 X-4.071 Y22.185 E0.13448
G1 X-3.561 Y22.185 E0.01492
G1 X-0.815 Y19.439 E0.11338
G1 X-0.815 Y19.950 E0.01492
G1 X-3.050 Y22.185 E0.09229
G1 X-2.539 Y22.185 E0.01492
G1 X-0.815 Y20.461 E0.07119
G1 X-0.815 Y20.972 E0.01492
G1 X-2.028 Y22.185 E0.05010
G1 X-1.517 Y22.185 E0.01492
G1 X-0.815 Y21.483 E0.02900
G1 X-0.815 Y21.994 E0.01492
G1 X-1.006 Y22.185 E0.00791
G1 X-7.647 Y22.185 F15000.000
G1 X-6.180 Y20.718 E0.06058 F2400.000
G1 X-6.777 Y20.803 E0.01759
G1 X-8.158 Y22.185 E0.05706
G1 X-8.669 Y22.185 E0.01492
G1 X-7.264 Y20.780 E0.05802
G1 X-7.701 Y20.706 E0.01293
G1 X-9.180 Y22.185 E0.06109
G1 X-9.685 Y22.179 E0.01474
G1 X-8.071 Y20.565 E0.06664
G1 X-8.410 Y20.393 E0.01110
G1 X-9.940 Y21.924 E0.06319
G1 X-10.196 Y21.668 E0.01055
G1 X-8.712 Y20.185 E0.06125
G1 X-8.980 Y19.941 E0.01056
G1 X-10.451 Y21.413 E0.06076
G1 X-10.706 Y21.157 E0.01055
G1 X-9.220 Y19.670 E0.06140
G1 X-9.419 Y19.359 E0.01080
G1 X-10.962 Y20.902 E0.06370
G1 X-11.217 Y20.646 E0.01055
G1 X-9.595 Y19.024 E0.06699
G1 X-9.712 Y18.631 E0.01199
G1 X-11.473 Y20.391 E0.07270
G1 X-11.728 Y20.136 E0.01055
G1 X-9.800 Y18.208 E0.07961
G1 X-9.800 Y17.697 E0.01492
G1 X-11.984 Y19.880 E0.09016
G1 X-12.239 Y19.625 E0.01055
G1 X-9.673 Y17.059 E0.10596
G1 X-12.494 Y19.369 F15000.000
G1 X-0.815 Y7.690 E0.48228 F2400.000
G1 X-0.815 Y7.179 E0.01492
G1 X-12.750 Y19.114 E0.49283
G1 X-13.005 Y18.858 E0.01055
G1 X-0.815 Y6.668 E0.50338
G1 X-0.815 Y6.157 E0.01492
G1 X-13.261 Y18.603 E0.51392
G1 X-13.516 Y18.348 E0.01055
G1 X-0.815 Y5.646 E0.52447
G1 X-0.815 Y5.135 E0.01492
G1 X-13.772 Y18.092 E0.53502
G1 X-14.027 Y17.837 E0.01055
G1 X-0.815 Y4.625 E0.54557
G1 X-0.815 Y4.114 E0.01492
G1 X-14.282 Y17.581 E0.55611
G1 X-14.538 Y17.326 E0.01055
G1 X-0.815 Y3.603 E0.56666
G1 X-0.815 Y3.092 E0.01492
G1 X-14.793 Y17.070 E0.57721
G1 X-15.049 Y16.815 E0.01055
G1 X-0.815 Y2.581 E0.58775
G1 X-0.815 Y2.070 E0.01492
G1 X-15.304 Y16.560 E0.59830
G1 X-15.560 Y16.304 E0.01055
G1 X-0.815 Y1.559 E0.60885
G1 X-0.815 Y1.049 E0.01492
G1 X-15.815 Y16.049 E0.61940
G1 X-16.070 Y15.793 E0.01055
G1 X-1.092 Y0.815 E0.61850
G1 X-1.603 Y0.815 E0.01492
G1 X-16.326 Y15.538 E0.60795
G1 X-16.581 Y15.282 E0.01055
G1 X-2.114 Y0.815 E0.59740
G1 X-2.625 Y0.815 E0.01492
G1 X-16.837 Y15.027 E0.58686
G1 X-17.092 Y14.772 E0.01055
G1 X-3.135 Y0.815 E0.57631
G1 X-3.646 Y0.815 E0.01492
G1 X-17.348 Y14.516 E0.56576
G1 X-17.603 Y14.261 E0.01055
G1 X-4.157 Y0.815 E0.55521
G1 X-4.668 Y0.815 E0.01492
G1 X-17.858 Y14.005 E0.54467
G1 X-18.114 Y13.750 E0.01055
G1 X-5.179 Y0.815 E0.53412
G1 X-5.690 Y0.815 E0.01492
G1 X-18.369 Y13.494 E0.52357
G1 X-18.625 Y13.239 E0.01055
G1 X-6.201 Y0.815 E0.51303
G1 X-6.711 Y0.815 E0.01492
G1 X-18.880 Y12.984 E0.50248
G1 X-19.136 Y12.728 E0.01055
G1 X-7.222 Y0.815 E0.49193
G1 X-7.733 Y0.815 E0.01492
G1 X-10.185 Y3.267 E0.10125
G1 X-10.185 Y2.756 E0.01492
G1 X-8.244 Y0.815 E0.08016
G1 X-8.755 Y0.815 E0.01492
G1 X-10.185 Y2.245 E0.05906
G1 X-10.185 Y1.734 E0.01492
G1 X-9.266 Y0.815 E0.03797
G1 X-9.777 Y0.815 E0.01492
G1 X-10.185 Y1.223 E0.01687
G1 X-10.733 Y3.815 F15000.000
G1 X-19.391 Y12.473 E0.35751 F2400.000
G1 X-19.646 Y12.217 E0.01055
G1 X-11.244 Y3.815 E0.34696
G1 X-11.755 Y3.815 E0.01492
G1 X-15.560 Y7.620 E0.15713
G1 X-15.456 Y7.005 E0.01822
G1 X-12.266 Y3.815 E0.13172
G1 X-12.777 Y3.815 E0.01492
