; generated by Slic3r 1.2.9 on 2020-09-03 at 12:30:07

; external perimeters extrusion width = 0.40mm
; perimeters extrusion width = 0.40mm
; infill extrusion width = 0.40mm
; solid infill extrusion width = 0.40mm
; top infill extrusion width = 0.40mm

M107
M83
T0
M116
G21 ; set units to millimeters
G90 ; use absolute coordinates
M83 ; use relative distances for extrusion
G1 E-4.20000 F1500.00000
G1 Z1.000 F15000.000
G1 X0.000 Y11.518 F15000.000
G1 Z0.300 F15000.000
G1 E4.20000 F1500.00000
G1 X-7.597 Y11.518 E0.58550 F960.000
G1 X-8.586 Y11.484 E0.07625
G1 X-10.217 Y11.028 E0.13052
G1 X-11.667 Y9.544 E0.15990
G1 X-14.417 Y4.318 E0.45509
G1 X-14.836 Y2.625 E0.13440
G1 X-14.836 Y-13.175 E1.21763
G1 X-14.441 Y-14.822 E0.13052
G1 X-13.343 Y-16.112 E0.13052
G1 X-11.200 Y-16.811 E0.17373
G1 X11.200 Y-16.811 E1.72627
G1 X12.847 Y-16.416 E0.13052
G1 X14.137 Y-15.318 E0.13052 F960.000
G1 X14.836 Y-13.175 E0.17373
G1 X14.836 Y2.625 E1.21763
G1 X14.417 Y4.318 E0.13440
G1 X11.667 Y9.544 E0.45509
G1 X10.551 Y10.818 E0.13052
G1 X8.586 Y11.484 E0.15990
G1 X7.597 Y11.518 E0.07625
G1 X0.060 Y11.518 E0.58087
G1 E-4.20000 F1500.00000
G1 Z1.300 F15000.000
G1 X-10.214 Y-2.229 F15000.000
G1 Z0.300 F15000.000
G1 E4.20000 F1500.00000
G1 X-10.214 Y-12.189 E0.76763 F720.000
G1 X-9.786 Y-12.189 E0.03304
G1 X-9.786 Y-1.949 E0.78915
G1 X9.786 Y-1.949 E1.50827 F720.000
G1 X9.786 Y-12.189 E0.78915
G1 X10.214 Y-12.189 E0.03304
G1 X10.214 Y1.639 E1.06572
G1 X-10.214 Y1.639 E1.57435
G1 X-10.214 Y-2.169 E0.29346
G1 X-10.850 Y-2.169 F15000.000
G1 X-10.850 Y-12.825 E0.82124 F720.000
G1 X-9.150 Y-12.825 E0.13101
G1 X-9.150 Y-2.585 E0.78915
G1 X9.150 Y-2.585 E1.41030 F720.000
G1 X9.150 Y-12.825 E0.78915
G1 X10.850 Y-12.825 E0.13101
G1 X10.850 Y2.275 E1.16369
G1 X8.050 Y2.275 E0.21578
G1 X8.050 Y5.651 E0.26018
G1 X8.100 Y5.651 E0.00385
G1 X8.100 Y7.514 E0.14355
G1 X7.595 Y7.533 E0.03897
G1 X6.900 Y7.517 E0.05355
G1 X6.900 Y2.275 E0.40400
G1 X-6.900 Y2.275 E1.06350
G1 X-6.900 Y7.517 E0.40400
G1 X-7.595 Y7.533 E0.05355
G1 X-8.100 Y7.514 E0.03897
G1 X-8.100 Y5.651 E0.14355
G1 X-8.050 Y5.651 E0.00385
G1 X-8.050 Y2.275 E0.26018
G1 X-10.850 Y2.275 E0.21578
G1 X-10.850 Y-2.109 E0.33782
G1 X-10.504 Y-2.369 F15000.000
G1 X-9.829 Y0.944 F15000.000
G1 X-9.519 Y1.254 E0.03419 F960.000
G1 X-8.609 Y1.254 E0.07110
G1 X-9.829 Y0.034 E0.13475
G1 X-9.829 Y-0.877 E0.07110
G1 X-7.698 Y1.254 E0.23530
G1 X-6.787 Y1.254 E0.07110
G1 X-9.605 Y-1.564 E0.31114
G1 X-8.694 Y-1.564 E0.07110
G1 X-5.877 Y1.254 E0.31114
G1 X-4.966 Y1.254 E0.07110
G1 X-7.784 Y-1.564 E0.31114
G1 X-6.873 Y-1.564 E0.07110
G1 X-4.055 Y1.254 E0.31114
G1 X-3.144 Y1.254 E0.07110
G1 X-5.962 Y-1.564 E0.31114
G1 X-5.052 Y-1.564 E0.07110
G1 X-2.234 Y1.254 E0.31114
G1 X-1.323 Y1.254 E0.07110
G1 X-4.141 Y-1.564 E0.31114
G1 X-3.230 Y-1.564 E0.07110
G1 X-0.412 Y1.254 E0.31114
G1 X0.498 Y1.254 E0.07110
G1 X-2.320 Y-1.564 E0.31114
G1 X-1.409 Y-1.564 E0.07110
G1 X1.409 Y1.254 E0.31114
G1 X2.320 Y1.254 E0.07110
G1 X-0.498 Y-1.564 E0.31114
G1 X0.412 Y-1.564 E0.07110
G1 X3.230 Y1.254 E0.31114
G1 X4.141 Y1.254 E0.07110
G1 X1.323 Y-1.564 E0.31114
G1 X2.234 Y-1.564 E0.07110
G1 X5.052 Y1.254 E0.31114
G1 X5.962 Y1.254 E0.07110
G1 X3.144 Y-1.564 E0.31114
G1 X4.055 Y-1.564 E0.07110
G1 X6.873 Y1.254 E0.31114
G1 X7.784 Y1.254 E0.07110
G1 X4.966 Y-1.564 E0.31114
G1 X5.877 Y-1.564 E0.07110
G1 X8.694 Y1.254 E0.31114
G1 X9.605 Y1.254 E0.07110
G1 X6.787 Y-1.564 E0.31114
G1 X7.698 Y-1.564 E0.07110
G1 X9.829 Y0.567 E0.23530
G1 X9.829 Y-0.344 E0.07110
G1 X8.609 Y-1.564 E0.13475
G1 X9.519 Y-1.564 E0.07110
G1 X9.829 Y-1.254 E0.03419
G1 X7.475 Y1.957 F15000.000
G1 X7.475 Y5.969 E0.64964 F960.000
G1 X7.500 Y6.129 E0.02628
G1 X7.500 Y7.213 E0.17545
G1 E-4.20000 F1500.00000
G1 Z1.300 F15000.000
G1 X-7.500 Y7.213 F15000.000
G1 Z0.300 F15000.000
G1 E4.20000 F1500.00000
G1 X-7.500 Y6.129 E0.17545 F960.000
G1 X-7.475 Y5.969 E0.02628
G1 X-7.475 Y1.957 E0.64964
G1 E-4.20000 F1500.00000
G1 Z1.300 F15000.000
G1 X9.357 Y-5.911 F15000.000
G1 Z0.500 F15000.000
G1 E4.20000 F1500.00000
G1 X9.357 Y-12.618 E0.19358 F2400.000
G1 X10.643 Y-12.618 E0.03711
G1 X10.643 Y2.068 E0.42387
G1 X7.843 Y2.068 E0.08082
G1 X7.843 Y4.948 E0.08312
G1 X7.893 Y4.948 E0.00144
G1 X7.893 Y8.072 E0.09017
G1 X7.893 Y8.219 E0.00745 F4800.000
G1 X7.732 Y8.223 E0.00819
G1 X7.107 Y8.210 E0.03173
G1 X7.107 Y8.072 E0.00700
G1 X7.107 Y2.068 E0.17330 F2400.000
G1 X-7.107 Y2.068 E0.41026
G1 X-7.107 Y8.072 E0.17330
G1 X-7.107 Y8.210 E0.00700 F4800.000
G1 X-7.732 Y8.223 E0.03173
G1 X-7.893 Y8.219 E0.00819
G1 X-7.893 Y8.072 E0.00745
G1 X-7.893 Y4.948 E0.09017 F2400.000
G1 X-7.843 Y4.948 E0.00144
G1 X-7.843 Y2.068 E0.08312
G1 X-10.643 Y2.068 E0.08082
G1 X-10.643 Y-12.618 E0.42387
G1 X-9.357 Y-12.618 E0.03711
G1 X-9.357 Y-2.378 E0.29555
G1 X9.357 Y-2.378 E0.54014
G1 X9.357 Y-5.851 E0.10024
G1 X9.000 Y-5.851 F15000.000
G1 X9.000 Y-12.975 E0.20562 F2400.000
G1 X11.000 Y-12.975 E0.05773
G1 X11.000 Y2.425 E0.44449
G1 X8.200 Y2.425 E0.08082
G1 X8.200 Y4.591 E0.06251
G1 X8.250 Y4.591 E0.00144
G1 X8.250 Y8.059 E0.10009
G1 X8.250 Y8.566 E0.02579 F4800.000
G1 X7.733 Y8.580 E0.02628
G1 X6.750 Y8.560 E0.04992
G1 X6.750 Y8.064 E0.02516
G1 X6.750 Y2.425 E0.16276 F2400.000
G1 X-6.750 Y2.425 E0.38965
G1 X-6.750 Y8.064 E0.16276
G1 X-6.750 Y8.560 E0.02516 F4800.000
G1 X-7.733 Y8.580 E0.04992
G1 X-8.250 Y8.566 E0.02628
G1 X-8.250 Y8.059 E0.02579
G1 X-8.250 Y4.591 E0.10009 F2400.000
G1 X-8.200 Y4.591 E0.00144
G1 X-8.200 Y2.425 E0.06251
G1 X-11.000 Y2.425 E0.08082
G1 X-11.000 Y-12.975 E0.44449
G1 X-9.000 Y-12.975 E0.05773
G1 X-9.000 Y-2.735 E0.29555
G1 X9.000 Y-2.735 E0.51953
G1 X9.000 Y-5.791 E0.08821
G1 X9.346 Y-6.051 F15000.000
G1 X10.435 Y-3.443 F15000.000
G1 X9.565 Y-2.572 E0.03596 F2400.000
G1 X9.565 Y-3.084 E0.01493
G1 X10.435 Y-3.954 E0.03596
G1 X10.435 Y-4.465 E0.01493
G1 X9.565 Y-3.595 E0.03596
G1 X9.565 Y-4.106 E0.01493
G1 X10.435 Y-4.976 E0.03596
G1 X10.435 Y-5.487 E0.01493
G1 X9.565 Y-4.617 E0.03596
G1 X9.565 Y-5.128 E0.01493
G1 X10.435 Y-5.998 E0.03596
G1 X10.435 Y-6.510 E0.01493
G1 X9.565 Y-5.639 E0.03596
G1 X9.565 Y-6.150 E0.01493
G1 X10.435 Y-7.021 E0.03596
G1 X10.435 Y-7.532 E0.01493
G1 X9.565 Y-6.662 E0.03596
G1 X9.565 Y-7.173 E0.01493
G1 X10.435 Y-8.043 E0.03596
G1 X10.435 Y-8.554 E0.01493
G1 X9.565 Y-7.684 E0.03596
G1 X9.565 Y-8.195 E0.01493
G1 X10.435 Y-9.065 E0.03596
G1 X10.435 Y-9.576 E0.01493
G1 X9.565 Y-8.706 E0.03596
G1 X9.565 Y-9.217 E0.01493
G1 X10.435 Y-10.088 E0.03596
G1 X10.435 Y-10.599 E0.01493
G1 X9.565 Y-9.728 E0.03596
G1 X9.565 Y-10.240 E0.01493
G1 X10.435 Y-11.110 E0.03596
G1 X10.435 Y-11.621 E0.01493
G1 X9.565 Y-10.751 E0.03596
G1 X9.565 Y-11.262 E0.01493
G1 X10.435 Y-12.132 E0.03596
G1 X10.202 Y-12.410 E0.01060
G1 X9.565 Y-11.773 E0.02633
G1 X10.244 Y1.860 F15000.000
G1 X10.435 Y1.669 E0.00791 F2400.000
G1 X10.435 Y1.158 E0.01493
G1 X9.733 Y1.860 E0.02903
G1 X9.221 Y1.860 E0.01493
G1 X10.435 Y0.646 E0.05015
G1 X10.435 Y0.135 E0.01493
G1 X8.710 Y1.860 E0.07127
G1 X8.199 Y1.860 E0.01493
G1 X10.435 Y-0.376 E0.09238
G1 X10.435 Y-0.887 E0.01493
G1 X7.866 Y1.682 E0.10613
G1 X7.355 Y1.682 E0.01493
G1 X10.435 Y-1.398 E0.12724
G1 X10.435 Y-1.909 E0.01493
G1 X6.666 Y1.860 E0.15574
G1 X6.155 Y1.860 E0.01493
G1 X10.435 Y-2.420 E0.17686
G1 X10.435 Y-2.932 E0.01493
G1 X5.643 Y1.860 E0.19798
G1 X5.132 Y1.860 E0.01493
G1 X9.163 Y-2.170 E0.16652
G1 X8.651 Y-2.170 E0.01493
G1 X4.621 Y1.860 E0.16652
G1 X4.110 Y1.860 E0.01493
G1 X8.140 Y-2.170 E0.16652
G1 X7.629 Y-2.170 E0.01493
G1 X3.599 Y1.860 E0.16652
G1 X3.088 Y1.860 E0.01493
G1 X7.118 Y-2.170 E0.16652
G1 X6.607 Y-2.170 E0.01493
G1 X2.577 Y1.860 E0.16652
G1 X2.065 Y1.860 E0.01493
G1 X6.096 Y-2.170 E0.16652
G1 X5.585 Y-2.170 E0.01493
G1 X1.554 Y1.860 E0.16652
G1 X1.043 Y1.860 E0.01493
G1 X5.073 Y-2.170 E0.16652
G1 X4.562 Y-2.170 E0.01493
G1 X0.532 Y1.860 E0.16652
G1 X0.021 Y1.860 E0.01493
G1 X4.051 Y-2.170 E0.16652
G1 X3.540 Y-2.170 E0.01493
G1 X-0.490 Y1.860 E0.16652
G1 X-1.001 Y1.860 E0.01493
G1 X3.029 Y-2.170 E0.16652
G1 X2.518 Y-2.170 E0.01493
G1 X-1.513 Y1.860 E0.16652
G1 X-2.024 Y1.860 E0.01493
G1 X2.007 Y-2.170 E0.16652
G1 X1.495 Y-2.170 E0.01493
G1 X-2.535 Y1.860 E0.16652
G1 X-3.046 Y1.860 E0.01493
G1 X0.984 Y-2.170 E0.16652
G1 X0.473 Y-2.170 E0.01493
G1 X-3.557 Y1.860 E0.16652
G1 X-4.068 Y1.860 E0.01493
G1 X-0.038 Y-2.170 E0.16652
G1 X-0.549 Y-2.170 E0.01493
G1 X-4.579 Y1.860 E0.16652
G1 X-5.091 Y1.860 E0.01493
G1 X-1.060 Y-2.170 E0.16652
G1 X-1.571 Y-2.170 E0.01493
G1 X-5.602 Y1.860 E0.16652
G1 X-6.113 Y1.860 E0.01493
G1 X-2.083 Y-2.170 E0.16652
G1 X-2.594 Y-2.170 E0.01493
G1 X-6.624 Y1.860 E0.16652
G1 X-6.957 Y1.682 E0.01103
G1 X-3.105 Y-2.170 E0.15914
G1 X-3.616 Y-2.170 E0.01493
G1 X-7.468 Y1.682 E0.15914
G1 X-7.979 Y1.682 E0.01493
G1 X-4.127 Y-2.170 E0.15914
G1 X-4.638 Y-2.170 E0.01493
G1 X-8.669 Y1.860 E0.16652
G1 X-9.180 Y1.860 E0.01493
G1 X-5.149 Y-2.170 E0.16652
G1 X-5.661 Y-2.170 E0.01493
G1 X-9.691 Y1.860 E0.16652
G1 X-10.202 Y1.860 E0.01493
G1 X-6.172 Y-2.170 E0.16652
G1 X-6.683 Y-2.170 E0.01493
G1 X-10.435 Y1.582 E0.15503
G1 X-10.435 Y1.071 E0.01493
G1 X-7.194 Y-2.170 E0.13391
G1 X-7.705 Y-2.170 E0.01493
G1 X-10.435 Y0.560 E0.11279
G1 X-10.435 Y0.049 E0.01493
G1 X-8.216 Y-2.170 E0.09167
G1 X-8.727 Y-2.170 E0.01493
G1 X-10.435 Y-0.462 E0.07056
G1 X-10.435 Y-0.974 E0.01493
G1 X-9.239 Y-2.170 E0.04944
G1 X-9.565 Y-2.355 F15000.000
G1 X-10.435 Y-1.485 E0.03596 F2400.000
G1 X-10.435 Y-1.996 E0.01493
G1 X-9.565 Y-2.866 E0.03596
G1 X-9.565 Y-3.377 E0.01493
G1 X-10.435 Y-2.507 E0.03596
G1 X-10.435 Y-3.018 E0.01493
G1 X-9.565 Y-3.888 E0.03596
G1 X-9.565 Y-4.400 E0.01493
G1 X-10.435 Y-3.529 E0.03596
G1 X-10.435 Y-4.040 E0.01493
G1 X-9.565 Y-4.911 E0.03596
G1 X-9.565 Y-5.422 E0.01493
G1 X-10.435 Y-4.552 E0.03596
G1 X-10.435 Y-5.063 E0.01493
G1 X-9.565 Y-5.933 E0.03596
G1 X-9.565 Y-6.444 E0.01493
G1 X-10.435 Y-5.574 E0.03596
G1 X-10.435 Y-6.085 E0.01493
G1 X-9.565 Y-6.955 E0.03596
G1 X-9.565 Y-7.467 E0.01493
G1 X-10.435 Y-6.596 E0.03596
G1 X-10.435 Y-7.107 E0.01493
G1 X-9.565 Y-7.978 E0.03596
G1 X-9.565 Y-8.489 E0.01493
G1 X-10.435 Y-7.618 E0.03596
G1 X-10.435 Y-8.130 E0.01493
G1 X-9.565 Y-9.000 E0.03596
G1 X-9.565 Y-9.511 E0.01493
G1 X-10.435 Y-8.641 E0.03596
G1 X-10.435 Y-9.152 E0.01493
G1 X-9.565 Y-10.022 E0.03596
G1 X-9.565 Y-10.533 E0.01493
G1 X-10.435 Y-9.663 E0.03596
G1 X-10.435 Y-10.174 E0.01493
G1 X-9.565 Y-11.045 E0.03596
G1 X-9.565 Y-11.556 E0.01493
G1 X-10.435 Y-10.685 E0.03596
G1 X-10.435 Y-11.196 E0.01493
G1 X-9.565 Y-12.067 E0.03596
G1 X-9.733 Y-12.410 E0.01116
G1 X-10.435 Y-11.708 E0.02903
G1 X-10.435 Y-12.219 E0.01493
G1 X-10.244 Y-12.410 E0.00791
G1 E-4.20000 F1500.00000
G1 Z1.500 F15000.000
G1 X7.475 Y1.889 F15000.000
G1 Z0.500 F15000.000
G1 E4.20000 F1500.00000
G1 X7.475 Y5.126 E0.19808 F2400.000
G1 X7.500 Y5.264 E0.00856
G1 X7.500 Y8.040 E0.16985
G1 E-4.20000 F1500.00000
G1 Z1.500 F15000.000
G1 X-7.500 Y8.040 F15000.000
G1 Z0.500 F15000.000
G1 E4.20000 F1500.00000
G1 X-7.500 Y5.264 E0.16985 F2400.000
G1 X-7.475 Y5.126 E0.00856
G1 X-7.475 Y1.889 E0.19808
G1 E-4.20000 F1500.00000
G1 Z1.500 F15000.000
G1 X10.643 Y0.761 F15000.000
G1 Z0.700 F15000.000
G1 E4.20000 F1500.00000
G1 X10.643 Y2.068 E0.03772 F2400.000
G1 X7.843 Y2.068 E0.08082
G1 X7.843 Y4.464 E0.06914
G1 X7.893 Y4.464 E0.00144
G1 X7.893 Y8.702 E0.12233
G1 X7.107 Y8.715 E0.02268
G1 X7.107 Y2.068 E0.19186
G1 X-7.107 Y2.068 E0.41026
G1 X-7.107 Y8.715 E0.19186
G1 X-7.893 Y8.702 E0.02268
G1 X-7.893 Y4.464 E0.12233
G1 X-7.843 Y4.464 E0.00144
G1 X-7.843 Y2.068 E0.06914
G1 X-10.643 Y2.068 E0.08082
G1 X-10.643 Y-12.618 E0.42387
G1 X-9.357 Y-12.618 E0.03711
G1 X-9.357 Y-2.378 E0.29555
G1 X9.357 Y-2.378 E0.54014 F2400.000
G1 X9.357 Y-12.618 E0.29555
G1 X10.643 Y-12.618 E0.03711
G1 X10.643 Y0.701 E0.38442
G1 X11.000 Y0.701 F15000.000
G1 X11.000 Y2.425 E0.04976 F2400.000
G1 X8.200 Y2.425 E0.08082
G1 X8.200 Y4.106 E0.04853
G1 X8.250 Y4.106 E0.00144
G1 X8.250 Y8.966 E0.14027
G1 X8.250 Y9.049 E0.00421 F4800.000
G1 X7.280 Y9.075 E0.04927
G1 X6.750 Y9.067 E0.02693
G1 X6.750 Y8.960 E0.00543
G1 X6.750 Y2.425 E0.18861 F2400.000
G1 X-6.750 Y2.425 E0.38965
G1 X-6.750 Y8.960 E0.18861
G1 X-6.750 Y9.067 E0.00543 F4800.000
G1 X-7.280 Y9.075 E0.02693
G1 X-8.250 Y9.049 E0.04927
G1 X-8.250 Y8.966 E0.00421
G1 X-8.250 Y4.106 E0.14027 F2400.000
G1 X-8.200 Y4.106 E0.00144
G1 X-8.200 Y2.425 E0.04853
G1 X-11.000 Y2.425 E0.08082
G1 X-11.000 Y-12.975 E0.44449
G1 X-9.000 Y-12.975 E0.05773
G1 X-9.000 Y-2.735 E0.29555
G1 X9.000 Y-2.735 E0.51953
G1 X9.000 Y-12.975 E0.29555
G1 X11.000 Y-12.975 E0.05773
G1 X11.000 Y0.641 E0.39299
G1 X10.654 Y0.901 F15000.000
G1 X7.475 Y1.889 F15000.000
G1 X7.475 Y4.642 E0.16845 F2400.000
G1 X7.500 Y4.780 E0.00856
G1 X7.500 Y8.534 E0.22972
G1 E-4.20000 F1500.00000
G1 Z1.700 F15000.000
G1 X-7.500 Y8.534 F15000.000
G1 Z0.700 F15000.000
G1 E4.20000 F1500.00000
G1 X-7.500 Y4.780 E0.22972 F2400.000
G1 X-7.475 Y4.642 E0.00856
G1 X-7.475 Y1.889 E0.16845
G1 X-10.435 Y1.123 F15000.000
G1 X-9.544 Y1.860 E0.03338 F2400.000
G1 X-6.898 Y1.682 E0.07656
G1 X-10.435 Y-1.856 E0.14440
G1 X-10.435 Y-3.402 E0.04462
G1 X-9.565 Y-2.681 E0.03262
G1 X-8.880 Y-2.170 F15000.000
G1 X-3.831 Y1.860 E0.18646 F2400.000
G1 X-1.669 Y1.860 E0.06241
G1 X-5.699 Y-2.170 E0.16451
G1 X-3.167 Y-2.170 E0.07309
G1 X1.882 Y1.860 E0.18646
G1 X3.381 Y1.860 E0.04327
G1 X-0.650 Y-2.170 E0.16451
G1 X2.546 Y-2.170 E0.09222
G1 X7.369 Y1.682 E0.17816
G1 X8.431 Y1.860 F15000.000
G1 X4.400 Y-2.170 E0.16451 F2400.000
G1 X8.259 Y-2.170 E0.11136
G1 X10.435 Y-0.415 E0.08071
G1 X10.435 Y-1.185 E0.02224
G1 X9.450 Y-2.170 E0.04021
G1 X10.435 Y-4.939 F15000.000
G1 X9.565 Y-5.660 E0.03262 F2400.000
G1 X10.435 Y-6.235 E0.03010
G1 X9.565 Y-7.105 E0.03552
G1 X10.435 Y-9.464 E0.07257
G1 X9.565 Y-10.185 E0.03262
G1 X9.565 Y-12.155 E0.05687
G1 X10.435 Y-11.285 E0.03552
G1 E-4.20000 F1500.00000
G1 Z1.700 F15000.000
G1 X-9.565 Y-11.730 F15000.000
G1 Z0.700 F15000.000
G1 E4.20000 F1500.00000
G1 X-10.383 Y-12.410 E0.03070 F2400.000
G1 X-10.435 Y-11.956 E0.01320
G1 X-9.565 Y-11.085 E0.03552
G1 X-10.435 Y-7.927 E0.09457
G1 X-9.565 Y-7.206 E0.03262
G1 X-10.435 Y-6.906 E0.02657
G1 X-9.565 Y-6.036 E0.03552
M106 S255
G1 E-4.20000 F1500.00000
G1 Z1.700 F15000.000
G1 X10.643 Y-2.331 F15000.000
G1 Z0.900 F15000.000
G1 E4.20000 F1500.00000
G1 X10.643 Y2.068 E0.12698 F2400.000
G1 X7.843 Y2.068 E0.08082
G1 X7.843 Y4.041 E0.05695
G1 X7.893 Y4.041 E0.00144
G1 X7.893 Y9.121 E0.14661
G1 X7.107 Y9.114 E0.02268
G1 X7.107 Y2.068 E0.20338
G1 X-7.107 Y2.068 E0.41026
G1 X-7.107 Y9.114 E0.20338
G1 X-7.707 Y9.124 E0.01732
G1 X-7.893 Y9.121 E0.00536
G1 X-7.893 Y4.041 E0.14661
G1 X-7.843 Y4.041 E0.00144
G1 X-7.843 Y2.068 E0.05695
G1 X-10.643 Y2.068 E0.08082
G1 X-10.643 Y-12.618 E0.42387
G1 X-9.357 Y-12.618 E0.03711
G1 X-9.357 Y-2.378 E0.29555
G1 X9.357 Y-2.378 E0.54014 F2400.000
G1 X9.357 Y-12.618 E0.29555
G1 X10.643 Y-12.618 E0.03711
G1 X10.643 Y-2.391 E0.29516
G1 X11.000 Y-2.391 F15000.000
G1 X11.000 Y2.425 E0.13902 F2400.000
G1 X8.200 Y2.425 E0.08082
G1 X8.200 Y3.684 E0.03634
G1 X8.250 Y3.684 E0.00144
G1 X8.250 Y9.450 E0.16641
M106 S255
G1 X8.250 Y9.471 E0.00110 F4800.000
G1 X7.306 Y9.475 E0.04796
M106 S255
G1 X6.750 Y9.466 E0.01604 F2400.000
G1 X6.750 Y2.425 E0.20321
G1 X-6.750 Y2.425 E0.38965
G1 X-6.750 Y9.466 E0.20321
G1 X-7.306 Y9.475 E0.01604
M106 S255
G1 X-8.250 Y9.471 E0.04796 F4800.000
G1 X-8.250 Y9.450 E0.00110
M106 S255
G1 X-8.250 Y3.684 E0.16641 F2400.000
G1 X-8.200 Y3.684 E0.00144
G1 X-8.200 Y2.425 E0.03634
G1 X-11.000 Y2.425 E0.08082
G1 X-11.000 Y-12.975 E0.44449
G1 X-9.000 Y-12.975 E0.05773
G1 X-9.000 Y-2.735 E0.29555
G1 X9.000 Y-2.735 E0.51953
G1 X9.000 Y-12.975 E0.29555
G1 X11.000 Y-12.975 E0.05773
G1 X11.000 Y-2.451 E0.30374
G1 X10.654 Y-2.191 F15000.000
G1 X10.435 Y-3.865 F15000.000
G1 X9.565 Y-2.994 E0.03552 F2400.000
G1 X10.435 Y-2.177 E0.03447
G1 X7.348 Y1.682 E0.14263
G1 X10.435 Y1.185 E0.09026
G1 X9.760 Y1.860 E0.02755
G1 X8.741 Y-2.170 F15000.000
G1 X4.710 Y1.860 E0.16451 F2400.000
G1 X2.682 Y1.860 E0.05855
G1 X5.905 Y-2.170 E0.14896
G1 X3.691 Y-2.170 E0.06392
G1 X-0.340 Y1.860 E0.16451
G1 X-1.843 Y1.860 E0.04340
