; generated by Slic3r 1.2.9 on 2020-09-08 at 12:21:07

; external perimeters extrusion width = 0.40mm
; perimeters extrusion width = 0.40mm
; infill extrusion width = 0.40mm
; solid infill extrusion width = 0.40mm
; top infill extrusion width = 0.40mm

M107
M83
T0
M116
G21 ; set units to millimeters
G90 ; use absolute coordinates
M83 ; use relative distances for extrusion
G1 E-4.20000 F1500.00000
G1 Z1.000 F15000.000
G1 X0.000 Y8.586 F15000.000
G1 Z0.300 F15000.000
G1 E4.20000 F1500.00000
G1 X-18.950 Y8.586 E1.46039 F960.000
G1 X-20.597 Y8.191 E0.13052
G1 X-21.887 Y7.093 E0.13052
G1 X-22.586 Y4.950 E0.17373
G1 X-22.586 Y-4.950 E0.76295
G1 X-22.191 Y-6.597 E0.13052
G1 X-21.093 Y-7.887 E0.13052
G1 X-18.950 Y-8.586 E0.17373
G1 X18.950 Y-8.586 E2.92078
G1 X20.597 Y-8.191 E0.13052
G1 X21.887 Y-7.093 E0.13052 F960.000
G1 X22.586 Y-4.950 E0.17373
G1 X22.586 Y4.950 E0.76295
G1 X22.191 Y6.597 E0.13052
G1 X21.093 Y7.887 E0.13052
G1 X18.950 Y8.586 E0.17373
G1 X0.060 Y8.586 E1.45577
G1 E-4.20000 F1500.00000
G1 Z1.300 F15000.000
G1 X11.755 Y1.414 F15000.000
G1 Z0.300 F15000.000
G1 E4.20000 F1500.00000
G1 X11.495 Y0.728 E0.05654 F600.000
G1 X11.407 Y-0.000 E0.05654
G1 X11.495 Y-0.728 E0.05654
G1 X11.755 Y-1.414 E0.05654
G1 X12.175 Y-2.022 E0.05693
G1 X12.745 Y-2.517 E0.05820
G1 X13.371 Y-2.845 E0.05444
G1 X14.083 Y-3.021 E0.05654
G1 X14.817 Y-3.021 E0.05654 F600.000
G1 X15.529 Y-2.845 E0.05654
G1 X16.179 Y-2.505 E0.05654
G1 X16.728 Y-2.018 E0.05654
G1 X17.145 Y-1.414 E0.05654
G1 X17.405 Y-0.728 E0.05654
G1 X17.493 Y-0.000 E0.05654
G1 X17.404 Y0.733 E0.05693
G1 X17.129 Y1.437 E0.05820
G1 X16.728 Y2.018 E0.05444
G1 X16.179 Y2.505 E0.05654
G1 X15.529 Y2.845 E0.05654
G1 X14.817 Y3.021 E0.05654
G1 X14.083 Y3.021 E0.05654
G1 X13.366 Y2.844 E0.05693
G1 X12.701 Y2.486 E0.05820
G1 X12.172 Y2.018 E0.05444
G1 X11.789 Y1.464 E0.05191
G1 X12.322 Y1.117 F15000.000
G1 X12.117 Y0.575 E0.04464 F600.000
G1 X12.047 Y-0.000 E0.04464
G1 X12.117 Y-0.575 E0.04464
G1 X12.322 Y-1.117 E0.04464
G1 X12.652 Y-1.595 E0.04478
G1 X13.106 Y-1.989 E0.04630
G1 X13.598 Y-2.247 E0.04280
G1 X14.160 Y-2.385 E0.04464
G1 X14.740 Y-2.385 E0.04464 F600.000
G1 X15.302 Y-2.247 E0.04464
G1 X15.815 Y-1.978 E0.04464
G1 X16.249 Y-1.593 E0.04464
G1 X16.578 Y-1.117 E0.04464
G1 X16.783 Y-0.575 E0.04464
G1 X16.853 Y-0.000 E0.04464
G1 X16.783 Y0.577 E0.04478
G1 X16.564 Y1.136 E0.04630
G1 X16.249 Y1.593 E0.04280
G1 X15.815 Y1.978 E0.04464
G1 X15.302 Y2.247 E0.04464
G1 X14.740 Y2.385 E0.04464
G1 X14.160 Y2.385 E0.04464
G1 X13.596 Y2.246 E0.04478
G1 X13.067 Y1.962 E0.04630
G1 X12.651 Y1.593 E0.04280
G1 X12.356 Y1.166 E0.04002
G1 X11.924 Y1.085 F15000.000
G1 X-10.407 Y-0.000 F15000.000
G1 X-10.495 Y0.728 E0.05654 F600.000
G1 X-10.755 Y1.414 E0.05654
G1 X-11.172 Y2.018 E0.05654
G1 X-11.721 Y2.505 E0.05654
G1 X-12.371 Y2.845 E0.05654
G1 X-13.083 Y3.021 E0.05654
G1 X-13.817 Y3.021 E0.05654
G1 X-14.534 Y2.844 E0.05693
G1 X-15.199 Y2.486 E0.05820
G1 X-15.728 Y2.018 E0.05444
G1 X-16.145 Y1.414 E0.05654
G1 X-16.405 Y0.728 E0.05654
G1 X-16.493 Y0.000 E0.05654
G1 X-16.405 Y-0.728 E0.05654
G1 X-16.145 Y-1.414 E0.05654
G1 X-15.728 Y-2.018 E0.05654
G1 X-15.179 Y-2.505 E0.05654
G1 X-14.529 Y-2.845 E0.05654
G1 X-13.835 Y-3.016 E0.05507
G1 X-13.835 Y-3.614 E0.04605 F600.000
G1 X-11.721 Y-2.505 E0.18399
G1 X-11.172 Y-2.018 E0.05654
G1 X-10.755 Y-1.414 E0.05654
G1 X-10.495 Y-0.728 E0.05654
G1 X-10.414 Y-0.060 E0.05191
G1 X-11.047 Y-0.000 F15000.000
G1 X-11.117 Y0.575 E0.04464 F600.000
G1 X-11.322 Y1.117 E0.04464
G1 X-11.651 Y1.593 E0.04464
G1 X-12.085 Y1.978 E0.04464
G1 X-12.598 Y2.247 E0.04464
G1 X-13.160 Y2.385 E0.04464
G1 X-13.740 Y2.385 E0.04464
G1 X-14.304 Y2.246 E0.04478
G1 X-14.833 Y1.962 E0.04630
G1 X-15.249 Y1.593 E0.04280
G1 X-15.578 Y1.117 E0.04464
G1 X-15.783 Y0.575 E0.04464
G1 X-15.853 Y0.000 E0.04464
G1 X-15.783 Y-0.575 E0.04464
G1 X-15.578 Y-1.117 E0.04464
G1 X-15.249 Y-1.593 E0.04464
G1 X-14.815 Y-1.978 E0.04464
G1 X-14.302 Y-2.247 E0.04464
G1 X-13.740 Y-2.385 E0.04464
G1 X-13.200 Y-2.385 E0.04161
G1 X-13.200 Y-2.563 E0.01366 F600.000
G1 X-12.085 Y-1.978 E0.09702
G1 X-11.651 Y-1.593 E0.04464
G1 X-11.322 Y-1.117 E0.04464
G1 X-11.117 Y-0.575 E0.04464
G1 X-11.054 Y-0.060 E0.04002
G1 X-10.709 Y0.214 F15000.000
G1 X15.110 Y-3.964 F15000.000
G1 X17.964 Y-3.964 E0.21997 F720.000
G1 X17.964 Y3.964 E0.61103
G1 X-17.964 Y3.964 E2.76887 F720.000
G1 X-17.964 Y-3.964 E0.61103
G1 X15.050 Y-3.964 E2.54428
G1 X15.050 Y-4.600 F15000.000
G1 X18.600 Y-4.600 E0.27358 F720.000
G1 X18.600 Y4.600 E0.70900
G1 X-18.600 Y4.600 E2.86684 F720.000
G1 X-18.600 Y-4.600 E0.70900
G1 X14.990 Y-4.600 E2.58864
G1 X15.250 Y-4.254 F15000.000
G1 X16.234 Y-2.855 F15000.000
G1 X15.688 Y-3.232 E0.05113 F960.000
G1 X15.291 Y-3.442 E0.03462
G1 X14.855 Y-3.493 E0.03382
G1 X14.045 Y-3.493 E0.06249
G1 X13.637 Y-3.445 E0.03162
G1 X13.215 Y-3.225 E0.03668
G1 X12.698 Y-2.872 E0.04826
G1 X12.076 Y-3.275 F15000.000
G1 X11.772 Y-3.579 E0.03318 F960.000
G1 X10.872 Y-3.579 E0.06943
G1 X12.077 Y-2.374 E0.13144
G1 X11.672 Y-1.879 E0.04934
G1 X9.973 Y-3.579 E0.18544
G1 X9.073 Y-3.579 E0.06943
G1 X11.344 Y-1.307 E0.24786
G1 X11.112 Y-0.640 E0.05451
G1 X8.173 Y-3.579 E0.32065
G1 X7.273 Y-3.579 E0.06943
G1 X11.022 Y0.170 E0.40904
G1 X11.232 Y1.280 E0.08713
G1 X6.373 Y-3.579 E0.53011
G1 X5.473 Y-3.579 E0.06943
G1 X12.100 Y3.048 E0.72303
G1 X11.731 Y3.579 E0.04989
G1 X4.573 Y-3.579 E0.78098
G1 X3.673 Y-3.579 E0.06943
G1 X10.831 Y3.579 E0.78098
G1 X9.931 Y3.579 E0.06943
G1 X2.773 Y-3.579 E0.78098
G1 X1.873 Y-3.579 E0.06943
G1 X9.031 Y3.579 E0.78098
G1 X8.132 Y3.579 E0.06943
G1 X0.974 Y-3.579 E0.78098
G1 X0.074 Y-3.579 E0.06943
G1 X7.232 Y3.579 E0.78098
G1 X6.332 Y3.579 E0.06943
G1 X-0.826 Y-3.579 E0.78098
G1 X-1.726 Y-3.579 E0.06943
G1 X5.432 Y3.579 E0.78098
G1 X4.532 Y3.579 E0.06943
G1 X-2.626 Y-3.579 E0.78098
G1 X-3.526 Y-3.579 E0.06943
G1 X3.632 Y3.579 E0.78098
G1 X2.732 Y3.579 E0.06943
G1 X-4.426 Y-3.579 E0.78098
G1 X-5.326 Y-3.579 E0.06943
G1 X1.832 Y3.579 E0.78098
G1 X0.932 Y3.579 E0.06943
G1 X-6.226 Y-3.579 E0.78098
G1 X-7.125 Y-3.579 E0.06943
G1 X0.032 Y3.579 E0.78098
G1 X-0.867 Y3.579 E0.06943
G1 X-8.025 Y-3.579 E0.78098
G1 X-8.925 Y-3.579 E0.06943
G1 X-1.767 Y3.579 E0.78098
G1 X-2.667 Y3.579 E0.06943
G1 X-9.825 Y-3.579 E0.78098
G1 X-10.725 Y-3.579 E0.06943
G1 X-3.567 Y3.579 E0.78098
G1 X-4.467 Y3.579 E0.06943
G1 X-11.625 Y-3.579 E0.78098
G1 X-10.235 Y-1.290 F15000.000
G1 X-5.367 Y3.579 E0.53119 F960.000
G1 X-6.267 Y3.579 E0.06943
G1 X-10.023 Y-0.177 E0.40979
G1 X-10.111 Y0.635 E0.06298
G1 X-7.167 Y3.579 E0.32125
G1 X-8.067 Y3.579 E0.06943
G1 X-10.343 Y1.303 E0.24834
G1 X-10.670 Y1.876 E0.05089
G1 X-8.966 Y3.579 E0.18583
G1 X-9.866 Y3.579 E0.06943
G1 X-11.074 Y2.372 E0.13173
G1 X-11.070 Y3.275 E0.06969
G1 X-10.766 Y3.579 E0.03317
G1 X-11.666 Y2.855 F15000.000
G1 X-12.212 Y3.232 E0.05113 F960.000
G1 X-12.609 Y3.442 E0.03462
G1 X-13.045 Y3.493 E0.03382
G1 X-13.855 Y3.493 E0.06249
G1 X-14.291 Y3.442 E0.03382
G1 X-14.695 Y3.228 E0.03521
G1 X-15.250 Y2.841 E0.05217
G1 X-17.269 Y3.579 F15000.000
G1 X-17.579 Y3.269 E0.03692 F960.000
G1 X-17.579 Y2.286 E0.08290
G1 X-16.286 Y3.579 E0.15416
G1 X-15.814 Y3.068 E0.05867
G1 X-17.579 Y1.303 E0.21043
G1 X-16.699 Y1.199 E0.07471
G1 X-17.579 Y0.319 E0.10493
G1 X-16.871 Y0.044 E0.06402
G1 X-17.579 Y-0.664 E0.08436
G1 X-17.579 Y-1.647 E0.08290
G1 X-16.744 Y-0.812 E0.09961
G1 X-16.473 Y-1.525 E0.06427
G1 X-17.579 Y-2.631 E0.13189
G1 X-17.541 Y-3.577 E0.07980
G1 X-16.071 Y-2.106 E0.17528
G1 X-15.575 Y-2.594 E0.05862
G1 X-16.560 Y-3.579 E0.11744
G1 X-15.577 Y-3.579 E0.08290
G1 X-14.986 Y-2.988 E0.07049
G1 X-14.594 Y-3.579 E0.05981
G1 X-14.288 Y-3.273 E0.03651
G1 X12.650 Y2.841 F15000.000
G1 X13.205 Y3.228 E0.05217 F960.000
G1 X13.609 Y3.442 E0.03520
G1 X14.045 Y3.493 E0.03382
G1 X14.855 Y3.493 E0.06249
G1 X15.291 Y3.442 E0.03382
G1 X15.688 Y3.232 E0.03462
G1 X16.234 Y2.855 E0.05113
G1 X16.830 Y3.275 F15000.000
G1 X17.134 Y3.579 E0.03519 F960.000
G1 X17.579 Y3.070 E0.05535
G1 X16.855 Y2.346 E0.08375
G1 X17.289 Y1.826 E0.05545
G1 X17.579 Y2.115 E0.03352
G1 X17.559 Y-1.826 F15000.000
G1 X17.211 Y-2.174 E0.06178 F960.000
G1 X17.269 Y-3.579 E0.17650
G1 X17.579 Y-3.269 E0.05496
G1 E-4.20000 F1500.00000
G1 Z1.300 F15000.000
G1 X-10.838 Y-0.000 F15000.000
G1 Z0.500 F15000.000
G1 E4.20000 F1500.00000
G1 X-10.914 Y0.625 E0.01817 F2400.000
G1 X-11.138 Y1.214 E0.01817
G1 X-11.495 Y1.732 E0.01817
G1 X-11.966 Y2.149 E0.01817
G1 X-12.524 Y2.442 E0.01817
G1 X-13.141 Y2.594 E0.01835
G1 X-13.818 Y2.579 E0.01955
G1 X-14.376 Y2.442 E0.01658
G1 X-14.934 Y2.149 E0.01817
G1 X-15.405 Y1.732 E0.01817
G1 X-15.766 Y1.209 E0.01835
G1 X-15.992 Y0.570 E0.01955
G1 X-16.062 Y-0.000 E0.01658
G1 X-15.986 Y-0.625 E0.01817
G1 X-15.762 Y-1.214 E0.01817
G1 X-15.405 Y-1.732 E0.01817
G1 X-14.934 Y-2.149 E0.01817
G1 X-14.376 Y-2.442 E0.01817
G1 X-13.765 Y-2.592 E0.01817
G1 X-13.135 Y-2.592 E0.01817 F2400.000
G1 X-12.524 Y-2.442 E0.01817
G1 X-11.966 Y-2.149 E0.01817
G1 X-11.495 Y-1.732 E0.01817
G1 X-11.138 Y-1.214 E0.01817
G1 X-10.914 Y-0.625 E0.01817
G1 X-10.846 Y-0.060 E0.01644
G1 X-11.200 Y-0.017 F15000.000
G1 X-11.264 Y0.539 E0.01614 F2400.000
G1 X-11.456 Y1.046 E0.01567
G1 X-11.764 Y1.493 E0.01567
G1 X-12.171 Y1.853 E0.01567
G1 X-12.651 Y2.106 E0.01567
G1 X-13.181 Y2.236 E0.01573
G1 X-13.771 Y2.223 E0.01704
G1 X-14.249 Y2.106 E0.01419
G1 X-14.729 Y1.853 E0.01567
G1 X-15.136 Y1.493 E0.01567
G1 X-15.445 Y1.045 E0.01573
G1 X-15.643 Y0.488 E0.01704
G1 X-15.702 Y-0.000 E0.01419
G1 X-15.636 Y-0.539 E0.01567
G1 X-15.444 Y-1.046 E0.01567
G1 X-15.136 Y-1.493 E0.01567
G1 X-14.729 Y-1.853 E0.01567
G1 X-14.249 Y-2.106 E0.01567
G1 X-13.721 Y-2.235 E0.01567
G1 X-13.179 Y-2.235 E0.01567 F2400.000
G1 X-12.651 Y-2.106 E0.01567
G1 X-12.171 Y-1.853 E0.01567
G1 X-11.764 Y-1.493 E0.01567
G1 X-11.456 Y-1.046 E0.01567
G1 X-11.264 Y-0.539 E0.01567
G1 X-11.207 Y-0.076 E0.01346
G1 X-10.861 Y0.196 F15000.000
G1 X11.838 Y0.000 F15000.000
G1 X11.914 Y-0.625 E0.01817 F2400.000
G1 X12.138 Y-1.214 E0.01817
G1 X12.495 Y-1.732 E0.01817
G1 X12.966 Y-2.149 E0.01817
G1 X13.524 Y-2.442 E0.01817
G1 X14.135 Y-2.592 E0.01817
G1 X14.765 Y-2.592 E0.01817 F2400.000
G1 X15.376 Y-2.442 E0.01817
G1 X15.934 Y-2.149 E0.01817
G1 X16.405 Y-1.732 E0.01817
G1 X16.762 Y-1.214 E0.01817
G1 X16.986 Y-0.625 E0.01817
G1 X17.062 Y-0.000 E0.01817
G1 X16.985 Y0.631 E0.01835
G1 X16.731 Y1.259 E0.01955
G1 X16.405 Y1.732 E0.01658
G1 X15.934 Y2.149 E0.01817
G1 X15.376 Y2.442 E0.01817
G1 X14.765 Y2.592 E0.01817
G1 X14.135 Y2.592 E0.01817
G1 X13.518 Y2.440 E0.01835
G1 X12.925 Y2.113 E0.01955
G1 X12.495 Y1.732 E0.01658
G1 X12.138 Y1.214 E0.01817
G1 X11.914 Y0.625 E0.01817
G1 X11.846 Y0.060 E0.01644
G1 X12.200 Y0.017 F15000.000
G1 X12.264 Y-0.539 E0.01614 F2400.000
G1 X12.456 Y-1.046 E0.01567
G1 X12.764 Y-1.493 E0.01567
G1 X13.171 Y-1.853 E0.01567
G1 X13.651 Y-2.106 E0.01567
G1 X14.179 Y-2.235 E0.01567
G1 X14.721 Y-2.235 E0.01567 F2400.000
G1 X15.249 Y-2.106 E0.01567
G1 X15.729 Y-1.853 E0.01567
G1 X16.136 Y-1.493 E0.01567
G1 X16.444 Y-1.046 E0.01567
G1 X16.636 Y-0.539 E0.01567
G1 X16.702 Y-0.000 E0.01567
G1 X16.636 Y0.541 E0.01573
G1 X16.415 Y1.089 E0.01704
G1 X16.136 Y1.493 E0.01419
G1 X15.729 Y1.853 E0.01567
G1 X15.249 Y2.105 E0.01567
G1 X14.721 Y2.235 E0.01567
G1 X14.179 Y2.235 E0.01567
G1 X13.649 Y2.105 E0.01573
G1 X13.133 Y1.819 E0.01704
G1 X12.764 Y1.493 E0.01419
G1 X12.456 Y1.046 E0.01567
G1 X12.264 Y0.539 E0.01567
G1 X12.207 Y0.076 E0.01346
G1 X11.861 Y-0.196 F15000.000
G1 E-4.20000 F1500.00000
G1 Z1.500 F15000.000
G1 X18.393 Y-3.597 F15000.000
G1 Z0.500 F15000.000
G1 E4.20000 F1500.00000
G1 X18.393 Y4.393 E0.23060 F2400.000
G1 X-18.393 Y4.393 E1.06174 F2400.000
G1 X-18.393 Y-4.393 E0.25358
G1 X18.393 Y-4.393 E1.06174
G1 X18.393 Y-3.657 E0.02125
G1 X18.750 Y-3.657 F15000.000
G1 X18.750 Y4.750 E0.24264 F2400.000
G1 X-18.750 Y4.750 E1.08235 F2400.000
G1 X-18.750 Y-4.750 E0.27420
G1 X18.750 Y-4.750 E1.08235
G1 X18.750 Y-3.717 E0.02983
G1 X18.404 Y-3.457 F15000.000
G1 X17.094 Y1.006 F15000.000
G1 X18.185 Y-0.085 E0.04497 F2400.000
G1 X18.185 Y-0.595 E0.01486
G1 X17.238 Y0.352 E0.03904
G1 X17.242 Y-0.162 E0.01500
G1 X18.185 Y-1.105 E0.03885
G1 X18.185 Y-1.615 E0.01486
G1 X17.187 Y-0.617 E0.04113
G1 X17.047 Y-0.987 E0.01152
G1 X18.185 Y-2.125 E0.04690
G1 X18.185 Y-2.634 E0.01486
G1 X16.891 Y-1.341 E0.05333
G1 X16.683 Y-1.642 E0.01068
G1 X18.185 Y-3.144 E0.06191
G1 X18.185 Y-3.654 E0.01486
G1 X16.455 Y-1.924 E0.07132
G1 X16.184 Y-2.163 E0.01053
G1 X18.176 Y-4.155 E0.08208
G1 X17.696 Y-4.185 E0.01400
G1 X15.889 Y-2.377 E0.07450
G1 X15.554 Y-2.553 E0.01100
G1 X17.187 Y-4.185 E0.06727
G1 X16.677 Y-4.185 E0.01486
G1 X15.179 Y-2.688 E0.06171
G1 X14.770 Y-2.789 E0.01228
G1 X16.167 Y-4.185 E0.05755
G1 X15.657 Y-4.185 E0.01486
G1 X14.272 Y-2.800 E0.05708
G1 X13.676 Y-2.714 E0.01754
G1 X15.147 Y-4.185 E0.06062
G1 X14.637 Y-4.185 E0.01486
G1 X12.796 Y-2.344 E0.07588
G1 X12.153 Y-1.701 F15000.000
G1 X6.267 Y4.185 E0.24257 F2400.000
G1 X5.757 Y4.185 E0.01486
G1 X14.127 Y-4.185 E0.34496
G1 X13.618 Y-4.185 E0.01486
G1 X5.247 Y4.185 E0.34496
G1 X4.737 Y4.185 E0.01486
G1 X13.108 Y-4.185 E0.34496
G1 X12.598 Y-4.185 E0.01486
G1 X4.227 Y4.185 E0.34496
G1 X3.718 Y4.185 E0.01486
G1 X12.088 Y-4.185 E0.34496
G1 X11.578 Y-4.185 E0.01486
G1 X3.208 Y4.185 E0.34496
G1 X2.698 Y4.185 E0.01486
G1 X11.068 Y-4.185 E0.34496
G1 X10.558 Y-4.185 E0.01486
G1 X2.188 Y4.185 E0.34496
G1 X1.678 Y4.185 E0.01486
G1 X10.049 Y-4.185 E0.34496
G1 X9.539 Y-4.185 E0.01486
G1 X1.168 Y4.185 E0.34496
G1 X0.658 Y4.185 E0.01486
G1 X9.029 Y-4.185 E0.34496
G1 X8.519 Y-4.185 E0.01486
G1 X0.149 Y4.185 E0.34496
G1 X-0.361 Y4.185 E0.01486
G1 X8.009 Y-4.185 E0.34496
G1 X7.499 Y-4.185 E0.01486
G1 X-0.871 Y4.185 E0.34496
G1 X-1.381 Y4.185 E0.01486
G1 X6.989 Y-4.185 E0.34496
G1 X6.479 Y-4.185 E0.01486
G1 X-1.891 Y4.185 E0.34496
G1 X-2.401 Y4.185 E0.01486
G1 X5.970 Y-4.185 E0.34496
G1 X5.460 Y-4.185 E0.01486
G1 X-2.911 Y4.185 E0.34496
G1 X-3.420 Y4.185 E0.01486
G1 X4.950 Y-4.185 E0.34496
G1 X4.440 Y-4.185 E0.01486
G1 X-3.930 Y4.185 E0.34496
G1 X-4.440 Y4.185 E0.01486
G1 X3.930 Y-4.185 E0.34496
G1 X3.420 Y-4.185 E0.01486
G1 X-4.950 Y4.185 E0.34496
G1 X-5.460 Y4.185 E0.01486
G1 X2.910 Y-4.185 E0.34496
G1 X2.401 Y-4.185 E0.01486
G1 X-5.970 Y4.185 E0.34496
G1 X-6.480 Y4.185 E0.01486
G1 X1.891 Y-4.185 E0.34496
G1 X1.381 Y-4.185 E0.01486
G1 X-6.989 Y4.185 E0.34496
G1 X-7.499 Y4.185 E0.01486
G1 X0.871 Y-4.185 E0.34496
G1 X0.361 Y-4.185 E0.01486
G1 X-8.009 Y4.185 E0.34496
G1 X-8.519 Y4.185 E0.01486
G1 X-0.149 Y-4.185 E0.34496
G1 X-0.659 Y-4.185 E0.01486
G1 X-9.029 Y4.185 E0.34496
G1 X-9.539 Y4.185 E0.01486
G1 X-1.168 Y-4.185 E0.34496
G1 X-1.678 Y-4.185 E0.01486
G1 X-10.049 Y4.185 E0.34496
G1 X-10.558 Y4.185 E0.01486
G1 X-2.188 Y-4.185 E0.34496
G1 X-2.698 Y-4.185 E0.01486
G1 X-11.068 Y4.185 E0.34496
G1 X-11.578 Y4.185 E0.01486
G1 X-3.208 Y-4.185 E0.34496
G1 X-3.718 Y-4.185 E0.01486
G1 X-12.088 Y4.185 E0.34496
G1 X-12.598 Y4.185 E0.01486
G1 X-4.228 Y-4.185 E0.34496
G1 X-4.737 Y-4.185 E0.01486
G1 X-13.108 Y4.185 E0.34496
G1 X-13.618 Y4.185 E0.01486
G1 X-11.755 Y2.322 E0.07677
G1 X-11.197 Y1.764 F15000.000
G1 X-5.247 Y-4.185 E0.24518 F2400.000
G1 X-5.757 Y-4.185 E0.01486
G1 X-10.714 Y0.771 E0.20427
G1 X-10.643 Y0.190 E0.01706
G1 X-6.267 Y-4.185 E0.18033
G1 X-6.777 Y-4.185 E0.01486
G1 X-10.673 Y-0.289 E0.16056
G1 X-10.752 Y-0.720 E0.01277
G1 X-7.287 Y-4.185 E0.14280
G1 X-7.797 Y-4.185 E0.01486
G1 X-10.892 Y-1.090 E0.12757
G1 X-11.067 Y-1.425 E0.01101
G1 X-8.306 Y-4.185 E0.11376
G1 X-8.816 Y-4.185 E0.01486
G1 X-11.275 Y-1.726 E0.10133
G1 X-11.521 Y-1.990 E0.01051
G1 X-9.326 Y-4.185 E0.09045
G1 X-9.836 Y-4.185 E0.01486
G1 X-11.791 Y-2.230 E0.08058
G1 X-12.105 Y-2.426 E0.01078
G1 X-10.346 Y-4.185 E0.07248
G1 X-10.856 Y-4.185 E0.01486
G1 X-12.439 Y-2.602 E0.06525
G1 X-12.835 Y-2.716 E0.01200
G1 X-11.366 Y-4.185 E0.06055
G1 X-11.875 Y-4.185 E0.01486
G1 X-13.260 Y-2.800 E0.05708
G1 X-13.770 Y-2.800 E0.01486
G1 X-12.385 Y-4.185 E0.05708
G1 X-12.895 Y-4.185 E0.01486
G1 X-14.413 Y-2.668 E0.06254
G1 X-14.425 Y-4.185 F15000.000
G1 X-18.185 Y-0.425 E0.15497 F2400.000
