; generated by Slic3r 1.2.9 on 2020-09-03 at 15:05:11

; external perimeters extrusion width = 0.40mm
; perimeters extrusion width = 0.40mm
; infill extrusion width = 0.40mm
; solid infill extrusion width = 0.40mm
; top infill extrusion width = 0.40mm

M107
M83
T0
M116
G21 ; set units to millimeters
G90 ; use absolute coordinates
M83 ; use relative distances for extrusion
G1 E-4.20000 F1500.00000
G1 Z1.000 F15000.000
G1 X0.000 Y-3.536 F15000.000
G1 Z0.300 F15000.000
G1 E4.20000 F1500.00000
G1 X11.200 Y-3.536 E0.86313 F960.000
G1 X12.847 Y-3.141 E0.13052
G1 X14.137 Y-2.043 E0.13052 F960.000
G1 X14.836 Y0.100 E0.17373
G1 X14.836 Y13.250 E1.01341
G1 X14.441 Y14.897 E0.13052
G1 X13.343 Y16.187 E0.13052
G1 X11.200 Y16.886 E0.17373
G1 X-11.200 Y16.886 E1.72627
G1 X-12.847 Y16.491 E0.13052
G1 X-14.137 Y15.393 E0.13052
G1 X-14.836 Y13.250 E0.17373
G1 X-14.836 Y0.100 E1.01341
G1 X-14.441 Y-1.547 E0.13052
G1 X-13.343 Y-2.837 E0.13052
G1 X-11.200 Y-3.536 E0.17373
G1 X-0.060 Y-3.536 E0.85851
G1 E-4.20000 F1500.00000
G1 Z1.300 F15000.000
G1 X-2.269 Y5.426 F15000.000
G1 Z0.300 F15000.000
G1 E4.20000 F1500.00000
G1 X-2.027 Y5.485 E0.01916 F600.000
G1 X-1.442 Y5.792 E0.05096
G1 X-0.947 Y6.231 E0.05097
G1 X-0.571 Y6.775 E0.05096
G1 X-0.336 Y7.394 E0.05096
G1 X-0.257 Y8.050 E0.05096
G1 X-0.336 Y8.706 E0.05096
G1 X-0.571 Y9.325 E0.05096
G1 X-0.947 Y9.869 E0.05096
G1 X-1.442 Y10.308 E0.05096
G1 X-2.027 Y10.615 E0.05096
G1 X-2.669 Y10.773 E0.05096
G1 X-3.331 Y10.773 E0.05096
G1 X-3.973 Y10.615 E0.05097
G1 X-4.558 Y10.308 E0.05096
G1 X-5.053 Y9.869 E0.05096
G1 X-5.429 Y9.325 E0.05096
G1 X-5.664 Y8.707 E0.05096
G1 X-5.743 Y8.050 E0.05097
G1 X-5.664 Y7.394 E0.05096
G1 X-5.429 Y6.775 E0.05096
G1 X-5.053 Y6.231 E0.05096
G1 X-4.558 Y5.792 E0.05096
G1 X-3.973 Y5.485 E0.05097
G1 X-3.331 Y5.327 E0.05096
G1 X-2.669 Y5.327 E0.05096 F600.000
G1 X-2.327 Y5.411 E0.02718
G1 X-2.479 Y6.028 F15000.000
G1 X-2.254 Y6.084 E0.01784 F600.000
G1 X-1.805 Y6.319 E0.03907
G1 X-1.426 Y6.655 E0.03907
G1 X-1.138 Y7.073 E0.03907
G1 X-0.958 Y7.547 E0.03907
G1 X-0.897 Y8.050 E0.03907
G1 X-0.958 Y8.553 E0.03907
G1 X-1.138 Y9.027 E0.03907
G1 X-1.426 Y9.445 E0.03907
G1 X-1.805 Y9.781 E0.03907
G1 X-2.254 Y10.016 E0.03907
G1 X-2.747 Y10.138 E0.03907
G1 X-3.253 Y10.138 E0.03907
G1 X-3.746 Y10.016 E0.03907
G1 X-4.195 Y9.781 E0.03907
G1 X-4.574 Y9.445 E0.03907
G1 X-4.862 Y9.027 E0.03907
G1 X-5.042 Y8.553 E0.03907
G1 X-5.103 Y8.050 E0.03907
G1 X-5.042 Y7.547 E0.03907
G1 X-4.862 Y7.073 E0.03907
G1 X-4.574 Y6.655 E0.03907
G1 X-4.195 Y6.319 E0.03907
G1 X-3.746 Y6.084 E0.03907
G1 X-3.253 Y5.962 E0.03907
G1 X-2.747 Y5.962 E0.03907 F600.000
G1 X-2.537 Y6.014 E0.01661
G1 X-2.319 Y5.861 F15000.000
G1 X0.332 Y5.666 F15000.000
G1 X0.257 Y5.050 E0.04779 F600.000
G1 X0.336 Y4.394 E0.05096
G1 X0.571 Y3.775 E0.05096
G1 X0.947 Y3.231 E0.05097
G1 X1.442 Y2.792 E0.05096
G1 X1.613 Y2.702 E0.01495
G1 X2.027 Y2.485 E0.03601
G1 X2.669 Y2.327 E0.05096
G1 X3.331 Y2.327 E0.05096 F600.000
G1 X3.973 Y2.485 E0.05096
G1 X4.558 Y2.792 E0.05096
G1 X5.053 Y3.231 E0.05096
G1 X5.429 Y3.775 E0.05097
G1 X5.664 Y4.394 E0.05096
G1 X5.743 Y5.050 E0.05096
G1 X5.664 Y5.706 E0.05097
G1 X5.429 Y6.325 E0.05096
G1 X5.053 Y6.869 E0.05097
G1 X4.558 Y7.308 E0.05096
G1 X3.973 Y7.615 E0.05096
G1 X3.331 Y7.773 E0.05096
G1 X2.669 Y7.773 E0.05096
G1 X2.027 Y7.615 E0.05096
G1 X1.442 Y7.308 E0.05096
G1 X0.947 Y6.869 E0.05096
G1 X0.571 Y6.325 E0.05096
G1 X0.343 Y5.724 E0.04952
G1 X0.958 Y5.553 F15000.000
G1 X0.897 Y5.050 E0.03907 F600.000
G1 X0.958 Y4.547 E0.03907
G1 X1.138 Y4.073 E0.03907
G1 X1.426 Y3.655 E0.03907
G1 X1.805 Y3.319 E0.03907
G1 X2.254 Y3.084 E0.03907
G1 X2.747 Y2.962 E0.03907
G1 X3.253 Y2.962 E0.03907 F600.000
G1 X3.746 Y3.084 E0.03907
G1 X4.195 Y3.319 E0.03907
G1 X4.574 Y3.655 E0.03907
G1 X4.862 Y4.073 E0.03907
G1 X5.042 Y4.547 E0.03907
G1 X5.103 Y5.050 E0.03907
G1 X5.042 Y5.553 E0.03907
G1 X4.862 Y6.027 E0.03907
G1 X4.574 Y6.445 E0.03907
G1 X4.195 Y6.781 E0.03907
G1 X3.746 Y7.016 E0.03907
G1 X3.253 Y7.138 E0.03907
G1 X2.747 Y7.138 E0.03907
G1 X2.254 Y7.016 E0.03907
G1 X1.805 Y6.781 E0.03907
G1 X1.426 Y6.445 E0.03907
G1 X1.138 Y6.027 E0.03907
G1 X0.979 Y5.609 E0.03445
G1 X0.579 Y5.427 F15000.000
G1 X6.631 Y12.264 F15000.000
G1 X-10.214 Y12.264 E1.29822 F720.000
G1 X-10.214 Y1.086 E0.86150
G1 X10.214 Y1.086 E1.57435
G1 X10.214 Y12.264 E0.86150
G1 X6.691 Y12.264 E0.27151 F720.000
G1 X6.691 Y12.900 F15000.000
G1 X-10.850 Y12.900 E1.35183 F720.000
G1 X-10.850 Y0.450 E0.95947
G1 X10.850 Y0.450 E1.67232
G1 X10.850 Y12.900 E0.95947
G1 X6.751 Y12.900 E0.31587 F720.000
G1 X6.491 Y12.554 F15000.000
G1 X4.163 Y1.798 F15000.000
G1 X3.369 Y1.706 E0.12942 F960.000
G1 X2.631 Y1.706 E0.11959
G1 X1.837 Y1.798 E0.12942
G1 X0.317 Y1.471 F15000.000
G1 X1.320 Y2.474 E0.11189 F960.000
G1 X0.824 Y2.898 E0.05149
G1 X-0.603 Y1.471 E0.15925
G1 X-1.523 Y1.471 E0.07260
G1 X0.418 Y3.412 E0.21653
G1 X0.107 Y4.022 E0.05398
G1 X-2.443 Y1.471 E0.28456
G1 X-3.364 Y1.471 E0.07260
G1 X-0.080 Y4.754 E0.36632
G1 X4.513 Y1.986 F15000.000
G1 X9.829 Y7.302 E0.59308 F960.000
G1 X9.829 Y6.382 E0.07260
G1 X4.918 Y1.471 E0.54789
G1 X5.838 Y1.471 E0.07260
G1 X9.829 Y5.462 E0.44522
G1 X9.829 Y4.541 E0.07260
G1 X6.759 Y1.471 E0.34255
G1 X7.679 Y1.471 E0.07260
G1 X9.829 Y3.621 E0.23988
G1 X9.829 Y2.701 E0.07260
G1 X8.599 Y1.471 E0.13722
G1 X9.519 Y1.471 E0.07260
G1 X9.829 Y1.781 E0.03455
G1 X6.079 Y4.472 F15000.000
G1 X9.829 Y8.222 E0.41842 F960.000
G1 X9.829 Y9.142 E0.07260
G1 X6.075 Y5.388 E0.41883
G1 X5.880 Y6.113 E0.05923
G1 X9.829 Y10.063 E0.44062
G1 X9.829 Y10.983 E0.07260
G1 X5.563 Y6.717 E0.47597
G1 X5.150 Y7.224 E0.05161
G1 X9.797 Y11.871 E0.51845
G1 X8.885 Y11.879 E0.07197
G1 X4.648 Y7.642 E0.47267
G1 X4.045 Y7.959 E0.05377
G1 X7.965 Y11.879 E0.43733
G1 X7.044 Y11.879 E0.07260
G1 X3.311 Y8.146 E0.41651
G1 X2.382 Y8.137 E0.07333
G1 X6.124 Y11.879 E0.41754
G1 X5.204 Y11.879 E0.07260
G1 X-0.220 Y6.456 E0.60509
G1 X-0.072 Y5.683 E0.06206
G1 X-4.284 Y1.471 E0.46991
G1 X-5.204 Y1.471 E0.07260
G1 X-1.367 Y5.308 E0.42810
G1 X-2.654 Y4.941 E0.10558
G1 X-6.124 Y1.471 E0.38718
G1 X-7.044 Y1.471 E0.07260
G1 X-3.512 Y5.004 E0.39413
G1 X-4.209 Y5.227 E0.05774
G1 X-7.965 Y1.471 E0.41904
G1 X-8.885 Y1.471 E0.07260
G1 X-4.795 Y5.561 E0.45632
G1 X-5.283 Y5.993 E0.05143
G1 X-9.797 Y1.479 E0.50366
G1 X-9.829 Y2.367 E0.07012
G1 X-5.665 Y6.531 E0.46458
G1 X-5.948 Y7.168 E0.05499
G1 X-9.829 Y3.287 E0.43295
G1 X-9.829 Y4.208 E0.07260
G1 X-6.102 Y7.935 E0.41581
G1 X-6.044 Y8.913 E0.07731
G1 X-9.829 Y5.128 E0.42228
G1 X-9.829 Y6.048 E0.07260
G1 X-3.998 Y11.879 E0.65055
G1 X-3.886 Y11.070 E0.06439
G1 X-3.078 Y11.879 E0.09020
G1 X-2.878 Y11.159 E0.05897
G1 X-2.158 Y11.879 E0.08037
G1 X-2.113 Y11.004 E0.06914
G1 X-1.237 Y11.879 E0.09764
G1 X-0.317 Y11.879 E0.07260
G1 X-1.484 Y10.712 E0.13020
G1 X-0.957 Y10.319 E0.05188
G1 X0.603 Y11.879 E0.17404
G1 X1.523 Y11.879 E0.07260
G1 X-0.520 Y9.836 E0.22792
G1 X-0.176 Y9.260 E0.05295
G1 X2.443 Y11.879 E0.29222
G1 X3.364 Y11.879 E0.07260
G1 X0.053 Y8.569 E0.36934
G1 X0.107 Y7.702 E0.06851
G1 X4.284 Y11.879 E0.46605
G1 X-9.829 Y11.569 F15000.000
G1 X-9.519 Y11.879 E0.03455 F960.000
G1 X-8.599 Y11.879 E0.07260
G1 X-9.829 Y10.649 E0.13721
G1 X-9.829 Y9.729 E0.07260
G1 X-7.679 Y11.879 E0.23988
G1 X-6.759 Y11.879 E0.07260
G1 X-9.829 Y8.809 E0.34255
G1 X-9.829 Y7.888 E0.07260
G1 X-5.838 Y11.879 E0.44522
G1 X-4.918 Y11.879 E0.07260
G1 X-9.829 Y6.968 E0.54788
G1 E-4.20000 F1500.00000
G1 Z1.300 F15000.000
G1 X-5.248 Y7.525 F15000.000
G1 Z0.500 F15000.000
G1 E4.20000 F1500.00000
G1 X-5.047 Y6.976 E0.01687 F2400.000
G1 X-4.730 Y6.517 E0.01608
G1 X-4.313 Y6.148 E0.01608
G1 X-3.820 Y5.889 E0.01608
G1 X-3.279 Y5.755 E0.01608
G1 X-2.721 Y5.755 E0.01608 F2400.000
G1 X-2.180 Y5.889 E0.01608
G1 X-1.687 Y6.148 E0.01608
G1 X-1.270 Y6.517 E0.01608
G1 X-0.953 Y6.976 E0.01608
G1 X-0.756 Y7.497 E0.01608
G1 X-0.688 Y8.050 E0.01608
G1 X-0.756 Y8.603 E0.01608
G1 X-0.953 Y9.124 E0.01608
G1 X-1.270 Y9.583 E0.01608
G1 X-1.687 Y9.952 E0.01608
G1 X-2.180 Y10.211 E0.01608
G1 X-2.721 Y10.345 E0.01608
G1 X-3.279 Y10.345 E0.01608
G1 X-3.820 Y10.211 E0.01608
G1 X-4.313 Y9.952 E0.01608
G1 X-4.505 Y9.783 E0.00738
G1 X-4.730 Y9.583 E0.00870
G1 X-5.047 Y9.124 E0.01608
G1 X-5.244 Y8.603 E0.01608
G1 X-5.312 Y8.050 E0.01608
G1 X-5.255 Y7.584 E0.01355
G1 X-4.900 Y7.627 F15000.000
G1 X-4.728 Y7.143 E0.01483 F2400.000
G1 X-4.461 Y6.756 E0.01358
G1 X-4.109 Y6.444 E0.01358
G1 X-3.692 Y6.225 E0.01358
G1 X-3.235 Y6.112 E0.01358
G1 X-2.765 Y6.112 E0.01358 F2400.000
G1 X-2.308 Y6.225 E0.01358
G1 X-1.891 Y6.444 E0.01358
G1 X-1.539 Y6.756 E0.01358
G1 X-1.272 Y7.143 E0.01358
G1 X-1.105 Y7.583 E0.01358
G1 X-1.048 Y8.050 E0.01358
G1 X-1.105 Y8.517 E0.01358
G1 X-1.272 Y8.957 E0.01358
G1 X-1.539 Y9.344 E0.01358
G1 X-1.891 Y9.656 E0.01358
G1 X-2.308 Y9.875 E0.01358
G1 X-2.765 Y9.988 E0.01358
G1 X-3.235 Y9.988 E0.01358
G1 X-3.692 Y9.875 E0.01358
G1 X-4.109 Y9.656 E0.01358
G1 X-4.268 Y9.515 E0.00613
G1 X-4.461 Y9.344 E0.00745
G1 X-4.728 Y8.957 E0.01358
G1 X-4.895 Y8.517 E0.01358
G1 X-4.952 Y8.050 E0.01358
G1 X-4.908 Y7.687 E0.01056
G1 X-5.182 Y7.343 F15000.000
G1 E-4.20000 F1500.00000
G1 Z1.500 F15000.000
G1 X0.756 Y5.603 F15000.000
G1 Z0.500 F15000.000
G1 E4.20000 F1500.00000
G1 X0.688 Y5.050 E0.01608 F2400.000
G1 X0.756 Y4.497 E0.01608
G1 X0.953 Y3.976 E0.01608
G1 X1.270 Y3.517 E0.01608
G1 X1.687 Y3.148 E0.01608
G1 X2.180 Y2.889 E0.01608
G1 X2.721 Y2.755 E0.01608
G1 X3.279 Y2.755 E0.01608 F2400.000
G1 X3.820 Y2.889 E0.01608
G1 X4.313 Y3.148 E0.01608
G1 X4.730 Y3.517 E0.01608
G1 X5.047 Y3.976 E0.01608
G1 X5.244 Y4.497 E0.01608
G1 X5.312 Y5.050 E0.01608
G1 X5.244 Y5.603 E0.01608
G1 X5.047 Y6.124 E0.01608
G1 X4.730 Y6.583 E0.01608
G1 X4.313 Y6.952 E0.01608
G1 X3.820 Y7.211 E0.01608
G1 X3.279 Y7.345 E0.01608
G1 X2.721 Y7.345 E0.01608
G1 X2.180 Y7.211 E0.01608
G1 X1.687 Y6.952 E0.01608
G1 X1.270 Y6.583 E0.01608
G1 X0.953 Y6.124 E0.01608
G1 X0.777 Y5.659 E0.01435
G1 X1.111 Y5.533 F15000.000
G1 X1.048 Y5.050 E0.01405 F2400.000
G1 X1.105 Y4.583 E0.01358
G1 X1.272 Y4.143 E0.01358
G1 X1.539 Y3.756 E0.01358
G1 X1.891 Y3.444 E0.01358
G1 X2.308 Y3.225 E0.01358
G1 X2.765 Y3.112 E0.01358
G1 X3.235 Y3.112 E0.01358 F2400.000
G1 X3.692 Y3.225 E0.01358
G1 X4.109 Y3.444 E0.01358
G1 X4.461 Y3.756 E0.01358
G1 X4.728 Y4.143 E0.01358
G1 X4.895 Y4.583 E0.01358
G1 X4.952 Y5.050 E0.01358
G1 X4.895 Y5.517 E0.01358
G1 X4.728 Y5.957 E0.01358
G1 X4.461 Y6.344 E0.01358
G1 X4.109 Y6.656 E0.01358
G1 X3.692 Y6.875 E0.01358
G1 X3.235 Y6.988 E0.01358
G1 X2.765 Y6.988 E0.01358
G1 X2.308 Y6.875 E0.01358
G1 X1.891 Y6.656 E0.01358
G1 X1.539 Y6.344 E0.01358
G1 X1.272 Y5.957 E0.01358
G1 X1.132 Y5.589 E0.01137
G1 X0.731 Y5.408 F15000.000
G1 X6.883 Y12.693 F15000.000
G1 X-10.643 Y12.693 E0.50583 F2400.000
G1 X-10.643 Y0.657 E0.34739
G1 X10.643 Y0.657 E0.61437
G1 X10.643 Y12.693 E0.34739
G1 X6.943 Y12.693 E0.10680 F2400.000
G1 X6.943 Y13.050 F15000.000
G1 X-11.000 Y13.050 E0.51787 F2400.000
G1 X-11.000 Y0.300 E0.36800
G1 X11.000 Y0.300 E0.63498
G1 X11.000 Y13.050 E0.36800
G1 X7.003 Y13.050 E0.11538 F2400.000
G1 X6.743 Y12.704 F15000.000
G1 X10.244 Y12.485 F15000.000
G1 X10.435 Y12.294 E0.00789 F2400.000
G1 X10.435 Y11.784 E0.01485
G1 X9.734 Y12.485 E0.02888
G1 X9.224 Y12.485 E0.01485
G1 X10.435 Y11.274 E0.04988
G1 X10.435 Y10.765 E0.01485
G1 X8.715 Y12.485 E0.07087
G1 X8.205 Y12.485 E0.01485
G1 X10.435 Y10.255 E0.09187
G1 X10.435 Y9.745 E0.01485
G1 X7.695 Y12.485 E0.11286
G1 X7.186 Y12.485 E0.01485
G1 X10.435 Y9.236 E0.13386
G1 X10.435 Y8.726 E0.01485
G1 X6.676 Y12.485 E0.15485
G1 X6.166 Y12.485 E0.01485
G1 X10.435 Y8.216 E0.17585
G1 X10.435 Y7.707 E0.01485
G1 X5.657 Y12.485 E0.19684
G1 X5.147 Y12.485 E0.01485
G1 X10.435 Y7.197 E0.21784
G1 X10.435 Y6.688 E0.01485
G1 X4.638 Y12.485 E0.23883
G1 X4.128 Y12.485 E0.01485
G1 X10.435 Y6.178 E0.25983
G1 X10.435 Y5.668 E0.01485
G1 X3.618 Y12.485 E0.28082
G1 X3.109 Y12.485 E0.01485
G1 X10.435 Y5.159 E0.30181
G1 X10.435 Y4.649 E0.01485
G1 X2.599 Y12.485 E0.32281
G1 X2.089 Y12.485 E0.01485
G1 X10.435 Y4.139 E0.34380
G1 X10.435 Y3.630 E0.01485
G1 X1.580 Y12.485 E0.36480
G1 X1.070 Y12.485 E0.01485
G1 X10.435 Y3.120 E0.38579
G1 X10.435 Y2.610 E0.01485
G1 X0.560 Y12.485 E0.40679
G1 X0.051 Y12.485 E0.01485
G1 X10.435 Y2.101 E0.42778
G1 X10.435 Y1.591 E0.01485
G1 X-0.459 Y12.485 E0.44878
G1 X-0.969 Y12.485 E0.01485
G1 X4.244 Y7.273 E0.21471
G1 X3.476 Y7.531 F15000.000
G1 X-1.478 Y12.485 E0.20409 F2400.000
G1 X-1.988 Y12.485 E0.01485
G1 X2.945 Y7.552 E0.20320
G1 X2.500 Y7.488 E0.01310
G1 X-2.497 Y12.485 E0.20587
G1 X-3.007 Y12.485 E0.01485
G1 X2.103 Y7.375 E0.21050
G1 X1.769 Y7.200 E0.01100
G1 X-3.517 Y12.485 E0.21773
G1 X-4.026 Y12.485 E0.01485
G1 X-1.878 Y10.337 E0.08850
G1 X-2.601 Y10.550 E0.02194
G1 X-4.536 Y12.485 E0.07972
G1 X-5.046 Y12.485 E0.01485
G1 X-3.113 Y10.552 E0.07962
G1 X-3.546 Y10.476 E0.01282
G1 X-5.555 Y12.485 E0.08276
G1 X-6.065 Y12.485 E0.01485
G1 X-3.935 Y10.355 E0.08774
G1 X-4.269 Y10.180 E0.01100
G1 X-6.575 Y12.485 E0.09496
G1 X-7.084 Y12.485 E0.01485
G1 X-4.565 Y9.965 E0.10380
G1 X-4.835 Y9.726 E0.01052
G1 X-7.594 Y12.485 E0.11366
G1 X-8.104 Y12.485 E0.01485
G1 X-5.051 Y9.432 E0.12577
G1 X-5.247 Y9.119 E0.01077
G1 X-8.613 Y12.485 E0.13866
G1 X-9.123 Y12.485 E0.01485
G1 X-5.388 Y8.750 E0.15388
G1 X-5.478 Y8.331 E0.01249
G1 X-9.633 Y12.485 E0.17114
G1 X-10.142 Y12.485 E0.01485
G1 X-5.506 Y7.849 E0.19098
G1 X-5.401 Y7.234 E0.01817
G1 X-10.435 Y12.268 E0.20738
G1 X-10.435 Y11.759 E0.01485
G1 X0.459 Y0.865 E0.44878
G1 X-0.051 Y0.865 E0.01485
G1 X-10.435 Y11.249 E0.42778
G1 X-10.435 Y10.740 E0.01485
G1 X-0.560 Y0.865 E0.40679
G1 X-1.070 Y0.865 E0.01485
G1 X-10.435 Y10.230 E0.38579
G1 X-10.435 Y9.720 E0.01485
G1 X-1.580 Y0.865 E0.36480
G1 X-2.089 Y0.865 E0.01485
G1 X-10.435 Y9.211 E0.34380
G1 X-10.435 Y8.701 E0.01485
G1 X-2.599 Y0.865 E0.32281
G1 X-3.109 Y0.865 E0.01485
G1 X-10.435 Y8.191 E0.30181
G1 X-10.435 Y7.682 E0.01485
G1 X-3.618 Y0.865 E0.28082
G1 X-4.128 Y0.865 E0.01485
G1 X-10.435 Y7.172 E0.25982
G1 X-10.435 Y6.662 E0.01485
G1 X-4.638 Y0.865 E0.23883
G1 X-5.147 Y0.865 E0.01485
G1 X-10.435 Y6.153 E0.21783
G1 X-10.435 Y5.643 E0.01485
G1 X-5.657 Y0.865 E0.19684
G1 X-6.167 Y0.865 E0.01485
G1 X-10.435 Y5.133 E0.17584
G1 X-10.435 Y4.624 E0.01485
G1 X-6.676 Y0.865 E0.15485
G1 X-7.186 Y0.865 E0.01485
G1 X-10.435 Y4.114 E0.13385
G1 X-10.435 Y3.605 E0.01485
G1 X-7.696 Y0.865 E0.11286
G1 X-8.205 Y0.865 E0.01485
G1 X-10.435 Y3.095 E0.09187
G1 X-10.435 Y2.585 E0.01485
G1 X-8.715 Y0.865 E0.07087
G1 X-9.224 Y0.865 E0.01485
G1 X-10.435 Y2.076 E0.04988
G1 X-10.435 Y1.566 E0.01485
G1 X-9.734 Y0.865 E0.02888
G1 X-10.244 Y0.865 E0.01485
G1 X-10.435 Y1.056 E0.00789
G1 X-3.821 Y5.654 F15000.000
G1 X0.968 Y0.865 E0.19729 F2400.000
G1 X1.478 Y0.865 E0.01485
G1 X-3.205 Y5.548 E0.19290
G1 X-2.708 Y5.561 E0.01446
G1 X1.988 Y0.865 E0.19346
G1 X2.497 Y0.865 E0.01485
G1 X-2.299 Y5.662 E0.19761
G1 X-1.939 Y5.811 E0.01137
G1 X3.007 Y0.865 E0.20375
G1 X3.517 Y0.865 E0.01485
G1 X-1.605 Y5.986 E0.21097
G1 X-1.334 Y6.225 E0.01052
G1 X0.564 Y4.328 E0.07815
G1 X0.486 Y4.915 E0.01726
G1 X-1.079 Y6.480 E0.06446
G1 X-0.871 Y6.781 E0.01067
G1 X0.528 Y5.382 E0.05764
G1 X0.628 Y5.792 E0.01228
G1 X-0.700 Y7.120 E0.05472
G1 X-0.560 Y7.489 E0.01151
G1 X0.769 Y6.161 E0.05472
G1 X0.973 Y6.466 E0.01070
G1 X-0.501 Y7.941 E0.06073
G1 X-0.520 Y8.469 E0.01542
G1 X1.196 Y6.753 E0.07070
G1 X1.466 Y6.993 E0.01052
G1 X-0.716 Y9.175 E0.08990
G1 X5.248 Y6.268 F15000.000
G1 X10.435 Y1.081 E0.21367 F2400.000
G1 X10.142 Y0.865 E0.01061
G1 X5.472 Y5.535 E0.19240
G1 X5.505 Y4.992 E0.01585
G1 X9.632 Y0.865 E0.17002
G1 X9.123 Y0.865 E0.01485
G1 X5.450 Y4.538 E0.15130
G1 X5.316 Y4.162 E0.01162
G1 X8.613 Y0.865 E0.13582
G1 X8.104 Y0.865 E0.01485
G1 X5.153 Y3.816 E0.12156
G1 X4.945 Y3.514 E0.01067
G1 X7.594 Y0.865 E0.10914
G1 X7.084 Y0.865 E0.01485
G1 X4.697 Y3.252 E0.09834
G1 X4.427 Y3.013 E0.01052
G1 X6.575 Y0.865 E0.08847
G1 X6.065 Y0.865 E0.01485
G1 X4.099 Y2.831 E0.08098
G1 X3.747 Y2.673 E0.01124
G1 X5.555 Y0.865 E0.07449
G1 X5.046 Y0.865 E0.01485
G1 X3.338 Y2.572 E0.07034
G1 X2.853 Y2.548 E0.01414
G1 X4.536 Y0.865 E0.06932
