; generated by Slic3r 1.2.9 on 2019-09-08 at 17:54:37

; external perimeters extrusion width = 0.40mm
; perimeters extrusion width = 0.40mm
; infill extrusion width = 0.40mm
; solid infill extrusion width = 0.40mm
; top infill extrusion width = 0.40mm

M107
M83
T0
M116
G21 ; set units to millimeters
G90 ; use absolute coordinates
M83 ; use relative distances for extrusion
G1 E-3.50000 F1500.00000
G1 Z0.400 F15000.000
G1 X35.410 Y-1.913 F15000.000
G1 Z0.300 F15000.000
G1 E3.50000 F1500.00000
G1 X35.509 Y0.087 E0.15431 F960.000
G1 X35.311 Y3.740 E0.28195
G1 X34.665 Y7.697 E0.30897
G1 X33.690 Y11.222 E0.28184
G1 X32.285 Y14.788 E0.29542
G1 X30.413 Y18.334 E0.30899
G1 X28.261 Y21.506 E0.29541
G1 X25.780 Y24.428 E0.29541
G1 X23.132 Y26.951 E0.28183
G1 X19.948 Y29.388 E0.30899
G1 X16.666 Y31.368 E0.29541
G1 X13.354 Y32.917 E0.28183
G1 X12.445 Y33.252 E0.07460
G1 X9.723 Y34.169 E0.22140
G1 X8.790 Y34.403 E0.07408
G1 X5.850 Y35.044 E0.23192
G1 X5.033 Y35.153 E0.06356
G1 X2.177 Y35.464 E0.22140
G1 X1.216 Y35.494 E0.07408
G1 X-1.788 Y35.489 E0.23146
G1 X-2.616 Y35.422 E0.06402
G1 X-5.472 Y35.111 E0.22140
G1 X-6.417 Y34.937 E0.07408
G1 X-9.343 Y34.288 E0.23100
G1 X-10.144 Y34.046 E0.06449
G1 X-12.867 Y33.129 E0.22140
G1 X-13.754 Y32.758 E0.07408
G1 X-16.467 Y31.498 E0.23053
G1 X-17.204 Y31.089 E0.06495
G1 X-19.665 Y29.608 E0.22140
G1 X-20.454 Y29.058 E0.07408
G1 X-22.828 Y27.248 E0.23007
G1 X-23.466 Y26.688 E0.06541
G1 X-25.552 Y24.712 E0.22140
G1 X-26.205 Y24.008 E0.07408
G1 X-28.065 Y21.818 E0.22140
G1 X-28.640 Y21.047 E0.07408
G1 X-30.308 Y18.582 E0.22938
G1 X-30.742 Y17.842 E0.06611
G1 X-32.087 Y15.304 E0.22140
G1 X-32.486 Y14.429 E0.07408
G1 X-33.582 Y11.669 E0.22892
G1 X-33.852 Y10.848 E0.06657
G1 X-34.621 Y8.080 E0.22140
G1 X-34.824 Y7.140 E0.07408
G1 X-35.301 Y4.214 E0.22846
G1 X-35.392 Y3.349 E0.06703
G1 X-35.547 Y0.481 E0.22140
G1 X-35.547 Y-0.481 E0.07408
G1 X-35.392 Y-3.349 E0.22140
G1 X-35.301 Y-4.214 E0.06703
G1 X-34.824 Y-7.140 E0.22846
G1 X-34.621 Y-8.080 E0.07408
G1 X-33.852 Y-10.848 E0.22140
G1 X-33.582 Y-11.669 E0.06657
G1 X-32.456 Y-14.500 E0.23482
G1 X-32.087 Y-15.304 E0.06819
G1 X-30.742 Y-17.842 E0.22140
G1 X-30.308 Y-18.582 E0.06610
G1 X-28.640 Y-21.047 E0.22938
G1 X-28.065 Y-21.818 E0.07408
G1 X-26.205 Y-24.008 E0.22140
G1 X-25.629 Y-24.634 E0.06564
G1 X-23.466 Y-26.688 E0.22984
G1 X-22.741 Y-27.319 E0.07408
G1 X-20.454 Y-29.058 E0.22140
G1 X-19.665 Y-29.608 E0.07408
G1 X-17.204 Y-31.089 E0.22140
G1 X-16.467 Y-31.498 E0.06495
G1 X-13.754 Y-32.758 E0.23053
G1 X-12.867 Y-33.129 E0.07408
G1 X-10.144 Y-34.046 E0.22140
G1 X-9.343 Y-34.288 E0.06449
G1 X-6.417 Y-34.937 E0.23100
G1 X-5.472 Y-35.111 E0.07408
G1 X-2.616 Y-35.422 E0.22140
G1 X-1.788 Y-35.489 E0.06402
G1 X1.259 Y-35.493 E0.23481
G1 X2.177 Y-35.464 E0.07073 F960.000
G1 X5.033 Y-35.153 E0.22140
G1 X5.985 Y-35.020 E0.07408
G1 X8.790 Y-34.403 E0.22140
G1 X9.589 Y-34.208 E0.06333
G1 X12.445 Y-33.252 E0.23215
G1 X13.348 Y-32.920 E0.07408
G1 X16.689 Y-31.357 E0.28426
G1 X19.948 Y-29.388 E0.29351
G1 X22.998 Y-27.065 E0.29541
G1 X25.780 Y-24.428 E0.29541
G1 X28.368 Y-21.365 E0.30899
G1 X30.504 Y-18.183 E0.29541
G1 X32.285 Y-14.788 E0.29541
G1 X33.634 Y-11.389 E0.28184
G1 X34.665 Y-7.697 E0.29542
G1 X35.292 Y-3.915 E0.29542
G1 X35.407 Y-1.973 E0.14997
G1 E-3.50000 F1500.00000
G1 Z0.700 F15000.000
G1 X-19.340 Y-26.612 F15000.000
G1 Z0.300 F15000.000
G1 E3.50000 F1500.00000
G1 X-18.284 Y-27.380 E0.10064 F720.000
G1 X-15.867 Y-28.834 E0.21735
G1 X-15.228 Y-29.188 E0.05632
G1 X-12.668 Y-30.372 E0.21735
G1 X-11.995 Y-30.656 E0.05632
G1 X-9.322 Y-31.557 E0.21735
G1 X-8.623 Y-31.768 E0.05632
G1 X-5.868 Y-32.374 E0.21735
G1 X-5.150 Y-32.510 E0.05632
G1 X-2.346 Y-32.815 E0.21735
G1 X-1.618 Y-32.873 E0.05632
G1 X1.203 Y-32.873 E0.21735
G1 X1.933 Y-32.853 E0.05632
G1 X4.737 Y-32.548 E0.21735 F720.000
G1 X5.461 Y-32.451 E0.05632
G1 X8.216 Y-31.845 E0.21735
G1 X8.926 Y-31.672 E0.05632
G1 X12.286 Y-30.523 E0.27366
G1 X15.501 Y-29.020 E0.27352
G1 X18.543 Y-27.174 E0.27420
G1 X21.362 Y-25.016 E0.27362
G1 X23.933 Y-22.567 E0.27363
G1 X26.225 Y-19.855 E0.27363
G1 X28.211 Y-16.912 E0.27363
G1 X29.868 Y-13.772 E0.27363
G1 X31.178 Y-10.472 E0.27363
G1 X32.125 Y-7.050 E0.27363
G1 X32.697 Y-3.545 E0.27363
G1 X32.888 Y0.000 E0.27366
G1 X32.850 Y0.730 E0.05633
G1 X32.697 Y3.545 E0.21727
G1 X32.125 Y7.050 E0.27364
G1 X31.178 Y10.472 E0.27363
G1 X29.868 Y13.772 E0.27363
G1 X28.211 Y16.912 E0.27363
G1 X26.225 Y19.855 E0.27363
G1 X23.933 Y22.567 E0.27363
G1 X21.362 Y25.016 E0.27363
G1 X18.543 Y27.174 E0.27362
G1 X15.508 Y29.016 E0.27362
G1 X12.284 Y30.524 E0.27425
G1 X8.926 Y31.672 E0.27351
G1 X8.216 Y31.845 E0.05632
G1 X5.461 Y32.451 E0.21735
G1 X4.737 Y32.548 E0.05632
G1 X1.933 Y32.853 E0.21735
G1 X1.203 Y32.873 E0.05632
G1 X-1.618 Y32.873 E0.21735
G1 X-2.346 Y32.815 E0.05632
G1 X-5.150 Y32.510 E0.21735
G1 X-5.868 Y32.374 E0.05632
G1 X-8.623 Y31.768 E0.21735
G1 X-9.322 Y31.557 E0.05632
G1 X-11.995 Y30.656 E0.21735
G1 X-12.668 Y30.372 E0.05632
G1 X-15.228 Y29.188 E0.21735
G1 X-15.867 Y28.834 E0.05632
G1 X-18.284 Y27.380 E0.21735
G1 X-18.882 Y26.960 E0.05632
G1 X-21.127 Y25.253 E0.21735
G1 X-21.677 Y24.772 E0.05632
G1 X-23.725 Y22.832 E0.21736
G1 X-24.221 Y22.295 E0.05632
G1 X-26.047 Y20.145 E0.21735
G1 X-26.482 Y19.559 E0.05632
G1 X-28.065 Y17.224 E0.21735
G1 X-28.436 Y16.595 E0.05632
G1 X-29.757 Y14.103 E0.21735
G1 X-30.059 Y13.437 E0.05632
G1 X-31.103 Y10.817 E0.21735
G1 X-31.333 Y10.123 E0.05632
G1 X-32.087 Y7.406 E0.21735
G1 X-32.242 Y6.692 E0.05632
G1 X-32.698 Y3.908 E0.21736
G1 X-32.776 Y3.182 E0.05632
G1 X-32.928 Y0.365 E0.21735
G1 X-32.928 Y-0.365 E0.05632
G1 X-32.776 Y-3.182 E0.21735
G1 X-32.698 Y-3.908 E0.05632
G1 X-32.242 Y-6.692 E0.21736
G1 X-32.087 Y-7.406 E0.05632
G1 X-31.333 Y-10.123 E0.21735
G1 X-31.103 Y-10.817 E0.05632
G1 X-30.059 Y-13.437 E0.21735
G1 X-29.757 Y-14.103 E0.05632
G1 X-28.436 Y-16.595 E0.21735
G1 X-28.065 Y-17.224 E0.05632
G1 X-26.482 Y-19.559 E0.21735
G1 X-26.047 Y-20.145 E0.05632
G1 X-24.221 Y-22.295 E0.21736
G1 X-23.725 Y-22.832 E0.05632
G1 X-21.677 Y-24.772 E0.21735
G1 X-21.127 Y-25.253 E0.05632
G1 X-19.388 Y-26.575 E0.16840
G1 X-19.772 Y-27.081 F15000.000
G1 X-19.257 Y-27.473 E0.04988 F720.000
G1 X-18.631 Y-27.913 E0.05897
G1 X-16.185 Y-29.384 E0.21996
G1 X-15.516 Y-29.755 E0.05897
G1 X-12.925 Y-30.954 E0.21996
G1 X-12.220 Y-31.251 E0.05897
G1 X-9.516 Y-32.162 E0.21996
G1 X-8.783 Y-32.383 E0.05897
G1 X-5.995 Y-32.997 E0.21996
G1 X-5.243 Y-33.139 E0.05897
G1 X-2.406 Y-33.447 E0.21996
G1 X-1.643 Y-33.508 E0.05897
G1 X1.211 Y-33.508 E0.21996
G1 X1.976 Y-33.488 E0.05897
G1 X4.814 Y-33.179 E0.21996 F720.000
G1 X5.572 Y-33.078 E0.05897
G1 X8.360 Y-32.464 E0.21996
G1 X9.103 Y-32.283 E0.05897
G1 X11.808 Y-31.371 E0.21996
G1 X12.528 Y-31.112 E0.05897
G1 X15.806 Y-29.579 E0.27888
G1 X18.902 Y-27.700 E0.27912
G1 X21.776 Y-25.500 E0.27892
G1 X24.396 Y-23.003 E0.27892
G1 X26.732 Y-20.239 E0.27892
G1 X28.757 Y-17.239 E0.27892
G1 X30.446 Y-14.038 E0.27892
G1 X31.781 Y-10.674 E0.27892
G1 X32.746 Y-7.186 E0.27892
G1 X33.330 Y-3.614 E0.27892
G1 X33.525 Y0.000 E0.27893
G1 X33.484 Y0.764 E0.05898
G1 X33.330 Y3.614 E0.21993
G1 X32.746 Y7.186 E0.27892
G1 X31.781 Y10.674 E0.27892
G1 X30.446 Y14.038 E0.27892
G1 X28.757 Y17.239 E0.27892
G1 X26.732 Y20.239 E0.27892
G1 X24.396 Y23.003 E0.27892
G1 X21.776 Y25.500 E0.27892
G1 X18.902 Y27.700 E0.27892
G1 X15.808 Y29.578 E0.27892
G1 X12.527 Y31.112 E0.27914
G1 X11.808 Y31.371 E0.05892
G1 X9.103 Y32.283 E0.21996
G1 X8.360 Y32.464 E0.05897
G1 X5.572 Y33.078 E0.21996
G1 X4.814 Y33.179 E0.05897
G1 X1.976 Y33.488 E0.21996
G1 X1.211 Y33.508 E0.05897
G1 X-1.643 Y33.508 E0.21996
G1 X-2.406 Y33.447 E0.05897
G1 X-5.243 Y33.139 E0.21996
G1 X-5.995 Y32.997 E0.05897
G1 X-8.783 Y32.383 E0.21996
G1 X-9.516 Y32.162 E0.05897
G1 X-12.220 Y31.251 E0.21996
G1 X-12.925 Y30.954 E0.05897
G1 X-15.516 Y29.755 E0.21996
G1 X-16.185 Y29.384 E0.05897
G1 X-18.631 Y27.913 E0.21996
G1 X-19.257 Y27.473 E0.05897
G1 X-21.529 Y25.746 E0.21996
G1 X-22.105 Y25.242 E0.05897
G1 X-24.177 Y23.279 E0.21996
G1 X-24.697 Y22.717 E0.05897
G1 X-26.544 Y20.541 E0.21996
G1 X-27.001 Y19.927 E0.05897
G1 X-28.603 Y17.564 E0.21996
G1 X-28.991 Y16.905 E0.05897
G1 X-30.328 Y14.383 E0.21996
G1 X-30.644 Y13.686 E0.05897
G1 X-31.701 Y11.035 E0.21996
G1 X-31.941 Y10.308 E0.05897
G1 X-32.705 Y7.558 E0.21996
G1 X-32.866 Y6.810 E0.05897
G1 X-33.328 Y3.994 E0.21996
G1 X-33.409 Y3.233 E0.05897
G1 X-33.564 Y0.383 E0.21996
G1 X-33.564 Y-0.383 E0.05897
G1 X-33.409 Y-3.233 E0.21996
G1 X-33.328 Y-3.994 E0.05897
G1 X-32.866 Y-6.810 E0.21996
G1 X-32.705 Y-7.558 E0.05897
G1 X-31.941 Y-10.308 E0.21996
G1 X-31.701 Y-11.035 E0.05897
G1 X-30.644 Y-13.686 E0.21996
G1 X-30.328 Y-14.383 E0.05897
G1 X-28.991 Y-16.905 E0.21996
G1 X-28.603 Y-17.564 E0.05897
G1 X-27.001 Y-19.927 E0.21996
G1 X-26.544 Y-20.541 E0.05897
G1 X-24.697 Y-22.717 E0.21996
G1 X-24.177 Y-23.279 E0.05897
G1 X-22.105 Y-25.242 E0.21996
G1 X-21.529 Y-25.746 E0.05897
G1 X-19.820 Y-27.045 E0.16546
G1 X-19.404 Y-26.926 F15000.000
G1 X9.171 Y-31.127 F15000.000
G1 X31.084 Y-9.214 E2.40761 F960.000
G1 X31.430 Y-7.962 E0.10098
G1 X7.906 Y-31.486 E2.58470
G1 X6.744 Y-31.742 E0.09244
G1 X31.764 Y-6.722 E2.74904
G1 X31.941 Y-5.639 E0.08527
G1 X5.582 Y-31.997 E2.89615
G1 X4.502 Y-32.171 E0.08496
G1 X32.118 Y-4.555 E3.03421
G1 X32.295 Y-3.472 E0.08527
G1 X3.485 Y-32.281 E3.16537
G1 X2.469 Y-32.392 E0.07946
G1 X32.360 Y-2.501 E3.28427
G1 X32.412 Y-1.543 E0.07454
G1 X1.478 Y-32.476 E3.39878
G1 X0.561 Y-32.487 E0.07127
G1 X32.463 Y-0.585 E3.50526
G1 X32.491 Y0.349 E0.07258
G1 X-0.345 Y-32.487 E3.60785
G1 X-1.252 Y-32.487 E0.07041
G1 X32.445 Y1.209 E3.70235
G1 X32.398 Y2.069 E0.06688
G1 X-2.126 Y-32.456 E3.79333
G1 X-2.952 Y-32.375 E0.06442
G1 X32.351 Y2.928 E3.87888
G1 X32.290 Y3.772 E0.06577
G1 X-3.769 Y-32.286 E3.96187
G1 X-4.586 Y-32.197 E0.06387
G1 X32.162 Y4.551 E4.03769
G1 X32.035 Y5.330 E0.06132
G1 X-5.390 Y-32.095 E4.11208
G1 X-6.146 Y-31.945 E0.05988
G1 X31.908 Y6.109 E4.18115
G1 X31.781 Y6.888 E0.06132
G1 X-6.889 Y-31.781 E4.24878
G1 X-7.632 Y-31.618 E0.05909
G1 X31.601 Y7.615 E4.31061
G1 X31.404 Y8.324 E0.05722
G1 X-8.374 Y-31.454 E4.37064
G1 X-9.087 Y-31.260 E0.05734
G1 X31.208 Y9.034 E4.42730
G1 X31.012 Y9.744 E0.05722
G1 X-9.770 Y-31.037 E4.48082
G1 X-10.448 Y-30.809 E0.05557
G1 X30.814 Y10.453 E4.53360
G1 X30.557 Y11.102 E0.05423
G1 X-11.126 Y-30.581 E4.57979
G1 X-11.803 Y-30.352 E0.05557
G1 X30.299 Y11.750 E4.62597
G1 X30.042 Y12.399 E0.05423
G1 X-12.449 Y-30.092 E4.66864
G1 X-13.073 Y-29.809 E0.05319
G1 X29.784 Y13.048 E4.70886
G1 X29.526 Y13.696 E0.05420
G1 X-13.692 Y-29.522 E4.74858
G1 X-14.312 Y-29.236 E0.05304
G1 X29.213 Y14.289 E4.78225
G1 X28.900 Y14.882 E0.05211
G1 X-14.931 Y-28.949 E4.81592
G1 X-15.526 Y-28.638 E0.05216
G1 X28.587 Y15.475 E4.84686
G1 X28.274 Y16.069 E0.05211
G1 X-16.098 Y-28.304 E4.87533
G1 X-16.664 Y-27.963 E0.05130
G1 X27.961 Y16.662 E4.90309
G1 X27.606 Y17.213 E0.05094
G1 X-17.230 Y-27.623 E4.92627
G1 X-17.796 Y-27.282 E0.05130
G1 X27.241 Y17.754 E4.94832
G1 X26.875 Y18.295 E0.05071
G1 X-18.348 Y-26.928 E4.96889
G1 X-18.875 Y-26.549 E0.05044
G1 X26.510 Y18.836 E4.98664
G1 X26.145 Y19.377 E0.05071
G1 X-19.390 Y-26.158 E5.00309
G1 X-19.905 Y-25.766 E0.05024
G1 X25.758 Y19.896 E5.01707
G1 X25.343 Y20.387 E0.04996
G1 X-20.419 Y-25.375 E5.02804
G1 X-20.934 Y-24.983 E0.05024
G1 X24.928 Y20.878 E5.03900
G1 X24.513 Y21.369 E0.04996
G1 X-21.417 Y-24.561 E5.04650
G1 X-21.884 Y-24.121 E0.04981
G1 X24.097 Y21.861 E5.05221
G1 X23.668 Y22.337 E0.04985
G1 X-22.350 Y-23.680 E5.05612
G1 X-22.815 Y-23.240 E0.04980
G1 X23.215 Y22.790 E5.05747
G1 X22.754 Y23.235 E0.04979
G1 X-23.272 Y-22.790 E5.05700
G1 X-23.725 Y-22.337 E0.04978
G1 X22.290 Y23.678 E5.05580
G1 X21.826 Y24.120 E0.04980
G1 X-24.156 Y-21.861 E5.05213
G1 X-24.572 Y-21.371 E0.04995
G1 X21.362 Y24.562 E5.04687
G1 X20.870 Y24.976 E0.04997
G1 X-24.988 Y-20.881 E5.03857
G1 X-25.404 Y-20.391 E0.04995
G1 X20.356 Y25.369 E5.02790
G1 X19.843 Y25.762 E0.05022
G1 X-25.817 Y-19.898 E5.01687
G1 X-26.203 Y-19.378 E0.05033
G1 X19.330 Y26.155 E5.00285
G1 X18.817 Y26.548 E0.05022
G1 X-26.569 Y-18.838 E4.98668
G1 X-26.935 Y-18.297 E0.05069
G1 X18.295 Y26.933 E4.96964
G1 X17.731 Y27.275 E0.05125
G1 X-27.301 Y-17.757 E4.94790
G1 X-27.668 Y-17.217 E0.05069
G1 X17.167 Y27.617 E4.92617
G1 X16.603 Y27.960 E0.05125
G1 X-28.011 Y-16.655 E4.90196
G1 X-28.332 Y-16.069 E0.05186
G1 X16.039 Y28.302 E4.87525
G1 X15.475 Y28.644 E0.05125
G1 X-28.646 Y-15.477 E4.84778
G1 X-28.960 Y-14.885 E0.05208
G1 X14.865 Y28.940 E4.81525
G1 X14.248 Y29.229 E0.05296
G1 X-29.274 Y-14.293 E4.78191
G1 X-29.572 Y-13.684 E0.05263
G1 X13.630 Y29.518 E4.74679
G1 X13.013 Y29.807 E0.05296
G1 X-29.843 Y-13.049 E4.70869
G1 X-30.101 Y-12.401 E0.05420
G1 X12.395 Y30.095 E4.66922
G1 X11.743 Y30.349 E0.05438
G1 X-30.359 Y-11.753 E4.62593
G1 X-30.617 Y-11.105 E0.05420
G1 X11.069 Y30.581 E4.58017
G1 X10.391 Y30.809 E0.05557
G1 X-30.859 Y-10.441 E4.53229
G1 X-31.070 Y-9.745 E0.05646
G1 X9.713 Y31.038 E4.48098
G1 X9.035 Y31.266 E0.05557
G1 X-31.267 Y-9.036 E4.42814
G1 X-31.464 Y-8.327 E0.05719
G1 X8.316 Y31.453 E4.37074
G1 X7.575 Y31.618 E0.05899
G1 X-31.661 Y-7.617 E4.31095
G1 X-31.832 Y-6.883 E0.05863
G1 X6.832 Y31.782 E4.24817
G1 X6.089 Y31.945 E0.05909
G1 X-31.967 Y-6.111 E4.18134
G1 X-32.094 Y-5.332 E0.06130
G1 X5.334 Y32.096 E4.11243
G1 X4.529 Y32.197 E0.06306
G1 X-32.222 Y-4.554 E4.03796
G1 X-32.339 Y-3.765 E0.06196
G1 X3.712 Y32.286 E3.96106
G1 X2.894 Y32.375 E0.06387
G1 X-32.410 Y-2.930 E3.87907
G1 X-32.457 Y-2.070 E0.06688
G1 X2.077 Y32.464 E3.79439
G1 X1.194 Y32.487 E0.06861
G1 X-32.504 Y-1.211 E3.70252
G1 X-32.543 Y-0.344 E0.06742
G1 X0.288 Y32.487 E3.60727
G1 X-0.618 Y32.487 E0.07041
G1 X-32.523 Y0.582 E3.50552
G1 X-32.471 Y1.541 E0.07455
G1 X-1.530 Y32.482 E3.39964
G1 X-2.526 Y32.392 E0.07773
G1 X-32.419 Y2.499 E3.28446
G1 X-32.341 Y3.484 E0.07676
G1 X-3.543 Y32.281 E3.16410
G1 X-4.560 Y32.171 E0.07946
G1 X-32.178 Y4.552 E3.03451
G1 X-32.000 Y5.636 E0.08534
G1 X-5.640 Y31.997 E2.89632
G1 X-6.802 Y31.741 E0.09244
G1 X-31.805 Y6.738 E2.74722
G1 X-31.492 Y7.958 E0.09785
G1 X-7.964 Y31.485 E2.58509
G1 X-9.225 Y31.130 E0.10183
G1 X-31.143 Y9.212 E2.40820
G1 X-30.743 Y10.518 E0.10611
G1 X-10.592 Y30.669 E2.21412
G1 X-12.000 Y30.167 F15000.000
G1 X-30.143 Y12.024 E1.99343 F960.000
G1 X-29.499 Y13.575 F15000.000
G1 X-13.662 Y29.411 E1.74005 F960.000
G1 X-15.449 Y28.531 F15000.000
G1 X-28.503 Y15.477 E1.43429 F960.000
G1 X-27.097 Y17.790 F15000.000
G1 X-17.722 Y27.165 E1.03007 F960.000
G1 X-22.684 Y23.108 F15000.000
G1 X-23.828 Y21.964 E0.12570 F960.000
G1 X10.548 Y-30.656 F15000.000
G1 X30.678 Y-10.526 E2.21179 F960.000
G1 X30.082 Y-12.028 F15000.000
G1 X11.925 Y-30.186 E1.99501 F960.000
G1 X13.604 Y-29.413 F15000.000
G1 X29.455 Y-13.562 E1.74161 F960.000
G1 X28.441 Y-15.481 F15000.000
G1 X15.391 Y-28.531 E1.43386 F960.000
G1 X17.696 Y-27.133 F15000.000
G1 X27.025 Y-17.804 E1.02503 F960.000
G1 X23.843 Y-21.892 F15000.000
G1 X22.818 Y-22.917 E0.11260 F960.000
G1 E-3.50000 F1500.00000
G1 Z0.700 F15000.000
G1 X30.907 Y-13.000 F15000.000
G1 Z0.500 F15000.000
G1 E3.50000 F1500.00000
G1 X31.843 Y-10.625 E0.07367 F3600.000
G1 X32.797 Y-7.152 E0.10396
G1 X33.374 Y-3.597 E0.10396
G1 X33.568 Y0.000 E0.10396
G1 X33.458 Y2.063 E0.05962
G1 X33.375 Y3.596 E0.04433
G1 X32.797 Y7.152 E0.10396
G1 X31.843 Y10.625 E0.10396
G1 X30.522 Y13.976 E0.10396
G1 X28.850 Y17.166 E0.10396
G1 X26.846 Y20.158 E0.10396
G1 X24.533 Y22.919 E0.10395
G1 X21.937 Y25.418 E0.10401
G1 X20.314 Y26.692 E0.05955
G1 X19.091 Y27.622 E0.04434
G1 X17.340 Y28.718 E0.05962
G1 X16.024 Y29.510 E0.04434
G1 X14.166 Y30.413 E0.05962
G1 X12.772 Y31.058 E0.04434
G1 X10.829 Y31.759 E0.05962
G1 X9.373 Y32.249 E0.04434
G1 X7.366 Y32.739 E0.05962
G1 X5.866 Y33.069 E0.04434
G1 X3.819 Y33.344 E0.05962
G1 X2.292 Y33.510 E0.04434
G1 X0.227 Y33.565 E0.05962
G1 X-1.309 Y33.565 E0.04434
G1 X-3.368 Y33.400 E0.05962
G1 X-4.895 Y33.234 E0.04434
G1 X-6.925 Y32.851 E0.05962
G1 X-8.425 Y32.521 E0.04434
G1 X-10.403 Y31.925 E0.05962
G1 X-11.859 Y31.434 E0.04434
