; generated by Slic3r 1.2.9 on 2019-08-06 at 13:52:27

; external perimeters extrusion width = 0.40mm
; perimeters extrusion width = 0.40mm
; infill extrusion width = 0.40mm
; solid infill extrusion width = 0.40mm
; top infill extrusion width = 0.40mm

M107
M83
T0
M116
G21 ; set units to millimeters
G90 ; use absolute coordinates
M83 ; use relative distances for extrusion
G1 E-3.50000 F1500.00000
G1 Z0.400 F15000.000
G1 X0.091 Y-36.210 F15000.000
G1 Z0.300 F15000.000
G1 E3.50000 F1500.00000
G1 X1.968 Y-36.205 E0.14463 F960.000
G1 X5.779 Y-35.800 E0.29540 F960.000
G1 X9.616 Y-34.965 E0.30260
G1 X13.340 Y-33.720 E0.30260
G1 X16.908 Y-32.080 E0.30260
G1 X20.424 Y-29.965 E0.31623
G1 X23.544 Y-27.581 E0.30260
G1 X26.388 Y-24.874 E0.30260
G1 X28.815 Y-22.016 E0.28897
G1 X31.027 Y-18.771 E0.30260
G1 X32.950 Y-15.142 E0.31654
G1 X34.417 Y-11.409 E0.30913
G1 X35.434 Y-7.709 E0.29571
G1 X36.060 Y-3.833 E0.30260
G1 X36.263 Y0.089 E0.30260
G1 X36.041 Y4.009 E0.30260
G1 X35.396 Y7.882 E0.30260
G1 X34.393 Y11.495 E0.28897
G1 X32.949 Y15.146 E0.30260
G1 X31.027 Y18.771 E0.31623
G1 X28.815 Y22.016 E0.30260
G1 X26.266 Y25.002 E0.30260
G1 X23.544 Y27.581 E0.28897
G1 X20.424 Y29.965 E0.30260
G1 X17.064 Y31.997 E0.30260
G1 X13.505 Y33.655 E0.30260
G1 X9.787 Y34.918 E0.30260
G1 X5.954 Y35.771 E0.30260
G1 X2.052 Y36.205 E0.30260
G1 X-1.875 Y36.215 E0.30260
G1 X-5.779 Y35.800 E0.30260
G1 X-9.616 Y34.965 E0.30260
G1 X-13.586 Y33.617 E0.32307
G1 X-17.064 Y31.997 E0.29571
G1 X-20.424 Y29.965 E0.30260
G1 X-23.544 Y27.581 E0.30260
G1 X-26.388 Y24.874 E0.30260
G1 X-28.922 Y21.875 E0.30260
G1 X-31.118 Y18.620 E0.30260
G1 X-32.874 Y15.307 E0.28897
G1 X-34.337 Y11.663 E0.30260
G1 X-35.396 Y7.882 E0.30260
G1 X-36.041 Y4.009 E0.30260
G1 X-36.263 Y-0.089 E0.31623
G1 X-36.060 Y-3.833 E0.28897
G1 X-35.434 Y-7.709 E0.30260
G1 X-34.335 Y-11.667 E0.31654
G1 X-32.833 Y-15.386 E0.30913
G1 X-31.027 Y-18.771 E0.29571
G1 X-28.815 Y-22.016 E0.30260
G1 X-26.266 Y-25.002 E0.30260
G1 X-23.544 Y-27.581 E0.28897
G1 X-20.424 Y-29.965 E0.30260
G1 X-17.064 Y-31.997 E0.30260
G1 X-13.505 Y-33.655 E0.30260
G1 X-9.787 Y-34.918 E0.30260
G1 X-5.954 Y-35.771 E0.30260
G1 X-2.052 Y-36.205 E0.30260
G1 X0.031 Y-36.210 E0.16051
G1 E-3.50000 F1500.00000
G1 Z0.700 F15000.000
G1 X-5.217 Y-33.224 F15000.000
G1 Z0.300 F15000.000
G1 E3.50000 F1500.00000
G1 X-1.823 Y-33.593 E0.26309 F720.000
G1 X1.909 Y-33.584 E0.28758
G1 X5.443 Y-33.200 E0.27394 F720.000
G1 X9.000 Y-32.417 E0.28073
G1 X12.453 Y-31.253 E0.28073
G1 X15.759 Y-29.724 E0.28073
G1 X18.880 Y-27.846 E0.28073
G1 X21.780 Y-25.641 E0.28073
G1 X24.425 Y-23.136 E0.28073
G1 X26.783 Y-20.360 E0.28073
G1 X28.827 Y-17.345 E0.28073
G1 X30.533 Y-14.127 E0.28064
G1 X31.905 Y-10.657 E0.28758
G1 X32.856 Y-7.232 E0.27394
G1 X33.446 Y-3.637 E0.28073
G1 X33.643 Y-0.000 E0.28073
G1 X33.446 Y3.637 E0.28073
G1 X32.856 Y7.232 E0.28073
G1 X31.882 Y10.742 E0.28073
G1 X30.533 Y14.126 E0.28073
G1 X28.827 Y17.345 E0.28073
G1 X26.783 Y20.360 E0.28073
G1 X24.425 Y23.136 E0.28073
G1 X21.780 Y25.641 E0.28073
G1 X18.880 Y27.846 E0.28073
G1 X15.759 Y29.724 E0.28073
G1 X12.453 Y31.253 E0.28073
G1 X9.000 Y32.417 E0.28073
G1 X5.443 Y33.200 E0.28073
G1 X1.821 Y33.594 E0.28073
G1 X-1.821 Y33.594 E0.28073
G1 X-5.443 Y33.200 E0.28073
G1 X-8.999 Y32.417 E0.28064
G1 X-12.532 Y31.216 E0.28758
G1 X-15.759 Y29.724 E0.27394
G1 X-18.880 Y27.846 E0.28073
G1 X-21.780 Y25.641 E0.28073
G1 X-24.425 Y23.136 E0.28073
G1 X-26.783 Y20.360 E0.28073
G1 X-28.827 Y17.345 E0.28073
G1 X-30.533 Y14.126 E0.28073
G1 X-31.882 Y10.742 E0.28073
G1 X-32.856 Y7.232 E0.28073
G1 X-33.446 Y3.637 E0.28073
G1 X-33.643 Y-0.000 E0.28073
G1 X-33.446 Y-3.637 E0.28073
G1 X-32.856 Y-7.232 E0.28073
G1 X-31.882 Y-10.741 E0.28064
G1 X-30.492 Y-14.204 E0.28758
G1 X-28.827 Y-17.345 E0.27394
G1 X-26.783 Y-20.360 E0.28073
G1 X-24.425 Y-23.136 E0.28073
G1 X-21.780 Y-25.641 E0.28073
G1 X-18.880 Y-27.846 E0.28073
G1 X-15.759 Y-29.724 E0.28073
G1 X-12.453 Y-31.253 E0.28073
G1 X-9.000 Y-32.417 E0.28073
G1 X-5.443 Y-33.200 E0.28073
G1 X-5.276 Y-33.218 E0.01292
G1 X-5.345 Y-33.850 F15000.000
G1 X-1.856 Y-34.229 E0.27043 F720.000
G1 X1.944 Y-34.220 E0.29289
G1 X5.546 Y-33.828 E0.27919 F720.000
G1 X9.171 Y-33.030 E0.28604
G1 X12.688 Y-31.845 E0.28604
G1 X16.057 Y-30.286 E0.28604
G1 X19.237 Y-28.373 E0.28604
G1 X22.192 Y-26.126 E0.28604
G1 X24.887 Y-23.574 E0.28604
G1 X27.290 Y-20.745 E0.28604
G1 X29.373 Y-17.673 E0.28604
G1 X31.111 Y-14.394 E0.28601
G1 X32.509 Y-10.860 E0.29289
G1 X33.478 Y-7.369 E0.27919
G1 X34.078 Y-3.706 E0.28604
G1 X34.279 Y-0.000 E0.28604
G1 X34.078 Y3.706 E0.28604
G1 X33.478 Y7.369 E0.28604
G1 X32.485 Y10.945 E0.28604
G1 X31.111 Y14.394 E0.28604
G1 X29.373 Y17.673 E0.28604
G1 X27.290 Y20.745 E0.28604
G1 X24.887 Y23.574 E0.28604
G1 X22.192 Y26.126 E0.28604
G1 X19.237 Y28.373 E0.28604
G1 X16.057 Y30.286 E0.28604
G1 X12.688 Y31.845 E0.28604
G1 X9.171 Y33.030 E0.28604
G1 X5.546 Y33.828 E0.28604
G1 X1.856 Y34.229 E0.28604
G1 X-1.856 Y34.229 E0.28604
G1 X-5.546 Y33.828 E0.28604
G1 X-9.170 Y33.030 E0.28601
G1 X-12.769 Y31.807 E0.29289
G1 X-16.057 Y30.286 E0.27919
G1 X-19.237 Y28.373 E0.28604
G1 X-22.192 Y26.126 E0.28604
G1 X-24.887 Y23.574 E0.28604
G1 X-27.290 Y20.745 E0.28604
G1 X-29.373 Y17.673 E0.28604
G1 X-31.111 Y14.394 E0.28604
G1 X-32.485 Y10.945 E0.28604
G1 X-33.478 Y7.369 E0.28604
G1 X-34.078 Y3.706 E0.28604
G1 X-34.279 Y-0.000 E0.28604
G1 X-34.078 Y-3.706 E0.28604
G1 X-33.478 Y-7.369 E0.28604
G1 X-32.485 Y-10.945 E0.28601
G1 X-31.070 Y-14.472 E0.29289
G1 X-29.373 Y-17.673 E0.27919
G1 X-27.290 Y-20.745 E0.28604
G1 X-24.887 Y-23.574 E0.28604
G1 X-22.192 Y-26.126 E0.28604
G1 X-19.237 Y-28.373 E0.28604
G1 X-16.057 Y-30.286 E0.28604
G1 X-12.688 Y-31.845 E0.28604
G1 X-9.171 Y-33.030 E0.28604
G1 X-5.546 Y-33.828 E0.28604
G1 X-5.405 Y-33.843 E0.01095
G1 X-5.109 Y-33.527 F15000.000
G1 X9.662 Y-31.734 F15000.000
G1 X31.741 Y-9.655 E2.40901 F960.000
G1 X32.087 Y-8.410 E0.09975
G1 X8.368 Y-32.128 E2.58796
G1 X7.214 Y-32.382 E0.09116
G1 X32.433 Y-7.164 E2.75160
G1 X32.634 Y-6.063 E0.08632
G1 X6.060 Y-32.636 E2.89941
G1 X4.946 Y-32.851 E0.08755
G1 X32.810 Y-4.987 E3.04024
G1 X32.986 Y-3.910 E0.08416
G1 X3.936 Y-32.960 E3.16967
G1 X2.927 Y-33.070 E0.07836
G1 X33.092 Y-2.905 E3.29135
G1 X33.143 Y-1.953 E0.07352
G1 X1.917 Y-33.180 E3.40715
G1 X0.996 Y-33.201 E0.07103
G1 X33.195 Y-1.002 E3.51321
G1 X33.247 Y-0.050 E0.07352
G1 X0.094 Y-33.203 E3.61728
G1 X-0.808 Y-33.205 E0.06961
G1 X33.219 Y0.822 E3.71275
G1 X33.173 Y1.676 E0.06596
G1 X-1.710 Y-33.207 E3.80613
G1 X-2.544 Y-33.141 E0.06453
G1 X33.127 Y2.530 E3.89205
G1 X33.081 Y3.383 E0.06596
G1 X-3.355 Y-33.053 E3.97556
G1 X-4.167 Y-32.965 E0.06299
G1 X32.985 Y4.188 E4.05371
G1 X32.858 Y4.961 E0.06045
G1 X-4.979 Y-32.876 E4.12844
G1 X-5.763 Y-32.761 E0.06118
G1 X32.732 Y5.734 E4.20021
G1 X32.605 Y6.507 E0.06045
G1 X-6.501 Y-32.599 E4.26686
G1 X-7.238 Y-32.436 E0.05827
G1 X32.476 Y7.278 E4.33326
G1 X32.280 Y7.982 E0.05640
G1 X-7.976 Y-32.274 E4.39240
G1 X-8.714 Y-32.112 E0.05827
G1 X32.085 Y8.687 E4.45154
G1 X31.889 Y9.391 E0.05640
G1 X-9.411 Y-31.909 E4.50633
G1 X-10.085 Y-31.683 E0.05480
G1 X31.694 Y10.096 E4.55844
G1 X31.490 Y10.792 E0.05599
G1 X-10.758 Y-31.456 E4.60971
G1 X-11.431 Y-31.229 E0.05480
G1 X31.234 Y11.436 E4.65518
G1 X30.978 Y12.079 E0.05345
G1 X-12.104 Y-31.002 E4.70064
G1 X-12.744 Y-30.743 E0.05331
G1 X30.721 Y12.723 E4.74253
G1 X30.465 Y13.366 E0.05345
G1 X-13.359 Y-30.458 E4.78168
G1 X-13.975 Y-30.173 E0.05230
G1 X30.208 Y14.010 E4.82084
G1 X29.899 Y14.601 E0.05145
G1 X-14.590 Y-29.889 E4.85425
G1 X-15.205 Y-29.604 E0.05230
G1 X29.588 Y15.189 E4.88737
G1 X29.276 Y15.777 E0.05136
G1 X-15.806 Y-29.304 E4.91886
G1 X-16.367 Y-28.966 E0.05059
G1 X28.964 Y16.365 E4.94614
G1 X28.652 Y16.953 E0.05136
G1 X-16.929 Y-28.628 E4.97343
G1 X-17.491 Y-28.290 E0.05059
G1 X28.311 Y17.512 E4.99753
G1 X27.948 Y18.049 E0.04999
G1 X-18.053 Y-27.952 E5.01916
G1 X-18.615 Y-27.614 E0.05059
G1 X27.584 Y18.585 E5.04079
G1 X27.220 Y19.121 E0.04999
G1 X-19.136 Y-27.235 E5.05796
G1 X-19.647 Y-26.846 E0.04955
G1 X26.857 Y19.657 E5.07407
G1 X26.492 Y20.192 E0.04996
G1 X-20.158 Y-26.458 E5.09003
G1 X-20.670 Y-26.069 E0.04955
G1 X26.078 Y20.679 E5.10072
G1 X25.665 Y21.166 E0.04926
G1 X-21.181 Y-25.680 E5.11141
G1 X-21.681 Y-25.281 E0.04940
G1 X25.252 Y21.652 E5.12089
G1 X24.839 Y22.139 E0.04926
G1 X-22.143 Y-24.843 E5.12622
G1 X-22.605 Y-24.405 E0.04911
G1 X24.425 Y22.625 E5.13155
G1 X23.983 Y23.083 E0.04910
G1 X-23.068 Y-23.968 E5.13369
G1 X-23.530 Y-23.530 E0.04911
G1 X23.530 Y23.530 E5.13469
G1 X23.068 Y23.968 E0.04911
G1 X-23.983 Y-23.083 E5.13369
G1 X-24.425 Y-22.625 E0.04910
G1 X22.605 Y24.405 E5.13155
G1 X22.143 Y24.843 E0.04911
G1 X-24.839 Y-22.139 E5.12622
G1 X-25.252 Y-21.652 E0.04926
G1 X21.681 Y25.281 E5.12089
G1 X21.181 Y25.681 E0.04940
G1 X-25.665 Y-21.166 E5.11141
G1 X-26.079 Y-20.679 E0.04926
G1 X20.670 Y26.069 E5.10072
G1 X20.158 Y26.458 E0.04955
G1 X-26.492 Y-20.192 E5.09003
G1 X-26.857 Y-19.657 E0.04996
G1 X19.647 Y26.846 E5.07407
G1 X19.136 Y27.235 E0.04955
G1 X-27.220 Y-19.121 E5.05796
G1 X-27.584 Y-18.585 E0.04999
G1 X18.615 Y27.614 E5.04079
G1 X18.053 Y27.952 E0.05059
G1 X-27.948 Y-18.048 E5.01916
G1 X-28.311 Y-17.512 E0.04999
G1 X17.491 Y28.290 E4.99753
G1 X16.929 Y28.628 E0.05059
G1 X-28.652 Y-16.953 E4.97342
G1 X-28.964 Y-16.365 E0.05136
G1 X16.367 Y28.966 E4.94614
G1 X15.806 Y29.304 E0.05059
G1 X-29.276 Y-15.777 E4.91886
G1 X-29.588 Y-15.189 E0.05136
G1 X15.205 Y29.604 E4.88736
G1 X14.590 Y29.889 E0.05230
G1 X-29.899 Y-14.601 E4.85425
G1 X-30.201 Y-14.003 E0.05168
G1 X13.975 Y30.173 E4.82007
G1 X13.359 Y30.458 E0.05230
G1 X-30.459 Y-13.361 E4.78106
G1 X-30.717 Y-12.718 E0.05339
G1 X12.744 Y30.743 E4.74205
G1 X12.104 Y31.002 E0.05331
G1 X-30.975 Y-12.076 E4.70031
G1 X-31.232 Y-11.434 E0.05339
G1 X11.431 Y31.229 E4.65499
G1 X10.758 Y31.456 E0.05480
G1 X-31.490 Y-10.792 E4.60967
G1 X-31.694 Y-10.096 E0.05597
G1 X10.084 Y31.683 E4.55844
G1 X9.411 Y31.909 E0.05480
G1 X-31.889 Y-9.391 E4.50633
G1 X-32.085 Y-8.687 E0.05640
G1 X8.714 Y32.112 E4.45153
G1 X7.976 Y32.274 E0.05827
G1 X-32.280 Y-7.982 E4.39239
G1 X-32.476 Y-7.278 E0.05640
G1 X7.238 Y32.436 E4.33325
G1 X6.501 Y32.599 E0.05827
G1 X-32.605 Y-6.507 E4.26685
G1 X-32.732 Y-5.734 E0.06045
G1 X5.763 Y32.761 E4.20021
G1 X4.979 Y32.876 E0.06118
G1 X-32.858 Y-4.961 E4.12844
G1 X-32.985 Y-4.188 E0.06045
G1 X4.167 Y32.965 E4.05371
G1 X3.355 Y33.053 E0.06299
G1 X-33.081 Y-3.383 E3.97555
G1 X-33.127 Y-2.529 E0.06596
G1 X2.544 Y33.141 E3.89205
G1 X1.711 Y33.208 E0.06447
G1 X-33.173 Y-1.676 E3.80621
G1 X-33.219 Y-0.822 E0.06596
G1 X0.811 Y33.208 E3.71307
G1 X-0.089 Y33.208 E0.06943
G1 X-33.247 Y0.050 E3.61785
G1 X-33.195 Y1.002 E0.07352
G1 X-0.989 Y33.208 E3.51403
G1 X-1.917 Y33.180 E0.07163
G1 X-33.143 Y1.954 E3.40714
G1 X-33.092 Y2.905 E0.07352
G1 X-2.927 Y33.070 E3.29134
G1 X-3.936 Y32.960 E0.07836
G1 X-32.986 Y3.910 E3.16966
G1 X-32.810 Y4.987 E0.08416
G1 X-4.946 Y32.851 E3.04023
G1 X-6.060 Y32.636 E0.08755
G1 X-32.633 Y6.063 E2.89940
G1 X-32.433 Y7.164 E0.08632
G1 X-7.214 Y32.382 E2.75159
G1 X-8.368 Y32.128 E0.09116
G1 X-32.087 Y8.410 E2.58794
G1 X-31.741 Y9.655 E0.09975
G1 X-9.667 Y31.730 E2.40853
G1 X-11.030 Y31.267 F15000.000
G1 X-31.303 Y10.994 E2.21199 F960.000
G1 X-30.707 Y12.490 F15000.000
G1 X-12.436 Y30.760 E1.99353 F960.000
G1 X-14.111 Y29.986 F15000.000
G1 X-30.051 Y14.045 E1.73925 F960.000
G1 X-29.035 Y15.961 F15000.000
G1 X-15.927 Y29.069 E1.43026 F960.000
G1 X-18.186 Y27.710 F15000.000
G1 X-27.591 Y18.305 E1.02611 F960.000
G1 X-24.340 Y22.455 F15000.000
G1 X-23.376 Y23.420 E0.10524 F960.000
G1 X31.289 Y-11.007 F15000.000
G1 X11.020 Y-31.277 E2.21160 F960.000
G1 X12.436 Y-30.760 F15000.000
G1 X30.700 Y-12.496 E1.99283 F960.000
G1 X30.051 Y-14.045 F15000.000
G1 X14.111 Y-29.986 E1.73927 F960.000
G1 X15.927 Y-29.069 F15000.000
G1 X29.035 Y-15.961 E1.43029 F960.000
G1 X27.591 Y-18.305 F15000.000
G1 X18.186 Y-27.710 E1.02614 F960.000
G1 X23.375 Y-23.421 F15000.000
G1 X24.341 Y-22.455 E0.10542 F960.000
G1 E-3.50000 F1500.00000
G1 Z0.700 F15000.000
G1 X-29.963 Y-16.116 F15000.000
G1 Z0.500 F15000.000
G1 E3.50000 F1500.00000
G1 X-29.195 Y-17.566 E0.04735 F3600.000
G1 X-27.125 Y-20.620 E0.10648
G1 X-24.736 Y-23.431 E0.10648
G1 X-22.058 Y-25.968 E0.10648
G1 X-19.121 Y-28.201 E0.10648
G1 X-15.960 Y-30.103 E0.10648
G1 X-12.611 Y-31.652 E0.10648
G1 X-9.115 Y-32.830 E0.10648
G1 X-5.512 Y-33.623 E0.10648
G1 X-1.845 Y-34.022 E0.10648
G1 X1.845 Y-34.022 E0.10648
G1 X2.056 Y-33.999 E0.00613
G1 X5.512 Y-33.623 E0.10035 F3600.000
G1 X9.115 Y-32.830 E0.10648
G1 X12.611 Y-31.652 E0.10648
G1 X15.960 Y-30.103 E0.10648
G1 X19.121 Y-28.201 E0.10648
G1 X22.058 Y-25.968 E0.10648
G1 X24.736 Y-23.431 E0.10648
G1 X27.124 Y-20.620 E0.10648
G1 X29.195 Y-17.566 E0.10648
G1 X30.923 Y-14.306 E0.10648
G1 X32.288 Y-10.879 E0.10648
G1 X33.275 Y-7.324 E0.10648
G1 X33.872 Y-3.684 E0.10648
G1 X34.072 Y-0.000 E0.10648
G1 X33.872 Y3.684 E0.10648
G1 X33.275 Y7.324 E0.10648
G1 X32.288 Y10.879 E0.10648
G1 X30.923 Y14.306 E0.10648
G1 X29.195 Y17.566 E0.10648
G1 X27.124 Y20.620 E0.10648
G1 X24.736 Y23.431 E0.10648
G1 X22.058 Y25.968 E0.10648
G1 X19.121 Y28.201 E0.10648
G1 X15.960 Y30.103 E0.10648
G1 X12.611 Y31.652 E0.10648
G1 X9.115 Y32.830 E0.10648
G1 X5.512 Y33.623 E0.10648
G1 X1.845 Y34.022 E0.10648
G1 X-1.845 Y34.022 E0.10648
G1 X-5.512 Y33.623 E0.10648
G1 X-9.115 Y32.830 E0.10648
G1 X-12.611 Y31.652 E0.10648
G1 X-15.960 Y30.103 E0.10648
G1 X-19.121 Y28.201 E0.10648
G1 X-22.058 Y25.968 E0.10648
G1 X-24.736 Y23.431 E0.10648
G1 X-27.125 Y20.620 E0.10648
G1 X-29.195 Y17.566 E0.10648
G1 X-30.923 Y14.306 E0.10648
G1 X-32.288 Y10.879 E0.10648
G1 X-33.275 Y7.324 E0.10648
G1 X-33.872 Y3.684 E0.10648
G1 X-34.072 Y-0.000 E0.10648
G1 X-33.872 Y-3.684 E0.10648
G1 X-33.275 Y-7.324 E0.10648
G1 X-32.288 Y-10.879 E0.10648
G1 X-30.923 Y-14.306 E0.10648
G1 X-29.991 Y-16.063 E0.05740
G1 X-30.307 Y-16.231 F15000.000
G1 X-29.501 Y-17.750 E0.04964 F3600.000
G1 X-27.409 Y-20.836 E0.10760
G1 X-24.996 Y-23.677 E0.10760
G1 X-22.289 Y-26.241 E0.10760
G1 X-19.321 Y-28.497 E0.10760
G1 X-16.127 Y-30.419 E0.10760
G1 X-12.744 Y-31.984 E0.10760
G1 X-9.211 Y-33.175 E0.10760
G1 X-5.570 Y-33.976 E0.10760
G1 X-1.864 Y-34.379 E0.10760
G1 X1.864 Y-34.379 E0.10760
G1 X2.094 Y-34.354 E0.00669
G1 X5.570 Y-33.976 E0.10091 F3600.000
G1 X9.211 Y-33.175 E0.10760
G1 X12.744 Y-31.984 E0.10760
G1 X16.127 Y-30.419 E0.10760
G1 X19.321 Y-28.497 E0.10760
G1 X22.289 Y-26.241 E0.10760
G1 X24.996 Y-23.677 E0.10760
G1 X27.409 Y-20.836 E0.10760
G1 X29.501 Y-17.750 E0.10760
G1 X31.247 Y-14.457 E0.10760
G1 X32.627 Y-10.993 E0.10760
G1 X33.625 Y-7.401 E0.10760
G1 X34.228 Y-3.722 E0.10760
G1 X34.430 Y-0.000 E0.10760
G1 X34.228 Y3.722 E0.10760
G1 X33.625 Y7.401 E0.10760
G1 X32.627 Y10.993 E0.10760
G1 X31.247 Y14.457 E0.10760
G1 X29.501 Y17.750 E0.10760
G1 X27.409 Y20.836 E0.10760
G1 X24.996 Y23.677 E0.10760
G1 X22.289 Y26.241 E0.10760
G1 X19.321 Y28.497 E0.10760
G1 X16.127 Y30.419 E0.10760
G1 X12.744 Y31.984 E0.10760
G1 X9.211 Y33.175 E0.10760
G1 X5.570 Y33.976 E0.10760
G1 X1.864 Y34.379 E0.10760
G1 X-1.864 Y34.379 E0.10760
G1 X-5.570 Y33.976 E0.10760
G1 X-9.211 Y33.175 E0.10760
G1 X-12.744 Y31.984 E0.10760
G1 X-16.127 Y30.419 E0.10760
G1 X-19.321 Y28.497 E0.10760
G1 X-22.289 Y26.241 E0.10760
G1 X-24.996 Y23.677 E0.10760
G1 X-27.409 Y20.836 E0.10760
G1 X-29.501 Y17.750 E0.10760
G1 X-31.247 Y14.457 E0.10760
G1 X-32.627 Y10.993 E0.10760
G1 X-33.625 Y7.401 E0.10760
G1 X-34.228 Y3.722 E0.10760
G1 X-34.430 Y-0.000 E0.10760
G1 X-34.228 Y-3.723 E0.10760
G1 X-33.625 Y-7.401 E0.10760
G1 X-32.627 Y-10.993 E0.10760
G1 X-31.247 Y-14.457 E0.10760
G1 X-30.335 Y-16.178 E0.05622
G1 X-29.907 Y-16.245 F15000.000
G1 X-29.765 Y-15.952 F15000.000
G1 X-15.847 Y-29.870 E0.56829 F4800.000
G1 X-14.882 Y-30.330 F15000.000
G1 X-30.335 Y-14.877 E0.63098 F4800.000
G1 X-30.837 Y-13.870 F15000.000
G1 X-13.942 Y-30.765 E0.68987 F4800.000
G1 X-13.002 Y-31.200 F15000.000
G1 X-31.172 Y-13.030 E0.74192 F4800.000
G1 X-31.507 Y-12.190 F15000.000
G1 X-12.132 Y-31.565 E0.79111 F4800.000
