; GCode generated by RepRap Java Host Software
; Created: 2012-09-05:15-22-10
;#!RECTANGLE: <BOX x:[l:18.034591764625652, h:122.81229355039032], y:[l:34.03212842463985, h:104.90068563217102]>
M110
G21
G90
T0
M83
M104 S205.0
G92 E0
G28 X0
G28 Y0
G28 Z0
M109 S205.0
G1 X16.03 Y32.03 F2500.0
G1 X124.81 E3.392
G1 Y106.9 E2.335
G1 X16.03 E3.392
G1 Y32.03 E2.335
G1 F5612.6
G1 E-3.118
G1 F2500.0
;#!LAYER: 1/59
G92 E0
G1 Z0.25 F200.0
G1 X16.03 Y32.03
G1 X51.69 Y79.74 F15000.0
T0
G1 F5612.6
G1 E3.118
G1 F2500.0
G1 F78.0
G1 E0.065
G1 F2500.0
G1 Y79.53 E0.007 F2250.0
G1 X47.94 Y71.49 E0.277
G1 X47.55 Y71.25 E0.014
G1 X46.41 Y71.7 E0.038
G1 X39.39 Y74.97 E0.241
G1 X39.09 Y75.33 E0.015
G1 Y75.63 E0.009
G1 X42.96 Y83.79 E0.282
G1 X43.23 Y83.91 E0.009
G1 X43.44 Y83.88 E0.007
G1 X51.54 Y80.04 E0.28
G1 X51.69 Y79.74 E0.01
G1 X51.42 Y79.68 E0.009
G1 X47.67 Y71.64 E0.277
G1 X47.49 Y71.55 E0.006
G1 X39.42 Y75.33 E0.278
G1 Y75.63 E0.009
G1 X43.17 Y83.58 E0.274
G1 X43.26 Y83.61 E0.003
G1 X51.36 Y79.8 E0.279
G1 X51.42 Y79.68 E0.004
G1 F5612.6
G1 E-3.118
G1 F2500.0
G1 X51.69 Y79.74
G1 X42.69 Y98.28 F15000.0
G1 F5612.6
G1 E3.118
G1 F2500.0
G1 F78.0
G1 E0.065
G1 F2500.0
G1 X38.76 Y97.38 E0.126 F2250.0
G1 X34.62 Y95.43 E0.143
G1 X31.32 Y93.0 E0.128
G1 X28.68 Y90.12 E0.122
G1 X26.43 Y86.31 E0.138
G1 X25.11 Y82.53 E0.125
G1 X24.54 Y78.45 E0.128
G1 X24.81 Y73.98 E0.14
G1 X25.95 Y69.99 E0.129
G1 X27.96 Y66.09 E0.137
G1 X30.51 Y62.94 E0.126
G1 X33.75 Y60.24 E0.132
G1 X37.53 Y58.26 E0.133
G1 X41.46 Y57.09 E0.128
G1 X45.6 Y56.7 E0.13
G1 X49.77 Y57.18 E0.131
G1 X55.83 Y59.13 E0.199
G1 X57.93 Y59.37 E0.066
G1 X59.85 Y59.19 E0.06
G1 X61.5 Y58.74 E0.053
G1 X63.09 Y58.17 E0.053
G1 X106.2 Y41.01 E1.447
G1 X107.73 Y40.59 E0.049
G1 X109.68 Y40.56 E0.061
G1 X111.36 Y40.95 E0.054
G1 X112.98 Y41.76 E0.056
G1 X114.18 Y42.72 E0.048
G1 X115.17 Y43.98 E0.05
G1 X115.98 Y45.66 E0.058
G1 X116.31 Y47.37 E0.054
G1 X116.25 Y49.14 E0.055
G1 X115.8 Y50.85 E0.055
G1 X114.78 Y52.56 E0.062
G1 X113.82 Y53.64 E0.045
G1 X112.14 Y54.78 E0.063
G1 X70.35 Y77.28 E1.48
G1 X68.58 Y78.54 E0.068
G1 X67.29 Y79.89 E0.058
G1 X66.24 Y81.57 E0.062
G1 X63.9 Y87.3 E0.193
G1 X61.44 Y90.96 E0.138
G1 X58.5 Y93.87 E0.129
G1 X54.93 Y96.15 E0.132
G1 X51.0 Y97.68 E0.132
G1 X46.98 Y98.4 E0.127
G1 X42.69 Y98.28 E0.134
G1 X42.63 Y98.55 E0.009
G1 X38.61 Y97.65 E0.128
G1 X34.98 Y96.0 E0.124
G1 X31.71 Y93.69 E0.125
G1 X30.9 Y92.97 E0.034
G1 X28.32 Y90.12 E0.12
G1 X26.16 Y86.46 E0.133
G1 X24.78 Y82.41 E0.133
G1 X24.24 Y78.42 E0.126
G1 X24.48 Y74.7 E0.116
G1 X24.51 Y73.95 E0.023
G1 X25.68 Y69.84 E0.133
G1 X27.69 Y65.97 E0.136
G1 X30.3 Y62.73 E0.13
G1 X33.57 Y60.0 E0.133
G1 X37.44 Y57.99 E0.136
G1 X41.43 Y56.79 E0.13
G1 X45.87 Y56.43 E0.139
G1 X50.07 Y56.94 E0.132
G1 X55.89 Y58.83 E0.191
G1 X58.05 Y59.04 E0.068
G1 X59.79 Y58.89 E0.054
G1 X61.74 Y58.35 E0.063
G1 X106.08 Y40.71 E1.488
G1 X107.73 Y40.29 E0.053
G1 X109.65 Y40.26 E0.06
G1 X111.21 Y40.56 E0.05
G1 X113.19 Y41.55 E0.069
G1 X114.42 Y42.51 E0.049
G1 X115.5 Y43.92 E0.055
G1 X116.28 Y45.63 E0.059
G1 X116.61 Y47.31 E0.053
G1 X116.55 Y49.26 E0.061
G1 X116.1 Y50.94 E0.054
G1 X115.29 Y52.38 E0.052
G1 X114.0 Y53.88 E0.062
G1 X112.32 Y55.02 E0.063
G1 X70.41 Y77.58 E1.484
G1 X68.91 Y78.63 E0.057
G1 X67.56 Y80.07 E0.062
G1 X66.6 Y81.54 E0.055
G1 X64.14 Y87.45 E0.2
G1 X61.71 Y91.11 E0.137
G1 X58.65 Y94.11 E0.134
G1 X55.08 Y96.42 E0.133
G1 X51.18 Y97.95 E0.131
G1 X47.01 Y98.7 E0.132
G1 X42.63 Y98.55 E0.137
G1 F5612.6
G1 E-3.118
G1 F2500.0
G1 X42.69 Y98.28
G1 X107.76 Y51.84 F15000.0
G1 F5612.6
G1 E3.118
G1 F2500.0
G1 F78.0
G1 E0.065
G1 F2500.0
G1 X109.95 E0.068 F2250.0
G1 X111.87 Y50.58 E0.072
G1 X112.8 Y48.45 E0.072
G1 X112.5 Y46.47 E0.062
G1 X112.08 Y45.87 E0.023
G1 X110.97 Y44.67 E0.051
G1 X110.49 Y44.46 E0.016
G1 X108.84 Y44.01 E0.053
G1 X106.62 Y44.7 E0.072
G1 X105.24 Y46.32 E0.066
G1 X105.12 Y46.8 E0.015
G1 X104.91 Y48.69 E0.059
G1 X105.81 Y50.55 E0.064
G1 X105.99 Y50.76 E0.009
G1 X107.76 Y51.84 E0.065
G1 X107.88 Y51.57 E0.009
G1 X109.95 Y51.51 E0.065
G1 X111.66 Y50.37 E0.064
G1 X112.47 Y48.48 E0.064
G1 X112.2 Y46.53 E0.061
G1 X110.91 Y45.0 E0.062
G1 X110.7 Y44.82 E0.009
G1 X108.81 Y44.31 E0.061
G1 X106.83 Y44.91 E0.065
G1 X105.48 Y46.53 E0.066
G1 X105.21 Y48.51 E0.062
G1 X106.11 Y50.46 E0.067
G1 X107.88 Y51.57 E0.065
G1 F5612.6
G1 E-3.118
G1 F2500.0
G1 X107.76 Y51.84
G1 X106.98 Y51.48 F15000.0
G1 F5612.6
G1 E3.118
G1 F2500.0
G1 F78.0
G1 E0.065
G1 F2500.0
G1 X93.93 Y64.47 E0.574
G1 X93.15 Y64.89 E0.028
G1 X106.68 Y51.3 E0.598
G1 X106.47 Y51.15 E0.008
G1 X92.22 Y65.4 E0.628
G1 F5612.6
G1 E-3.118
G1 F2500.0
G1 X95.01 Y63.87 F15000.0
G1 F5612.6
G1 E3.118
G1 F2500.0
G1 F78.0
G1 E0.065
G1 F2500.0
G1 X107.28 Y51.66 E0.54
G1 X107.46 Y51.78 E0.007
G1 X95.94 Y63.39 E0.51
G1 X96.72 Y62.97 E0.028
G1 X107.79 Y51.96 E0.487
G1 X108.15 E0.011
G1 X97.77 Y62.4 E0.459
G1 X98.55 Y61.98 E0.028
G1 X108.63 Y51.96 E0.443
G1 X109.02 Y51.93 E0.012
G1 X99.57 Y61.44 E0.418
G1 X100.35 Y61.02 E0.028
G1 X109.53 Y51.93 E0.403
G1 X109.86 E0.01
G1 X101.46 Y60.42 E0.372
G1 X102.18 Y60.03 E0.026
G1 X111.0 Y51.27 E0.388
G1 F5612.6
G1 E-3.118
G1 F2500.0
G1 X115.17 Y51.78 F15000.0
G1 F5612.6
G1 E3.118
G1 F2500.0
G1 F78.0
G1 E0.065
G1 F2500.0
G1 X114.66 Y52.56 E0.029
G1 X113.58 Y53.7 E0.049
G1 X112.53 Y54.42 E0.04
G1 X115.26 Y51.63 E0.122
G1 X115.74 Y50.79 E0.03
G1 X111.39 Y55.08 E0.191
G1 X110.61 Y55.5 E0.028
G1 X115.89 Y50.16 E0.234
G1 X116.04 Y49.65 E0.017
G1 X109.59 Y56.04 E0.283
G1 X108.81 Y56.46 E0.028
G1 X116.19 Y48.99 E0.327
G1 Y48.66 E0.01
G1 X107.7 Y57.06 E0.372
G1 X106.98 Y57.45 E0.026
G1 X116.22 Y48.12 E0.409
G1 Y47.76 E0.011
G1 X105.87 Y58.05 E0.455
G1 X105.09 Y58.47 E0.028
G1 X116.22 Y47.28 E0.492
G1 X116.16 Y46.98 E0.01
G1 X104.07 Y59.01 E0.532
G1 X103.29 Y59.43 E0.028
G1 X116.07 Y46.59 E0.565
G1 X116.01 Y46.29 E0.01
G1 X112.32 Y49.89 E0.161
G1 X112.56 Y49.32 E0.019
G1 X115.92 Y45.87 E0.15
G1 X115.86 Y45.6 E0.009
G1 X112.86 Y48.51 E0.13
G1 Y48.15 E0.011
G1 X115.71 Y45.27 E0.126
G1 X115.59 Y45.03 E0.008
G1 X112.77 Y47.76 E0.122
G1 X112.74 Y47.43 E0.01
G1 X115.44 Y44.7 E0.12
G1 X115.32 Y44.46 E0.008
G1 X112.68 Y47.01 E0.114
G1 X112.62 Y46.71 E0.01
G1 X115.14 Y44.1 E0.113
G1 X114.99 Y43.92 E0.007
G1 X112.53 Y46.32 E0.107
G1 X112.41 Y46.11 E0.008
G1 X114.78 Y43.62 E0.107
G1 X114.63 Y43.44 E0.007
G1 X112.17 Y45.84 E0.107
G1 X111.99 Y45.63 E0.009
G1 X114.42 Y43.17 E0.108
G1 X114.27 Y42.96 E0.008
G1 X111.78 Y45.39 E0.108
G1 X111.6 Y45.18 E0.009
G1 X114.06 Y42.72 E0.108
G1 X113.79 Y42.54 E0.01
G1 X111.36 Y44.91 E0.106
G1 X111.21 Y44.76 E0.007
G1 X113.55 Y42.33 E0.105
G1 X113.34 Y42.18 E0.008
G1 X110.94 Y44.52 E0.105
G1 X110.67 Y44.43 E0.009
G1 X113.07 Y41.94 E0.108
G1 X112.86 Y41.79 E0.008
G1 X110.31 Y44.31 E0.112
G1 X110.01 Y44.22 E0.01
G1 X112.56 Y41.64 E0.113
G1 X112.29 Y41.52 E0.009
G1 X109.65 Y44.13 E0.116
G1 X109.32 Y44.04 E0.011
G1 X111.96 Y41.34 E0.118
G1 X111.72 Y41.22 E0.008
G1 X108.96 Y43.95 E0.121
G1 X108.6 E0.011
G1 X111.39 Y41.07 E0.125
G1 X111.15 Y40.95 E0.008
G1 X107.94 Y44.16 E0.142
G1 F5612.6
G1 E-3.118
G1 F2500.0
G1 X107.34 Y44.34 F15000.0
G1 F5612.6
G1 E3.118
G1 F2500.0
G1 F78.0
G1 E0.065
G1 F2500.0
G1 X110.79 Y40.89 E0.152
G1 X110.43 Y40.8 E0.012
G1 X78.45 Y72.81 E1.411
G1 X79.23 Y72.39 E0.028
G1 X105.06 Y46.62 E1.138
G1 X105.0 Y47.04 E0.013
G1 X80.28 Y71.82 E1.091
G1 X81.06 Y71.4 E0.028
G1 X104.94 Y47.61 E1.051
G1 X104.88 Y48.0 E0.012
G1 X82.17 Y70.8 E1.003
G1 X82.89 Y70.41 E0.026
G1 X104.79 Y48.57 E0.964
G1 F5612.6
G1 E-3.118
G1 F2500.0
G1 X106.2 Y51.0 F15000.0
G1 F5612.6
G1 E3.118
G1 F2500.0
G1 F78.0
G1 E0.065
G1 F2500.0
G1 X91.2 Y65.94 E0.66
G1 X90.42 Y66.36 E0.028
G1 X105.93 Y50.82 E0.685
G1 X105.75 Y50.61 E0.009
G1 X89.31 Y66.96 E0.723
G1 X88.59 Y67.35 E0.026
G1 X105.57 Y50.28 E0.751
G1 X105.48 Y50.07 E0.007
G1 X87.48 Y67.95 E0.791
G1 X86.7 Y68.37 E0.028
G1 X105.3 Y49.71 E0.822
G1 X105.18 Y49.47 E0.008
G1 X85.68 Y68.91 E0.859
G1 X84.9 Y69.33 E0.028
G1 X105.03 Y49.14 E0.889
G1 X104.91 Y48.9 E0.008
G1 X83.97 Y69.84 E0.923
G1 F5612.6
G1 E-3.118
G1 F2500.0
G1 X70.08 Y77.34 F15000.0
G1 F5612.6
G1 E3.118
G1 F2500.0
G1 F78.0
G1 E0.065
G1 F2500.0
G1 X106.41 Y41.04 E1.601
G1 X106.89 Y40.92 E0.015
G1 X71.13 Y76.74 E1.578
G1 X71.91 Y76.32 E0.028
G1 X107.55 Y40.74 E1.57
G1 X108.0 Y40.65 E0.014
G1 X72.93 Y75.78 E1.548
G1 X73.71 Y75.36 E0.028
G1 X108.48 Y40.65 E1.532
G1 X108.84 E0.011
G1 X74.82 Y74.76 E1.502
G1 X75.54 Y74.37 E0.026
G1 X109.32 Y40.65 E1.488
G1 X109.71 Y40.68 E0.012
G1 X76.56 Y73.83 E1.462
G1 X77.43 Y73.35 E0.031
G1 X110.1 Y40.74 E1.439
G1 F5612.6
G1 E-3.118
G1 F2500.0
G1 X102.93 Y42.39 F15000.0
G1 F5612.6
G1 E3.118
G1 F2500.0
G1 F78.0
G1 E0.065
G1 F2500.0
G1 X46.95 Y98.31 E2.467
G1 X46.59 E0.011
G1 X102.12 Y42.72 E2.45
G1 X101.52 Y42.96 E0.02
G1 X46.11 Y98.28 E2.441
G1 X45.78 E0.01
G1 X100.68 Y43.29 E2.423
G1 X100.14 Y43.5 E0.018
G1 X45.3 Y98.25 E2.416
G1 X44.94 E0.011
G1 X99.42 Y43.77 E2.402
G1 F5612.6
G1 E-3.118
G1 F2500.0
G1 X98.7 Y44.07 F15000.0
G1 F5612.6
G1 E3.118
G1 F2500.0
G1 F78.0
G1 E0.065
G1 F2500.0
G1 X44.46 Y98.25 E2.391
G1 X44.13 Y98.22 E0.01
G1 X97.89 Y44.4 E2.372
G1 X97.32 Y44.61 E0.019
G1 X43.65 Y98.22 E2.365
G1 X43.29 E0.011
G1 X96.45 Y44.97 E2.346
G1 X95.91 Y45.18 E0.018
G1 X42.81 Y98.19 E2.34
G1 X42.54 Y98.16 E0.008
G1 X95.19 Y45.45 E2.323
G1 F5612.6
G1 E-3.118
G1 F2500.0
G1 X94.47 Y45.75 F15000.0
G1 F5612.6
G1 E3.118
G1 F2500.0
G1 F78.0
G1 E0.065
G1 F2500.0
G1 X42.12 Y98.07 E2.308
G1 X41.82 Y97.98 E0.01
G1 X93.66 Y46.08 E2.287
G1 X93.09 Y46.29 E0.019
G1 X41.43 Y97.89 E2.277
G1 X41.13 Y97.83 E0.01
G1 X92.4 Y46.56 E2.261
G1 F5612.6
G1 E-3.118
G1 F2500.0
G1 X91.65 Y46.86 F15000.0
G1 F5612.6
G1 E3.118
G1 F2500.0
G1 F78.0
G1 E0.065
G1 F2500.0
G1 X40.71 Y97.74 E2.245
G1 X40.44 Y97.68 E0.009
G1 X90.81 Y47.22 E2.223
G1 X90.27 Y47.43 E0.018
G1 X40.02 Y97.59 E2.214
G1 X39.75 Y97.53 E0.009
G1 X89.43 Y47.76 E2.193
G1 X88.86 Y47.97 E0.019
G1 X39.36 Y97.44 E2.182
G1 X39.06 Y97.35 E0.01
G1 X88.02 Y48.33 E2.16
G1 X87.45 Y48.54 E0.019
G1 X38.7 Y97.26 E2.149
G1 X38.43 Y97.14 E0.009
G1 X86.58 Y48.9 E2.125
G1 X86.04 Y49.11 E0.018
G1 X38.1 Y96.99 E2.113
G1 X37.86 Y96.87 E0.008
G1 X85.32 Y49.38 E2.094
G1 F5612.6
G1 E-3.118
G1 F2500.0
G1 X81.78 Y50.79 F15000.0
G1 F5612.6
G1 E3.118
G1 F2500.0
G1 F78.0
G1 E0.065
G1 F2500.0
G1 X36.33 Y96.18 E2.003
G1 X36.09 Y96.09 E0.008
G1 X80.94 Y51.15 E1.98
G1 X80.4 Y51.36 E0.018
G1 X35.76 Y95.94 E1.967
G1 X35.49 Y95.82 E0.009
G1 X50.67 Y80.58 E0.671
G1 X50.01 Y80.88 E0.023
G1 X35.19 Y95.67 E0.653
G1 X34.95 Y95.52 E0.009
G1 X49.05 Y81.36 E0.623
G1 X48.39 Y81.66 E0.023
G1 X34.65 Y95.34 E0.605
G1 X34.44 Y95.19 E0.008
G1 X47.4 Y82.14 E0.573
G1 X46.77 Y82.44 E0.022
G1 X34.14 Y94.98 E0.555
G1 X33.96 Y94.86 E0.007
G1 X45.81 Y82.89 E0.525
G1 X45.12 Y83.22 E0.024
G1 X33.66 Y94.62 E0.504
G1 X33.45 Y94.47 E0.008
G1 X44.19 Y83.67 E0.475
G1 X43.59 Y83.91 E0.02
G1 X33.18 Y94.29 E0.458
G1 X32.97 Y94.11 E0.009
G1 X43.05 Y83.97 E0.446
G1 X42.87 Y83.82 E0.007
G1 X32.67 Y93.9 E0.447
G1 X32.49 Y93.78 E0.007
G1 X42.66 Y83.49 E0.451
G1 X42.57 Y83.25 E0.008
G1 X32.19 Y93.54 E0.456
G1 X32.01 Y93.42 E0.007
G1 X42.39 Y82.92 E0.46
G1 X42.3 Y82.68 E0.008
G1 X31.71 Y93.21 E0.466
G1 X31.5 Y93.03 E0.009
G1 X42.15 Y82.35 E0.47
G1 X42.03 Y82.11 E0.008
G1 X31.26 Y92.82 E0.474
G1 X31.08 Y92.61 E0.009
G1 X41.85 Y81.75 E0.477
G1 X41.76 Y81.54 E0.007
G1 X30.84 Y92.34 E0.479
G1 X30.69 Y92.16 E0.007
G1 X41.58 Y81.18 E0.482
G1 X41.49 Y80.94 E0.008
G1 X30.45 Y91.92 E0.486
G1 X30.27 Y91.71 E0.009
G1 X41.31 Y80.61 E0.488
G1 X41.22 Y80.37 E0.008
G1 X30.06 Y91.47 E0.491
G1 X29.88 Y91.29 E0.008
G1 X41.07 Y80.04 E0.495
G1 X40.95 Y79.8 E0.008
G1 X29.64 Y91.02 E0.497
G1 X29.46 Y90.84 E0.008
G1 X40.77 Y79.44 E0.501
G1 X40.68 Y79.23 E0.007
G1 X29.25 Y90.57 E0.502
G1 X29.07 Y90.39 E0.008
G1 X40.5 Y78.87 E0.506
G1 X40.41 Y78.63 E0.008
G1 X28.83 Y90.15 E0.509
G1 X28.68 Y89.94 E0.008
G1 X40.23 Y78.3 E0.511
G1 X40.14 Y78.06 E0.008
G1 X28.47 Y89.64 E0.513
G1 X28.35 Y89.4 E0.008
G1 X39.96 Y77.7 E0.514
G1 X39.87 Y77.49 E0.007
G1 X28.17 Y89.1 E0.514
G1 X28.05 Y88.89 E0.008
G1 X39.69 Y77.13 E0.516
G1 X39.6 Y76.92 E0.007
G1 X27.84 Y88.56 E0.516
G1 X27.72 Y88.35 E0.008
G1 X39.42 Y76.56 E0.518
G1 X39.3 Y76.32 E0.008
G1 X27.54 Y88.05 E0.518
G1 X27.39 Y87.81 E0.009
G1 X39.15 Y75.99 E0.52
G1 X39.06 Y75.75 E0.008
G1 X27.21 Y87.48 E0.52
G1 X27.09 Y87.27 E0.008
G1 X39.06 Y75.21 E0.53
G1 X39.39 Y74.88 E0.015
G1 X55.23 Y59.04 E0.698
G1 X54.99 Y58.95 E0.008
G1 X26.91 Y86.97 E1.237
G1 X26.79 Y86.76 E0.008
G1 X54.63 Y58.83 E1.23
G1 X54.33 Y58.74 E0.01
G1 X26.58 Y86.43 E1.222
G1 X26.49 Y86.16 E0.009
G1 X54.0 Y58.62 E1.214
G1 F5612.6
G1 E-3.118
G1 F2500.0
G1 X53.7 Y58.53 F15000.0
G1 F5612.6
G1 E3.118
G1 F2500.0
G1 F78.0
G1 E0.065
G1 F2500.0
G1 X26.37 Y85.83 E1.205
G1 X26.28 Y85.56 E0.009
G1 X53.31 Y58.41 E1.195
G1 X53.07 Y58.32 E0.008
G1 X26.13 Y85.17 E1.186
G1 X26.04 Y84.93 E0.008
G1 X52.71 Y58.2 E1.177
G1 X52.41 Y58.11 E0.01
G1 X25.92 Y84.54 E1.167
G1 X25.83 Y84.27 E0.009
G1 X52.08 Y57.99 E1.158
G1 F5612.6
G1 E-3.118
G1 F2500.0
G1 X51.78 Y57.9 F15000.0
G1 F5612.6
G1 E3.118
G1 F2500.0
G1 F78.0
G1 E0.065
G1 F2500.0
G1 X25.71 Y83.94 E1.149
G1 X25.62 Y83.67 E0.009
G1 X51.45 Y57.78 E1.14
G1 X51.12 Y57.69 E0.011
G1 X25.47 Y83.28 E1.13
G1 X25.38 Y83.04 E0.008
G1 X50.79 Y57.57 E1.122
G1 F5612.6
G1 E-3.118
G1 F2500.0
G1 X50.49 Y57.48 F15000.0
G1 F5612.6
G1 E3.118
G1 F2500.0
G1 F78.0
G1 E0.065
G1 F2500.0
G1 X25.26 Y82.65 E1.111
G1 X25.17 Y82.41 E0.008
G1 X50.13 Y57.36 E1.103
G1 X49.83 Y57.3 E0.01
G1 X25.11 Y81.96 E1.089
G1 X25.08 Y81.63 E0.01
G1 X49.41 Y57.24 E1.074
G1 X49.11 Y57.18 E0.01
G1 X25.02 Y81.21 E1.061
G1 X24.96 Y80.91 E0.01
G1 X48.66 Y57.12 E1.047
G1 X48.36 E0.009
G1 X24.9 Y80.46 E1.032
G1 X24.87 Y80.16 E0.009
G1 X47.88 Y57.06 E1.017
G1 X47.61 Y57.03 E0.008
G1 X24.81 Y79.71 E1.003
G1 X24.78 Y79.41 E0.009
G1 X47.13 Y56.97 E0.988
G1 X46.8 Y56.94 E0.01
G1 X24.72 Y78.96 E0.972
G1 X24.66 Y78.66 E0.01
G1 X46.38 Y56.88 E0.959
G1 X46.05 Y56.85 E0.01
G1 X24.63 Y78.18 E0.943
G1 X24.66 Y77.82 E0.011
G1 X45.66 Y56.79 E0.927
G1 X45.18 Y56.85 E0.015
G1 X24.69 Y77.28 E0.902
G1 X24.72 Y76.92 E0.011
G1 X44.67 Y56.88 E0.882
G1 X44.28 Y56.91 E0.012
G1 X24.72 Y76.41 E0.861
G1 X24.78 Y75.99 E0.013
G1 X43.74 Y56.97 E0.837
G1 X43.35 Y57.0 E0.012
G1 X24.81 Y75.48 E0.816
G1 Y75.12 E0.011
G1 X42.78 Y57.06 E0.794
G1 X42.42 Y57.09 E0.011
G1 X24.87 Y74.55 E0.772
G1 X24.9 Y74.19 E0.011
G1 X41.85 Y57.15 E0.749
G1 X41.49 Y57.18 E0.011
G1 X25.05 Y73.53 E0.723
G1 X25.2 Y73.02 E0.017
G1 X40.77 Y57.39 E0.688
G1 X40.29 Y57.51 E0.015
G1 X25.38 Y72.36 E0.656
G1 X25.53 Y71.85 E0.017
G1 X39.69 Y57.69 E0.624
G1 F5612.6
G1 E-3.118
G1 F2500.0
G1 X39.03 Y57.9 F15000.0
G1 F5612.6
G1 E3.118
G1 F2500.0
G1 F78.0
G1 E0.065
G1 F2500.0
G1 X25.71 Y71.16 E0.586
G1 X25.83 Y70.71 E0.015
G1 X38.43 Y58.08 E0.556
G1 F5612.6
G1 E-3.118
G1 F2500.0
G1 X37.83 Y58.26 F15000.0
G1 F5612.6
G1 E3.118
G1 F2500.0
G1 F78.0
G1 E0.065
G1 F2500.0
G1 X26.04 Y69.99 E0.519
G1 X26.4 Y69.3 E0.024
G1 X36.93 Y58.68 E0.466
G1 X36.18 Y59.07 E0.026
G1 X26.88 Y68.37 E0.41
G1 F5612.6
G1 E-3.118
G1 F2500.0
G1 X27.33 Y67.5 F15000.0
G1 F5612.6
G1 E3.118
G1 F2500.0
G1 F78.0
G1 E0.065
G1 F2500.0
G1 X35.16 Y59.61 E0.347
G1 X34.44 Y59.97 E0.025
G1 X27.84 Y66.51 E0.29
G1 X28.14 Y66.03 E0.018
G1 X28.95 Y65.01 E0.041
G1 X32.94 Y61.02 E0.176
G1 F5612.6
G1 E-3.118
G1 F2500.0
G1 X55.59 Y59.16 F15000.0
G1 F5612.6
G1 E3.118
G1 F2500.0
G1 F78.0
G1 E0.065
G1 F2500.0
G1 X40.32 Y74.46 E0.674
G1 X40.98 Y74.16 E0.023
G1 X55.98 Y59.22 E0.66
G1 F5612.6
G1 E-3.118
G1 F2500.0
G1 X56.34 Y59.28 F15000.0
G1 F5612.6
G1 E3.118
G1 F2500.0
G1 F78.0
G1 E0.065
G1 F2500.0
G1 X41.88 Y73.74 E0.638
G1 X42.57 Y73.41 E0.024
G1 X56.73 Y59.31 E0.623
G1 X57.03 Y59.37 E0.01
G1 X43.53 Y72.96 E0.597
G1 X44.13 Y72.69 E0.021
G1 X57.51 Y59.4 E0.588
G1 X57.78 Y59.46 E0.009
G1 X45.09 Y72.24 E0.562
G1 X45.72 Y71.94 E0.022
G1 X58.29 Y59.43 E0.553
G1 X58.8 Y59.37 E0.016
G1 X46.68 Y71.49 E0.534
G1 X47.34 Y71.19 E0.023
G1 X59.25 Y59.34 E0.524
G1 X59.64 Y59.31 E0.012
G1 X47.79 Y71.25 E0.525
G1 X47.97 Y71.4 E0.007
G1 X60.27 Y59.19 E0.54
G1 X60.75 Y59.04 E0.016
G1 X48.15 Y71.73 E0.558
G1 X48.27 Y71.97 E0.008
G1 X61.47 Y58.83 E0.581
G1 X61.92 Y58.71 E0.015
G1 X48.42 Y72.3 E0.597
G1 X48.54 Y72.54 E0.008
G1 X62.76 Y58.38 E0.626
G1 X63.33 Y58.17 E0.019
G1 X48.69 Y72.87 E0.647
G1 X48.81 Y73.11 E0.008
G1 X64.14 Y57.84 E0.675
G1 F5612.6
G1 E-3.118
G1 F2500.0
G1 X64.86 Y57.54 F15000.0
G1 F5612.6
G1 E3.118
G1 F2500.0
G1 F78.0
G1 E0.065
G1 F2500.0
G1 X48.96 Y73.47 E0.702
G1 X49.08 Y73.71 E0.008
G1 X65.58 Y57.27 E0.726
G1 X66.12 Y57.06 E0.018
G1 X49.23 Y74.04 E0.747
G1 X49.35 Y74.28 E0.008
G1 X66.96 Y56.73 E0.775
G1 X67.56 Y56.49 E0.02
G1 X49.5 Y74.61 E0.798
G1 X49.62 Y74.85 E0.008
G1 X68.4 Y56.13 E0.827
G1 X68.97 Y55.92 E0.019
G1 X49.77 Y75.18 E0.848
G1 X49.89 Y75.45 E0.009
G1 X69.78 Y55.59 E0.876
G1 F5612.6
G1 E-3.118
G1 F2500.0
G1 X70.5 Y55.29 F15000.0
G1 F5612.6
G1 E3.118
G1 F2500.0
G1 F78.0
G1 E0.065
G1 F2500.0
G1 X50.04 Y75.78 E0.903
G1 X50.16 Y76.02 E0.008
G1 X71.22 Y55.02 E0.927
G1 X71.76 Y54.81 E0.018
G1 X50.31 Y76.35 E0.948
G1 X50.43 Y76.59 E0.008
G1 X72.6 Y54.48 E0.976
G1 X73.2 Y54.24 E0.02
G1 X50.58 Y76.92 E0.999
G1 X50.7 Y77.19 E0.009
G1 X74.04 Y53.88 E1.029
G1 X74.61 Y53.67 E0.019
G1 X50.85 Y77.49 E1.049
G1 X50.97 Y77.76 E0.009
G1 X75.42 Y53.34 E1.078
G1 F5612.6
G1 E-3.118
G1 F2500.0
G1 X76.14 Y53.04 F15000.0
G1 F5612.6
G1 E3.118
G1 F2500.0
G1 F78.0
G1 E0.065
G1 F2500.0
G1 X51.12 Y78.09 E1.104
G1 X51.24 Y78.33 E0.008
G1 X76.83 Y52.77 E1.128
G1 X77.46 Y52.53 E0.021
G1 X51.39 Y78.66 E1.151
G1 X51.51 Y78.93 E0.009
G1 X78.24 Y52.23 E1.178
G1 X78.84 Y51.99 E0.02
G1 X51.66 Y79.23 E1.2
G1 X51.78 Y79.5 E0.009
G1 X79.68 Y51.63 E1.23
G1 F5612.6
G1 E-3.118
G1 F2500.0
G1 X66.63 Y80.79 F15000.0
G1 F5612.6
G1 E3.118
G1 F2500.0
G1 F78.0
G1 E0.065
G1 F2500.0
G1 X49.5 Y97.86 E0.754
G1 X49.08 Y97.95 E0.013
G1 X105.6 Y41.34 E2.494
G1 X105.06 Y41.55 E0.018
G1 X48.54 Y98.04 E2.492
G1 X48.03 Y98.13 E0.016
G1 X104.22 Y41.88 E2.479
G1 X103.65 Y42.09 E0.019
G1 X47.52 Y98.22 E2.475
G1 F5612.6
G1 E-3.118
G1 F2500.0
G1 X55.65 Y95.61 F15000.0
G1 F5612.6
G1 E3.118
G1 F2500.0
G1 F78.0
G1 E0.065
G1 F2500.0
G1 X63.57 Y87.63 E0.351
G1 X63.93 Y87.0 E0.023
G1 X63.99 Y86.85 E0.005
G1 X54.57 Y96.21 E0.414
G1 X53.97 Y96.45 E0.02
G1 X64.35 Y85.98 E0.46
G1 X64.56 Y85.44 E0.018
G1 X53.13 Y96.78 E0.502
G1 X52.59 Y96.99 E0.018
G1 X64.92 Y84.57 E0.546
G1 X65.16 Y83.97 E0.02
G1 X51.75 Y97.32 E0.59
G1 X51.15 Y97.56 E0.02
G1 X65.49 Y83.16 E0.634
G1 X65.73 Y82.56 E0.02
G1 X50.64 Y97.65 E0.665
G1 X50.13 Y97.74 E0.016
G1 X66.0 Y81.87 E0.7
G1 F5612.6
G1 E-3.118
G1 F2500.0
G1 X61.8 Y90.3 F15000.0
G1 F5612.6
G1 E3.118
G1 F2500.0
G1 F78.0
G1 E0.065
G1 F2500.0
G1 X61.26 Y91.02 E0.028
G1 X58.29 Y93.9 E0.129
G1 X58.05 Y94.05 E0.009
G1 X61.92 Y90.12 E0.172
G1 X62.64 Y89.04 E0.04
G1 X56.85 Y94.83 E0.255
G1 F5612.6
G1 E-3.118
G1 F2500.0
G1 X37.56 Y96.75 F15000.0
G1 F5612.6
G1 E3.118
G1 F2500.0
G1 F78.0
G1 E0.065
G1 F2500.0
G1 X84.48 Y49.74 E2.071
G1 X83.91 Y49.95 E0.019
G1 X37.23 Y96.6 E2.058
G1 X36.96 Y96.48 E0.009
G1 X83.1 Y50.28 E2.036
G1 X82.53 Y50.49 E0.019
G1 X36.69 Y96.36 E2.022
G1 F5612.6
G1 E-3.118
G1 F2500.0
;#!LAYER: 2/59
G92 E0
G1 Z0.5 F200.0
G1 X51.69 Y79.74 F15000.0
T0
G1 F5612.6
G1 E3.118
G1 F2500.0
G1 F78.0
G1 E0.065
G1 F2500.0
G1 Y79.53 E0.007 F2250.0
G1 X47.94 Y71.49 E0.277
G1 X47.55 Y71.25 E0.014
G1 X46.41 Y71.7 E0.038
G1 X39.39 Y74.97 E0.241
G1 X39.09 Y75.33 E0.015
G1 Y75.63 E0.009
G1 X42.96 Y83.79 E0.282
G1 X43.23 Y83.91 E0.009
G1 X43.44 Y83.88 E0.007
G1 X51.54 Y80.04 E0.28
G1 X51.69 Y79.74 E0.01
G1 X51.42 Y79.68 E0.009
G1 X47.67 Y71.64 E0.277
G1 X47.49 Y71.55 E0.006
G1 X39.42 Y75.33 E0.278
G1 Y75.63 E0.009
G1 X43.17 Y83.58 E0.274
G1 X43.26 Y83.61 E0.003
G1 X51.36 Y79.8 E0.279
G1 X51.42 Y79.68 E0.004
G1 F5612.6
G1 E-3.118
G1 F2500.0
G1 X51.69 Y79.74
G1 X42.69 Y98.28 F15000.0
G1 F5612.6
G1 E3.118
G1 F2500.0
G1 F78.0
G1 E0.065
G1 F2500.0
G1 X38.76 Y97.38 E0.126 F2250.0
G1 X34.62 Y95.43 E0.143
G1 X31.32 Y93.0 E0.128
G1 X28.68 Y90.12 E0.122
G1 X26.43 Y86.31 E0.138
G1 X25.11 Y82.53 E0.125
G1 X24.54 Y78.45 E0.128
G1 X24.81 Y73.98 E0.14
G1 X25.95 Y69.99 E0.129
G1 X27.96 Y66.09 E0.137
G1 X30.51 Y62.94 E0.126
G1 X33.75 Y60.24 E0.132
G1 X37.53 Y58.26 E0.133
G1 X41.46 Y57.09 E0.128
G1 X45.6 Y56.7 E0.13
G1 X49.77 Y57.18 E0.131
G1 X55.83 Y59.13 E0.199
G1 X57.93 Y59.37 E0.066
G1 X59.85 Y59.19 E0.06
G1 X61.5 Y58.74 E0.053
G1 X63.09 Y58.17 E0.053
G1 X106.2 Y41.01 E1.447
G1 X107.73 Y40.59 E0.049
G1 X109.68 Y40.56 E0.061
G1 X111.36 Y40.95 E0.054
G1 X112.98 Y41.76 E0.056
G1 X114.18 Y42.72 E0.048
G1 X115.17 Y43.98 E0.05
G1 X115.98 Y45.66 E0.058
G1 X116.31 Y47.37 E0.054
G1 X116.25 Y49.14 E0.055
G1 X115.8 Y50.85 E0.055
G1 X114.78 Y52.56 E0.062
G1 X113.82 Y53.64 E0.045
G1 X112.14 Y54.78 E0.063
G1 X70.35 Y77.28 E1.48
G1 X68.73 Y78.39 E0.061
G1 X67.29 Y79.86 E0.064
G1 X66.24 Y81.51 E0.061
G1 X63.84 Y87.39 E0.198
G1 X61.44 Y90.96 E0.134
G1 X58.5 Y93.87 E0.129
G1 X54.93 Y96.15 E0.132
G1 X51.0 Y97.68 E0.132
G1 X46.98 Y98.4 E0.127
G1 X42.69 Y98.28 E0.134
G1 X42.63 Y98.55 E0.009
G1 X38.61 Y97.65 E0.128
G1 X34.98 Y96.0 E0.124
G1 X31.71 Y93.69 E0.125
G1 X30.9 Y92.97 E0.034
G1 X28.32 Y90.12 E0.12
G1 X26.16 Y86.46 E0.133
G1 X24.78 Y82.41 E0.133
G1 X24.24 Y78.42 E0.126
G1 X24.48 Y74.7 E0.116
G1 X24.51 Y73.95 E0.023
G1 X25.68 Y69.84 E0.133
G1 X27.69 Y65.97 E0.136
G1 X30.3 Y62.73 E0.13
G1 X33.57 Y60.0 E0.133
G1 X37.44 Y57.99 E0.136
G1 X41.43 Y56.79 E0.13
G1 X45.87 Y56.43 E0.139
G1 X50.07 Y56.94 E0.132
G1 X55.89 Y58.83 E0.191
G1 X58.05 Y59.04 E0.068
G1 X59.79 Y58.89 E0.054
G1 X61.74 Y58.35 E0.063
G1 X106.08 Y40.71 E1.488
G1 X107.73 Y40.29 E0.053
G1 X109.65 Y40.26 E0.06
G1 X111.21 Y40.56 E0.05
G1 X113.19 Y41.55 E0.069
G1 X114.42 Y42.51 E0.049
G1 X115.5 Y43.92 E0.055
G1 X116.28 Y45.63 E0.059
G1 X116.61 Y47.31 E0.053
G1 X116.55 Y49.26 E0.061
G1 X116.1 Y50.94 E0.054
G1 X115.29 Y52.38 E0.052
G1 X114.0 Y53.88 E0.062
G1 X112.32 Y55.02 E0.063
G1 X70.41 Y77.58 E1.484
G1 X69.03 Y78.51 E0.052
G1 X67.56 Y80.01 E0.065
G1 X66.45 Y81.72 E0.064
G1 X64.08 Y87.57 E0.197
G1 X61.71 Y91.11 E0.133
G1 X58.65 Y94.11 E0.134
G1 X55.08 Y96.42 E0.133
G1 X51.18 Y97.95 E0.131
G1 X47.01 Y98.7 E0.132
G1 X42.63 Y98.55 E0.137
G1 F5612.6
G1 E-3.118
G1 F2500.0
G1 X42.69 Y98.28
G1 X107.76 Y51.84 F15000.0
G1 F5612.6
G1 E3.118
G1 F2500.0
G1 F78.0
G1 E0.065
G1 F2500.0
G1 X109.95 E0.068 F2250.0
G1 X111.87 Y50.58 E0.072
G1 X112.8 Y48.45 E0.072
G1 X112.5 Y46.47 E0.062
G1 X112.08 Y45.87 E0.023
G1 X110.97 Y44.67 E0.051
G1 X110.49 Y44.46 E0.016
G1 X108.84 Y44.01 E0.053
G1 X106.62 Y44.7 E0.072
G1 X105.24 Y46.32 E0.066
G1 X105.12 Y46.8 E0.015
G1 X104.91 Y48.69 E0.059
G1 X105.81 Y50.55 E0.064
G1 X105.99 Y50.76 E0.009
G1 X107.76 Y51.84 E0.065
G1 X107.88 Y51.57 E0.009
G1 X109.95 Y51.51 E0.065
G1 X111.66 Y50.37 E0.064
G1 X112.47 Y48.48 E0.064
G1 X112.2 Y46.53 E0.061
G1 X110.91 Y45.0 E0.062
G1 X110.7 Y44.82 E0.009
G1 X108.81 Y44.31 E0.061
G1 X106.83 Y44.91 E0.065
G1 X105.48 Y46.53 E0.066
G1 X105.21 Y48.51 E0.062
G1 X106.11 Y50.46 E0.067
G1 X107.88 Y51.57 E0.065
G1 F5612.6
G1 E-3.118
G1 F2500.0
G1 X107.76 Y51.84
G1 X109.62 Y51.93 F15000.0
G1 F5612.6
G1 E3.118
G1 F2500.0
G1 F78.0
G1 E0.065
G1 F2500.0
G1 X112.23 Y54.6 E0.116
G1 X112.02 Y54.72 E0.008
G1 X109.14 Y51.93 E0.125
G1 X108.84 Y51.96 E0.009
G1 X111.69 Y54.9 E0.128
G1 X111.45 Y55.02 E0.008
G1 X108.33 Y51.96 E0.136
G1 X107.97 E0.011
G1 X111.15 Y55.2 E0.142
G1 X110.91 Y55.32 E0.008
G1 X107.01 Y51.48 E0.171
G1 X106.05 Y50.88 E0.035
G1 X110.61 Y55.5 E0.202
G1 F5612.6
G1 E-3.118
G1 F2500.0
G1 X112.53 Y54.42 F15000.0
G1 F5612.6
G1 E3.118
G1 F2500.0
G1 F78.0
G1 E0.065
G1 F2500.0
G1 X110.04 Y51.9 E0.11
G1 X110.28 Y51.75 E0.009
G1 X112.8 Y54.24 E0.11
G1 X113.01 Y54.09 E0.008
G1 X110.55 Y51.57 E0.11
G1 X110.79 Y51.42 E0.009
G1 X113.28 Y53.88 E0.109
G1 F5612.6
G1 E-3.118
G1 F2500.0
G1 X111.33 Y51.09 F15000.0
G1 F5612.6
G1 E3.118
G1 F2500.0
G1 F78.0
G1 E0.065
G1 F2500.0
G1 X113.76 Y53.55 E0.108
G1 X113.55 Y53.7 E0.008
G1 X111.06 Y51.24 E0.109
G1 F5612.6
G1 E-3.118
G1 F2500.0
G1 X111.57 Y50.91 F15000.0
G1 F5612.6
G1 E3.118
G1 F2500.0
G1 F78.0
G1 E0.065
G1 F2500.0
G1 X114.0 Y53.28 E0.106
G1 X114.15 Y53.13 E0.007
G1 X111.84 Y50.76 E0.103
G1 X112.02 Y50.52 E0.009
G1 X114.39 Y52.86 E0.104
G1 X114.57 Y52.65 E0.009
G1 X112.17 Y50.22 E0.106
G1 X112.29 Y49.95 E0.009
G1 X114.78 Y52.41 E0.109
G1 X114.93 Y52.2 E0.008
G1 X112.44 Y49.59 E0.112
G1 X112.53 Y49.38 E0.007
G1 X115.11 Y51.87 E0.112
G1 X115.23 Y51.66 E0.008
G1 X112.68 Y49.05 E0.114
G1 X112.8 Y48.75 E0.01
G1 X115.41 Y51.33 E0.114
G1 X115.56 Y51.09 E0.009
G1 X112.86 Y48.36 E0.12
G1 F5612.6
G1 E-3.118
G1 F2500.0
G1 X115.98 Y49.8 F15000.0
G1 F5612.6
G1 E3.118
G1 F2500.0
G1 F78.0
G1 E0.065
G1 F2500.0
G1 X112.59 Y46.47 E0.148
G1 X112.65 Y46.89 E0.013
G1 X115.89 Y50.13 E0.143
G1 X115.8 Y50.46 E0.011
G1 X112.74 Y47.46 E0.134
G1 X112.8 Y47.88 E0.013
G1 X115.74 Y50.79 E0.129
G1 F5612.6
G1 E-3.118
G1 F2500.0
G1 X116.16 Y47.01 F15000.0
G1 F5612.6
G1 E3.118
G1 F2500.0
G1 F78.0
G1 E0.065
G1 F2500.0
G1 X109.89 Y40.71 E0.277
G1 X110.28 Y40.77 E0.012
G1 X116.04 Y46.44 E0.252
G1 X115.98 Y46.05 E0.012
G1 X110.91 Y40.89 E0.226
G1 X111.48 Y41.1 E0.019
G1 X115.71 Y45.27 E0.185
G1 X115.38 Y44.58 E0.024
G1 X112.41 Y41.55 E0.132
G1 X112.71 Y41.7 E0.01
G1 X113.82 Y42.54 E0.043
G1 F5612.6
G1 E-3.118
G1 F2500.0
G1 X109.38 Y40.65 F15000.0
G1 F5612.6
G1 E3.118
G1 F2500.0
G1 F78.0
G1 E0.065
G1 F2500.0
G1 X116.22 Y47.55 E0.303
G1 Y47.91 E0.011
G1 X108.9 Y40.65 E0.321
G1 X108.54 E0.011
G1 X116.19 Y48.36 E0.339
G1 Y48.72 E0.011
G1 X108.06 Y40.65 E0.357
G1 X107.73 Y40.68 E0.01
G1 X116.16 Y49.2 E0.374
G1 X116.1 Y49.44 E0.008
G1 X107.37 Y40.77 E0.384
G1 X107.04 Y40.86 E0.011
G1 X110.49 Y44.37 E0.153
G1 X110.04 Y44.25 E0.015
G1 X106.68 Y40.95 E0.147
G1 X106.38 Y41.04 E0.01
G1 X109.32 Y44.04 E0.131
G1 X108.84 Y43.92 E0.015
G1 X106.05 Y41.16 E0.122
G1 X105.78 Y41.28 E0.009
G1 X108.45 Y44.01 E0.119
G1 X108.18 Y44.1 E0.009
G1 X105.45 Y41.4 E0.12
G1 X105.15 Y41.52 E0.01
G1 X107.82 Y44.19 E0.118
G1 F5612.6
G1 E-3.118
G1 F2500.0
G1 X106.86 Y44.49 F15000.0
G1 F5612.6
G1 E3.118
G1 F2500.0
G1 F78.0
G1 E0.065
G1 F2500.0
G1 X104.25 Y41.88 E0.115
G1 X104.55 Y41.76 E0.01
G1 X107.19 Y44.37 E0.116
G1 X107.46 Y44.31 E0.009
G1 X104.85 Y41.64 E0.116
G1 F5612.6
G1 E-3.118
G1 F2500.0
G1 X103.95 Y42.0 F15000.0
G1 F5612.6
G1 E3.118
G1 F2500.0
G1 F78.0
G1 E0.065
G1 F2500.0
G1 X106.56 Y44.64 E0.116
G1 X106.38 Y44.82 E0.008
G1 X103.65 Y42.12 E0.12
G1 X103.32 Y42.24 E0.011
G1 X106.14 Y45.12 E0.126
G1 X105.99 Y45.3 E0.007
G1 X102.99 Y42.36 E0.131
G1 X102.75 Y42.45 E0.008
G1 X105.78 Y45.54 E0.135
G1 F5612.6
G1 E-3.118
G1 F2500.0
G1 X104.91 Y47.64 F15000.0
G1 F5612.6
G1 E3.118
G1 F2500.0
G1 F78.0
G1 E0.065
G1 F2500.0
G1 X100.62 Y43.32 E0.19
G1 X100.86 Y43.2 E0.008
G1 X104.97 Y47.25 E0.18
G1 X105.03 Y46.98 E0.009
G1 X101.19 Y43.08 E0.171
G1 F5612.6
G1 E-3.118
G1 F2500.0
G1 X101.52 Y42.96 F15000.0
G1 F5612.6
G1 E3.118
G1 F2500.0
G1 F78.0
G1 E0.065
G1 F2500.0
G1 X105.09 Y46.53 E0.157
G1 X105.18 Y46.26 E0.009
G1 X101.82 Y42.84 E0.149
G1 X102.12 Y42.72 E0.01
G1 X105.39 Y45.99 E0.144
G1 X105.57 Y45.78 E0.009
G1 X102.42 Y42.6 E0.14
G1 F5612.6
G1 E-3.118
G1 F2500.0
G1 X100.29 Y43.44 F15000.0
G1 F5612.6
G1 E3.118
G1 F2500.0
G1 F78.0
G1 E0.065
G1 F2500.0
G1 X104.88 Y48.09 E0.204
G1 X104.82 Y48.39 E0.01
G1 X99.96 Y43.56 E0.214
G1 X99.69 Y43.68 E0.009
G1 X104.97 Y49.02 E0.234
G1 X105.33 Y49.74 E0.025
G1 X99.36 Y43.8 E0.263
G1 X99.09 Y43.92 E0.009
G1 X105.75 Y50.61 E0.294
G1 F5612.6
G1 E-3.118
G1 F2500.0
G1 X105.93 Y58.02 F15000.0
G1 F5612.6
G1 E3.118
G1 F2500.0
G1 F78.0
G1 E0.065
G1 F2500.0
G1 X93.93 Y45.99 E0.53
G1 X94.2 Y45.87 E0.009
G1 X106.23 Y57.84 E0.529
G1 X106.44 Y57.72 E0.008
G1 X94.53 Y45.75 E0.527
G1 X94.8 Y45.63 E0.009
G1 X106.77 Y57.54 E0.527
G1 X107.01 Y57.42 E0.008
G1 X95.13 Y45.48 E0.525
G1 X95.43 Y45.36 E0.01
G1 X107.34 Y57.24 E0.525
G1 X107.55 Y57.12 E0.008
G1 X95.73 Y45.24 E0.523
G1 F5612.6
G1 E-3.118
G1 F2500.0
G1 X96.03 Y45.12 F15000.0
G1 F5612.6
G1 E3.118
G1 F2500.0
G1 F78.0
G1 E0.065
G1 F2500.0
G1 X107.91 Y56.94 E0.523
G1 X108.12 Y56.82 E0.008
G1 X96.33 Y45.0 E0.521
G1 X96.63 Y44.88 E0.01
G1 X108.45 Y56.64 E0.52
G1 X108.66 Y56.55 E0.007
G1 X96.96 Y44.76 E0.518
G1 X97.23 Y44.64 E0.009
G1 X108.99 Y56.37 E0.518
G1 X109.23 Y56.22 E0.009
G1 X97.56 Y44.52 E0.515
G1 X97.83 Y44.43 E0.009
G1 X109.53 Y56.07 E0.515
G1 X109.77 Y55.95 E0.008
G1 X98.19 Y44.28 E0.513
G1 X98.43 Y44.19 E0.008
G1 X110.1 Y55.77 E0.513
G1 X110.31 Y55.65 E0.008
G1 X98.76 Y44.04 E0.511
G1 F5612.6
G1 E-3.118
G1 F2500.0
G1 X93.63 Y46.11 F15000.0
G1 F5612.6
G1 E3.118
G1 F2500.0
G1 F78.0
G1 E0.065
G1 F2500.0
G1 X105.63 Y58.17 E0.53
G1 X105.39 Y58.29 E0.008
G1 X93.3 Y46.23 E0.532
G1 X93.03 Y46.35 E0.009
G1 X105.09 Y58.47 E0.533
G1 X104.85 Y58.59 E0.008
G1 X92.7 Y46.47 E0.535
G1 X92.4 Y46.59 E0.01
G1 X104.52 Y58.77 E0.536
G1 X104.31 Y58.89 E0.008
G1 X92.1 Y46.71 E0.538
G1 F5612.6
G1 E-3.118
G1 F2500.0
G1 X91.8 Y46.83 F15000.0
G1 F5612.6
G1 E3.118
G1 F2500.0
G1 F78.0
G1 E0.065
G1 F2500.0
G1 X103.98 Y59.07 E0.538
G1 X103.74 Y59.19 E0.008
G1 X91.5 Y46.95 E0.54
G1 X91.2 Y47.07 E0.01
G1 X103.44 Y59.34 E0.54
G1 X103.2 Y59.49 E0.009
G1 X90.9 Y47.19 E0.542
G1 F5612.6
G1 E-3.118
G1 F2500.0
G1 X90.57 Y47.31 F15000.0
G1 F5612.6
G1 E3.118
G1 F2500.0
G1 F78.0
G1 E0.065
G1 F2500.0
G1 X102.87 Y59.64 E0.543
G1 X102.66 Y59.76 E0.008
G1 X90.27 Y47.43 E0.545
G1 X89.97 Y47.55 E0.01
G1 X102.33 Y59.94 E0.546
G1 X102.09 Y60.06 E0.008
G1 X89.67 Y47.67 E0.547
G1 F5612.6
G1 E-3.118
G1 F2500.0
G1 X89.37 Y47.79 F15000.0
G1 F5612.6
G1 E3.118
G1 F2500.0
G1 F78.0
G1 E0.065
G1 F2500.0
G1 X101.76 Y60.24 E0.548
G1 X101.55 Y60.36 E0.008
G1 X89.07 Y47.91 E0.55
G1 X88.77 Y48.03 E0.01
G1 X101.25 Y60.51 E0.55
G1 F5612.6
G1 E-3.118
G1 F2500.0
G1 X100.41 Y60.99 F15000.0
G1 F5612.6
G1 E3.118
G1 F2500.0
G1 F78.0
G1 E0.065
G1 F2500.0
G1 X87.87 Y48.39 E0.554
G1 X88.11 Y48.27 E0.008
G1 X100.71 Y60.81 E0.554
G1 X100.95 Y60.69 E0.008
G1 X88.47 Y48.15 E0.552
G1 F5612.6
G1 E-3.118
G1 F2500.0
G1 X87.54 Y48.51 F15000.0
G1 F5612.6
G1 E3.118
G1 F2500.0
G1 F78.0
G1 E0.065
G1 F2500.0
G1 X100.11 Y61.14 E0.556
G1 X99.87 Y61.26 E0.008
G1 X87.21 Y48.63 E0.558
G1 X86.94 Y48.75 E0.009
G1 X99.57 Y61.44 E0.558
G1 X99.33 Y61.56 E0.008
G1 X86.61 Y48.87 E0.56
G1 X86.34 Y48.99 E0.009
G1 X99.03 Y61.71 E0.56
G1 X98.79 Y61.86 E0.009
G1 X85.98 Y49.14 E0.563
G1 X85.74 Y49.23 E0.008
G1 X98.46 Y62.04 E0.563
G1 X98.25 Y62.13 E0.007
G1 X85.38 Y49.38 E0.565
G1 X85.11 Y49.47 E0.009
G1 X97.92 Y62.31 E0.566
G1 X97.68 Y62.46 E0.009
G1 X84.78 Y49.62 E0.568
G1 X84.51 Y49.71 E0.009
G1 X97.35 Y62.61 E0.568
G1 X97.14 Y62.73 E0.008
G1 X84.18 Y49.86 E0.57
G1 X83.91 Y49.95 E0.009
G1 X96.81 Y62.91 E0.57
G1 X96.57 Y63.03 E0.008
G1 X83.58 Y50.07 E0.572
G1 X83.28 Y50.19 E0.01
G1 X96.24 Y63.21 E0.573
G1 X96.03 Y63.33 E0.008
G1 X82.98 Y50.31 E0.575
G1 F5612.6
G1 E-3.118
G1 F2500.0
G1 X82.08 Y50.67 F15000.0
G1 F5612.6
G1 E3.118
G1 F2500.0
G1 F78.0
G1 E0.065
G1 F2500.0
G1 X95.19 Y63.78 E0.578
G1 X95.43 Y63.66 E0.008
G1 X82.38 Y50.55 E0.577
G1 X82.68 Y50.43 E0.01
G1 X95.73 Y63.48 E0.575
G1 Y63.51 E0.001
G1 F5612.6
G1 E-3.118
G1 F2500.0
G1 X91.05 Y66.03 F15000.0
G1 F5612.6
G1 E3.118
G1 F2500.0
G1 F78.0
G1 E0.065
G1 F2500.0
G1 X77.49 Y52.5 E0.597
G1 X77.22 Y52.62 E0.009
G1 X90.72 Y66.18 E0.597
G1 X90.51 Y66.3 E0.008
G1 X76.89 Y52.74 E0.599
G1 X76.62 Y52.86 E0.009
G1 X90.18 Y66.48 E0.599
G1 X89.94 Y66.6 E0.008
G1 X76.29 Y52.98 E0.601
G1 X76.02 Y53.1 E0.009
G1 X89.64 Y66.78 E0.602
G1 X89.4 Y66.9 E0.008
G1 X75.69 Y53.22 E0.604
G1 X75.42 Y53.34 E0.009
G1 X89.1 Y67.08 E0.605
G1 F5612.6
G1 E-3.118
G1 F2500.0
G1 X85.53 Y69.0 F15000.0
G1 F5612.6
G1 E3.118
G1 F2500.0
G1 F78.0
G1 E0.065
G1 F2500.0
G1 X71.49 Y54.93 E0.62
G1 X71.76 Y54.81 E0.009
G1 X85.83 Y68.82 E0.619
G1 X86.04 Y68.7 E0.008
G1 X72.09 Y54.69 E0.616
G1 X72.39 Y54.57 E0.01
G1 X86.37 Y68.52 E0.616
G1 X86.61 Y68.4 E0.008
G1 X72.69 Y54.45 E0.614
G1 F5612.6
G1 E-3.118
G1 F2500.0
G1 X72.99 Y54.33 F15000.0
G1 F5612.6
G1 E3.118
G1 F2500.0
G1 F78.0
G1 E0.065
G1 F2500.0
G1 X86.94 Y68.22 E0.614
G1 X87.15 Y68.1 E0.008
G1 X73.29 Y54.21 E0.612
G1 X73.59 Y54.06 E0.01
G1 X87.48 Y67.95 E0.613
G1 X87.72 Y67.8 E0.009
G1 X73.89 Y53.94 E0.611
G1 F5612.6
G1 E-3.118
G1 F2500.0
G1 X74.19 Y53.82 F15000.0
G1 F5612.6
G1 E3.118
G1 F2500.0
G1 F78.0
G1 E0.065
G1 F2500.0
G1 X88.02 Y67.65 E0.61
G1 X88.26 Y67.53 E0.008
G1 X74.49 Y53.7 E0.609
G1 X74.79 Y53.58 E0.01
G1 X88.59 Y67.35 E0.608
G1 X88.8 Y67.23 E0.008
G1 X75.09 Y53.46 E0.606
G1 F5612.6
G1 E-3.118
G1 F2500.0
G1 X77.85 Y52.38 F15000.0
G1 F5612.6
G1 E3.118
G1 F2500.0
G1 F78.0
G1 E0.065
G1 F2500.0
G1 X91.35 Y65.85 E0.595
G1 X91.56 Y65.73 E0.008
G1 X78.15 Y52.26 E0.593
G1 X78.42 Y52.14 E0.009
G1 X91.89 Y65.55 E0.593
G1 X92.13 Y65.43 E0.008
G1 X78.75 Y52.02 E0.591
G1 X79.02 Y51.9 E0.009
G1 X92.46 Y65.25 E0.591
G1 X92.67 Y65.13 E0.008
G1 X79.38 Y51.75 E0.588
G1 X79.62 Y51.66 E0.008
G1 X93.0 Y64.98 E0.589
G1 X93.24 Y64.83 E0.009
G1 X79.98 Y51.54 E0.585
G1 X80.28 Y51.42 E0.01
G1 X93.54 Y64.68 E0.585
G1 X93.78 Y64.56 E0.008
G1 X80.58 Y51.3 E0.583
G1 F5612.6
G1 E-3.118
G1 F2500.0
G1 X80.88 Y51.18 F15000.0
G1 F5612.6
G1 E3.118
G1 F2500.0
G1 F78.0
G1 E0.065
G1 F2500.0
G1 X94.08 Y64.38 E0.582
G1 X94.32 Y64.26 E0.008
G1 X81.18 Y51.06 E0.581
G1 X81.48 Y50.94 E0.01
G1 X94.65 Y64.08 E0.58
G1 X94.86 Y63.96 E0.008
G1 X81.78 Y50.82 E0.578
G1 F5612.6
G1 E-3.118
G1 F2500.0
G1 X71.16 Y55.05 F15000.0
G1 F5612.6
G1 E3.118
G1 F2500.0
G1 F78.0
G1 E0.065
G1 F2500.0
G1 X85.2 Y69.15 E0.62
G1 X84.99 Y69.27 E0.008
G1 X70.86 Y55.17 E0.622
G1 X70.56 Y55.29 E0.01
G1 X84.66 Y69.45 E0.623
G1 X84.42 Y69.57 E0.008
G1 X70.26 Y55.41 E0.624
G1 F5612.6
G1 E-3.118
G1 F2500.0
G1 X69.96 Y55.53 F15000.0
G1 F5612.6
G1 E3.118
G1 F2500.0
G1 F78.0
G1 E0.065
G1 F2500.0
G1 X84.12 Y69.75 E0.626
G1 X83.88 Y69.87 E0.008
G1 X69.66 Y55.65 E0.627
G1 X69.36 Y55.77 E0.01
G1 X83.58 Y70.05 E0.628
G1 X83.34 Y70.17 E0.008
G1 X69.0 Y55.89 E0.631
G1 X68.76 Y56.01 E0.008
G1 X83.01 Y70.35 E0.63
G1 X82.8 Y70.47 E0.008
G1 X68.4 Y56.13 E0.634
G1 X68.13 Y56.25 E0.009
G1 X82.47 Y70.62 E0.633
G1 X82.23 Y70.77 E0.009
G1 X67.8 Y56.37 E0.636
G1 X67.53 Y56.49 E0.009
G1 X81.93 Y70.92 E0.636
G1 X81.69 Y71.04 E0.008
G1 X67.2 Y56.61 E0.638
G1 X66.93 Y56.73 E0.009
G1 X81.36 Y71.22 E0.638
G1 X81.15 Y71.34 E0.008
G1 X66.6 Y56.85 E0.64
G1 F5612.6
G1 E-3.118
G1 F2500.0
G1 X63.9 Y57.96 F15000.0
G1 F5612.6
G1 E3.118
G1 F2500.0
G1 F78.0
G1 E0.065
G1 F2500.0
G1 X78.6 Y72.72 E0.65
G1 X78.36 Y72.84 E0.008
G1 X63.57 Y58.08 E0.652
G1 X63.3 Y58.2 E0.009
G1 X78.06 Y73.02 E0.652
G1 X77.82 Y73.14 E0.008
G1 X62.97 Y58.29 E0.655
G1 X62.67 Y58.44 E0.01
G1 X77.49 Y73.32 E0.655
G1 X77.28 Y73.44 E0.008
G1 X62.34 Y58.53 E0.658
G1 F5612.6
G1 E-3.118
G1 F2500.0
G1 X62.04 Y58.65 F15000.0
G1 F5612.6
G1 E3.118
G1 F2500.0
G1 F78.0
G1 E0.065
G1 F2500.0
G1 X76.95 Y73.62 E0.659
G1 X76.71 Y73.74 E0.008
G1 X61.74 Y58.77 E0.66
G1 X61.41 Y58.86 E0.011
G1 X76.41 Y73.89 E0.662
G1 X76.17 Y74.04 E0.009
G1 X61.08 Y58.95 E0.665
G1 F5612.6
G1 E-3.118
G1 F2500.0
G1 X60.75 Y59.04 F15000.0
G1 F5612.6
G1 E3.118
G1 F2500.0
G1 F78.0
G1 E0.065
G1 F2500.0
G1 X75.84 Y74.19 E0.667
G1 X75.63 Y74.31 E0.008
G1 X60.39 Y59.13 E0.671
G1 X60.09 Y59.25 E0.01
G1 X75.3 Y74.49 E0.671
G1 X75.06 Y74.61 E0.008
G1 X59.67 Y59.28 E0.677
G1 X59.37 Y59.34 E0.01
G1 X74.73 Y74.79 E0.679
G1 X74.52 Y74.91 E0.008
G1 X58.89 Y59.37 E0.687
G1 X58.56 Y59.4 E0.01
G1 X74.22 Y75.09 E0.691
G1 F5612.6
G1 E-3.118
G1 F2500.0
G1 X73.38 Y75.54 F15000.0
G1 F5612.6
G1 E3.118
G1 F2500.0
G1 F78.0
G1 E0.065
G1 F2500.0
G1 Y75.51 E0.001
G1 X57.24 Y59.37 E0.712
G1 X57.72 Y59.43 E0.015
G1 X73.68 Y75.36 E0.703
G1 X73.92 Y75.24 E0.008
G1 X58.17 Y59.43 E0.696
G1 F5612.6
G1 E-3.118
G1 F2500.0
G1 X56.76 Y59.31 F15000.0
G1 F5612.6
G1 E3.118
G1 F2500.0
G1 F78.0
G1 E0.065
G1 F2500.0
G1 X73.08 Y75.69 E0.721
G1 X72.87 Y75.81 E0.008
G1 X56.22 Y59.25 E0.732
G1 X55.83 Y59.22 E0.012
G1 X72.54 Y75.99 E0.738
G1 X72.3 Y76.11 E0.008
G1 X55.11 Y58.98 E0.757
G1 X54.6 Y58.83 E0.017
G1 X72.0 Y76.26 E0.768
G1 X71.76 Y76.41 E0.009
G1 X53.82 Y58.56 E0.789
G1 X53.34 Y58.41 E0.016
G1 X71.43 Y76.59 E0.8
G1 X71.22 Y76.68 E0.007
G1 X52.68 Y58.2 E0.816
G1 F5612.6
G1 E-3.118
G1 F2500.0
G1 X52.05 Y57.99 F15000.0
G1 F5612.6
G1 E3.118
G1 F2500.0
G1 F78.0
G1 E0.065
G1 F2500.0
G1 X70.89 Y76.86 E0.831
G1 X70.65 Y77.01 E0.009
G1 X51.42 Y57.78 E0.848
G1 F5612.6
G1 E-3.118
G1 F2500.0
G1 X50.79 Y57.57 F15000.0
G1 F5612.6
G1 E3.118
G1 F2500.0
G1 F78.0
G1 E0.065
G1 F2500.0
G1 X70.35 Y77.16 E0.863
G1 X70.11 Y77.31 E0.009
G1 X50.19 Y57.39 E0.878
G1 F5612.6
G1 E-3.118
G1 F2500.0
G1 X44.22 Y56.94 F15000.0
G1 F5612.6
G1 E3.118
G1 F2500.0
G1 F78.0
G1 E0.065
G1 F2500.0
G1 X67.17 Y79.89 E1.012
G1 X67.35 Y79.68 E0.009
G1 X44.58 Y56.88 E1.005
G1 X44.91 Y56.85 E0.01
G1 X67.59 Y79.44 E0.998
G1 X67.77 Y79.26 E0.008
G1 X45.39 Y56.82 E0.988
G1 X45.69 Y56.79 E0.009
G1 X68.01 Y79.02 E0.982
G1 X68.19 Y78.84 E0.008
G1 X46.26 Y56.88 E0.968
G1 X46.77 Y56.94 E0.016
G1 X68.43 Y78.57 E0.954
G1 X68.61 Y78.39 E0.008
G1 X47.22 Y56.97 E0.944
G1 X47.64 Y57.03 E0.013
G1 X68.85 Y78.18 E0.934
G1 F5612.6
G1 E-3.118
G1 F2500.0
G1 X69.09 Y78.0 F15000.0
G1 F5612.6
G1 E3.118
G1 F2500.0
G1 F78.0
G1 E0.065
G1 F2500.0
G1 X48.18 Y57.09 E0.922
G1 X48.63 Y57.12 E0.014
G1 X69.36 Y77.82 E0.913
G1 X69.57 Y77.7 E0.008
G1 X49.11 Y57.18 E0.904
G1 X49.53 Y57.24 E0.013
G1 X69.84 Y77.49 E0.894
G1 F5612.6
G1 E-3.118
G1 F2500.0
G1 X66.99 Y80.13 F15000.0
G1 F5612.6
G1 E3.118
G1 F2500.0
G1 F78.0
G1 E0.065
G1 F2500.0
G1 X43.77 Y56.97 E1.023
G1 X43.41 Y57.0 E0.011
G1 X66.81 Y80.4 E1.032
G1 F5612.6
G1 E-3.118
G1 F2500.0
G1 X65.55 Y82.95 F15000.0
G1 F5612.6
G1 E3.118
G1 F2500.0
G1 F78.0
G1 E0.065
G1 F2500.0
G1 X40.17 Y57.57 E1.119
G1 X40.47 Y57.45 E0.01
G1 X65.67 Y82.62 E1.111
G1 X65.76 Y82.38 E0.008
G1 X40.83 Y57.36 E1.101
G1 X41.13 Y57.27 E0.01
G1 X65.91 Y82.02 E1.092
G1 X66.03 Y81.75 E0.009
G1 X41.49 Y57.18 E1.083
G1 F5612.6
G1 E-3.118
G1 F2500.0
G1 X41.88 Y57.15 F15000.0
G1 F5612.6
G1 E3.118
G1 F2500.0
G1 F78.0
G1 E0.065
G1 F2500.0
G1 X66.15 Y81.42 E1.07
G1 X66.33 Y81.18 E0.009
G1 X42.27 Y57.09 E1.062
G1 X42.57 Y57.06 E0.009
G1 X66.51 Y80.91 E1.054
G1 X66.66 Y80.7 E0.008
G1 X43.02 Y57.03 E1.043
G1 F5612.6
G1 E-3.118
G1 F2500.0
G1 X39.84 Y57.66 F15000.0
G1 F5612.6
G1 E3.118
G1 F2500.0
G1 F78.0
G1 E0.065
G1 F2500.0
G1 X65.43 Y83.25 E1.128
G1 X65.31 Y83.55 E0.01
G1 X39.48 Y57.75 E1.138
G1 X39.21 Y57.87 E0.009
G1 X65.19 Y83.85 E1.146
G1 F5612.6
G1 E-3.118
G1 F2500.0
G1 X64.8 Y84.75 F15000.0
G1 F5612.6
G1 E3.118
G1 F2500.0
G1 F78.0
G1 E0.065
G1 F2500.0
G1 X38.22 Y58.17 E1.172
G1 X38.55 Y58.08 E0.011
G1 X64.92 Y84.45 E1.163
G1 X65.04 Y84.15 E0.01
G1 X38.88 Y57.96 E1.154
G1 F5612.6
G1 E-3.118
G1 F2500.0
G1 X33.0 Y60.99 F15000.0
G1 F5612.6
G1 E3.118
G1 F2500.0
G1 F78.0
G1 E0.065
G1 F2500.0
G1 X44.52 Y72.48 E0.507
G1 X44.76 Y72.39 E0.008
G1 X33.24 Y60.81 E0.509
G1 X33.45 Y60.6 E0.009
G1 X45.09 Y72.24 E0.513
G1 X45.33 Y72.12 E0.008
G1 X33.72 Y60.39 E0.515
G1 X33.9 Y60.27 E0.007
G1 X45.69 Y71.94 E0.517
G1 X45.9 Y71.85 E0.007
G1 X34.23 Y60.12 E0.516
G1 X34.47 Y59.97 E0.009
G1 X46.26 Y71.67 E0.518
G1 X46.5 Y71.58 E0.008
G1 X34.8 Y59.82 E0.517
G1 X35.04 Y59.67 E0.009
G1 X46.83 Y71.4 E0.519
G1 X47.07 Y71.31 E0.008
G1 X35.34 Y59.52 E0.519
G1 X35.58 Y59.37 E0.009
G1 X47.4 Y71.16 E0.521
G1 X47.58 E0.006
G1 X47.94 Y71.37 E0.013
G1 X48.21 Y71.88 E0.018
G1 X63.69 Y87.45 E0.685
G1 F5612.6
G1 E-3.118
G1 F2500.0
G1 X62.67 Y88.98 F15000.0
G1 F5612.6
G1 E3.118
G1 F2500.0
G1 F78.0
G1 E0.065
G1 F2500.0
G1 X50.52 Y76.8 E0.536
G1 X50.25 Y76.2 E0.021
G1 X62.85 Y88.71 E0.554
G1 X63.0 Y88.5 E0.008
G1 X49.8 Y75.27 E0.583
G1 X49.47 Y74.55 E0.025
G1 X63.18 Y88.2 E0.603
G1 X63.33 Y87.99 E0.008
G1 X49.02 Y73.62 E0.632
G1 X48.75 Y72.99 E0.021
G1 X63.54 Y87.69 E0.65
G1 X63.84 Y87.18 E0.018
G1 X35.88 Y59.22 E1.233
G1 X36.12 Y59.1 E0.008
G1 X63.96 Y86.88 E1.226
G1 X64.08 Y86.58 E0.01
G1 X36.45 Y58.92 E1.219
G1 X36.69 Y58.8 E0.008
G1 X64.2 Y86.25 E1.212
G1 X64.32 Y85.98 E0.009
G1 X37.02 Y58.65 E1.205
G1 X37.26 Y58.5 E0.009
G1 X64.44 Y85.65 E1.198
G1 X64.56 Y85.38 E0.009
G1 X37.56 Y58.35 E1.191
G1 X37.83 Y58.26 E0.009
G1 X64.68 Y85.05 E1.183
G1 F5612.6
G1 E-3.118
G1 F2500.0
G1 X62.52 Y89.22 F15000.0
G1 F5612.6
G1 E3.118
G1 F2500.0
G1 F78.0
G1 E0.065
G1 F2500.0
G1 X62.49 E0.001
G1 X50.88 Y77.61 E0.512
G1 F5612.6
G1 E-3.118
G1 F2500.0
G1 X51.27 Y78.42 F15000.0
G1 F5612.6
G1 E3.118
G1 F2500.0
G1 F78.0
G1 E0.065
G1 F2500.0
G1 X62.31 Y89.52 E0.488
G1 X62.16 Y89.73 E0.008
G1 X51.69 Y79.32 E0.46
G1 X51.81 Y79.68 E0.012
G1 X51.78 Y79.77 E0.003
G1 X61.98 Y89.97 E0.45
G1 X61.8 Y90.24 E0.01
G1 X51.6 Y80.1 E0.448
G1 X51.39 Y80.25 E0.008
G1 X61.65 Y90.54 E0.453
G1 X61.5 Y90.75 E0.008
G1 X51.06 Y80.4 E0.458
G1 X50.85 Y80.49 E0.007
G1 X61.26 Y91.02 E0.462
G1 X61.08 Y91.2 E0.008
G1 X50.49 Y80.67 E0.466
G1 X50.25 Y80.79 E0.008
G1 X60.84 Y91.44 E0.468
G1 X60.66 Y91.62 E0.008
G1 X49.92 Y80.94 E0.472
G1 X49.68 Y81.06 E0.008
G1 X60.42 Y91.86 E0.475
G1 X60.24 Y92.04 E0.008
G1 X49.35 Y81.21 E0.479
G1 X49.08 Y81.33 E0.009
G1 X60.0 Y92.28 E0.482
G1 X59.82 Y92.46 E0.008
G1 X48.78 Y81.48 E0.486
G1 X48.51 Y81.6 E0.009
G1 X59.58 Y92.7 E0.489
G1 X59.4 Y92.88 E0.008
G1 X48.21 Y81.75 E0.492
G1 X47.94 Y81.87 E0.009
G1 X59.13 Y93.12 E0.495
G1 X58.95 Y93.3 E0.008
G1 X47.61 Y82.02 E0.499
G1 X47.37 Y82.14 E0.008
G1 X58.71 Y93.54 E0.501
G1 X58.53 Y93.72 E0.008
G1 X47.04 Y82.29 E0.505
G1 X46.8 Y82.41 E0.008
G1 X58.23 Y93.93 E0.506
G1 X58.02 Y94.05 E0.008
G1 X46.47 Y82.56 E0.508
G1 X46.23 Y82.68 E0.008
G1 X57.72 Y94.26 E0.509
G1 X57.51 Y94.38 E0.008
G1 X45.9 Y82.86 E0.51
G1 X45.66 Y82.95 E0.008
G1 X57.21 Y94.59 E0.511
G1 F5612.6
G1 E-3.118
G1 F2500.0
G1 X51.27 Y97.5 F15000.0
G1 F5612.6
G1 E3.118
G1 F2500.0
G1 F78.0
G1 E0.065
G1 F2500.0
G1 X25.53 Y71.76 E1.135
G1 X25.62 Y71.49 E0.009
G1 X51.57 Y97.38 E1.143
G1 X51.84 Y97.29 E0.009
G1 X25.71 Y71.1 E1.154
G1 X25.8 Y70.83 E0.009
G1 X52.17 Y97.14 E1.162
G1 X52.44 Y97.05 E0.009
G1 X25.92 Y70.47 E1.171
G1 X25.98 Y70.14 E0.01
G1 X52.8 Y96.9 E1.181
G1 X53.04 Y96.81 E0.008
G1 X26.13 Y69.81 E1.189
G1 X26.25 Y69.57 E0.008
G1 X53.4 Y96.66 E1.196
G1 X53.67 Y96.57 E0.009
G1 X26.43 Y69.24 E1.203
G1 X26.55 Y69.0 E0.008
G1 X54.0 Y96.42 E1.21
G1 X54.27 Y96.33 E0.009
G1 X26.7 Y68.7 E1.217
G1 X26.82 Y68.46 E0.008
G1 X54.63 Y96.18 E1.224
G1 X54.87 Y96.09 E0.008
G1 X27.0 Y68.13 E1.231
G1 X27.12 Y67.89 E0.008
G1 X42.6 Y83.31 E0.681
G1 X42.3 Y82.68 E0.022
G1 X27.3 Y67.56 E0.664
G1 X27.42 Y67.32 E0.008
G1 X41.85 Y81.72 E0.636
G1 X41.52 Y81.03 E0.024
G1 X27.57 Y67.02 E0.616
G1 X27.69 Y66.78 E0.008
G1 X41.1 Y80.13 E0.59
G1 X40.8 Y79.47 E0.023
G1 X27.87 Y66.45 E0.572
G1 X27.99 Y66.21 E0.008
G1 X40.35 Y78.51 E0.544
G1 X40.05 Y77.88 E0.022
G1 X28.23 Y65.94 E0.524
G1 X28.38 Y65.76 E0.007
G1 X39.6 Y76.92 E0.493
G1 X39.3 Y76.26 E0.023
G1 X28.59 Y65.49 E0.474
G1 X28.74 Y65.28 E0.008
G1 X39.0 Y75.45 E0.45
G1 X39.06 Y75.18 E0.009
G1 X28.95 Y65.01 E0.447
G1 X29.13 Y64.8 E0.009
G1 X39.3 Y74.91 E0.447
G1 X39.54 Y74.82 E0.008
G1 X29.34 Y64.56 E0.451
G1 X29.52 Y64.32 E0.009
G1 X39.9 Y74.64 E0.456
G1 X40.11 Y74.55 E0.007
G1 X29.7 Y64.08 E0.46
G1 F5612.6
G1 E-3.118
G1 F2500.0
G1 X29.88 Y63.84 F15000.0
G1 F5612.6
G1 E3.118
G1 F2500.0
G1 F78.0
G1 E0.065
G1 F2500.0
G1 X40.47 Y74.4 E0.466
G1 X40.71 Y74.28 E0.008
G1 X30.09 Y63.6 E0.47
G1 X30.24 Y63.39 E0.008
G1 X41.04 Y74.13 E0.475
G1 X41.28 Y74.01 E0.008
G1 X30.48 Y63.15 E0.478
G1 X30.66 Y62.94 E0.009
G1 X41.64 Y73.83 E0.482
G1 X41.85 Y73.74 E0.007
G1 X30.9 Y62.73 E0.484
G1 X31.11 Y62.55 E0.009
G1 X42.21 Y73.56 E0.487
G1 X42.45 Y73.47 E0.008
G1 X31.38 Y62.34 E0.489
G1 X31.59 Y62.16 E0.009
G1 X42.78 Y73.32 E0.493
G1 X43.02 Y73.2 E0.008
G1 X31.83 Y61.95 E0.495
G1 X32.04 Y61.77 E0.009
G1 X43.38 Y73.02 E0.498
G1 X43.59 Y72.93 E0.007
G1 X32.31 Y61.56 E0.499
G1 X32.49 Y61.41 E0.007
G1 X43.95 Y72.75 E0.503
G1 X44.16 Y72.66 E0.007
G1 X32.76 Y61.2 E0.504
G1 F5612.6
G1 E-3.118
G1 F2500.0
G1 X25.44 Y72.12 F15000.0
G1 F5612.6
G1 E3.118
G1 F2500.0
G1 F78.0
G1 E0.065
G1 F2500.0
G1 X50.88 Y97.62 E1.123
G1 X50.61 Y97.65 E0.008
G1 X25.35 Y72.45 E1.113
G1 X25.26 Y72.78 E0.011
G1 X50.22 Y97.74 E1.101
G1 F5612.6
G1 E-3.118
G1 F2500.0
G1 X49.14 Y97.92 F15000.0
G1 F5612.6
G1 E3.118
G1 F2500.0
G1 F78.0
G1 E0.065
G1 F2500.0
G1 X24.96 Y73.8 E1.065
G1 X24.9 Y74.1 E0.01
G1 X48.75 Y98.01 E1.053
G1 X48.42 Y98.04 E0.01
G1 X24.87 Y74.58 E1.037
G1 X24.84 Y74.88 E0.009
G1 X48.0 Y98.13 E1.023
G1 X47.73 Y98.19 E0.009
G1 X24.81 Y75.36 E1.009
G1 Y75.69 E0.01
G1 X47.28 Y98.25 E0.993
G1 X46.98 Y98.31 E0.01
G1 X24.75 Y76.14 E0.979
G1 X24.72 Y76.47 E0.01
G1 X46.5 Y98.31 E0.962
G1 X46.11 Y98.28 E0.012
G1 X24.72 Y76.95 E0.942
G1 X24.69 Y77.28 E0.01
G1 X45.6 Y98.28 E0.924
G1 X45.24 Y98.25 E0.011
G1 X24.66 Y77.76 E0.906
G1 X24.63 Y78.06 E0.009
G1 X44.73 Y98.25 E0.888
G1 X44.37 E0.011
G1 X24.63 Y78.51 E0.87
G1 X24.72 Y79.02 E0.016
G1 X43.86 Y98.22 E0.845
G1 X43.5 E0.011
G1 X24.78 Y79.56 E0.824
G1 X24.84 Y79.98 E0.013
G1 X42.99 Y98.19 E0.802
G1 X42.6 Y98.16 E0.012
G1 X24.9 Y80.49 E0.78
G1 F5612.6
G1 E-3.118
G1 F2500.0
G1 X24.99 Y81.0 F15000.0
G1 F5612.6
G1 E3.118
G1 F2500.0
G1 F78.0
G1 E0.065
G1 F2500.0
G1 X41.94 Y98.01 E0.749
G1 X41.52 Y97.92 E0.013
G1 X25.05 Y81.54 E0.724
G1 X25.11 Y81.96 E0.013
G1 X40.92 Y97.77 E0.697
G1 X40.38 Y97.65 E0.017
G1 X40.41 Y97.68 E0.001
G1 X25.17 Y82.44 E0.672
G1 F5612.6
G1 E-3.118
G1 F2500.0
G1 X25.41 Y83.1 F15000.0
G1 F5612.6
G1 E3.118
G1 F2500.0
G1 F78.0
G1 E0.065
G1 F2500.0
G1 X39.78 Y97.53 E0.635
G1 X39.3 Y97.41 E0.015
G1 X25.62 Y83.73 E0.603
G1 F5612.6
G1 E-3.118
G1 F2500.0
G1 X25.86 Y84.42 F15000.0
G1 F5612.6
G1 E3.118
G1 F2500.0
G1 F78.0
G1 E0.065
G1 F2500.0
G1 X38.55 Y97.17 E0.561
G1 X37.95 Y96.9 E0.021
G1 X26.13 Y85.17 E0.519
G1 X26.31 Y85.68 E0.017
G1 X37.05 Y96.51 E0.476
G1 X36.39 Y96.21 E0.023
G1 X26.67 Y86.55 E0.427
G1 X27.12 Y87.36 E0.029
G1 X35.61 Y95.85 E0.374
G1 F5612.6
G1 E-3.118
G1 F2500.0
G1 X34.74 Y95.4 F15000.0
G1 F5612.6
G1 E3.118
G1 F2500.0
G1 F78.0
G1 E0.065
G1 F2500.0
G1 X27.87 Y88.59 E0.302
G1 X28.35 Y89.43 E0.03
G1 X32.97 Y94.11 E0.205
G1 X31.59 Y93.12 E0.053
G1 X31.08 Y92.61 E0.022
G1 F5612.6
G1 E-3.118
G1 F2500.0
G1 X43.26 Y84.0 F15000.0
G1 F5612.6
G1 E3.118
G1 F2500.0
G1 F78.0
G1 E0.065
G1 F2500.0
G1 X55.2 Y95.88 E0.525
G1 X55.41 Y95.76 E0.008
G1 X43.59 Y83.91 E0.522
G1 X43.89 Y83.79 E0.01
G1 X55.71 Y95.55 E0.52
G1 X55.92 Y95.43 E0.008
G1 X44.22 Y83.64 E0.518
G1 X44.46 Y83.52 E0.008
G1 X56.22 Y95.22 E0.517
G1 X56.43 Y95.1 E0.008
G1 X44.79 Y83.37 E0.515
G1 X45.03 Y83.25 E0.008
G1 X56.73 Y94.89 E0.515
G1 X56.94 Y94.77 E0.008
G1 X45.36 Y83.13 E0.512
G1 F5612.6
G1 E-3.118
G1 F2500.0
G1 X25.08 Y73.44 F15000.0
G1 F5612.6
G1 E3.118
G1 F2500.0
G1 F78.0
G1 E0.065
G1 F2500.0
G1 X49.5 Y97.86 E1.077
G1 X49.8 Y97.8 E0.01
G1 X25.17 Y73.11 E1.087
G1 F5612.6
G1 E-3.118
G1 F2500.0
G1 X78.9 Y72.57 F15000.0
G1 F5612.6
G1 E3.118
G1 F2500.0
G1 F78.0
G1 E0.065
G1 F2500.0
G1 X64.2 Y57.84 E0.649
G1 X64.47 Y57.72 E0.009
G1 X79.2 Y72.39 E0.648
G1 X79.41 Y72.27 E0.008
G1 X64.8 Y57.57 E0.646
G1 X65.07 Y57.48 E0.009
G1 X79.74 Y72.09 E0.646
G1 X79.98 Y71.97 E0.008
G1 X65.4 Y57.33 E0.644
G1 X65.67 Y57.24 E0.009
G1 X80.31 Y71.79 E0.644
G1 X80.52 Y71.67 E0.008
G1 X66.0 Y57.09 E0.642
G1 X66.27 Y57.0 E0.009
G1 X80.85 Y71.52 E0.642
G1 F5612.6
G1 E-3.118
G1 F2500.0
;#!LAYER: 3/59
G92 E0
G1 Z0.75 F200.0
G1 X51.69 Y79.74 F15000.0
T0
G1 F5612.6
G1 E3.118
G1 F2500.0
G1 F78.0
G1 E0.065
G1 F2500.0
G1 Y79.53 E0.007 F2250.0
G1 X47.94 Y71.49 E0.277
G1 X47.55 Y71.25 E0.014
G1 X46.41 Y71.7 E0.038
G1 X39.39 Y74.97 E0.241
G1 X39.09 Y75.33 E0.015
G1 Y75.63 E0.009
G1 X42.96 Y83.79 E0.282
G1 X43.23 Y83.91 E0.009
G1 X43.44 Y83.88 E0.007
G1 X51.54 Y80.04 E0.28
G1 X51.69 Y79.74 E0.01
G1 X51.42 Y79.68 E0.009
G1 X47.67 Y71.64 E0.277
G1 X47.49 Y71.55 E0.006
G1 X39.42 Y75.33 E0.278
G1 Y75.63 E0.009
G1 X43.17 Y83.58 E0.274
G1 X43.26 Y83.61 E0.003
G1 X51.36 Y79.8 E0.279
G1 X51.42 Y79.68 E0.004
G1 F5612.6
G1 E-3.118
G1 F2500.0
G1 X51.69 Y79.74
G1 X42.69 Y98.28 F15000.0
G1 F5612.6
G1 E3.118
G1 F2500.0
G1 F78.0
G1 E0.065
G1 F2500.0
G1 X38.76 Y97.38 E0.126 F2250.0
G1 X34.62 Y95.43 E0.143
G1 X31.32 Y93.0 E0.128
G1 X28.68 Y90.12 E0.122
G1 X26.43 Y86.31 E0.138
G1 X25.11 Y82.53 E0.125
G1 X24.54 Y78.45 E0.128
G1 X24.81 Y73.98 E0.14
G1 X25.95 Y69.99 E0.129
G1 X27.96 Y66.09 E0.137
G1 X30.51 Y62.94 E0.126
G1 X33.75 Y60.24 E0.132
G1 X37.53 Y58.26 E0.133
G1 X41.46 Y57.09 E0.128
G1 X45.6 Y56.7 E0.13
G1 X49.77 Y57.18 E0.131
G1 X55.83 Y59.13 E0.199
G1 X57.93 Y59.37 E0.066
G1 X59.85 Y59.19 E0.06
G1 X61.5 Y58.74 E0.053
G1 X63.09 Y58.17 E0.053
G1 X106.2 Y41.01 E1.447
G1 X107.73 Y40.59 E0.049
G1 X109.68 Y40.56 E0.061
G1 X111.36 Y40.95 E0.054
G1 X112.98 Y41.76 E0.056
G1 X114.18 Y42.72 E0.048
G1 X115.17 Y43.98 E0.05
G1 X115.98 Y45.66 E0.058
G1 X116.31 Y47.37 E0.054
G1 X116.25 Y49.14 E0.055
G1 X115.8 Y50.85 E0.055
G1 X114.78 Y52.56 E0.062
G1 X113.82 Y53.64 E0.045
G1 X112.14 Y54.78 E0.063
G1 X70.26 Y77.34 E1.483
G1 X68.73 Y78.39 E0.058
G1 X67.29 Y79.89 E0.065
G1 X66.24 Y81.51 E0.06
G1 X63.84 Y87.39 E0.198
G1 X61.44 Y90.96 E0.134
G1 X58.5 Y93.87 E0.129
G1 X54.93 Y96.15 E0.132
G1 X51.0 Y97.68 E0.132
G1 X46.98 Y98.4 E0.127
G1 X42.69 Y98.28 E0.134
G1 X42.63 Y98.55 E0.009
G1 X38.61 Y97.65 E0.128
G1 X34.98 Y96.0 E0.124
G1 X31.71 Y93.69 E0.125
G1 X30.9 Y92.97 E0.034
G1 X28.32 Y90.12 E0.12
G1 X26.16 Y86.46 E0.133
G1 X24.78 Y82.41 E0.133
G1 X24.24 Y78.42 E0.126
G1 X24.48 Y74.7 E0.116
G1 X24.51 Y73.95 E0.023
G1 X25.68 Y69.84 E0.133
G1 X27.69 Y65.97 E0.136
G1 X30.3 Y62.73 E0.13
G1 X33.57 Y60.0 E0.133
G1 X37.44 Y57.99 E0.136
G1 X41.43 Y56.79 E0.13
G1 X45.87 Y56.43 E0.139
G1 X50.07 Y56.94 E0.132
G1 X55.89 Y58.83 E0.191
G1 X58.05 Y59.04 E0.068
G1 X59.79 Y58.89 E0.054
G1 X61.74 Y58.35 E0.063
G1 X106.08 Y40.71 E1.488
G1 X107.73 Y40.29 E0.053
G1 X109.65 Y40.26 E0.06
G1 X111.21 Y40.56 E0.05
G1 X113.19 Y41.55 E0.069
G1 X114.42 Y42.51 E0.049
G1 X115.5 Y43.92 E0.055
G1 X116.28 Y45.63 E0.059
G1 X116.61 Y47.31 E0.053
G1 X116.55 Y49.26 E0.061
G1 X116.1 Y50.94 E0.054
G1 X115.29 Y52.38 E0.052
G1 X114.0 Y53.88 E0.062
G1 X112.32 Y55.02 E0.063
G1 X70.32 Y77.64 E1.487
G1 X68.91 Y78.63 E0.054
G1 X67.56 Y80.01 E0.06
G1 X66.45 Y81.72 E0.064
G1 X64.08 Y87.57 E0.197
G1 X61.71 Y91.11 E0.133
G1 X58.65 Y94.11 E0.134
G1 X55.08 Y96.42 E0.133
G1 X51.18 Y97.95 E0.131
G1 X47.01 Y98.7 E0.132
G1 X42.63 Y98.55 E0.137
G1 F5612.6
G1 E-3.118
G1 F2500.0
G1 X42.69 Y98.28
G1 X107.76 Y51.84 F15000.0
G1 F5612.6
G1 E3.118
G1 F2500.0
G1 F78.0
G1 E0.065
G1 F2500.0
G1 X109.95 E0.068 F2250.0
G1 X111.87 Y50.58 E0.072
G1 X112.8 Y48.45 E0.072
G1 X112.5 Y46.47 E0.062
G1 X112.08 Y45.87 E0.023
G1 X110.97 Y44.67 E0.051
G1 X110.49 Y44.46 E0.016
G1 X108.84 Y44.01 E0.053
G1 X106.62 Y44.7 E0.072
G1 X105.24 Y46.32 E0.066
G1 X105.12 Y46.8 E0.015
G1 X104.91 Y48.69 E0.059
G1 X105.81 Y50.55 E0.064
G1 X105.99 Y50.76 E0.009
G1 X107.76 Y51.84 E0.065
G1 X107.88 Y51.57 E0.009
G1 X109.95 Y51.51 E0.065
G1 X111.66 Y50.37 E0.064
G1 X112.47 Y48.48 E0.064
G1 X112.2 Y46.53 E0.061
G1 X110.91 Y45.0 E0.062
G1 X110.7 Y44.82 E0.009
G1 X108.81 Y44.31 E0.061
G1 X106.83 Y44.91 E0.065
G1 X105.48 Y46.53 E0.066
G1 X105.21 Y48.51 E0.062
G1 X106.11 Y50.46 E0.067
G1 X107.88 Y51.57 E0.065
G1 F5612.6
G1 E-3.118
G1 F2500.0
G1 X107.76 Y51.84
G1 X109.86 Y51.93 F15000.0
G1 F5612.6
G1 E3.118
G1 F2500.0
G1 F78.0
G1 E0.065
G1 F2500.0
G1 X101.13 Y60.6 E0.384
G1 X97.29 Y62.67 E0.136
G1 X107.94 Y51.96 E0.471
G1 X107.61 Y51.87 E0.011
G1 X106.8 Y51.36 E0.03
G1 X93.12 Y64.92 E0.601
G1 X89.37 Y66.93 E0.133
G1 X105.69 Y50.52 E0.722
G1 X105.12 Y49.32 E0.041
G1 X85.2 Y69.18 E0.877
G1 X81.36 Y71.25 E0.136
G1 X104.94 Y47.64 E1.04
G1 F5612.6
G1 E-3.118
G1 F2500.0
G1 X105.3 Y58.35 F15000.0
G1 F5612.6
G1 E3.118
G1 F2500.0
G1 F78.0
G1 E0.065
G1 F2500.0
G1 X109.2 Y56.25 E0.138
G1 X116.13 Y49.26 E0.307
G1 X116.19 Y48.54 E0.023
G1 X116.22 Y47.4 E0.036
G1 F5612.6
G1 E-3.118
G1 F2500.0
G1 X115.92 Y45.87 F15000.0
G1 F5612.6
G1 E3.118
G1 F2500.0
G1 F78.0
G1 E0.065
G1 F2500.0
G1 X112.68 Y49.05 E0.142
G1 X112.86 Y48.51 E0.018
G1 X112.74 Y47.37 E0.036
G1 X112.71 Y47.25 E0.004
G1 X115.35 Y44.55 E0.118
G1 X115.02 Y43.95 E0.021
G1 X114.66 Y43.47 E0.019
G1 X112.2 Y45.87 E0.107
G1 X111.39 Y44.94 E0.038
G1 X113.73 Y42.48 E0.106
G1 X112.74 Y41.73 E0.039
G1 X110.13 Y44.28 E0.114
G1 X108.78 Y43.92 E0.044
G1 X108.66 Y43.95 E0.004
G1 X111.45 Y41.1 E0.124
G1 X110.85 Y40.89 E0.02
G1 X110.04 Y40.74 E0.026
G1 X77.19 Y73.5 E1.447
G1 X73.38 Y75.54 E0.135
G1 X108.21 Y40.65 E1.537
G1 X107.49 Y40.74 E0.023
G1 X105.93 Y41.19 E0.051
G1 X69.0 Y78.09 E1.628
G1 F5612.6
G1 E-3.118
G1 F2500.0
G1 X64.02 Y86.73 F15000.0
G1 F5612.6
G1 E3.118
G1 F2500.0
G1 F78.0
G1 E0.065
G1 F2500.0
G1 X54.42 Y96.27 E0.422
G1 X51.51 Y97.41 E0.097
G1 X65.31 Y83.55 E0.61
G1 X66.18 Y81.42 E0.072
G1 X67.17 Y79.92 E0.056
G1 X49.08 Y97.95 E0.796
G1 X46.95 Y98.31 E0.067
G1 X102.66 Y42.51 E2.459
G1 X99.78 Y43.65 E0.097
G1 X45.09 Y98.25 E2.41
G1 X43.35 Y98.22 E0.054
G1 X96.6 Y44.91 E2.349
G1 X93.63 Y46.08 E0.1
G1 X41.7 Y97.98 E2.289
G1 X40.29 Y97.65 E0.045
G1 X90.6 Y47.28 E2.22
G1 F5612.6
G1 E-3.118
G1 F2500.0
G1 X87.57 Y48.48 F15000.0
G1 F5612.6
G1 E3.118
G1 F2500.0
G1 F78.0
G1 E0.065
G1 F2500.0
G1 X38.73 Y97.26 E2.152
G1 X37.5 Y96.72 E0.042
G1 X84.39 Y49.77 E2.069
G1 X81.42 Y50.94 E0.1
G1 X36.24 Y96.15 E1.993
G1 F5612.6
G1 E-3.118
G1 F2500.0
G1 X42.93 Y83.91 F15000.0
G1 F5612.6
G1 E3.118
G1 F2500.0
G1 F78.0
G1 E0.065
G1 F2500.0
G1 X32.79 Y93.99 E0.446
G1 X31.8 Y93.27 E0.038
G1 X42.3 Y82.68 E0.465
G1 X41.73 Y81.45 E0.042
G1 X30.81 Y92.31 E0.48
G1 X29.97 Y91.38 E0.039
G1 X41.13 Y80.19 E0.493
G1 X40.56 Y78.96 E0.042
G1 X29.07 Y90.39 E0.505
G1 X28.59 Y89.82 E0.023
G1 X28.32 Y89.37 E0.016
G1 X39.96 Y77.7 E0.514
G1 F5612.6
G1 E-3.118
G1 F2500.0
G1 X45.84 Y82.86 F15000.0
G1 F5612.6
G1 E3.118
G1 F2500.0
G1 F78.0
G1 E0.065
G1 F2500.0
G1 X33.9 Y94.8 E0.527
G1 X34.95 Y95.52 E0.04
G1 X49.32 Y81.21 E0.632
G1 F5612.6
G1 E-3.118
G1 F2500.0
G1 X55.02 Y58.95 F15000.0
G1 F5612.6
G1 E3.118
G1 F2500.0
G1 F78.0
G1 E0.065
G1 F2500.0
G1 X26.97 Y87.06 E1.238
G1 X27.6 Y88.17 E0.04
G1 X39.36 Y76.44 E0.518
G1 X39.03 Y75.72 E0.025
G1 X39.0 Y75.36 E0.011
G1 X39.21 Y75.0 E0.013
G1 X42.18 Y73.59 E0.103
G1 X56.55 Y59.31 E0.632
G1 X57.6 Y59.43 E0.033
G1 X58.17 E0.018
G1 X45.78 Y71.91 E0.548
G1 X47.28 Y71.19 E0.052
G1 X47.67 E0.012
G1 X48.0 Y71.43 E0.013
G1 X60.36 Y59.16 E0.543
G1 X61.35 Y58.86 E0.032
G1 X63.0 Y58.29 E0.054
G1 X48.63 Y72.75 E0.636
G1 X49.2 Y73.95 E0.041
G1 X66.12 Y57.06 E0.745
G1 X69.06 Y55.89 E0.099
G1 X49.8 Y75.24 E0.851
G1 X50.34 Y76.44 E0.041
G1 X72.24 Y54.6 E0.964
G1 X75.21 Y53.43 E0.1
G1 X50.97 Y77.76 E1.071
G1 X51.51 Y78.96 E0.041
G1 X78.36 Y52.17 E1.183
G1 F5612.6
G1 E-3.118
G1 F2500.0
G1 X53.64 Y58.5 F15000.0
G1 F5612.6
G1 E3.118
G1 F2500.0
G1 F78.0
G1 E0.065
G1 F2500.0
G1 X26.34 Y85.74 E1.203
G1 X25.89 Y84.45 E0.043
G1 X52.2 Y58.05 E1.162
G1 X50.88 Y57.6 E0.043
G1 X25.38 Y83.04 E1.123
G1 X25.14 Y82.17 E0.028
G1 X25.05 Y81.6 E0.018
G1 X49.38 Y57.21 E1.074
G1 F5612.6
G1 E-3.118
G1 F2500.0
G1 X47.76 Y57.03 F15000.0
G1 F5612.6
G1 E3.118
G1 F2500.0
G1 F78.0
G1 E0.065
G1 F2500.0
G1 X24.84 Y79.89 E1.009
G1 X24.63 Y78.33 E0.049
G1 X46.05 Y56.85 E0.946
G1 X45.33 Y56.82 E0.022
G1 X44.19 Y56.94 E0.036
G1 X24.72 Y76.35 E0.857
G1 X24.81 Y75.03 E0.041
G1 X24.87 Y74.43 E0.019
G1 X42.09 Y57.12 E0.761
G1 X41.34 Y57.21 E0.024
G1 X39.75 Y57.69 E0.052
G1 X25.5 Y71.94 E0.628
G1 F5612.6
G1 E-3.118
G1 F2500.0
G1 X26.49 Y69.12 F15000.0
G1 F5612.6
G1 E3.118
G1 F2500.0
G1 F78.0
G1 E0.065
G1 F2500.0
G1 X36.81 Y58.74 E0.456
G1 X33.72 Y60.39 E0.109
G1 X31.68 Y62.07 E0.082
G1 X29.76 Y63.99 E0.085
G1 F5612.6
G1 E-3.118
G1 F2500.0
;#!LAYER: 4/59
G92 E0
G1 Z1.0 F200.0
G1 X51.69 Y79.74 F15000.0
T0
G1 F5612.6
G1 E3.118
G1 F2500.0
G1 F78.0
G1 E0.065
G1 F2500.0
G1 Y79.53 E0.007 F2250.0
G1 X47.94 Y71.49 E0.277
G1 X47.55 Y71.25 E0.014
G1 X46.41 Y71.7 E0.038
G1 X39.39 Y74.97 E0.241
G1 X39.09 Y75.33 E0.015
G1 Y75.63 E0.009
G1 X42.96 Y83.79 E0.282
G1 X43.23 Y83.91 E0.009
G1 X43.44 Y83.88 E0.007
G1 X51.54 Y80.04 E0.28
G1 X51.69 Y79.74 E0.01
G1 X51.42 Y79.68 E0.009
G1 X47.67 Y71.64 E0.277
G1 X47.49 Y71.55 E0.006
G1 X39.42 Y75.33 E0.278
G1 Y75.63 E0.009
G1 X43.17 Y83.58 E0.274
G1 X43.26 Y83.61 E0.003
G1 X51.36 Y79.8 E0.279
G1 X51.42 Y79.68 E0.004
G1 F5612.6
G1 E-3.118
G1 F2500.0
G1 X51.69 Y79.74
G1 X42.69 Y98.28 F15000.0
G1 F5612.6
G1 E3.118
G1 F2500.0
G1 F78.0
G1 E0.065
G1 F2500.0
G1 X38.76 Y97.38 E0.126 F2250.0
G1 X34.62 Y95.43 E0.143
G1 X31.32 Y93.0 E0.128
G1 X28.68 Y90.12 E0.122
G1 X26.43 Y86.31 E0.138
G1 X25.11 Y82.53 E0.125
G1 X24.54 Y78.45 E0.128
G1 X24.81 Y73.98 E0.14
G1 X25.95 Y69.99 E0.129
G1 X27.96 Y66.09 E0.137
G1 X30.51 Y62.94 E0.126
G1 X33.75 Y60.24 E0.132
G1 X37.53 Y58.26 E0.133
G1 X41.46 Y57.09 E0.128
G1 X45.6 Y56.7 E0.13
G1 X49.77 Y57.18 E0.131
G1 X55.83 Y59.13 E0.199
G1 X57.93 Y59.37 E0.066
G1 X59.85 Y59.19 E0.06
G1 X61.5 Y58.74 E0.053
G1 X63.09 Y58.17 E0.053
G1 X106.2 Y41.01 E1.447
G1 X107.73 Y40.59 E0.049
G1 X109.68 Y40.56 E0.061
G1 X111.36 Y40.95 E0.054
G1 X112.98 Y41.76 E0.056
G1 X114.18 Y42.72 E0.048
G1 X115.17 Y43.98 E0.05
G1 X115.98 Y45.66 E0.058
G1 X116.31 Y47.37 E0.054
G1 X116.25 Y49.14 E0.055
G1 X115.8 Y50.85 E0.055
G1 X114.78 Y52.56 E0.062
G1 X113.82 Y53.64 E0.045
G1 X112.14 Y54.78 E0.063
G1 X70.26 Y77.34 E1.483
G1 X68.73 Y78.39 E0.058
G1 X67.29 Y79.89 E0.065
G1 X66.24 Y81.51 E0.06
G1 X63.84 Y87.39 E0.198
G1 X61.44 Y90.96 E0.134
G1 X58.5 Y93.87 E0.129
G1 X54.93 Y96.15 E0.132
G1 X51.0 Y97.68 E0.132
G1 X46.98 Y98.4 E0.127
G1 X42.69 Y98.28 E0.134
G1 X42.63 Y98.55 E0.009
G1 X38.61 Y97.65 E0.128
G1 X34.98 Y96.0 E0.124
G1 X31.71 Y93.69 E0.125
G1 X30.9 Y92.97 E0.034
G1 X28.32 Y90.12 E0.12
G1 X26.16 Y86.46 E0.133
G1 X24.78 Y82.41 E0.133
G1 X24.24 Y78.42 E0.126
G1 X24.48 Y74.7 E0.116
G1 X24.51 Y73.95 E0.023
G1 X25.68 Y69.84 E0.133
G1 X27.69 Y65.97 E0.136
G1 X30.3 Y62.73 E0.13
G1 X33.57 Y60.0 E0.133
G1 X37.44 Y57.99 E0.136
G1 X41.43 Y56.79 E0.13
G1 X45.87 Y56.43 E0.139
G1 X50.07 Y56.94 E0.132
G1 X55.89 Y58.83 E0.191
G1 X58.05 Y59.04 E0.068
G1 X59.79 Y58.89 E0.054
G1 X61.74 Y58.35 E0.063
G1 X106.08 Y40.71 E1.488
G1 X107.73 Y40.29 E0.053
G1 X109.65 Y40.26 E0.06
G1 X111.21 Y40.56 E0.05
G1 X113.19 Y41.55 E0.069
G1 X114.42 Y42.51 E0.049
G1 X115.5 Y43.92 E0.055
G1 X116.28 Y45.63 E0.059
G1 X116.61 Y47.31 E0.053
G1 X116.55 Y49.26 E0.061
G1 X116.1 Y50.94 E0.054
G1 X115.29 Y52.38 E0.052
G1 X114.0 Y53.88 E0.062
G1 X112.32 Y55.02 E0.063
G1 X70.32 Y77.64 E1.487
G1 X68.91 Y78.63 E0.054
G1 X67.56 Y80.01 E0.06
G1 X66.45 Y81.72 E0.064
G1 X64.08 Y87.57 E0.197
G1 X61.71 Y91.11 E0.133
G1 X58.65 Y94.11 E0.134
G1 X55.08 Y96.42 E0.133
G1 X51.18 Y97.95 E0.131
G1 X47.01 Y98.7 E0.132
G1 X42.63 Y98.55 E0.137
G1 F5612.6
G1 E-3.118
G1 F2500.0
G1 X42.69 Y98.28
G1 X107.76 Y51.84 F15000.0
G1 F5612.6
G1 E3.118
G1 F2500.0
G1 F78.0
G1 E0.065
G1 F2500.0
G1 X109.95 E0.068 F2250.0
G1 X111.87 Y50.58 E0.072
G1 X112.8 Y48.45 E0.072
G1 X112.5 Y46.47 E0.062
G1 X112.08 Y45.87 E0.023
G1 X110.97 Y44.67 E0.051
G1 X110.49 Y44.46 E0.016
G1 X108.84 Y44.01 E0.053
G1 X106.62 Y44.7 E0.072
G1 X105.24 Y46.32 E0.066
G1 X105.12 Y46.8 E0.015
G1 X104.91 Y48.69 E0.059
G1 X105.81 Y50.55 E0.064
G1 X105.99 Y50.76 E0.009
G1 X107.76 Y51.84 E0.065
G1 X107.88 Y51.57 E0.009
G1 X109.95 Y51.51 E0.065
G1 X111.66 Y50.37 E0.064
G1 X112.47 Y48.48 E0.064
G1 X112.2 Y46.53 E0.061
G1 X110.91 Y45.0 E0.062
G1 X110.7 Y44.82 E0.009
G1 X108.81 Y44.31 E0.061
G1 X106.83 Y44.91 E0.065
G1 X105.48 Y46.53 E0.066
G1 X105.21 Y48.51 E0.062
G1 X106.11 Y50.46 E0.067
G1 X107.88 Y51.57 E0.065
G1 F5612.6
G1 E-3.118
G1 F2500.0
G1 X107.76 Y51.84
G1 X112.41 Y54.51 F15000.0
G1 F5612.6
G1 E3.118
G1 F2500.0
G1 F78.0
G1 E0.065
G1 F2500.0
G1 X109.86 Y51.93 E0.113
G1 X109.95 E0.003
G1 X111.0 Y51.27 E0.039
G1 X113.52 Y53.73 E0.11
G1 X114.39 Y52.86 E0.038
G1 X112.05 Y50.46 E0.105
G1 X112.59 Y49.23 E0.042
G1 X115.2 Y51.72 E0.112
G1 X115.59 Y51.03 E0.025
G1 X115.8 Y50.55 E0.016
G1 X112.74 Y47.46 E0.136
G1 F5612.6
G1 E-3.118
G1 F2500.0
G1 X116.19 Y49.08 F15000.0
G1 F5612.6
G1 E3.118
G1 F2500.0
G1 F78.0
G1 E0.065
G1 F2500.0
G1 X107.79 Y40.68 E0.37
G1 X109.53 Y40.65 E0.054
G1 X116.19 Y47.22 E0.292
G1 X115.92 Y45.84 E0.044
G1 X115.47 Y44.76 E0.036
G1 X112.23 Y41.46 E0.144
G1 F5612.6
G1 E-3.118
G1 F2500.0
G1 X109.32 Y44.04 F15000.0
G1 F5612.6
G1 E3.118
G1 F2500.0
G1 F78.0
G1 E0.065
G1 F2500.0
G1 X109.35 Y44.07 E0.001
G1 X106.35 Y41.07 E0.132
G1 F5612.6
G1 E-3.118
G1 F2500.0
G1 X105.0 Y41.58 F15000.0
G1 F5612.6
G1 E3.118
G1 F2500.0
G1 F78.0
G1 E0.065
G1 F2500.0
G1 X107.61 Y44.25 E0.116
G1 X106.59 Y44.61 E0.034
G1 X106.41 Y44.79 E0.008
G1 X103.65 Y42.09 E0.12
G1 X102.36 Y42.6 E0.043
G1 X105.54 Y45.81 E0.141
G1 X105.09 Y46.44 E0.024
G1 X105.0 Y47.07 E0.02
G1 X101.01 Y43.14 E0.175
G1 X99.75 Y43.65 E0.042
G1 X104.94 Y48.93 E0.231
G1 X105.84 Y50.73 E0.063
G1 X107.82 Y51.96 E0.073
G1 X108.03 E0.007
G1 X111.18 Y55.17 E0.14
G1 X110.04 Y55.8 E0.041
G1 X98.43 Y44.19 E0.512
G1 F5612.6
G1 E-3.118
G1 F2500.0
G1 X97.11 Y44.7 F15000.0
G1 F5612.6
G1 E3.118
G1 F2500.0
G1 F78.0
G1 E0.065
G1 F2500.0
G1 X108.81 Y56.46 E0.517
G1 X107.67 Y57.06 E0.04
G1 X95.79 Y45.24 E0.523
G1 F5612.6
G1 E-3.118
G1 F2500.0
G1 X89.22 Y47.85 F15000.0
G1 F5612.6
G1 E3.118
G1 F2500.0
G1 F78.0
G1 E0.065
G1 F2500.0
G1 X101.64 Y60.33 E0.549
G1 X100.5 Y60.93 E0.04
G1 X87.87 Y48.39 E0.555
G1 X86.61 Y48.87 E0.042
G1 X99.24 Y61.62 E0.56
G1 X98.1 Y62.22 E0.04
G1 X85.23 Y49.44 E0.566
G1 X83.97 Y49.92 E0.042
G1 X96.87 Y62.88 E0.57
G1 X95.7 Y63.51 E0.041
G1 X82.59 Y50.49 E0.576
G1 X81.33 Y50.97 E0.042
G1 X94.47 Y64.17 E0.581
G1 X93.3 Y64.8 E0.041
G1 X79.98 Y51.51 E0.587
G1 X78.72 Y52.02 E0.042
G1 X92.07 Y65.46 E0.591
G1 X90.93 Y66.09 E0.041
G1 X77.34 Y52.56 E0.598
G1 X76.08 Y53.07 E0.042
G1 X89.67 Y66.75 E0.601
G1 X88.53 Y67.38 E0.041
G1 X74.73 Y53.61 E0.608
G1 X73.44 Y54.12 E0.043
G1 X87.3 Y68.04 E0.613
G1 X86.16 Y68.64 E0.04
G1 X72.09 Y54.66 E0.618
G1 X70.8 Y55.17 E0.043
G1 X84.9 Y69.33 E0.623
G1 X83.76 Y69.96 E0.041
G1 X69.51 Y55.71 E0.628
G1 F5612.6
G1 E-3.118
G1 F2500.0
G1 X68.19 Y56.25 F15000.0
G1 F5612.6
G1 E3.118
G1 F2500.0
G1 F78.0
G1 E0.065
G1 F2500.0
G1 X82.5 Y70.62 E0.632
G1 X81.39 Y71.22 E0.039
G1 X66.84 Y56.76 E0.64
G1 X65.55 Y57.27 E0.043
G1 X80.13 Y71.91 E0.644
G1 X78.99 Y72.51 E0.04
G1 X64.2 Y57.81 E0.65
G1 X62.94 Y58.32 E0.042
G1 X77.73 Y73.2 E0.654
G1 X76.59 Y73.8 E0.04
G1 X61.53 Y58.8 E0.663
G1 X60.15 Y59.22 E0.045
G1 X75.36 Y74.46 E0.671
G1 X74.19 Y75.09 E0.041
G1 X58.41 Y59.4 E0.694
G1 X57.63 Y59.43 E0.024
G1 X56.58 Y59.31 E0.033
G1 X72.96 Y75.75 E0.724
G1 X71.79 Y76.38 E0.041
G1 X54.06 Y58.65 E0.782
G1 F5612.6
G1 E-3.118
G1 F2500.0
G1 X51.33 Y57.75 F15000.0
G1 F5612.6
G1 E3.118
G1 F2500.0
G1 F78.0
G1 E0.065
G1 F2500.0
G1 X70.59 Y77.04 E0.85
G1 X69.51 Y77.73 E0.04
G1 X48.81 Y57.15 E0.91
G1 X46.83 Y56.94 E0.062
G1 X68.43 Y78.57 E0.953
G1 X67.56 Y79.47 E0.039
G1 X44.91 Y56.85 E0.998
G1 F5612.6
G1 E-3.118
G1 F2500.0
G1 X43.23 Y57.03 F15000.0
G1 F5612.6
G1 E3.118
G1 F2500.0
G1 F78.0
G1 E0.065
G1 F2500.0
G1 X66.72 Y80.58 E1.037
G1 X66.06 Y81.66 E0.039
G1 X41.55 Y57.18 E1.08
G1 F5612.6
G1 E-3.118
G1 F2500.0
G1 X40.11 Y57.57 F15000.0
G1 F5612.6
G1 E3.118
G1 F2500.0
G1 F78.0
G1 E0.065
G1 F2500.0
G1 X65.52 Y83.01 E1.121
G1 X65.01 Y84.27 E0.042
G1 X38.73 Y58.02 E1.158
G1 F5612.6
G1 E-3.118
G1 F2500.0
G1 X34.92 Y59.73 F15000.0
G1 F5612.6
G1 E3.118
G1 F2500.0
G1 F78.0
G1 E0.065
G1 F2500.0
G1 X46.65 Y71.49 E0.518
G1 X45.42 Y72.06 E0.042
G1 X33.72 Y60.39 E0.515
G1 F5612.6
G1 E-3.118
G1 F2500.0
G1 X32.73 Y61.23 F15000.0
G1 F5612.6
G1 E3.118
G1 F2500.0
G1 F78.0
G1 E0.065
G1 F2500.0
G1 X44.13 Y72.69 E0.504
G1 X42.93 Y73.23 E0.041
G1 X31.74 Y62.07 E0.493
G1 F5612.6
G1 E-3.118
G1 F2500.0
G1 X30.72 Y62.88 F15000.0
G1 F5612.6
G1 E3.118
G1 F2500.0
G1 F78.0
G1 E0.065
G1 F2500.0
G1 X41.64 Y73.83 E0.482
G1 X40.44 Y74.4 E0.041
G1 X29.85 Y63.9 E0.465
G1 X29.07 Y64.89 E0.039
G1 X39.15 Y75.06 E0.446
G1 X39.0 Y75.39 E0.011
G1 X39.06 Y75.78 E0.012
G1 X39.93 Y77.61 E0.063
G1 X28.23 Y65.91 E0.516
G1 F5612.6
G1 E-3.118
G1 F2500.0
G1 X25.38 Y72.3 F15000.0
G1 F5612.6
G1 E3.118
G1 F2500.0
G1 F78.0
G1 E0.065
G1 F2500.0
G1 X50.79 Y97.62 E1.119
G1 X50.88 E0.003
G1 X52.08 Y97.17 E0.04
G1 X25.8 Y70.83 E1.16
G1 X25.98 Y70.17 E0.021
G1 X26.28 Y69.54 E0.022
G1 X53.46 Y96.63 E1.197
G1 X54.72 Y96.15 E0.042
G1 X26.91 Y68.28 E1.228
G1 X27.51 Y67.11 E0.041
G1 X41.55 Y81.09 E0.618
G1 X42.66 Y83.49 E0.082
G1 X42.93 Y83.88 E0.015
G1 X43.26 Y84.0 E0.011
G1 X44.1 Y83.7 E0.028
G1 X55.89 Y95.43 E0.519
G1 F5612.6
G1 E-3.118
G1 F2500.0
G1 X57.03 Y94.71 F15000.0
G1 F5612.6
G1 E3.118
G1 F2500.0
G1 F78.0
G1 E0.065
G1 F2500.0
G1 X45.42 Y83.07 E0.513
G1 X46.62 Y82.5 E0.041
G1 X58.14 Y93.99 E0.507
G1 X58.29 Y93.9 E0.005
G1 X59.1 Y93.15 E0.034
G1 X47.91 Y81.9 E0.495
G1 X49.11 Y81.33 E0.041
G1 X60.06 Y92.22 E0.482
G1 X60.96 Y91.32 E0.04
G1 X50.4 Y80.7 E0.467
G1 X51.57 Y80.13 E0.041
G1 X61.8 Y90.27 E0.449
G1 X62.52 Y89.22 E0.04
G1 X50.85 Y77.49 E0.516
G1 X49.29 Y74.16 E0.115
G1 X63.27 Y88.08 E0.615
G1 X63.63 Y87.54 E0.02
G1 X63.93 Y86.94 E0.021
G1 X36.12 Y59.1 E1.227
G1 X37.29 Y58.47 E0.041
G1 X64.47 Y85.62 E1.198
G1 F5612.6
G1 E-3.118
G1 F2500.0
G1 X49.2 Y97.92 F15000.0
G1 F5612.6
G1 E3.118
G1 F2500.0
G1 F78.0
G1 E0.065
G1 F2500.0
G1 X24.99 Y73.77 E1.066
G1 X24.9 Y74.25 E0.015
G1 X24.81 Y75.36 E0.035
G1 X47.58 Y98.19 E1.005
G1 X46.77 Y98.31 E0.026
G1 X45.9 Y98.28 E0.027
G1 X24.69 Y77.16 E0.933
G1 X24.66 Y78.6 E0.045
G1 X24.69 Y78.9 E0.009
G1 X43.92 Y98.22 E0.85
G1 X42.54 Y98.16 E0.043
G1 X41.94 Y98.01 E0.019
G1 X24.99 Y81.12 E0.746
G1 X25.23 Y82.62 E0.047
G1 X25.53 Y83.43 E0.027
G1 X39.51 Y97.47 E0.618
G1 X38.7 Y97.26 E0.026
G1 X36.54 Y96.27 E0.074
G1 X26.52 Y86.28 E0.441
G1 F5612.6
G1 E-3.118
G1 F2500.0
G1 X102.87 Y59.67 F15000.0
G1 F5612.6
G1 E3.118
G1 F2500.0
G1 F78.0
G1 E0.065
G1 F2500.0
G1 X90.54 Y47.31 E0.544
G1 X91.8 Y46.8 E0.042
G1 X104.07 Y59.01 E0.54
G1 X105.24 Y58.38 E0.041
G1 X93.18 Y46.29 E0.532
G1 X94.44 Y45.75 E0.043
G1 X106.44 Y57.72 E0.529
G1 F5612.6
G1 E-3.118
G1 F2500.0
;#!LAYER: 5/59
G92 E0
G1 Z1.25 F200.0
G1 X51.69 Y79.74 F15000.0
T0
G1 F5612.6
G1 E3.118
G1 F2500.0
G1 F78.0
G1 E0.065
G1 F2500.0
G1 Y79.53 E0.007 F2250.0
G1 X47.94 Y71.49 E0.277
G1 X47.55 Y71.25 E0.014
G1 X46.41 Y71.7 E0.038
G1 X39.39 Y74.97 E0.241
G1 X39.09 Y75.33 E0.015
G1 Y75.63 E0.009
G1 X42.96 Y83.79 E0.282
G1 X43.23 Y83.91 E0.009
G1 X43.44 Y83.88 E0.007
G1 X51.54 Y80.04 E0.28
G1 X51.69 Y79.74 E0.01
G1 X51.42 Y79.68 E0.009
G1 X47.67 Y71.64 E0.277
G1 X47.49 Y71.55 E0.006
G1 X39.42 Y75.33 E0.278
G1 Y75.63 E0.009
G1 X43.17 Y83.58 E0.274
G1 X43.26 Y83.61 E0.003
G1 X51.36 Y79.8 E0.279
G1 X51.42 Y79.68 E0.004
G1 F5612.6
G1 E-3.118
G1 F2500.0
G1 X51.69 Y79.74
G1 X42.69 Y98.28 F15000.0
G1 F5612.6
G1 E3.118
G1 F2500.0
G1 F78.0
G1 E0.065
G1 F2500.0
G1 X38.76 Y97.38 E0.126 F2250.0
G1 X34.62 Y95.43 E0.143
G1 X31.32 Y93.0 E0.128
G1 X28.68 Y90.12 E0.122
G1 X26.43 Y86.31 E0.138
G1 X25.11 Y82.53 E0.125
G1 X24.54 Y78.45 E0.128
G1 X24.81 Y73.98 E0.14
G1 X25.95 Y69.99 E0.129
G1 X27.96 Y66.09 E0.137
G1 X30.51 Y62.94 E0.126
G1 X33.75 Y60.24 E0.132
G1 X37.53 Y58.26 E0.133
G1 X41.46 Y57.09 E0.128
G1 X45.6 Y56.7 E0.13
G1 X49.77 Y57.18 E0.131
G1 X55.83 Y59.13 E0.199
G1 X57.93 Y59.37 E0.066
G1 X59.85 Y59.19 E0.06
G1 X61.5 Y58.74 E0.053
G1 X63.09 Y58.17 E0.053
G1 X106.2 Y41.01 E1.447
G1 X107.73 Y40.59 E0.049
G1 X109.68 Y40.56 E0.061
G1 X111.36 Y40.95 E0.054
G1 X112.98 Y41.76 E0.056
G1 X114.18 Y42.72 E0.048
G1 X115.17 Y43.98 E0.05
G1 X115.98 Y45.66 E0.058
G1 X116.31 Y47.37 E0.054
G1 X116.25 Y49.14 E0.055
G1 X115.8 Y50.85 E0.055
G1 X114.78 Y52.56 E0.062
G1 X113.82 Y53.64 E0.045
G1 X112.14 Y54.78 E0.063
G1 X70.35 Y77.28 E1.48
G1 X68.73 Y78.39 E0.061
G1 X67.29 Y79.86 E0.064
G1 X66.24 Y81.51 E0.061
G1 X63.84 Y87.39 E0.198
G1 X61.44 Y90.96 E0.134
G1 X58.5 Y93.87 E0.129
G1 X54.93 Y96.15 E0.132
G1 X51.0 Y97.68 E0.132
G1 X46.98 Y98.4 E0.127
G1 X42.69 Y98.28 E0.134
G1 X42.63 Y98.55 E0.009
G1 X38.61 Y97.65 E0.128
G1 X34.98 Y96.0 E0.124
G1 X31.71 Y93.69 E0.125
G1 X30.9 Y92.97 E0.034
G1 X28.32 Y90.12 E0.12
G1 X26.16 Y86.46 E0.133
G1 X24.78 Y82.41 E0.133
G1 X24.24 Y78.42 E0.126
G1 X24.48 Y74.7 E0.116
G1 X24.51 Y73.95 E0.023
G1 X25.68 Y69.84 E0.133
G1 X27.69 Y65.97 E0.136
G1 X30.3 Y62.73 E0.13
G1 X33.57 Y60.0 E0.133
G1 X37.44 Y57.99 E0.136
G1 X41.43 Y56.79 E0.13
G1 X45.87 Y56.43 E0.139
G1 X50.07 Y56.94 E0.132
G1 X55.89 Y58.83 E0.191
G1 X58.05 Y59.04 E0.068
G1 X59.79 Y58.89 E0.054
G1 X61.74 Y58.35 E0.063
G1 X106.08 Y40.71 E1.488
G1 X107.73 Y40.29 E0.053
G1 X109.65 Y40.26 E0.06
G1 X111.21 Y40.56 E0.05
G1 X113.19 Y41.55 E0.069
G1 X114.42 Y42.51 E0.049
G1 X115.5 Y43.92 E0.055
G1 X116.28 Y45.63 E0.059
G1 X116.61 Y47.31 E0.053
G1 X116.55 Y49.26 E0.061
G1 X116.1 Y50.94 E0.054
G1 X115.29 Y52.38 E0.052
G1 X114.0 Y53.88 E0.062
G1 X112.32 Y55.02 E0.063
G1 X70.41 Y77.58 E1.484
G1 X69.03 Y78.51 E0.052
G1 X67.56 Y80.01 E0.065
G1 X66.45 Y81.72 E0.064
G1 X64.08 Y87.57 E0.197
G1 X61.71 Y91.11 E0.133
G1 X58.65 Y94.11 E0.134
G1 X55.08 Y96.42 E0.133
G1 X51.18 Y97.95 E0.131
G1 X47.01 Y98.7 E0.132
G1 X42.63 Y98.55 E0.137
G1 F5612.6
G1 E-3.118
G1 F2500.0
G1 X42.69 Y98.28
G1 X107.76 Y51.84 F15000.0
G1 F5612.6
G1 E3.118
G1 F2500.0
G1 F78.0
G1 E0.065
G1 F2500.0
G1 X109.95 E0.068 F2250.0
G1 X111.87 Y50.58 E0.072
G1 X112.8 Y48.45 E0.072
G1 X112.5 Y46.47 E0.062
G1 X112.08 Y45.87 E0.023
G1 X110.97 Y44.67 E0.051
G1 X110.49 Y44.46 E0.016
G1 X108.84 Y44.01 E0.053
G1 X106.62 Y44.7 E0.072
G1 X105.24 Y46.32 E0.066
G1 X105.12 Y46.8 E0.015
G1 X104.91 Y48.69 E0.059
G1 X105.81 Y50.55 E0.064
G1 X105.99 Y50.76 E0.009
G1 X107.76 Y51.84 E0.065
G1 X107.88 Y51.57 E0.009
G1 X109.95 Y51.51 E0.065
G1 X111.66 Y50.37 E0.064
G1 X112.47 Y48.48 E0.064
G1 X112.2 Y46.53 E0.061
G1 X110.91 Y45.0 E0.062
G1 X110.7 Y44.82 E0.009
G1 X108.81 Y44.31 E0.061
G1 X106.83 Y44.91 E0.065
G1 X105.48 Y46.53 E0.066
G1 X105.21 Y48.51 E0.062
G1 X106.11 Y50.46 E0.067
G1 X107.88 Y51.57 E0.065
G1 F5612.6
G1 E-3.118
G1 F2500.0
G1 X107.76 Y51.84
G1 X107.34 Y44.34 F15000.0
G1 F5612.6
G1 E3.118
G1 F2500.0
G1 F78.0
G1 E0.065
G1 F2500.0
G1 X110.79 Y40.89 E0.152
G1 F5612.6
G1 E-3.118
G1 F2500.0
G1 X109.44 Y44.07 F15000.0
G1 F5612.6
G1 E3.118
G1 F2500.0
G1 F78.0
G1 E0.065
G1 F2500.0
G1 X112.14 Y41.43 E0.118
G1 X112.53 Y41.61 E0.013
G1 X113.22 Y42.06 E0.026
G1 X110.88 Y44.49 E0.105
G1 X111.78 Y45.39 E0.04
G1 X114.27 Y42.96 E0.108
G1 X115.02 Y43.95 E0.039
G1 X112.59 Y46.44 E0.108
G1 X112.83 Y47.97 E0.048
G1 X115.65 Y45.21 E0.123
G1 F5612.6
G1 E-3.118
G1 F2500.0
G1 X115.77 Y50.61 F15000.0
G1 F5612.6
G1 E3.118
G1 F2500.0
G1 F78.0
G1 E0.065
G1 F2500.0
G1 X111.09 Y55.23 E0.205
G1 X107.25 Y57.3 E0.136
G1 X116.19 Y48.3 E0.396
G1 Y47.13 E0.036
G1 X116.1 Y46.65 E0.015
G1 X103.14 Y59.52 E0.57
G1 X99.24 Y61.62 E0.138
G1 X108.84 Y51.96 E0.425
G1 X107.7 Y51.93 E0.036
G1 X107.34 Y51.69 E0.013
G1 X95.16 Y63.81 E0.536
G1 X91.32 Y65.88 E0.136
G1 X106.17 Y50.97 E0.656
G1 X105.75 Y50.64 E0.017
G1 X105.42 Y49.95 E0.024
G1 X87.18 Y68.1 E0.802
G1 X83.4 Y70.14 E0.134
G1 X104.82 Y48.63 E0.947
G1 X105.06 Y46.62 E0.063
G1 X79.23 Y72.39 E1.138
G1 X75.39 Y74.46 E0.136
G1 X109.17 Y40.62 E1.491
G1 X107.58 Y40.71 E0.05
G1 X107.19 Y40.83 E0.013
G1 X71.25 Y76.68 E1.583
G1 X69.99 Y77.4 E0.045
G1 X68.64 Y78.36 E0.052
G1 X67.11 Y79.98 E0.069
G1 X66.06 Y81.66 E0.062
G1 X65.88 Y82.11 E0.015
G1 X50.19 Y97.74 E0.691
G1 X48.03 Y98.13 E0.068
G1 X104.22 Y41.88 E2.479
G1 X101.31 Y43.02 E0.097
G1 X45.99 Y98.28 E2.438
G1 X44.28 Y98.22 E0.053
G1 X98.22 Y44.25 E2.379
G1 F5612.6
G1 E-3.118
G1 F2500.0
G1 X95.19 Y45.45 F15000.0
G1 F5612.6
G1 E3.118
G1 F2500.0
G1 F78.0
G1 E0.065
G1 F2500.0
G1 X42.51 Y98.13 E2.323
G1 F5612.6
G1 E-3.118
G1 F2500.0
G1 X53.04 Y96.81 F15000.0
G1 F5612.6
G1 E3.118
G1 F2500.0
G1 F78.0
G1 E0.065
G1 F2500.0
G1 X64.62 Y85.23 E0.511
G1 X63.84 Y87.18 E0.065
G1 X62.76 Y88.86 E0.062
G1 X56.85 Y94.83 E0.262
G1 X58.38 Y93.84 E0.057
G1 X61.32 Y90.96 E0.128
G1 X62.64 Y89.04 E0.073
G1 F5612.6
G1 E-3.118
G1 F2500.0
G1 X51.09 Y80.37 F15000.0
G1 F5612.6
G1 E3.118
G1 F2500.0
G1 F78.0
G1 E0.065
G1 F2500.0
G1 X35.58 Y95.85 E0.683
G1 X34.56 Y95.28 E0.036
G1 X34.44 Y95.19 E0.005
G1 X47.4 Y82.14 E0.573
G1 X44.1 Y83.7 E0.114
G1 X33.33 Y94.38 E0.473
G1 X32.31 Y93.63 E0.039
G1 X42.6 Y83.31 E0.454
G1 X42.03 Y82.11 E0.041
G1 X31.26 Y92.82 E0.474
G1 X30.42 Y91.89 E0.039
G1 X41.4 Y80.79 E0.487
G1 X40.86 Y79.62 E0.04
G1 X29.49 Y90.87 E0.499
G1 X28.68 Y89.94 E0.038
G1 X40.23 Y78.3 E0.511
G1 X39.69 Y77.1 E0.041
G1 X27.96 Y88.74 E0.515
G1 X27.3 Y87.63 E0.04
G1 X39.06 Y75.78 E0.521
G1 X39.0 Y75.39 E0.012
G1 X39.18 Y75.03 E0.013
G1 X39.48 Y74.85 E0.011
G1 X40.56 Y74.34 E0.037
G1 X55.71 Y59.19 E0.668
G1 F5612.6
G1 E-3.118
G1 F2500.0
G1 X54.33 Y58.74 F15000.0
G1 F5612.6
G1 E3.118
G1 F2500.0
G1 F78.0
G1 E0.065
G1 F2500.0
G1 X26.58 Y86.43 E1.222
G1 X26.13 Y85.14 E0.043
G1 X52.95 Y58.29 E1.183
G1 F5612.6
G1 E-3.118
G1 F2500.0
G1 X51.54 Y57.84 F15000.0
G1 F5612.6
G1 E3.118
G1 F2500.0
G1 F78.0
G1 E0.065
G1 F2500.0
G1 X25.62 Y83.7 E1.142
G1 X25.17 Y82.41 E0.043
G1 X50.13 Y57.36 E1.103
G1 X48.6 Y57.12 E0.048
G1 X24.96 Y80.73 E1.042
G1 X24.75 Y79.17 E0.049
G1 X46.86 Y56.94 E0.978
G1 X45.54 Y56.82 E0.041
G1 X45.21 Y56.85 E0.01
G1 X24.69 Y77.28 E0.903
G1 X24.75 Y76.14 E0.036
G1 X24.81 Y75.39 E0.023
G1 X43.11 Y57.03 E0.808
G1 X41.34 Y57.21 E0.055
G1 X41.07 Y57.3 E0.009
G1 X25.17 Y73.14 E0.7
G1 X25.83 Y70.71 E0.079
G1 X38.43 Y58.08 E0.556
G1 F5612.6
G1 E-3.118
G1 F2500.0
G1 X35.01 Y59.67 F15000.0
G1 F5612.6
G1 E3.118
G1 F2500.0
G1 F78.0
G1 E0.065
G1 F2500.0
G1 X27.45 Y67.23 E0.333
G1 F5612.6
G1 E-3.118
G1 F2500.0
G1 X43.98 Y72.75 F15000.0
G1 F5612.6
G1 E3.118
G1 F2500.0
G1 F78.0
G1 E0.065
G1 F2500.0
G1 X57.36 Y59.4 E0.589
G1 X57.78 Y59.46 E0.013
G1 X59.19 Y59.34 E0.044
G1 X47.43 Y71.16 E0.52
G1 X47.58 E0.005
G1 X47.94 Y71.37 E0.013
G1 X48.3 Y72.06 E0.024
G1 X61.68 Y58.77 E0.588
G1 X64.47 Y57.72 E0.093
G1 X48.93 Y73.38 E0.688
G1 X49.47 Y74.58 E0.041
G1 X67.68 Y56.43 E0.802
G1 X70.62 Y55.26 E0.099
G1 X50.07 Y75.87 E0.908
G1 X50.64 Y77.07 E0.041
G1 X73.8 Y54.0 E1.019
G1 X76.71 Y52.83 E0.098
G1 X51.27 Y78.39 E1.124
G1 X51.54 Y78.99 E0.021
G1 X51.78 Y79.62 E0.021
G1 X79.92 Y51.54 E1.24
G1 F5612.6
G1 E-3.118
G1 F2500.0
G1 X82.98 Y50.31 F15000.0
G1 F5612.6
G1 E3.118
G1 F2500.0
G1 F78.0
G1 E0.065
G1 F2500.0
G1 X36.87 Y96.42 E2.033
G1 X38.1 Y96.99 E0.042
G1 X86.01 Y49.11 E2.112
G1 X88.98 Y47.94 E0.1
G1 X39.51 Y97.47 E2.183
G1 X40.95 Y97.8 E0.046
G1 X92.13 Y46.68 E2.256
G1 F5612.6
G1 E-3.118
G1 F2500.0
;#!LAYER: 6/59
G92 E0
G1 Z1.5 F200.0
G1 X51.69 Y79.74 F15000.0
T0
G1 F5612.6
G1 E3.118
G1 F2500.0
G1 F78.0
G1 E0.065
G1 F2500.0
G1 Y79.53 E0.007 F2250.0
G1 X47.94 Y71.49 E0.277
G1 X47.55 Y71.25 E0.014
G1 X46.41 Y71.7 E0.038
G1 X39.39 Y74.97 E0.241
G1 X39.09 Y75.33 E0.015
G1 Y75.63 E0.009
G1 X42.96 Y83.79 E0.282
G1 X43.23 Y83.91 E0.009
G1 X43.44 Y83.88 E0.007
G1 X51.54 Y80.04 E0.28
G1 X51.69 Y79.74 E0.01
G1 X51.42 Y79.68 E0.009
G1 X47.67 Y71.64 E0.277
G1 X47.49 Y71.55 E0.006
G1 X39.42 Y75.33 E0.278
G1 Y75.63 E0.009
G1 X43.17 Y83.58 E0.274
G1 X43.26 Y83.61 E0.003
G1 X51.36 Y79.8 E0.279
G1 X51.42 Y79.68 E0.004
G1 F5612.6
G1 E-3.118
G1 F2500.0
G1 X51.69 Y79.74
G1 X42.69 Y98.28 F15000.0
G1 F5612.6
G1 E3.118
G1 F2500.0
G1 F78.0
G1 E0.065
G1 F2500.0
G1 X38.76 Y97.38 E0.126 F2250.0
G1 X34.62 Y95.43 E0.143
G1 X31.32 Y93.0 E0.128
G1 X28.68 Y90.12 E0.122
G1 X26.43 Y86.31 E0.138
G1 X25.11 Y82.53 E0.125
G1 X24.54 Y78.45 E0.128
G1 X24.81 Y73.98 E0.14
G1 X25.95 Y69.99 E0.129
G1 X27.96 Y66.09 E0.137
G1 X30.51 Y62.94 E0.126
G1 X33.75 Y60.24 E0.132
G1 X37.53 Y58.26 E0.133
G1 X41.46 Y57.09 E0.128
G1 X45.6 Y56.7 E0.13
G1 X49.77 Y57.18 E0.131
G1 X55.83 Y59.13 E0.199
G1 X57.93 Y59.37 E0.066
G1 X59.85 Y59.19 E0.06
G1 X61.5 Y58.74 E0.053
G1 X63.09 Y58.17 E0.053
G1 X106.2 Y41.01 E1.447
G1 X107.73 Y40.59 E0.049
G1 X109.68 Y40.56 E0.061
G1 X111.36 Y40.95 E0.054
G1 X112.98 Y41.76 E0.056
G1 X114.18 Y42.72 E0.048
G1 X115.17 Y43.98 E0.05
G1 X115.98 Y45.66 E0.058
G1 X116.31 Y47.37 E0.054
G1 X116.25 Y49.14 E0.055
G1 X115.8 Y50.85 E0.055
G1 X114.78 Y52.56 E0.062
G1 X113.82 Y53.64 E0.045
G1 X112.14 Y54.78 E0.063
G1 X70.35 Y77.28 E1.48
G1 X68.73 Y78.39 E0.061
G1 X67.29 Y79.86 E0.064
G1 X66.24 Y81.51 E0.061
G1 X63.84 Y87.39 E0.198
G1 X61.44 Y90.96 E0.134
G1 X58.5 Y93.87 E0.129
G1 X54.93 Y96.15 E0.132
G1 X51.0 Y97.68 E0.132
G1 X46.98 Y98.4 E0.127
G1 X42.69 Y98.28 E0.134
G1 X42.63 Y98.55 E0.009
G1 X38.61 Y97.65 E0.128
G1 X34.98 Y96.0 E0.124
G1 X31.71 Y93.69 E0.125
G1 X30.9 Y92.97 E0.034
G1 X28.32 Y90.12 E0.12
G1 X26.16 Y86.46 E0.133
G1 X24.78 Y82.41 E0.133
G1 X24.24 Y78.42 E0.126
G1 X24.48 Y74.7 E0.116
G1 X24.51 Y73.95 E0.023
G1 X25.68 Y69.84 E0.133
G1 X27.69 Y65.97 E0.136
G1 X30.3 Y62.73 E0.13
G1 X33.57 Y60.0 E0.133
G1 X37.44 Y57.99 E0.136
G1 X41.43 Y56.79 E0.13
G1 X45.87 Y56.43 E0.139
G1 X50.07 Y56.94 E0.132
G1 X55.89 Y58.83 E0.191
G1 X58.05 Y59.04 E0.068
G1 X59.79 Y58.89 E0.054
G1 X61.74 Y58.35 E0.063
G1 X106.08 Y40.71 E1.488
G1 X107.73 Y40.29 E0.053
G1 X109.65 Y40.26 E0.06
G1 X111.21 Y40.56 E0.05
G1 X113.19 Y41.55 E0.069
G1 X114.42 Y42.51 E0.049
G1 X115.5 Y43.92 E0.055
G1 X116.28 Y45.63 E0.059
G1 X116.61 Y47.31 E0.053
G1 X116.55 Y49.26 E0.061
G1 X116.1 Y50.94 E0.054
G1 X115.29 Y52.38 E0.052
G1 X114.0 Y53.88 E0.062
G1 X112.32 Y55.02 E0.063
G1 X70.41 Y77.58 E1.484
G1 X69.03 Y78.51 E0.052
G1 X67.56 Y80.01 E0.065
G1 X66.45 Y81.72 E0.064
G1 X64.08 Y87.57 E0.197
G1 X61.71 Y91.11 E0.133
G1 X58.65 Y94.11 E0.134
G1 X55.08 Y96.42 E0.133
G1 X51.18 Y97.95 E0.131
G1 X47.01 Y98.7 E0.132
G1 X42.63 Y98.55 E0.137
G1 F5612.6
G1 E-3.118
G1 F2500.0
G1 X42.69 Y98.28
G1 X107.76 Y51.84 F15000.0
G1 F5612.6
G1 E3.118
G1 F2500.0
G1 F78.0
G1 E0.065
G1 F2500.0
G1 X109.95 E0.068 F2250.0
G1 X111.87 Y50.58 E0.072
G1 X112.8 Y48.45 E0.072
G1 X112.5 Y46.47 E0.062
G1 X112.08 Y45.87 E0.023
G1 X110.97 Y44.67 E0.051
G1 X110.49 Y44.46 E0.016
G1 X108.84 Y44.01 E0.053
G1 X106.62 Y44.7 E0.072
G1 X105.24 Y46.32 E0.066
G1 X105.12 Y46.8 E0.015
G1 X104.91 Y48.69 E0.059
G1 X105.81 Y50.55 E0.064
G1 X105.99 Y50.76 E0.009
G1 X107.76 Y51.84 E0.065
G1 X107.88 Y51.57 E0.009
G1 X109.95 Y51.51 E0.065
G1 X111.66 Y50.37 E0.064
G1 X112.47 Y48.48 E0.064
G1 X112.2 Y46.53 E0.061
G1 X110.91 Y45.0 E0.062
G1 X110.7 Y44.82 E0.009
G1 X108.81 Y44.31 E0.061
G1 X106.83 Y44.91 E0.065
G1 X105.48 Y46.53 E0.066
G1 X105.21 Y48.51 E0.062
G1 X106.11 Y50.46 E0.067
G1 X107.88 Y51.57 E0.065
G1 F5612.6
G1 E-3.118
G1 F2500.0
G1 X107.76 Y51.84
G1 X111.57 Y50.91 F15000.0
G1 F5612.6
G1 E3.118
G1 F2500.0
G1 F78.0
G1 E0.065
G1 F2500.0
G1 X113.97 Y53.34 E0.106
G1 X113.31 Y53.88 E0.027
G1 X112.98 Y54.09 E0.012
G1 X110.43 Y51.66 E0.11
G1 X109.95 Y51.93 E0.017
G1 X108.96 Y51.96 E0.031
G1 X111.81 Y54.84 E0.126
G1 X110.64 Y55.47 E0.041
G1 X99.03 Y43.95 E0.51
G1 X97.77 Y44.43 E0.042
G1 X109.44 Y56.13 E0.515
G1 F5612.6
G1 E-3.118
G1 F2500.0
G1 X112.35 Y49.83 F15000.0
G1 F5612.6
G1 E3.118
G1 F2500.0
G1 F78.0
G1 E0.065
G1 F2500.0
G1 X114.84 Y52.32 E0.11
G1 X115.5 Y51.18 E0.041
G1 X112.86 Y48.51 E0.117
G1 X112.89 Y48.45 E0.002
G1 X112.59 Y46.47 E0.062
G1 X115.98 Y49.8 E0.148
G1 F5612.6
G1 E-3.118
G1 F2500.0
G1 X110.73 Y40.86 F15000.0
G1 F5612.6
G1 E3.118
G1 F2500.0
G1 F78.0
G1 E0.065
G1 F2500.0
G1 X116.01 Y46.2 E0.234
G1 X116.22 Y47.55 E0.043
G1 X116.19 Y48.15 E0.019
G1 X108.6 Y40.65 E0.333
G1 X107.58 Y40.71 E0.032
G1 X107.07 Y40.86 E0.017
G1 X110.49 Y44.37 E0.153
G1 X108.78 Y43.92 E0.055
G1 X108.39 Y44.01 E0.012
G1 X105.63 Y41.31 E0.12
G1 X104.34 Y41.82 E0.043
G1 X106.92 Y44.46 E0.115
G1 X106.56 Y44.64 E0.013
G1 X105.99 Y45.3 E0.027
G1 X102.99 Y42.36 E0.131
G1 X101.73 Y42.87 E0.042
G1 X105.12 Y46.35 E0.151
G1 X104.91 Y47.88 E0.048
G1 X100.41 Y43.41 E0.198
G1 F5612.6
G1 E-3.118
G1 F2500.0
G1 X96.45 Y44.97 F15000.0
G1 F5612.6
G1 E3.118
G1 F2500.0
G1 F78.0
G1 E0.065
G1 F2500.0
G1 X108.21 Y56.79 E0.52
G1 X107.07 Y57.39 E0.04
G1 X95.1 Y45.51 E0.526
G1 X93.84 Y45.99 E0.042
G1 X105.81 Y58.08 E0.53
G1 X104.67 Y58.68 E0.04
G1 X92.46 Y46.56 E0.536
G1 X91.2 Y47.04 E0.042
G1 X103.44 Y59.34 E0.541
G1 X102.27 Y59.97 E0.041
G1 X89.82 Y47.61 E0.547
G1 X88.56 Y48.09 E0.042
G1 X101.04 Y60.63 E0.552
G1 X99.87 Y61.26 E0.041
G1 X87.21 Y48.63 E0.558
G1 X85.92 Y49.14 E0.043
G1 X98.64 Y61.92 E0.562
G1 X97.5 Y62.55 E0.041
G1 X84.57 Y49.68 E0.569
G1 X83.31 Y50.19 E0.042
G1 X96.24 Y63.21 E0.572
G1 X95.1 Y63.84 E0.041
G1 X81.99 Y50.73 E0.578
G1 F5612.6
G1 E-3.118
G1 F2500.0
G1 X80.67 Y51.24 F15000.0
G1 F5612.6
G1 E3.118
G1 F2500.0
G1 F78.0
G1 E0.065
G1 F2500.0
G1 X93.87 Y64.5 E0.583
G1 X92.73 Y65.1 E0.04
G1 X79.32 Y51.78 E0.589
G1 X78.03 Y52.29 E0.043
G1 X91.5 Y65.76 E0.594
G1 F5612.6
G1 E-3.118
G1 F2500.0
G1 X85.53 Y69.0 F15000.0
G1 F5612.6
G1 E3.118
G1 F2500.0
G1 F78.0
G1 E0.065
G1 F2500.0
G1 X71.49 Y54.9 E0.62
G1 X72.75 Y54.42 E0.042
G1 X86.73 Y68.34 E0.615
G1 X87.9 Y67.71 E0.041
G1 X74.1 Y53.88 E0.609
G1 F5612.6
G1 E-3.118
G1 F2500.0
G1 X75.39 Y53.34 F15000.0
G1 F5612.6
G1 E3.118
G1 F2500.0
G1 F78.0
G1 E0.065
G1 F2500.0
G1 X89.13 Y67.05 E0.605
G1 X90.3 Y66.42 E0.041
G1 X76.74 Y52.83 E0.599
G1 F5612.6
G1 E-3.118
G1 F2500.0
G1 X70.14 Y55.44 F15000.0
G1 F5612.6
G1 E3.118
G1 F2500.0
G1 F78.0
G1 E0.065
G1 F2500.0
G1 X84.3 Y69.66 E0.626
G1 X83.16 Y70.26 E0.04
G1 X68.85 Y55.98 E0.63
G1 F5612.6
G1 E-3.118
G1 F2500.0
G1 X67.53 Y56.49 F15000.0
G1 F5612.6
G1 E3.118
G1 F2500.0
G1 F78.0
G1 E0.065
G1 F2500.0
G1 X81.93 Y70.92 E0.636
G1 X80.76 Y71.55 E0.041
G1 X66.21 Y57.03 E0.641
G1 F5612.6
G1 E-3.118
G1 F2500.0
G1 X64.89 Y57.54 F15000.0
G1 F5612.6
G1 E3.118
G1 F2500.0
G1 F78.0
G1 E0.065
G1 F2500.0
G1 X79.53 Y72.21 E0.646
G1 X78.36 Y72.84 E0.041
G1 X63.57 Y58.08 E0.652
G1 X62.25 Y58.56 E0.044
G1 X77.13 Y73.5 E0.657
G1 X75.99 Y74.13 E0.041
G1 X60.81 Y59.01 E0.668
G1 X59.79 Y59.28 E0.033
G1 X59.37 Y59.34 E0.013
G1 X74.73 Y74.79 E0.679
G1 X73.59 Y75.42 E0.041
G1 X57.51 Y59.4 E0.708
G1 X55.59 Y59.16 E0.06
G1 X55.44 Y59.1 E0.005
G1 X72.33 Y76.08 E0.747
G1 X71.22 Y76.68 E0.039
G1 X52.68 Y58.2 E0.816
G1 F5612.6
G1 E-3.118
G1 F2500.0
G1 X49.98 Y57.33 F15000.0
G1 F5612.6
G1 E3.118
G1 F2500.0
G1 F78.0
G1 E0.065
G1 F2500.0
G1 X70.02 Y77.37 E0.884
G1 F5612.6
G1 E-3.118
G1 F2500.0
G1 X68.94 Y78.12 F15000.0
G1 F5612.6
G1 E3.118
G1 F2500.0
G1 F78.0
G1 E0.065
G1 F2500.0
G1 X47.79 Y57.03 E0.931
G1 X45.78 Y56.82 E0.063
G1 X67.98 Y79.05 E0.98
G1 X67.14 Y79.95 E0.038
G1 X44.01 Y56.94 E1.017
G1 X42.39 Y57.09 E0.051
G1 X66.39 Y81.09 E1.058
G1 F5612.6
G1 E-3.118
G1 F2500.0
G1 X64.74 Y84.96 F15000.0
G1 F5612.6
G1 E3.118
G1 F2500.0
G1 F78.0
G1 E0.065
G1 F2500.0
G1 X38.01 Y58.23 E1.179
G1 F5612.6
G1 E-3.118
G1 F2500.0
G1 X36.72 Y58.77 F15000.0
G1 F5612.6
G1 E3.118
G1 F2500.0
G1 F78.0
G1 E0.065
G1 F2500.0
G1 X64.2 Y86.28 E1.212
G1 X63.69 Y87.45 E0.04
G1 X63.66 Y87.51 E0.002
G1 X48.39 Y72.24 E0.673
G1 X47.94 Y71.37 E0.031
G1 X47.58 Y71.16 E0.013
G1 X47.31 Y71.19 E0.008
G1 X35.49 Y59.43 E0.52
G1 X34.32 Y60.06 E0.041
G1 X46.02 Y71.79 E0.517
G1 X44.79 Y72.36 E0.042
G1 X33.21 Y60.81 E0.51
G1 X32.22 Y61.62 E0.04
G1 X43.5 Y72.96 E0.499
G1 X42.3 Y73.53 E0.041
G1 X31.2 Y62.49 E0.488
G1 F5612.6
G1 E-3.118
G1 F2500.0
G1 X30.27 Y63.36 F15000.0
G1 F5612.6
G1 E3.118
G1 F2500.0
G1 F78.0
G1 E0.065
G1 F2500.0
G1 X41.01 Y74.13 E0.474
G1 X39.78 Y74.7 E0.042
G1 X29.43 Y64.41 E0.455
G1 X28.65 Y65.4 E0.039
G1 X39.18 Y76.02 E0.466
G1 X40.71 Y79.29 E0.113
G1 X27.87 Y66.48 E0.566
G1 F5612.6
G1 E-3.118
G1 F2500.0
G1 X25.98 Y70.14 F15000.0
G1 F5612.6
G1 E3.118
G1 F2500.0
G1 F78.0
G1 E0.065
G1 F2500.0
G1 X52.8 Y96.9 E1.181
G1 X54.09 Y96.39 E0.043
G1 X26.61 Y68.88 E1.212
G1 X27.21 Y67.71 E0.041
G1 X42.36 Y82.83 E0.667
G1 X42.72 Y83.61 E0.027
G1 X43.05 Y83.97 E0.015
G1 X43.47 E0.013
G1 X55.35 Y95.79 E0.523
G1 X56.43 Y95.1 E0.04
G1 X44.79 Y83.37 E0.515
G1 X45.99 Y82.8 E0.041
G1 X57.6 Y94.32 E0.51
G1 X57.81 Y94.2 E0.008
G1 X58.65 Y93.6 E0.032
G1 X47.28 Y82.2 E0.502
G1 X48.48 Y81.63 E0.041
G1 X59.61 Y92.67 E0.489
G1 X60.48 Y91.8 E0.038
G1 X49.77 Y81.0 E0.474
G1 X50.97 Y80.43 E0.041
G1 X61.44 Y90.84 E0.46
G1 X62.16 Y89.76 E0.04
G1 X51.63 Y79.2 E0.465
G1 X50.1 Y75.9 E0.113
G1 X62.88 Y88.62 E0.562
G1 F5612.6
G1 E-3.118
G1 F2500.0
G1 X34.8 Y95.46 F15000.0
G1 F5612.6
G1 E3.118
G1 F2500.0
G1 F78.0
G1 E0.065
G1 F2500.0
G1 X27.75 Y88.41 E0.311
G1 X26.64 Y86.52 E0.068
G1 X26.07 Y84.96 E0.052
G1 X38.19 Y97.02 E0.533
G1 X38.7 Y97.26 E0.018
G1 X40.65 Y97.71 E0.062
G1 X25.14 Y82.11 E0.686
G1 X24.87 Y80.07 E0.064
G1 X43.05 Y98.19 E0.8
G1 X44.88 Y98.25 E0.057
G1 X24.63 Y77.94 E0.894
G1 F5612.6
G1 E-3.118
G1 F2500.0
G1 X24.75 Y76.23 F15000.0
G1 F5612.6
G1 E3.118
G1 F2500.0
G1 F78.0
G1 E0.065
G1 F2500.0
G1 X46.86 Y98.31 E0.974
G1 X48.36 Y98.07 E0.047
G1 X24.87 Y74.52 E1.037
G1 F5612.6
G1 E-3.118
G1 F2500.0
G1 X25.2 Y72.99 F15000.0
G1 F5612.6
G1 E3.118
G1 F2500.0
G1 F78.0
G1 E0.065
G1 F2500.0
G1 X49.98 Y97.77 E1.093
G1 X50.67 Y97.65 E0.022
G1 X51.42 Y97.44 E0.024
G1 X25.59 Y71.55 E1.14
G1 F5612.6
G1 E-3.118
G1 F2500.0
G1 X39.39 Y57.78 F15000.0
G1 F5612.6
G1 E3.118
G1 F2500.0
G1 F78.0
G1 E0.065
G1 F2500.0
G1 X65.28 Y83.61 E1.14
G1 X65.76 Y82.38 E0.041
G1 X40.8 Y57.36 E1.102
G1 F5612.6
G1 E-3.118
G1 F2500.0
;#!LAYER: 7/59
G92 E0
G1 Z1.75 F200.0
G1 X51.69 Y79.74 F15000.0
T0
G1 F5612.6
G1 E3.118
G1 F2500.0
G1 F78.0
G1 E0.065
G1 F2500.0
G1 Y79.53 E0.007 F2250.0
G1 X47.94 Y71.49 E0.277
G1 X47.55 Y71.25 E0.014
G1 X46.41 Y71.7 E0.038
G1 X39.39 Y74.97 E0.241
G1 X39.09 Y75.33 E0.015
G1 Y75.63 E0.009
G1 X42.96 Y83.79 E0.282
G1 X43.23 Y83.91 E0.009
G1 X43.44 Y83.88 E0.007
G1 X51.54 Y80.04 E0.28
G1 X51.69 Y79.74 E0.01
G1 X51.42 Y79.68 E0.009
G1 X47.67 Y71.64 E0.277
G1 X47.49 Y71.55 E0.006
G1 X39.42 Y75.33 E0.278
G1 Y75.63 E0.009
G1 X43.17 Y83.58 E0.274
G1 X43.26 Y83.61 E0.003
G1 X51.36 Y79.8 E0.279
G1 X51.42 Y79.68 E0.004
G1 F5612.6
G1 E-3.118
G1 F2500.0
G1 X51.69 Y79.74
G1 X42.69 Y98.28 F15000.0
G1 F5612.6
G1 E3.118
G1 F2500.0
G1 F78.0
G1 E0.065
G1 F2500.0
G1 X38.76 Y97.38 E0.126 F2250.0
G1 X34.62 Y95.43 E0.143
G1 X31.32 Y93.0 E0.128
G1 X28.68 Y90.12 E0.122
G1 X26.43 Y86.31 E0.138
G1 X25.11 Y82.53 E0.125
G1 X24.54 Y78.45 E0.128
G1 X24.81 Y73.98 E0.14
G1 X25.95 Y69.99 E0.129
G1 X27.96 Y66.09 E0.137
G1 X30.51 Y62.94 E0.126
G1 X33.75 Y60.24 E0.132
G1 X37.53 Y58.26 E0.133
G1 X41.46 Y57.09 E0.128
G1 X45.6 Y56.7 E0.13
G1 X49.77 Y57.18 E0.131
G1 X55.83 Y59.13 E0.199
G1 X57.93 Y59.37 E0.066
G1 X59.85 Y59.19 E0.06
G1 X61.5 Y58.74 E0.053
G1 X63.09 Y58.17 E0.053
G1 X106.2 Y41.01 E1.447
G1 X107.73 Y40.59 E0.049
G1 X109.68 Y40.56 E0.061
G1 X111.36 Y40.95 E0.054
G1 X112.98 Y41.76 E0.056
G1 X114.18 Y42.72 E0.048
G1 X115.17 Y43.98 E0.05
G1 X115.98 Y45.66 E0.058
G1 X116.31 Y47.37 E0.054
G1 X116.25 Y49.14 E0.055
G1 X115.8 Y50.85 E0.055
G1 X114.78 Y52.56 E0.062
G1 X113.82 Y53.64 E0.045
G1 X112.14 Y54.78 E0.063
G1 X70.35 Y77.28 E1.48
G1 X68.73 Y78.39 E0.061
G1 X67.29 Y79.86 E0.064
G1 X66.24 Y81.51 E0.061
G1 X63.84 Y87.39 E0.198
G1 X61.44 Y90.96 E0.134
G1 X58.5 Y93.87 E0.129
G1 X54.93 Y96.15 E0.132
G1 X51.0 Y97.68 E0.132
G1 X46.98 Y98.4 E0.127
G1 X42.69 Y98.28 E0.134
G1 X42.63 Y98.55 E0.009
G1 X38.61 Y97.65 E0.128
G1 X34.98 Y96.0 E0.124
G1 X31.71 Y93.69 E0.125
G1 X30.9 Y92.97 E0.034
G1 X28.32 Y90.12 E0.12
G1 X26.16 Y86.46 E0.133
G1 X24.78 Y82.41 E0.133
G1 X24.24 Y78.42 E0.126
G1 X24.48 Y74.7 E0.116
G1 X24.51 Y73.95 E0.023
G1 X25.68 Y69.84 E0.133
G1 X27.69 Y65.97 E0.136
G1 X30.3 Y62.73 E0.13
G1 X33.57 Y60.0 E0.133
G1 X37.44 Y57.99 E0.136
G1 X41.43 Y56.79 E0.13
G1 X45.87 Y56.43 E0.139
G1 X50.07 Y56.94 E0.132
G1 X55.89 Y58.83 E0.191
G1 X58.05 Y59.04 E0.068
G1 X59.79 Y58.89 E0.054
G1 X61.74 Y58.35 E0.063
G1 X106.08 Y40.71 E1.488
G1 X107.73 Y40.29 E0.053
G1 X109.65 Y40.26 E0.06
G1 X111.21 Y40.56 E0.05
G1 X113.19 Y41.55 E0.069
G1 X114.42 Y42.51 E0.049
G1 X115.5 Y43.92 E0.055
G1 X116.28 Y45.63 E0.059
G1 X116.61 Y47.31 E0.053
G1 X116.55 Y49.26 E0.061
G1 X116.1 Y50.94 E0.054
G1 X115.29 Y52.38 E0.052
G1 X114.0 Y53.88 E0.062
G1 X112.32 Y55.02 E0.063
G1 X70.41 Y77.58 E1.484
G1 X69.03 Y78.51 E0.052
G1 X67.56 Y80.01 E0.065
G1 X66.45 Y81.72 E0.064
G1 X64.08 Y87.57 E0.197
G1 X61.71 Y91.11 E0.133
G1 X58.65 Y94.11 E0.134
G1 X55.08 Y96.42 E0.133
G1 X51.18 Y97.95 E0.131
G1 X47.01 Y98.7 E0.132
G1 X42.63 Y98.55 E0.137
G1 F5612.6
G1 E-3.118
G1 F2500.0
G1 X42.69 Y98.28
G1 X107.76 Y51.84 F15000.0
G1 F5612.6
G1 E3.118
G1 F2500.0
G1 F78.0
G1 E0.065
G1 F2500.0
G1 X109.95 E0.068 F2250.0
G1 X111.87 Y50.58 E0.072
G1 X112.8 Y48.45 E0.072
G1 X112.5 Y46.47 E0.062
G1 X112.08 Y45.87 E0.023
G1 X110.97 Y44.67 E0.051
G1 X110.49 Y44.46 E0.016
G1 X108.84 Y44.01 E0.053
G1 X106.62 Y44.7 E0.072
G1 X105.24 Y46.32 E0.066
G1 X105.12 Y46.8 E0.015
G1 X104.91 Y48.69 E0.059
G1 X105.81 Y50.55 E0.064
G1 X105.99 Y50.76 E0.009
G1 X107.76 Y51.84 E0.065
G1 X107.88 Y51.57 E0.009
G1 X109.95 Y51.51 E0.065
G1 X111.66 Y50.37 E0.064
G1 X112.47 Y48.48 E0.064
G1 X112.2 Y46.53 E0.061
G1 X110.91 Y45.0 E0.062
G1 X110.7 Y44.82 E0.009
G1 X108.81 Y44.31 E0.061
G1 X106.83 Y44.91 E0.065
G1 X105.48 Y46.53 E0.066
G1 X105.21 Y48.51 E0.062
G1 X106.11 Y50.46 E0.067
G1 X107.88 Y51.57 E0.065
G1 F5612.6
G1 E-3.118
G1 F2500.0
G1 X107.76 Y51.84
G1 X109.86 Y51.93 F15000.0
G1 F5612.6
G1 E3.118
G1 F2500.0
G1 F78.0
G1 E0.065
G1 F2500.0
G1 X101.13 Y60.6 E0.384
G1 X97.29 Y62.67 E0.136
G1 X107.94 Y51.96 E0.471
G1 X107.61 Y51.87 E0.011
G1 X106.8 Y51.36 E0.03
G1 X93.15 Y64.89 E0.599
G1 X89.37 Y66.93 E0.134
G1 X105.69 Y50.52 E0.722
G1 X105.12 Y49.32 E0.041
G1 X85.23 Y69.15 E0.876
G1 X81.39 Y71.22 E0.136
G1 X104.94 Y47.64 E1.039
G1 F5612.6
G1 E-3.118
G1 F2500.0
G1 X116.13 Y49.32 F15000.0
G1 F5612.6
G1 E3.118
G1 F2500.0
G1 F78.0
G1 E0.065
G1 F2500.0
G1 X109.05 Y56.34 E0.311
G1 X105.3 Y58.35 E0.133
G1 X116.22 Y47.34 E0.484
G1 X115.92 Y45.87 E0.047
G1 X112.68 Y49.05 E0.142
G1 X112.86 Y48.51 E0.018
G1 X112.74 Y47.37 E0.036
G1 X112.71 Y47.25 E0.004
G1 X115.35 Y44.55 E0.118
G1 X115.02 Y43.95 E0.021
G1 X114.66 Y43.47 E0.019
G1 X112.2 Y45.87 E0.107
G1 X111.39 Y44.94 E0.038
G1 X113.73 Y42.48 E0.106
G1 X112.74 Y41.73 E0.039
G1 X110.13 Y44.28 E0.114
G1 X108.78 Y43.92 E0.044
G1 X108.66 Y43.95 E0.004
G1 X111.45 Y41.1 E0.124
G1 X110.85 Y40.89 E0.02
G1 X110.04 Y40.74 E0.026
G1 X77.4 Y73.35 E1.439
G1 F5612.6
G1 E-3.118
G1 F2500.0
G1 X73.38 Y75.54 F15000.0
G1 F5612.6
G1 E3.118
G1 F2500.0
G1 F78.0
G1 E0.065
G1 F2500.0
G1 X108.21 Y40.65 E1.537
G1 X107.49 Y40.74 E0.023
G1 X105.87 Y41.22 E0.053
G1 X69.03 Y78.06 E1.625
G1 F5612.6
G1 E-3.118
G1 F2500.0
G1 X64.02 Y86.73 F15000.0
G1 F5612.6
G1 E3.118
G1 F2500.0
G1 F78.0
G1 E0.065
G1 F2500.0
G1 X54.42 Y96.27 E0.422
G1 X51.51 Y97.41 E0.097
G1 X65.31 Y83.55 E0.61
G1 X66.18 Y81.42 E0.072
G1 X67.17 Y79.92 E0.056
G1 X49.08 Y97.95 E0.796
G1 X46.95 Y98.31 E0.067
G1 X102.66 Y42.51 E2.459
G1 X99.78 Y43.65 E0.097
G1 X45.09 Y98.25 E2.41
G1 X43.35 Y98.22 E0.054
G1 X96.6 Y44.91 E2.349
G1 X93.63 Y46.08 E0.1
G1 X41.7 Y97.98 E2.289
G1 X40.29 Y97.65 E0.045
G1 X90.6 Y47.28 E2.22
G1 F5612.6
G1 E-3.118
G1 F2500.0
G1 X87.57 Y48.48 F15000.0
G1 F5612.6
G1 E3.118
G1 F2500.0
G1 F78.0
G1 E0.065
G1 F2500.0
G1 X38.73 Y97.26 E2.152
G1 X37.5 Y96.72 E0.042
G1 X84.39 Y49.77 E2.069
G1 X81.42 Y50.94 E0.1
G1 X36.24 Y96.15 E1.993
G1 F5612.6
G1 E-3.118
G1 F2500.0
G1 X42.93 Y83.91 F15000.0
G1 F5612.6
G1 E3.118
G1 F2500.0
G1 F78.0
G1 E0.065
G1 F2500.0
G1 X32.79 Y93.99 E0.446
G1 X31.8 Y93.27 E0.038
G1 X42.3 Y82.68 E0.465
G1 X41.73 Y81.45 E0.042
G1 X30.81 Y92.31 E0.48
G1 X29.97 Y91.38 E0.039
G1 X41.13 Y80.19 E0.493
G1 X40.56 Y78.96 E0.042
G1 X29.07 Y90.39 E0.505
G1 X28.59 Y89.82 E0.023
G1 X28.32 Y89.37 E0.016
G1 X39.96 Y77.7 E0.514
G1 F5612.6
G1 E-3.118
G1 F2500.0
G1 X45.84 Y82.86 F15000.0
G1 F5612.6
G1 E3.118
G1 F2500.0
G1 F78.0
G1 E0.065
G1 F2500.0
G1 X33.9 Y94.8 E0.527
G1 X34.95 Y95.52 E0.04
G1 X49.32 Y81.21 E0.632
G1 F5612.6
G1 E-3.118
G1 F2500.0
G1 X55.02 Y58.95 F15000.0
G1 F5612.6
G1 E3.118
G1 F2500.0
G1 F78.0
G1 E0.065
G1 F2500.0
G1 X26.97 Y87.06 E1.238
G1 X27.6 Y88.17 E0.04
G1 X39.36 Y76.44 E0.518
G1 X39.03 Y75.72 E0.025
G1 X39.0 Y75.36 E0.011
G1 X39.21 Y75.0 E0.013
G1 X42.18 Y73.59 E0.103
G1 X56.55 Y59.31 E0.632
G1 X57.6 Y59.43 E0.033
G1 X58.17 E0.018
G1 X45.78 Y71.91 E0.548
G1 X47.28 Y71.19 E0.052
G1 X47.67 E0.012
G1 X48.0 Y71.43 E0.013
G1 X60.36 Y59.16 E0.543
G1 X61.35 Y58.86 E0.032
G1 X63.0 Y58.29 E0.054
G1 X48.63 Y72.75 E0.636
G1 X49.2 Y73.95 E0.041
G1 X66.12 Y57.06 E0.745
G1 X69.06 Y55.89 E0.099
G1 X49.8 Y75.24 E0.851
G1 X50.34 Y76.44 E0.041
G1 X72.24 Y54.6 E0.964
G1 X75.21 Y53.43 E0.1
G1 X50.97 Y77.76 E1.071
G1 X51.51 Y78.96 E0.041
G1 X78.36 Y52.17 E1.183
G1 F5612.6
G1 E-3.118
G1 F2500.0
G1 X53.64 Y58.5 F15000.0
G1 F5612.6
G1 E3.118
G1 F2500.0
G1 F78.0
G1 E0.065
G1 F2500.0
G1 X26.34 Y85.74 E1.203
G1 X25.89 Y84.45 E0.043
G1 X52.2 Y58.05 E1.162
G1 X50.88 Y57.6 E0.043
G1 X25.38 Y83.04 E1.123
G1 X25.14 Y82.17 E0.028
G1 X25.05 Y81.6 E0.018
G1 X49.38 Y57.21 E1.074
G1 F5612.6
G1 E-3.118
G1 F2500.0
G1 X47.76 Y57.03 F15000.0
G1 F5612.6
G1 E3.118
G1 F2500.0
G1 F78.0
G1 E0.065
G1 F2500.0
G1 X24.84 Y79.89 E1.009
G1 X24.63 Y78.33 E0.049
G1 X46.05 Y56.85 E0.946
G1 X45.33 Y56.82 E0.022
G1 X44.19 Y56.94 E0.036
G1 X24.72 Y76.35 E0.857
G1 X24.81 Y75.03 E0.041
G1 X24.87 Y74.43 E0.019
G1 X42.09 Y57.12 E0.761
G1 X41.34 Y57.21 E0.024
G1 X39.75 Y57.69 E0.052
G1 X25.5 Y71.94 E0.628
G1 F5612.6
G1 E-3.118
G1 F2500.0
G1 X26.49 Y69.12 F15000.0
G1 F5612.6
G1 E3.118
G1 F2500.0
G1 F78.0
G1 E0.065
G1 F2500.0
G1 X36.81 Y58.74 E0.456
G1 X33.72 Y60.39 E0.109
G1 X31.68 Y62.07 E0.082
G1 X29.76 Y63.99 E0.085
G1 F5612.6
G1 E-3.118
G1 F2500.0
;#!LAYER: 8/59
G92 E0
G1 Z2.0 F200.0
G1 X51.69 Y79.74 F15000.0
T0
G1 F5612.6
G1 E3.118
G1 F2500.0
G1 F78.0
G1 E0.065
G1 F2500.0
G1 Y79.53 E0.007 F2250.0
G1 X47.94 Y71.49 E0.277
G1 X47.55 Y71.25 E0.014
G1 X46.41 Y71.7 E0.038
G1 X39.39 Y74.97 E0.241
G1 X39.09 Y75.33 E0.015
G1 Y75.63 E0.009
G1 X42.96 Y83.79 E0.282
G1 X43.23 Y83.91 E0.009
G1 X43.44 Y83.88 E0.007
G1 X51.54 Y80.04 E0.28
G1 X51.69 Y79.74 E0.01
G1 X51.42 Y79.68 E0.009
G1 X47.67 Y71.64 E0.277
G1 X47.49 Y71.55 E0.006
G1 X39.42 Y75.33 E0.278
G1 Y75.63 E0.009
G1 X43.17 Y83.58 E0.274
G1 X43.26 Y83.61 E0.003
G1 X51.36 Y79.8 E0.279
G1 X51.42 Y79.68 E0.004
G1 F5612.6
G1 E-3.118
G1 F2500.0
G1 X51.69 Y79.74
G1 X42.69 Y98.28 F15000.0
G1 F5612.6
G1 E3.118
G1 F2500.0
G1 F78.0
G1 E0.065
G1 F2500.0
G1 X38.76 Y97.38 E0.126 F2250.0
G1 X34.62 Y95.43 E0.143
G1 X31.32 Y93.0 E0.128
G1 X28.68 Y90.12 E0.122
G1 X26.43 Y86.31 E0.138
G1 X25.11 Y82.53 E0.125
G1 X24.54 Y78.45 E0.128
G1 X24.81 Y73.98 E0.14
G1 X25.95 Y69.99 E0.129
G1 X27.96 Y66.09 E0.137
G1 X30.51 Y62.94 E0.126
G1 X33.75 Y60.24 E0.132
G1 X37.53 Y58.26 E0.133
G1 X41.46 Y57.09 E0.128
G1 X45.6 Y56.7 E0.13
G1 X49.77 Y57.18 E0.131
G1 X55.83 Y59.13 E0.199
G1 X57.93 Y59.37 E0.066
G1 X59.85 Y59.19 E0.06
G1 X61.5 Y58.74 E0.053
G1 X63.09 Y58.17 E0.053
G1 X106.2 Y41.01 E1.447
G1 X107.73 Y40.59 E0.049
G1 X109.68 Y40.56 E0.061
G1 X111.36 Y40.95 E0.054
G1 X112.98 Y41.76 E0.056
G1 X114.18 Y42.72 E0.048
G1 X115.17 Y43.98 E0.05
G1 X115.98 Y45.66 E0.058
G1 X116.31 Y47.37 E0.054
G1 X116.25 Y49.14 E0.055
G1 X115.8 Y50.85 E0.055
G1 X114.78 Y52.56 E0.062
G1 X113.82 Y53.64 E0.045
G1 X112.14 Y54.78 E0.063
G1 X70.35 Y77.28 E1.48
G1 X68.73 Y78.39 E0.061
G1 X67.29 Y79.86 E0.064
G1 X66.24 Y81.51 E0.061
G1 X63.84 Y87.39 E0.198
G1 X61.44 Y90.96 E0.134
G1 X58.5 Y93.87 E0.129
G1 X54.93 Y96.15 E0.132
G1 X51.0 Y97.68 E0.132
G1 X46.98 Y98.4 E0.127
G1 X42.69 Y98.28 E0.134
G1 X42.63 Y98.55 E0.009
G1 X38.61 Y97.65 E0.128
G1 X34.98 Y96.0 E0.124
G1 X31.71 Y93.69 E0.125
G1 X30.9 Y92.97 E0.034
G1 X28.32 Y90.12 E0.12
G1 X26.16 Y86.46 E0.133
G1 X24.78 Y82.41 E0.133
G1 X24.24 Y78.42 E0.126
G1 X24.48 Y74.7 E0.116
G1 X24.51 Y73.95 E0.023
G1 X25.68 Y69.84 E0.133
G1 X27.69 Y65.97 E0.136
G1 X30.3 Y62.73 E0.13
G1 X33.57 Y60.0 E0.133
G1 X37.44 Y57.99 E0.136
G1 X41.43 Y56.79 E0.13
G1 X45.87 Y56.43 E0.139
G1 X50.07 Y56.94 E0.132
G1 X55.89 Y58.83 E0.191
G1 X58.05 Y59.04 E0.068
G1 X59.79 Y58.89 E0.054
G1 X61.74 Y58.35 E0.063
G1 X106.08 Y40.71 E1.488
G1 X107.73 Y40.29 E0.053
G1 X109.65 Y40.26 E0.06
G1 X111.21 Y40.56 E0.05
G1 X113.19 Y41.55 E0.069
G1 X114.42 Y42.51 E0.049
G1 X115.5 Y43.92 E0.055
G1 X116.28 Y45.63 E0.059
G1 X116.61 Y47.31 E0.053
G1 X116.55 Y49.26 E0.061
G1 X116.1 Y50.94 E0.054
G1 X115.29 Y52.38 E0.052
G1 X114.0 Y53.88 E0.062
G1 X112.32 Y55.02 E0.063
G1 X70.41 Y77.58 E1.484
G1 X69.03 Y78.51 E0.052
G1 X67.56 Y80.01 E0.065
G1 X66.45 Y81.72 E0.064
G1 X64.08 Y87.57 E0.197
G1 X61.71 Y91.11 E0.133
G1 X58.65 Y94.11 E0.134
G1 X55.08 Y96.42 E0.133
G1 X51.18 Y97.95 E0.131
G1 X47.01 Y98.7 E0.132
G1 X42.63 Y98.55 E0.137
G1 F5612.6
G1 E-3.118
G1 F2500.0
G1 X42.69 Y98.28
G1 X107.76 Y51.84 F15000.0
G1 F5612.6
G1 E3.118
G1 F2500.0
G1 F78.0
G1 E0.065
G1 F2500.0
G1 X109.95 E0.068 F2250.0
G1 X111.87 Y50.58 E0.072
G1 X112.8 Y48.45 E0.072
G1 X112.5 Y46.47 E0.062
G1 X112.08 Y45.87 E0.023
G1 X110.97 Y44.67 E0.051
G1 X110.49 Y44.46 E0.016
G1 X108.84 Y44.01 E0.053
G1 X106.62 Y44.7 E0.072
G1 X105.24 Y46.32 E0.066
G1 X105.12 Y46.8 E0.015
G1 X104.91 Y48.69 E0.059
G1 X105.81 Y50.55 E0.064
G1 X105.99 Y50.76 E0.009
G1 X107.76 Y51.84 E0.065
G1 X107.88 Y51.57 E0.009
G1 X109.95 Y51.51 E0.065
G1 X111.66 Y50.37 E0.064
G1 X112.47 Y48.48 E0.064
G1 X112.2 Y46.53 E0.061
G1 X110.91 Y45.0 E0.062
G1 X110.7 Y44.82 E0.009
G1 X108.81 Y44.31 E0.061
G1 X106.83 Y44.91 E0.065
G1 X105.48 Y46.53 E0.066
G1 X105.21 Y48.51 E0.062
G1 X106.11 Y50.46 E0.067
G1 X107.88 Y51.57 E0.065
G1 F5612.6
G1 E-3.118
G1 F2500.0
G1 X107.76 Y51.84
G1 X112.41 Y54.51 F15000.0
G1 F5612.6
G1 E3.118
G1 F2500.0
G1 F78.0
G1 E0.065
G1 F2500.0
G1 X109.86 Y51.93 E0.113
G1 X109.95 E0.003
G1 X111.0 Y51.27 E0.039
G1 X113.52 Y53.73 E0.11
G1 X114.39 Y52.86 E0.038
G1 X112.05 Y50.46 E0.105
G1 X112.59 Y49.23 E0.042
G1 X115.2 Y51.72 E0.112
G1 X115.59 Y51.03 E0.025
G1 X115.8 Y50.55 E0.016
G1 X112.74 Y47.46 E0.136
G1 F5612.6
G1 E-3.118
G1 F2500.0
G1 X116.19 Y49.08 F15000.0
G1 F5612.6
G1 E3.118
G1 F2500.0
G1 F78.0
G1 E0.065
G1 F2500.0
G1 X107.79 Y40.68 E0.37
G1 X109.53 Y40.65 E0.054
G1 X116.19 Y47.22 E0.292
G1 X115.92 Y45.84 E0.044
G1 X115.47 Y44.76 E0.036
G1 X112.23 Y41.46 E0.144
G1 F5612.6
G1 E-3.118
G1 F2500.0
G1 X109.32 Y44.04 F15000.0
G1 F5612.6
G1 E3.118
G1 F2500.0
G1 F78.0
G1 E0.065
G1 F2500.0
G1 X109.35 Y44.07 E0.001
G1 X106.35 Y41.07 E0.132
G1 F5612.6
G1 E-3.118
G1 F2500.0
G1 X105.0 Y41.58 F15000.0
G1 F5612.6
G1 E3.118
G1 F2500.0
G1 F78.0
G1 E0.065
G1 F2500.0
G1 X107.61 Y44.25 E0.116
G1 X106.59 Y44.61 E0.034
G1 X106.41 Y44.79 E0.008
G1 X103.65 Y42.09 E0.12
G1 X102.36 Y42.6 E0.043
G1 X105.54 Y45.81 E0.141
G1 X105.09 Y46.44 E0.024
G1 X105.0 Y47.07 E0.02
G1 X101.01 Y43.14 E0.175
G1 X99.75 Y43.65 E0.042
G1 X104.94 Y48.93 E0.231
G1 X105.84 Y50.73 E0.063
G1 X107.82 Y51.96 E0.073
G1 X108.03 E0.007
G1 X111.18 Y55.17 E0.14
G1 X110.04 Y55.8 E0.041
G1 X98.43 Y44.19 E0.512
G1 F5612.6
G1 E-3.118
G1 F2500.0
G1 X97.11 Y44.7 F15000.0
G1 F5612.6
G1 E3.118
G1 F2500.0
G1 F78.0
G1 E0.065
G1 F2500.0
G1 X108.81 Y56.46 E0.517
G1 X107.67 Y57.06 E0.04
G1 X95.79 Y45.24 E0.523
G1 F5612.6
G1 E-3.118
G1 F2500.0
G1 X94.47 Y45.75 F15000.0
G1 F5612.6
G1 E3.118
G1 F2500.0
G1 F78.0
G1 E0.065
G1 F2500.0
G1 X106.41 Y57.75 E0.528
G1 X105.27 Y58.35 E0.04
G1 X93.15 Y46.29 E0.533
G1 X91.83 Y46.8 E0.044
G1 X104.04 Y59.01 E0.538
G1 F5612.6
G1 E-3.118
G1 F2500.0
G1 X100.47 Y60.93 F15000.0
G1 F5612.6
G1 E3.118
G1 F2500.0
G1 F78.0
G1 E0.065
G1 F2500.0
G1 X87.87 Y48.39 E0.554
G1 X86.58 Y48.9 E0.043
G1 X99.24 Y61.62 E0.56
G1 X98.1 Y62.22 E0.04
G1 X85.23 Y49.44 E0.566
G1 X83.97 Y49.92 E0.042
G1 X96.9 Y62.88 E0.571
G1 F5612.6
G1 E-3.118
G1 F2500.0
G1 X90.54 Y47.34 F15000.0
G1 F5612.6
G1 E3.118
G1 F2500.0
G1 F78.0
G1 E0.065
G1 F2500.0
G1 X102.84 Y59.67 E0.543
G1 X101.67 Y60.3 E0.041
G1 X89.22 Y47.85 E0.549
G1 F5612.6
G1 E-3.118
G1 F2500.0
G1 X82.62 Y50.46 F15000.0
G1 F5612.6
G1 E3.118
G1 F2500.0
G1 F78.0
G1 E0.065
G1 F2500.0
G1 X95.64 Y63.54 E0.575
G1 X94.53 Y64.14 E0.039
G1 X81.33 Y51.0 E0.581
G1 F5612.6
G1 E-3.118
G1 F2500.0
G1 X80.01 Y51.51 F15000.0
G1 F5612.6
G1 E3.118
G1 F2500.0
G1 F78.0
G1 E0.065
G1 F2500.0
G1 X93.27 Y64.83 E0.586
G1 X92.13 Y65.43 E0.04
G1 X78.69 Y52.05 E0.591
G1 X77.37 Y52.56 E0.044
G1 X90.87 Y66.12 E0.597
G1 X89.73 Y66.72 E0.04
G1 X76.05 Y53.1 E0.602
G1 X74.76 Y53.61 E0.043
G1 X88.5 Y67.38 E0.607
G1 X87.33 Y68.01 E0.041
G1 X73.44 Y54.15 E0.612
G1 F5612.6
G1 E-3.118
G1 F2500.0
G1 X72.12 Y54.66 F15000.0
G1 F5612.6
G1 E3.118
G1 F2500.0
G1 F78.0
G1 E0.065
G1 F2500.0
G1 X86.1 Y68.67 E0.617
G1 X84.93 Y69.3 E0.041
G1 X70.8 Y55.17 E0.623
G1 F5612.6
G1 E-3.118
G1 F2500.0
G1 X69.51 Y55.71 F15000.0
G1 F5612.6
G1 E3.118
G1 F2500.0
G1 F78.0
G1 E0.065
G1 F2500.0
G1 X83.7 Y69.96 E0.627
G1 X82.56 Y70.59 E0.041
G1 X68.16 Y56.25 E0.634
G1 X66.87 Y56.76 E0.043
G1 X81.3 Y71.25 E0.638
G1 X80.16 Y71.88 E0.041
G1 X65.52 Y57.3 E0.644
G1 X64.26 Y57.78 E0.042
G1 X78.93 Y72.54 E0.649
G1 X77.79 Y73.14 E0.04
G1 X62.88 Y58.35 E0.655
G1 X61.56 Y58.8 E0.043
G1 X76.56 Y73.83 E0.662
G1 F5612.6
G1 E-3.118
G1 F2500.0
G1 X75.39 Y74.46 F15000.0
G1 F5612.6
G1 E3.118
G1 F2500.0
G1 F78.0
G1 E0.065
G1 F2500.0
G1 X60.15 Y59.22 E0.672
G1 F5612.6
G1 E-3.118
G1 F2500.0
G1 X58.47 Y59.4 F15000.0
G1 F5612.6
G1 E3.118
G1 F2500.0
