; generated by Slic3r 0.9.10b on 2013-11-10 at 11:17:00

; layer_height = 0.24
; perimeters = 2
; top_solid_layers = 4
; bottom_solid_layers = 3
; fill_density = 0.4
; perimeter_speed = 30
; infill_speed = 40
; travel_speed = 60
; nozzle_diameter = 0.3
; filament_diameter = 1.75
; extrusion_multiplier = 1
; perimeters extrusion width = 0.32mm
; infill extrusion width = 0.32mm
; solid infill extrusion width = 0.32mm
; top infill extrusion width = 0.32mm
; first layer extrusion width = 0.48mm

G21 ; set units to millimeters
M107
M104 S205 ; set temperature
G28 ; home all axes
G1 Z5 F200 ; lift nozzle
M109 S205 ; wait for temperature to be reached
G90 ; use absolute coordinates
M83 ; use relative distances for extrusion
G1 F1800.000 E-1.00000
G1 Z0.240 F3600.000
G1 X85.450 Y77.450
G1 F1800.000 E1.00000
G1 X86.420 Y76.640 F540.000 E0.05565
G1 X87.530 Y76.050 E0.05536
G1 X88.740 Y75.680 E0.05572
G1 X90.000 Y75.560 E0.05574
G1 X110.000 Y75.560 E0.88080
G1 X111.260 Y75.680 E0.05574
G1 X112.470 Y76.050 E0.05572
G1 X113.580 Y76.640 E0.05536
G1 X114.550 Y77.450 E0.05565
G1 X115.360 Y78.420 E0.05565
G1 X115.950 Y79.530 E0.05536
G1 X116.320 Y80.740 E0.05572
G1 X116.440 Y82.000 E0.05574
G1 X116.440 Y118.000 E1.58545
G1 X116.320 Y119.260 E0.05574
G1 X115.950 Y120.470 E0.05572
G1 X115.360 Y121.580 E0.05536
G1 X114.550 Y122.550 E0.05565
G1 X113.580 Y123.360 E0.05565
G1 X112.470 Y123.950 E0.05536
G1 X111.260 Y124.320 E0.05572
G1 X110.000 Y124.440 E0.05574
G1 X90.000 Y124.440 E0.88080
G1 X88.740 Y124.320 E0.05574
G1 X87.530 Y123.950 E0.05572
G1 X86.420 Y123.360 E0.05536
G1 X85.450 Y122.550 E0.05565
G1 X84.640 Y121.580 E0.05565
G1 X84.050 Y120.470 E0.05536
G1 X83.680 Y119.260 E0.05572
G1 X83.560 Y118.000 E0.05574
G1 X83.560 Y82.000 E1.58545
G1 X83.680 Y80.740 E0.05574
G1 X84.050 Y79.530 E0.05572
G1 X84.640 Y78.420 E0.05536
G1 X85.408 Y77.501 E0.05274
G1 F1800.000 E-1.00000
G1 X90.662 Y82.662 F3600.000
G1 F1800.000 E1.00000
G1 X109.338 Y82.662 F540.000 E0.82249
G1 X109.338 Y87.838 E0.22795
G1 X99.250 Y87.838 E0.44427
G1 X98.966 Y87.345 E0.02505
G1 X98.453 Y86.776 E0.03375
G1 X97.833 Y86.325 E0.03375
G1 X97.133 Y86.014 E0.03375
G1 X96.383 Y85.854 E0.03375
G1 X95.617 Y85.854 E0.03375
G1 X94.867 Y86.014 E0.03375
G1 X94.167 Y86.325 E0.03375
G1 X93.547 Y86.776 E0.03375
G1 X93.034 Y87.345 E0.03375
G1 X92.651 Y88.009 E0.03375
G1 X92.414 Y88.738 E0.03375
G1 X92.334 Y89.500 E0.03375
G1 X92.414 Y90.262 E0.03375
G1 X92.651 Y90.991 E0.03375
G1 X93.034 Y91.655 E0.03375
G1 X93.547 Y92.224 E0.03375
G1 X94.167 Y92.675 E0.03375
G1 X94.867 Y92.986 E0.03375
G1 X95.617 Y93.146 E0.03375
G1 X96.383 Y93.146 E0.03375
G1 X97.133 Y92.986 E0.03375
G1 X97.833 Y92.675 E0.03375
G1 X98.453 Y92.224 E0.03375
G1 X98.966 Y91.655 E0.03375
G1 X99.250 Y91.162 E0.02505
G1 X109.338 Y91.162 E0.44427
G1 X109.338 Y96.338 E0.22795
G1 X90.662 Y96.338 E0.82249
G1 X90.662 Y82.728 E0.59937
G1 X90.221 Y82.221 F3600.000
G1 X109.779 Y82.221 F378.000 E0.86137
G1 X109.779 Y88.279 E0.26682
G1 X98.973 Y88.279 E0.47593
G1 X98.943 Y88.190 E0.00416
G1 X98.607 Y87.606 E0.02966
G1 X98.156 Y87.106 E0.02966
G1 X97.611 Y86.710 E0.02966
G1 X96.996 Y86.436 E0.02966
G1 X96.337 Y86.296 E0.02966
G1 X95.663 Y86.296 E0.02966
G1 X95.004 Y86.436 E0.02966
G1 X94.389 Y86.710 E0.02966
G1 X93.844 Y87.106 E0.02966
G1 X93.393 Y87.606 E0.02966
G1 X93.057 Y88.190 E0.02966
G1 X92.849 Y88.830 E0.02966
G1 X92.778 Y89.500 E0.02966
G1 X92.849 Y90.170 E0.02966
G1 X93.057 Y90.810 E0.02966
G1 X93.393 Y91.394 E0.02966
G1 X93.844 Y91.894 E0.02966
G1 X94.389 Y92.290 E0.02966
G1 X95.004 Y92.564 E0.02966
G1 X95.663 Y92.704 E0.02966
G1 X96.337 Y92.704 E0.02966
G1 X96.996 Y92.564 E0.02966
G1 X97.611 Y92.290 E0.02966
G1 X98.156 Y91.894 E0.02966
G1 X98.607 Y91.394 E0.02966
G1 X98.943 Y90.810 E0.02966
G1 X98.973 Y90.721 E0.00416
G1 X109.779 Y90.721 E0.47593
G1 X109.779 Y96.779 E0.26682
G1 X90.221 Y96.779 E0.86137
G1 X90.221 Y82.287 E0.63825
G1 X90.603 Y82.441 F3600.000
G1 F1800.000 E-1.00000
G1 X94.266 Y93.069 F3600.000
G1 F1800.000 E1.00000
G1 X97.216 Y96.018 F720.000 E0.18437
G1 X97.842 Y96.018 E0.02770
G1 X95.210 Y93.386 E0.16454
G1 X95.916 Y93.465 E0.03140
G1 X98.469 Y96.018 E0.15958
G1 X99.095 Y96.018 E0.02770
G1 X96.521 Y93.443 E0.16096
G1 X97.037 Y93.334 E0.02335
G1 X99.722 Y96.018 E0.16783
G1 X100.348 Y96.018 E0.02770
G1 X97.502 Y93.172 E0.17793
G1 X97.936 Y92.979 E0.02098
G1 X100.975 Y96.018 E0.19000
G1 X101.601 Y96.018 E0.02770
G1 X98.308 Y92.725 E0.20589
G1 X98.670 Y92.461 E0.01982
G1 X102.228 Y96.018 E0.22241
G1 X102.855 Y96.018 E0.02770
G1 X98.967 Y92.131 E0.24302
G1 X99.255 Y91.792 E0.01965
G1 X103.481 Y96.018 E0.26418
G1 X104.108 Y96.018 E0.02770
G1 X99.571 Y91.482 E0.28359
G1 X100.198 Y91.482 E0.02770
G1 X104.734 Y96.018 E0.28359
G1 X105.361 Y96.018 E0.02770
G1 X100.825 Y91.482 E0.28359
G1 X101.451 Y91.482 E0.02770
G1 X105.987 Y96.018 E0.28359
G1 X106.614 Y96.018 E0.02770
G1 X102.078 Y91.482 E0.28359
G1 X102.704 Y91.482 E0.02770
G1 X107.240 Y96.018 E0.28359
G1 X107.867 Y96.018 E0.02770
G1 X103.331 Y91.482 E0.28359
G1 X103.957 Y91.482 E0.02770
G1 X108.493 Y96.018 E0.28359
G1 X109.018 Y95.916 E0.02362
G1 X104.584 Y91.482 E0.27721
G1 X105.210 Y91.482 E0.02770
G1 X109.018 Y95.290 E0.23804
G1 X109.018 Y94.663 E0.02770
G1 X105.837 Y91.482 E0.19887
G1 X106.464 Y91.482 E0.02770
G1 X109.018 Y94.036 E0.15970
G1 X109.018 Y93.410 E0.02770
G1 X107.090 Y91.482 E0.12053
G1 X107.717 Y91.482 E0.02770
G1 X109.018 Y92.783 E0.08136
G1 X109.018 Y92.157 E0.02770
G1 X108.343 Y91.482 E0.04219
G1 X108.970 Y91.482 F3600.000
G1 X109.018 Y91.530 F720.000 E0.00302
G1 F1800.000 E-1.00000
G1 X108.615 Y82.982 F3600.000
G1 F1800.000 E1.00000
G1 X109.018 Y83.385 F720.000 E0.02520
G1 X109.018 Y84.012 E0.02770
G1 X107.988 Y82.982 E0.06438
G1 X107.362 Y82.982 E0.02770
G1 X109.018 Y84.638 E0.10355
G1 X109.018 Y85.265 E0.02770
G1 X106.735 Y82.982 E0.14272
G1 X106.109 Y82.982 E0.02770
G1 X109.018 Y85.891 E0.18189
G1 X109.018 Y86.518 E0.02770
G1 X105.482 Y82.982 E0.22106
G1 X104.856 Y82.982 E0.02770
G1 X109.018 Y87.144 E0.26023
G1 X108.765 Y87.518 E0.01995
G1 X104.229 Y82.982 E0.28359
G1 X103.602 Y82.982 E0.02770
G1 X108.139 Y87.518 E0.28359
G1 X107.512 Y87.518 E0.02770
G1 X102.976 Y82.982 E0.28359
G1 X102.349 Y82.982 E0.02770
G1 X106.886 Y87.518 E0.28359
G1 X106.259 Y87.518 E0.02770
G1 X101.723 Y82.982 E0.28359
G1 X101.096 Y82.982 E0.02770
G1 X105.632 Y87.518 E0.28359
G1 X105.006 Y87.518 E0.02770
G1 X100.470 Y82.982 E0.28359
G1 X99.843 Y82.982 E0.02770
G1 X104.379 Y87.518 E0.28359
G1 X103.753 Y87.518 E0.02770
G1 X99.217 Y82.982 E0.28359
G1 X98.590 Y82.982 E0.02770
G1 X103.126 Y87.518 E0.28359
G1 X102.500 Y87.518 E0.02770
G1 X97.964 Y82.982 E0.28359
G1 X97.337 Y82.982 E0.02770
G1 X101.873 Y87.518 E0.28359
G1 X101.247 Y87.518 E0.02770
G1 X96.710 Y82.982 E0.28359
G1 X96.084 Y82.982 E0.02770
G1 X100.620 Y87.518 E0.28359
G1 X99.993 Y87.518 E0.02770
G1 X95.457 Y82.982 E0.28359
G1 X94.831 Y82.982 E0.02770
G1 X97.817 Y85.968 E0.18670
G1 X96.849 Y85.626 E0.04540
G1 X94.204 Y82.982 E0.16532
G1 X93.578 Y82.982 E0.02770
G1 X96.130 Y85.534 E0.15958
G1 X95.518 Y85.548 E0.02709
G1 X92.951 Y82.982 E0.16045
G1 X92.325 Y82.982 E0.02770
G1 X95.001 Y85.658 E0.16732
G1 X94.530 Y85.814 E0.02193
G1 X91.698 Y82.982 E0.17704
G1 X91.071 Y82.982 E0.02770
G1 X94.096 Y86.007 E0.18911
G1 X93.719 Y86.256 E0.01999
G1 X90.982 Y83.519 E0.17110
G1 X90.982 Y84.145 E0.02770
G1 X93.356 Y86.519 E0.14841
G1 X93.055 Y86.845 E0.01960
G1 X90.982 Y84.772 E0.12958
G1 X90.982 Y85.399 E0.02770
G1 X92.762 Y87.178 E0.11126
G1 X92.532 Y87.575 E0.02028
G1 X90.982 Y86.025 E0.09692
G1 X90.982 Y86.652 E0.02770
G1 X92.321 Y87.991 E0.08371
G1 X92.167 Y88.464 E0.02198
G1 X90.982 Y87.278 E0.07410
G1 X90.982 Y87.905 E0.02770
G1 X92.066 Y88.989 E0.06779
G1 X92.020 Y89.569 E0.02573
G1 X90.982 Y88.531 E0.06489
G1 X90.982 Y89.158 E0.02770
G1 X92.094 Y90.270 E0.06949
G1 X92.409 Y91.212 E0.04394
G1 X90.982 Y89.784 E0.08924
G1 X90.982 Y90.411 E0.02770
G1 X96.589 Y96.018 E0.35054
G1 X95.962 Y96.018 E0.02770
G1 X90.982 Y91.038 E0.31137
G1 X90.982 Y91.664 E0.02770
G1 X95.336 Y96.018 E0.27220
G1 X94.709 Y96.018 E0.02770
G1 X90.982 Y92.291 E0.23303
G1 X90.982 Y92.917 E0.02770
G1 X94.083 Y96.018 E0.19386
G1 X93.456 Y96.018 E0.02770
G1 X90.982 Y93.544 E0.15469
G1 X90.982 Y94.170 E0.02770
G1 X92.830 Y96.018 E0.11552
G1 X92.203 Y96.018 E0.02770
G1 X90.982 Y94.797 E0.07635
G1 X90.982 Y95.423 E0.02770
G1 X91.577 Y96.018 E0.03718
G1 F1800.000 E-1.00000
G1 X90.662 Y103.662 F3600.000
G1 F1800.000 E1.00000
G1 X109.338 Y103.662 F540.000 E0.82249
G1 X109.338 Y108.838 E0.22795
G1 X99.250 Y108.838 E0.44427
G1 X98.966 Y108.345 E0.02505
G1 X98.453 Y107.776 E0.03375
G1 X97.833 Y107.325 E0.03375
G1 X97.133 Y107.014 E0.03375
G1 X96.383 Y106.854 E0.03375
G1 X95.617 Y106.854 E0.03375
G1 X94.867 Y107.014 E0.03375
G1 X94.167 Y107.325 E0.03375
G1 X93.547 Y107.776 E0.03375
G1 X93.034 Y108.345 E0.03375
G1 X92.651 Y109.009 E0.03375
G1 X92.414 Y109.738 E0.03375
G1 X92.334 Y110.500 E0.03375
G1 X92.414 Y111.262 E0.03375
G1 X92.651 Y111.991 E0.03375
G1 X93.034 Y112.655 E0.03375
G1 X93.547 Y113.224 E0.03375
G1 X94.167 Y113.675 E0.03375
G1 X94.867 Y113.986 E0.03375
G1 X95.617 Y114.146 E0.03375
G1 X96.383 Y114.146 E0.03375
G1 X97.133 Y113.986 E0.03375
G1 X97.833 Y113.675 E0.03375
G1 X98.453 Y113.224 E0.03375
G1 X98.966 Y112.655 E0.03375
G1 X99.250 Y112.162 E0.02505
G1 X109.338 Y112.162 E0.44427
G1 X109.338 Y117.338 E0.22795
G1 X90.662 Y117.338 E0.82249
G1 X90.662 Y103.728 E0.59937
G1 X90.221 Y103.221 F3600.000
G1 X109.779 Y103.221 F378.000 E0.86137
G1 X109.779 Y109.279 E0.26682
G1 X98.973 Y109.279 E0.47593
G1 X98.943 Y109.190 E0.00416
G1 X98.607 Y108.606 E0.02966
G1 X98.156 Y108.106 E0.02966
G1 X97.611 Y107.710 E0.02966
G1 X96.996 Y107.436 E0.02966
G1 X96.337 Y107.296 E0.02966
G1 X95.663 Y107.296 E0.02966
G1 X95.004 Y107.436 E0.02966
G1 X94.389 Y107.710 E0.02966
G1 X93.844 Y108.106 E0.02966
G1 X93.393 Y108.606 E0.02966
G1 X93.057 Y109.190 E0.02966
G1 X92.849 Y109.830 E0.02966
G1 X92.778 Y110.500 E0.02966
G1 X92.849 Y111.170 E0.02966
G1 X93.057 Y111.810 E0.02966
G1 X93.393 Y112.394 E0.02966
G1 X93.844 Y112.894 E0.02966
G1 X94.389 Y113.290 E0.02966
G1 X95.004 Y113.564 E0.02966
G1 X95.663 Y113.704 E0.02966
G1 X96.337 Y113.704 E0.02966
G1 X96.996 Y113.564 E0.02966
G1 X97.611 Y113.290 E0.02966
G1 X98.156 Y112.894 E0.02966
G1 X98.607 Y112.394 E0.02966
G1 X98.943 Y111.810 E0.02966
G1 X98.973 Y111.721 E0.00416
G1 X109.779 Y111.721 E0.47593
G1 X109.779 Y117.779 E0.26682
G1 X90.221 Y117.779 E0.86137
G1 X90.221 Y103.287 E0.63825
G1 X90.603 Y103.441 F3600.000
G1 F1800.000 E-1.00000
G1 X94.266 Y114.069 F3600.000
G1 F1800.000 E1.00000
G1 X97.216 Y117.018 F720.000 E0.18437
G1 X97.842 Y117.018 E0.02770
G1 X95.210 Y114.386 E0.16454
G1 X95.916 Y114.465 E0.03140
G1 X98.469 Y117.018 E0.15958
G1 X99.095 Y117.018 E0.02770
G1 X96.521 Y114.443 E0.16096
G1 X97.037 Y114.334 E0.02335
G1 X99.722 Y117.018 E0.16783
G1 X100.348 Y117.018 E0.02770
G1 X97.502 Y114.172 E0.17793
G1 X97.936 Y113.979 E0.02098
G1 X100.975 Y117.018 E0.19000
G1 X101.601 Y117.018 E0.02770
G1 X98.308 Y113.725 E0.20589
G1 X98.670 Y113.461 E0.01982
G1 X102.228 Y117.018 E0.22241
G1 X102.855 Y117.018 E0.02770
G1 X98.967 Y113.131 E0.24302
G1 X99.255 Y112.792 E0.01965
G1 X103.481 Y117.018 E0.26418
G1 X104.108 Y117.018 E0.02770
G1 X99.571 Y112.482 E0.28359
G1 X100.198 Y112.482 E0.02770
G1 X104.734 Y117.018 E0.28359
G1 X105.361 Y117.018 E0.02770
G1 X100.825 Y112.482 E0.28359
G1 X101.451 Y112.482 E0.02770
G1 X105.987 Y117.018 E0.28359
G1 X106.614 Y117.018 E0.02770
G1 X102.078 Y112.482 E0.28359
G1 X102.704 Y112.482 E0.02770
G1 X107.240 Y117.018 E0.28359
G1 X107.867 Y117.018 E0.02770
G1 X103.331 Y112.482 E0.28359
G1 X103.957 Y112.482 E0.02770
G1 X108.493 Y117.018 E0.28359
G1 X109.018 Y116.916 E0.02362
G1 X104.584 Y112.482 E0.27721
G1 X105.210 Y112.482 E0.02770
G1 X109.018 Y116.290 E0.23804
G1 X109.018 Y115.663 E0.02770
G1 X105.837 Y112.482 E0.19887
G1 X106.464 Y112.482 E0.02770
G1 X109.018 Y115.036 E0.15970
G1 X109.018 Y114.410 E0.02770
G1 X107.090 Y112.482 E0.12053
G1 X107.717 Y112.482 E0.02770
G1 X109.018 Y113.783 E0.08136
G1 X109.018 Y113.157 E0.02770
G1 X108.343 Y112.482 E0.04219
G1 X108.970 Y112.482 F3600.000
G1 X109.018 Y112.530 F720.000 E0.00302
G1 F1800.000 E-1.00000
G1 X108.615 Y103.982 F3600.000
G1 F1800.000 E1.00000
G1 X109.018 Y104.385 F720.000 E0.02520
G1 X109.018 Y105.012 E0.02770
G1 X107.988 Y103.982 E0.06438
G1 X107.362 Y103.982 E0.02770
G1 X109.018 Y105.638 E0.10355
G1 X109.018 Y106.265 E0.02770
G1 X106.735 Y103.982 E0.14272
G1 X106.109 Y103.982 E0.02770
G1 X109.018 Y106.891 E0.18189
G1 X109.018 Y107.518 E0.02770
G1 X105.482 Y103.982 E0.22106
G1 X104.856 Y103.982 E0.02770
G1 X109.018 Y108.144 E0.26023
G1 X108.765 Y108.518 E0.01995
G1 X104.229 Y103.982 E0.28359
G1 X103.602 Y103.982 E0.02770
G1 X108.139 Y108.518 E0.28359
G1 X107.512 Y108.518 E0.02770
G1 X102.976 Y103.982 E0.28359
G1 X102.349 Y103.982 E0.02770
G1 X106.886 Y108.518 E0.28359
G1 X106.259 Y108.518 E0.02770
G1 X101.723 Y103.982 E0.28359
G1 X101.096 Y103.982 E0.02770
G1 X105.632 Y108.518 E0.28359
G1 X105.006 Y108.518 E0.02770
G1 X100.470 Y103.982 E0.28359
G1 X99.843 Y103.982 E0.02770
G1 X104.379 Y108.518 E0.28359
G1 X103.753 Y108.518 E0.02770
G1 X99.217 Y103.982 E0.28359
G1 X98.590 Y103.982 E0.02770
G1 X103.126 Y108.518 E0.28359
G1 X102.500 Y108.518 E0.02770
G1 X97.964 Y103.982 E0.28359
G1 X97.337 Y103.982 E0.02770
G1 X101.873 Y108.518 E0.28359
G1 X101.247 Y108.518 E0.02770
G1 X96.710 Y103.982 E0.28359
G1 X96.084 Y103.982 E0.02770
G1 X100.620 Y108.518 E0.28359
G1 X99.993 Y108.518 E0.02770
G1 X95.457 Y103.982 E0.28359
G1 X94.831 Y103.982 E0.02770
G1 X97.817 Y106.968 E0.18670
G1 X96.849 Y106.626 E0.04540
G1 X94.204 Y103.982 E0.16532
G1 X93.578 Y103.982 E0.02770
G1 X96.130 Y106.534 E0.15958
G1 X95.518 Y106.548 E0.02709
G1 X92.951 Y103.982 E0.16045
G1 X92.325 Y103.982 E0.02770
G1 X95.001 Y106.658 E0.16732
G1 X94.530 Y106.814 E0.02193
G1 X91.698 Y103.982 E0.17704
G1 X91.071 Y103.982 E0.02770
G1 X94.096 Y107.007 E0.18911
G1 X93.719 Y107.256 E0.01999
G1 X90.982 Y104.519 E0.17110
G1 X90.982 Y105.145 E0.02770
G1 X93.356 Y107.519 E0.14841
G1 X93.055 Y107.845 E0.01960
G1 X90.982 Y105.772 E0.12958
G1 X90.982 Y106.399 E0.02770
G1 X92.762 Y108.178 E0.11126
G1 X92.532 Y108.575 E0.02028
G1 X90.982 Y107.025 E0.09692
G1 X90.982 Y107.652 E0.02770
G1 X92.321 Y108.991 E0.08371
G1 X92.167 Y109.464 E0.02198
G1 X90.982 Y108.278 E0.07410
G1 X90.982 Y108.905 E0.02770
G1 X92.066 Y109.989 E0.06779
G1 X92.020 Y110.569 E0.02573
G1 X90.982 Y109.531 E0.06489
G1 X90.982 Y110.158 E0.02770
G1 X92.094 Y111.270 E0.06949
G1 X92.409 Y112.212 E0.04394
G1 X90.982 Y110.784 E0.08924
G1 X90.982 Y111.411 E0.02770
G1 X96.589 Y117.018 E0.35054
G1 X95.962 Y117.018 E0.02770
G1 X90.982 Y112.038 E0.31137
G1 X90.982 Y112.664 E0.02770
G1 X95.336 Y117.018 E0.27220
G1 X94.709 Y117.018 E0.02770
G1 X90.982 Y113.291 E0.23303
G1 X90.982 Y113.917 E0.02770
G1 X94.083 Y117.018 E0.19386
G1 X93.456 Y117.018 E0.02770
G1 X90.982 Y114.544 E0.15469
G1 X90.982 Y115.170 E0.02770
G1 X92.830 Y117.018 E0.11552
G1 X92.203 Y117.018 E0.02770
G1 X90.982 Y115.797 E0.07635
G1 X90.982 Y116.423 E0.02770
G1 X91.577 Y117.018 E0.03718
G1 F1800.000 E-1.00000
G1 Z0.480 F3600.000
G1 X90.000 Y124.440
G1 F1800.000 E1.00000
G1 X88.740 Y124.320 F1800.000 E0.05574
G1 X87.530 Y123.950 E0.05572
G1 X86.420 Y123.360 E0.05536
G1 X85.450 Y122.550 E0.05565
G1 X84.640 Y121.580 E0.05565
G1 X84.050 Y120.470 E0.05536
G1 X83.680 Y119.260 E0.05572
G1 X83.560 Y118.000 E0.05574
G1 X83.560 Y82.000 E1.58545
G1 X83.680 Y80.740 E0.05574
G1 X84.050 Y79.530 E0.05572
G1 X84.640 Y78.420 E0.05536
G1 X85.450 Y77.450 E0.05565
G1 X86.420 Y76.640 E0.05565
G1 X87.530 Y76.050 E0.05536
G1 X88.740 Y75.680 E0.05572
G1 X90.000 Y75.560 E0.05574
G1 X110.000 Y75.560 E0.88080
G1 X111.260 Y75.680 E0.05574
G1 X112.470 Y76.050 E0.05572
G1 X113.580 Y76.640 E0.05536
G1 X114.550 Y77.450 E0.05565
G1 X115.360 Y78.420 E0.05565
G1 X115.950 Y79.530 E0.05536
G1 X116.320 Y80.740 E0.05572
G1 X116.440 Y82.000 E0.05574
G1 X116.440 Y118.000 E1.58545
