; generated by Slic3r 1.2.9 on 2016-03-15 at 11:31:34

; external perimeters extrusion width = 0.50mm
; perimeters extrusion width = 0.72mm
; infill extrusion width = 0.72mm
; solid infill extrusion width = 0.72mm
; top infill extrusion width = 0.72mm

M107
G28 ; home all axes
G1 Z5 F200 ; lift nozzle
G10 P0 S185
T0
M116

G21 ; set units to millimeters
G90 ; use absolute coordinates
M82 ; use absolute distances for extrusion
G92 E0
G1 Z0.350 F7800.000
G1 E-2.00000 F2400.00000
G92 E0
G1 X59.915 Y70.753 F7800.000
G1 E2.00000 F2400.00000
G1 X61.668 Y69.274 E2.20854 F1800.000
G1 X63.820 Y68.481 E2.41708
G1 X65.000 Y68.375 E2.52479
G1 X135.000 Y68.375 E8.88986
G1 X137.259 Y68.772 E9.09841
G1 X139.247 Y69.915 E9.30695 F1800.000
G1 X140.726 Y71.668 E9.51549
G1 X141.519 Y73.820 E9.72403
G1 X141.625 Y75.000 E9.83174
G1 X141.625 Y125.000 E14.37822
G1 X141.228 Y127.259 E14.58676
G1 X140.085 Y129.247 E14.79531
G1 X138.332 Y130.726 E15.00385
G1 X136.180 Y131.519 E15.21239
G1 X135.000 Y131.625 E15.32010
G1 X65.000 Y131.625 E21.68517
G1 X62.741 Y131.228 E21.89371
G1 X60.753 Y130.085 E22.10226
G1 X59.274 Y128.332 E22.31080
G1 X58.481 Y126.180 E22.51934
G1 X58.375 Y125.000 E22.62705
G1 X58.375 Y75.000 E27.17353
G1 X58.772 Y72.741 E27.38207
G1 X59.878 Y70.818 E27.58379
G1 E25.58379 F2400.00000
G92 E0
G1 X108.600 Y121.600 F7800.000
G1 E2.00000 F2400.00000
G1 X91.400 Y121.600 E3.56395 F1800.000
G1 X91.400 Y78.400 E7.49207
G1 X108.600 Y78.400 E9.05601
G1 X108.600 Y121.525 E12.97731
G1 X107.975 Y120.975 F7800.000
G1 X92.025 Y120.975 E14.42762 F1800.000
G1 X92.025 Y79.025 E18.24209
G1 X107.975 Y79.025 E19.69240
G1 X107.975 Y120.900 E23.50006
G1 X107.350 Y120.350 F7800.000
G1 X92.650 Y120.350 E24.83672 F1800.000
G1 X92.650 Y79.650 E28.53755
G1 X107.350 Y79.650 E29.87422
G1 X107.350 Y120.275 E33.56823
G1 X107.350 Y120.850 F7800.000
G1 X110.400 Y121.600 F7800.000
G1 X133.400 Y121.600 E35.65961 F1800.000
G1 X133.400 Y123.400 E35.82333
G1 X66.600 Y123.400 E41.89746
G1 X66.600 Y121.600 E42.06118
G1 X89.600 Y121.600 E44.15256
G1 X89.600 Y78.400 E48.08067
G1 X66.600 Y78.400 E50.17206
G1 X66.600 Y76.600 E50.33577
G1 X133.400 Y76.600 E56.40991
G1 X133.400 Y78.400 E56.57362
G1 X110.400 Y78.400 E58.66500
G1 X110.400 Y121.525 E62.58630
G1 X111.025 Y120.975 F7800.000
G1 X134.025 Y120.975 E64.67768 F1800.000
G1 X134.025 Y124.025 E64.95503
G1 X65.975 Y124.025 E71.14281
G1 X65.975 Y120.975 E71.42017
G1 X88.975 Y120.975 E73.51155
G1 X88.975 Y79.025 E77.32602
G1 X65.975 Y79.025 E79.41740
G1 X65.975 Y75.975 E79.69476
G1 X134.025 Y75.975 E85.88254
G1 X134.025 Y79.025 E86.15989
G1 X111.025 Y79.025 E88.25127
G1 X111.025 Y120.900 E92.05893
G1 X111.650 Y120.350 F7800.000
G1 X134.650 Y120.350 E94.15031 F1800.000
G1 X134.650 Y124.650 E94.54130
G1 X65.350 Y124.650 E100.84272
G1 X65.350 Y120.350 E101.23372
G1 X88.350 Y120.350 E103.32510
G1 X88.350 Y79.650 E107.02594
G1 X65.350 Y79.650 E109.11732
G1 X65.350 Y75.350 E109.50831
G1 X134.650 Y75.350 E115.80973
G1 X134.650 Y79.650 E116.20073
G1 X111.650 Y79.650 E118.29211
G1 X111.650 Y120.275 E121.98612
G1 X111.650 Y120.850 F7800.000
G1 X110.022 Y120.638 F7800.000
G1 X108.978 Y119.595 E122.12044 F1800.000
G1 X108.978 Y118.710 E122.20098
G1 X110.022 Y119.754 E122.33529
G1 X110.022 Y118.869 E122.41583
G1 X108.978 Y117.826 E122.55015
G1 X108.978 Y116.941 E122.63069
G1 X110.022 Y117.984 E122.76500
G1 X110.022 Y117.100 E122.84554
G1 X108.978 Y116.056 E122.97985
G1 X108.978 Y115.172 E123.06039
G1 X110.022 Y116.215 E123.19471
G1 X110.022 Y115.330 E123.27525
G1 X108.978 Y114.287 E123.40956
G1 X108.978 Y113.402 E123.49010
G1 X110.022 Y114.445 E123.62441
G1 X110.022 Y113.561 E123.70495
G1 X108.978 Y112.517 E123.83927
G1 X108.978 Y111.633 E123.91981
G1 X110.022 Y112.676 E124.05412
G1 X110.022 Y111.791 E124.13466
G1 X108.978 Y110.748 E124.26897
G1 X108.978 Y109.863 E124.34951
G1 X110.022 Y110.906 E124.48383
G1 X110.022 Y110.022 E124.56437
G1 X108.978 Y108.978 E124.69868
G1 X108.978 Y108.094 E124.77922
G1 X110.022 Y109.137 E124.91353
G1 X110.022 Y108.252 E124.99407
G1 X108.978 Y107.209 E125.12839
G1 X108.978 Y106.324 E125.20893
G1 X110.022 Y107.367 E125.34324
G1 X110.022 Y106.483 E125.42378
G1 X108.978 Y105.439 E125.55810
G1 X108.978 Y104.555 E125.63864
G1 X110.022 Y105.598 E125.77295
G1 X110.022 Y104.713 E125.85349
G1 X108.978 Y103.670 E125.98780
G1 X108.978 Y102.785 E126.06834
G1 X110.022 Y103.829 E126.20266
G1 X110.022 Y102.944 E126.28320
G1 X108.978 Y101.901 E126.41751
G1 X108.978 Y101.016 E126.49805
G1 X110.022 Y102.059 E126.63236
G1 X110.022 Y101.174 E126.71290
G1 X108.978 Y100.131 E126.84722
G1 X108.978 Y99.246 E126.92776
G1 X110.022 Y100.290 E127.06207
G1 X110.022 Y99.405 E127.14261
G1 X108.978 Y98.362 E127.27692
G1 X108.978 Y97.477 E127.35746
G1 X110.022 Y98.520 E127.49178
G1 X110.022 Y97.635 E127.57232
G1 X108.978 Y96.592 E127.70663
G1 X108.978 Y95.707 E127.78717
G1 X110.022 Y96.751 E127.92148
G1 X110.022 Y95.866 E128.00202
G1 X108.978 Y94.823 E128.13634
G1 X108.978 Y93.938 E128.21688
G1 X110.022 Y94.981 E128.35119
G1 X110.022 Y94.096 E128.43173
G1 X108.978 Y93.053 E128.56604
G1 X108.978 Y92.168 E128.64658
G1 X110.022 Y93.212 E128.78090
G1 X110.022 Y92.327 E128.86144
G1 X108.978 Y91.284 E128.99575
G1 X108.978 Y90.399 E129.07629
G1 X110.022 Y91.442 E129.21061
G1 X110.022 Y90.558 E129.29115
G1 X108.978 Y89.514 E129.42546
G1 X108.978 Y88.630 E129.50600
G1 X110.022 Y89.673 E129.64031
G1 X110.022 Y88.788 E129.72085
G1 X108.978 Y87.745 E129.85517
G1 X108.978 Y86.860 E129.93571
G1 X110.022 Y87.903 E130.07002
G1 X110.022 Y87.019 E130.15056
G1 X108.978 Y85.975 E130.28487
G1 X108.978 Y85.091 E130.36541
G1 X110.022 Y86.134 E130.49973
G1 X110.022 Y85.249 E130.58027
G1 X108.978 Y84.206 E130.71458
G1 X108.978 Y83.321 E130.79512
G1 X110.022 Y84.364 E130.92943
G1 X110.022 Y83.480 E131.00997
G1 X108.978 Y82.436 E131.14429
G1 X108.978 Y81.552 E131.22483
G1 X110.022 Y82.595 E131.35914
G1 X110.022 Y81.710 E131.43968
G1 X108.978 Y80.667 E131.57399
G1 X108.978 Y79.782 E131.65453
G1 X110.022 Y80.825 E131.78885
G1 X110.022 Y79.941 E131.86939
G1 X108.978 Y78.897 E132.00370
G1 X89.978 Y78.477 F7800.000
G1 X91.022 Y79.520 E132.13801 F1800.000
G1 X91.022 Y78.635 E132.21855
G1 X89.365 Y76.978 E132.43188
G1 X90.249 Y76.978 E132.51242
G1 X91.293 Y78.022 E132.64674
G1 X92.177 Y78.022 E132.72728
G1 X91.134 Y76.978 E132.86159
G1 X92.019 Y76.978 E132.94213
G1 X93.062 Y78.022 E133.07645
G1 X93.947 Y78.022 E133.15699
G1 X92.904 Y76.978 E133.29130
G1 X93.788 Y76.978 E133.37184
G1 X94.832 Y78.022 E133.50615
G1 X95.716 Y78.022 E133.58669
G1 X94.673 Y76.978 E133.72101
G1 X95.558 Y76.978 E133.80155
G1 X96.601 Y78.022 E133.93586
G1 X97.486 Y78.022 E134.01640
G1 X96.442 Y76.978 E134.15071
G1 X97.327 Y76.978 E134.23125
G1 X98.370 Y78.022 E134.36557
G1 X99.255 Y78.022 E134.44611
G1 X98.212 Y76.978 E134.58042
G1 X99.097 Y76.978 E134.66096
G1 X100.140 Y78.022 E134.79527
G1 X101.025 Y78.022 E134.87581
G1 X99.981 Y76.978 E135.01013
G1 X100.866 Y76.978 E135.09067
G1 X101.909 Y78.022 E135.22498
G1 X102.794 Y78.022 E135.30552
G1 X101.751 Y76.978 E135.43984
G1 X102.636 Y76.978 E135.52038
G1 X103.679 Y78.022 E135.65469
G1 X104.564 Y78.022 E135.73523
G1 X103.520 Y76.978 E135.86954
G1 X104.405 Y76.978 E135.95008
G1 X105.448 Y78.022 E136.08440
G1 X106.333 Y78.022 E136.16494
G1 X105.290 Y76.978 E136.29925
G1 X106.175 Y76.978 E136.37979
G1 X107.218 Y78.022 E136.51410
G1 X108.103 Y78.022 E136.59464
G1 X107.059 Y76.978 E136.72896
G1 X107.944 Y76.978 E136.80950
G1 X110.022 Y79.056 E137.07697
G1 X110.022 Y78.171 E137.15751
G1 X108.829 Y76.978 E137.31109
G1 X109.713 Y76.978 E137.39163
G1 X110.757 Y78.022 E137.52595
G1 X111.641 Y78.022 E137.60649
G1 X110.598 Y76.978 E137.74080
G1 X111.483 Y76.978 E137.82134
G1 X112.526 Y78.022 E137.95565
G1 X113.411 Y78.022 E138.03619
G1 X112.368 Y76.978 E138.17051
G1 X113.252 Y76.978 E138.25105
G1 X114.296 Y78.022 E138.38536
G1 X115.180 Y78.022 E138.46590
G1 X114.137 Y76.978 E138.60021
G1 X115.022 Y76.978 E138.68075
G1 X116.065 Y78.022 E138.81507
G1 X116.950 Y78.022 E138.89561
G1 X115.907 Y76.978 E139.02992
G1 X116.791 Y76.978 E139.11046
G1 X117.835 Y78.022 E139.24477
G1 X118.719 Y78.022 E139.32531
G1 X117.676 Y76.978 E139.45963
G1 X118.561 Y76.978 E139.54017
G1 X119.604 Y78.022 E139.67448
G1 X120.489 Y78.022 E139.75502
G1 X119.446 Y76.978 E139.88934
G1 X120.330 Y76.978 E139.96988
G1 X121.374 Y78.022 E140.10419
G1 X122.258 Y78.022 E140.18473
G1 X121.215 Y76.978 E140.31904
G1 X122.100 Y76.978 E140.39958
G1 X123.143 Y78.022 E140.53390
G1 X124.028 Y78.022 E140.61444
G1 X122.984 Y76.978 E140.74875
G1 X123.869 Y76.978 E140.82929
G1 X124.912 Y78.022 E140.96360
G1 X125.797 Y78.022 E141.04414
G1 X124.754 Y76.978 E141.17846
G1 X125.639 Y76.978 E141.25900
G1 X126.682 Y78.022 E141.39331
G1 X127.567 Y78.022 E141.47385
G1 X126.523 Y76.978 E141.60817
G1 X127.408 Y76.978 E141.68871
G1 X128.451 Y78.022 E141.82302
G1 X129.336 Y78.022 E141.90356
G1 X128.293 Y76.978 E142.03787
G1 X129.178 Y76.978 E142.11841
G1 X130.221 Y78.022 E142.25273
G1 X131.106 Y78.022 E142.33327
G1 X130.062 Y76.978 E142.46758
G1 X130.947 Y76.978 E142.54812
G1 X131.990 Y78.022 E142.68243
G1 X132.875 Y78.022 E142.76297
G1 X131.832 Y76.978 E142.89729
G1 X132.717 Y76.978 E142.97783
G1 X133.022 Y77.283 E143.01711
G1 X89.978 Y79.362 F7800.000
G1 X91.022 Y80.405 E143.15142 F1800.000
G1 X91.022 Y81.290 E143.23196
G1 X89.978 Y80.246 E143.36628
G1 X89.978 Y81.131 E143.44682
G1 X91.022 Y82.174 E143.58113
G1 X91.022 Y83.059 E143.66167
G1 X89.978 Y82.016 E143.79598
G1 X89.978 Y82.901 E143.87652
G1 X91.022 Y83.944 E144.01084
G1 X91.022 Y84.829 E144.09138
G1 X89.978 Y83.785 E144.22569
G1 X89.978 Y84.670 E144.30623
G1 X91.022 Y85.713 E144.44055
G1 X91.022 Y86.598 E144.52109
G1 X89.978 Y85.555 E144.65540
G1 X89.978 Y86.439 E144.73594
G1 X91.022 Y87.483 E144.87025
G1 X91.022 Y88.367 E144.95079
G1 X89.978 Y87.324 E145.08511
G1 X89.978 Y88.209 E145.16565
G1 X91.022 Y89.252 E145.29996
G1 X91.022 Y90.137 E145.38050
G1 X89.978 Y89.094 E145.51481
G1 X89.978 Y89.978 E145.59535
G1 X91.022 Y91.022 E145.72967
G1 X91.022 Y91.906 E145.81021
G1 X89.978 Y90.863 E145.94452
G1 X89.978 Y91.748 E146.02506
G1 X91.022 Y92.791 E146.15938
G1 X91.022 Y93.676 E146.23992
G1 X89.978 Y92.633 E146.37423
G1 X89.978 Y93.517 E146.45477
G1 X91.022 Y94.561 E146.58908
G1 X91.022 Y95.445 E146.66962
G1 X89.978 Y94.402 E146.80394
G1 X89.978 Y95.287 E146.88448
G1 X91.022 Y96.330 E147.01879
G1 X91.022 Y97.215 E147.09933
G1 X89.978 Y96.172 E147.23365
G1 X89.978 Y97.056 E147.31419
G1 X91.022 Y98.100 E147.44850
G1 X91.022 Y98.984 E147.52904
G1 X89.978 Y97.941 E147.66335
G1 X89.978 Y98.826 E147.74389
G1 X91.022 Y99.869 E147.87821
G1 X91.022 Y100.754 E147.95875
G1 X89.978 Y99.710 E148.09306
G1 X89.978 Y100.595 E148.17360
G1 X91.022 Y101.638 E148.30791
G1 X91.022 Y102.523 E148.38845
G1 X89.978 Y101.480 E148.52277
G1 X89.978 Y102.365 E148.60331
G1 X91.022 Y103.408 E148.73762
G1 X91.022 Y104.293 E148.81816
G1 X89.978 Y103.249 E148.95248
G1 X89.978 Y104.134 E149.03302
G1 X91.022 Y105.177 E149.16733
G1 X91.022 Y106.062 E149.24787
G1 X89.978 Y105.019 E149.38218
G1 X89.978 Y105.904 E149.46272
G1 X91.022 Y106.947 E149.59704
G1 X91.022 Y107.832 E149.67758
G1 X89.978 Y106.788 E149.81189
G1 X89.978 Y107.673 E149.89243
G1 X91.022 Y108.716 E150.02674
G1 X91.022 Y109.601 E150.10728
G1 X89.978 Y108.558 E150.24160
G1 X89.978 Y109.443 E150.32214
G1 X91.022 Y110.486 E150.45645
G1 X91.022 Y111.371 E150.53699
G1 X89.978 Y110.327 E150.67131
G1 X89.978 Y111.212 E150.75185
G1 X91.022 Y112.255 E150.88616
G1 X91.022 Y113.140 E150.96670
G1 X89.978 Y112.097 E151.10101
G1 X89.978 Y112.981 E151.18155
G1 X91.022 Y114.025 E151.31587
G1 X91.022 Y114.909 E151.39641
G1 X89.978 Y113.866 E151.53072
G1 X89.978 Y114.751 E151.61126
G1 X91.022 Y115.794 E151.74557
G1 X91.022 Y116.679 E151.82611
G1 X89.978 Y115.636 E151.96043
G1 X89.978 Y116.520 E152.04097
G1 X91.022 Y117.564 E152.17528
G1 X91.022 Y118.448 E152.25582
G1 X89.978 Y117.405 E152.39013
G1 X89.978 Y118.290 E152.47067
G1 X91.022 Y119.333 E152.60499
G1 X91.022 Y120.218 E152.68553
G1 X89.978 Y119.175 E152.81984
G1 X89.978 Y120.059 E152.90038
G1 X91.022 Y121.103 E153.03470
G1 X91.013 Y121.978 E153.11442
G1 X92.056 Y123.022 E153.24874
G1 X92.941 Y123.022 E153.32928
G1 X91.897 Y121.978 E153.46359
G1 X91.022 Y121.987 E153.54331
G1 X89.978 Y120.944 E153.67763
G1 X89.978 Y121.829 E153.75817
G1 X91.171 Y123.022 E153.91174
G1 X90.286 Y123.022 E153.99228
G1 X89.243 Y121.978 E154.12659
G1 X88.358 Y121.978 E154.20713
G1 X89.402 Y123.022 E154.34144
G1 X88.517 Y123.022 E154.42198
G1 X87.474 Y121.978 E154.55630
G1 X86.589 Y121.978 E154.63684
G1 X87.632 Y123.022 E154.77115
G1 X86.748 Y123.022 E154.85169
G1 X85.704 Y121.978 E154.98600
G1 X84.820 Y121.978 E155.06654
G1 X85.863 Y123.022 E155.20086
G1 X84.978 Y123.022 E155.28140
G1 X83.935 Y121.978 E155.41571
G1 X83.050 Y121.978 E155.49625
G1 X84.093 Y123.022 E155.63056
G1 X83.209 Y123.022 E155.71110
G1 X82.165 Y121.978 E155.84542
G1 X81.281 Y121.978 E155.92596
G1 X82.324 Y123.022 E156.06027
G1 X81.439 Y123.022 E156.14081
G1 X80.396 Y121.978 E156.27513
G1 X79.511 Y121.978 E156.35567
G1 X80.554 Y123.022 E156.48998
G1 X79.670 Y123.022 E156.57052
G1 X78.626 Y121.978 E156.70483
G1 X77.742 Y121.978 E156.78537
G1 X78.785 Y123.022 E156.91969
G1 X77.900 Y123.022 E157.00023
G1 X76.857 Y121.978 E157.13454
G1 X75.972 Y121.978 E157.21508
G1 X77.015 Y123.022 E157.34939
G1 X76.131 Y123.022 E157.42993
G1 X75.087 Y121.978 E157.56425
G1 X74.203 Y121.978 E157.64479
G1 X75.246 Y123.022 E157.77910
G1 X74.361 Y123.022 E157.85964
G1 X73.318 Y121.978 E157.99395
G1 X72.433 Y121.978 E158.07449
G1 X73.477 Y123.022 E158.20881
G1 X72.592 Y123.022 E158.28935
G1 X71.549 Y121.978 E158.42366
G1 X70.664 Y121.978 E158.50420
G1 X71.707 Y123.022 E158.63851
G1 X70.822 Y123.022 E158.71905
G1 X69.779 Y121.978 E158.85337
G1 X68.894 Y121.978 E158.93391
G1 X69.938 Y123.022 E159.06822
G1 X69.053 Y123.022 E159.14876
G1 X68.010 Y121.978 E159.28308
G1 X67.125 Y121.978 E159.36362
G1 X68.168 Y123.022 E159.49793
G1 X67.283 Y123.022 E159.57847
G1 X66.978 Y122.717 E159.61774
G1 X92.782 Y121.978 F7800.000
G1 X93.825 Y123.022 E159.75205 F1800.000
G1 X94.710 Y123.022 E159.83259
G1 X93.667 Y121.978 E159.96691
G1 X94.552 Y121.978 E160.04745
G1 X95.595 Y123.022 E160.18176
G1 X96.480 Y123.022 E160.26230
G1 X95.436 Y121.978 E160.39662
G1 X96.321 Y121.978 E160.47716
G1 X97.364 Y123.022 E160.61147
G1 X98.249 Y123.022 E160.69201
G1 X97.206 Y121.978 E160.82632
G1 X98.091 Y121.978 E160.90686
G1 X99.134 Y123.022 E161.04118
G1 X100.019 Y123.022 E161.12172
G1 X98.975 Y121.978 E161.25603
G1 X99.860 Y121.978 E161.33657
G1 X100.903 Y123.022 E161.47088
G1 X101.788 Y123.022 E161.55142
G1 X100.745 Y121.978 E161.68574
G1 X101.629 Y121.978 E161.76628
G1 X102.673 Y123.022 E161.90059
G1 X103.557 Y123.022 E161.98113
G1 X102.514 Y121.978 E162.11544
G1 X103.399 Y121.978 E162.19598
G1 X104.442 Y123.022 E162.33030
G1 X105.327 Y123.022 E162.41084
G1 X104.284 Y121.978 E162.54515
G1 X105.168 Y121.978 E162.62569
G1 X106.212 Y123.022 E162.76001
G1 X107.096 Y123.022 E162.84055
G1 X106.053 Y121.978 E162.97486
G1 X106.938 Y121.978 E163.05540
G1 X107.981 Y123.022 E163.18971
G1 X108.866 Y123.022 E163.27025
G1 X107.823 Y121.978 E163.40457
G1 X108.707 Y121.978 E163.48511
G1 X109.751 Y123.022 E163.61942
G1 X110.635 Y123.022 E163.69996
G1 X108.978 Y121.365 E163.91328
G1 X108.978 Y120.480 E163.99382
G1 X110.022 Y121.523 E164.12813
G1 X110.477 Y121.978 F7800.000
G1 X111.520 Y123.022 E164.26245 F1800.000
G1 X112.405 Y123.022 E164.34299
G1 X111.362 Y121.978 E164.47730
G1 X112.246 Y121.978 E164.55784
G1 X113.290 Y123.022 E164.69216
G1 X114.174 Y123.022 E164.77270
G1 X113.131 Y121.978 E164.90701
G1 X114.016 Y121.978 E164.98755
G1 X115.059 Y123.022 E165.12186
G1 X115.944 Y123.022 E165.20240
G1 X114.900 Y121.978 E165.33672
G1 X115.785 Y121.978 E165.41726
G1 X116.828 Y123.022 E165.55157
G1 X117.713 Y123.022 E165.63211
G1 X116.670 Y121.978 E165.76642
G1 X117.555 Y121.978 E165.84696
G1 X118.598 Y123.022 E165.98128
G1 X119.483 Y123.022 E166.06182
G1 X118.439 Y121.978 E166.19613
