; generated by Slic3r 1.2.9 on 2016-03-15 at 14:06:05

; external perimeters extrusion width = 0.50mm
; perimeters extrusion width = 0.72mm
; infill extrusion width = 0.72mm
; solid infill extrusion width = 0.72mm
; top infill extrusion width = 0.72mm

M107

G1 Z5 F200 ; lift nozzle
G10 P0 S185
T0
M116

G21 ; set units to millimeters
G90 ; use absolute coordinates
M82 ; use absolute distances for extrusion
G92 E0
G1 Z0.350 F7800.000
G1 E-2.00000 F2400.00000
G92 E0
G1 X59.915 Y65.753 F7800.000
G1 E2.00000 F2400.00000
G1 X61.668 Y64.274 E2.20854 F1800.000
G1 X63.820 Y63.481 E2.41708
G1 X65.000 Y63.375 E2.52479
G1 X135.000 Y63.375 E8.88986
G1 X137.259 Y63.772 E9.09841
G1 X139.247 Y64.915 E9.30695 F1800.000
G1 X140.726 Y66.668 E9.51549
G1 X141.519 Y68.820 E9.72403
G1 X141.625 Y70.000 E9.83174
G1 X141.625 Y130.000 E15.28752
G1 X141.228 Y132.259 E15.49606
G1 X140.085 Y134.247 E15.70460
G1 X138.332 Y135.726 E15.91314
G1 X136.180 Y136.519 E16.12169
G1 X135.000 Y136.625 E16.22940
G1 X65.000 Y136.625 E22.59447
G1 X62.741 Y136.228 E22.80301
G1 X60.753 Y135.085 E23.01155
G1 X59.274 Y133.332 E23.22009
G1 X58.481 Y131.180 E23.42864
G1 X58.375 Y130.000 E23.53635
G1 X58.375 Y70.000 E28.99212
G1 X58.772 Y67.741 E29.20066
G1 X59.878 Y65.818 E29.40238
G1 E27.40238 F2400.00000
G92 E0
G1 X107.975 Y125.975 F7800.000
G1 E2.00000 F2400.00000
G1 X92.025 Y125.975 E3.45030 F1800.000
G1 X92.025 Y74.025 E8.17407
G1 X107.975 Y74.025 E9.62438
G1 X107.975 Y125.900 E14.34133
G1 X107.350 Y125.350 F7800.000
G1 X92.650 Y125.350 E15.67799 F1800.000
G1 X92.650 Y74.650 E20.28812
G1 X107.350 Y74.650 E21.62478
G1 X107.350 Y125.275 E26.22809
G1 X107.350 Y125.850 F7800.000
G1 X111.025 Y125.975 F7800.000
G1 X134.025 Y125.975 E28.31947 F1800.000
G1 X134.025 Y129.025 E28.59683
G1 X65.975 Y129.025 E34.78461
G1 X65.975 Y125.975 E35.06196
G1 X88.975 Y125.975 E37.15335
G1 X88.975 Y74.025 E41.87711
G1 X65.975 Y74.025 E43.96850
G1 X65.975 Y70.975 E44.24585
G1 X134.025 Y70.975 E50.43363
G1 X134.025 Y74.025 E50.71099
G1 X111.025 Y74.025 E52.80237
G1 X111.025 Y125.900 E57.51932
G1 X111.650 Y125.350 F7800.000
G1 X134.650 Y125.350 E59.61070 F1800.000
G1 X134.650 Y129.650 E60.00170
G1 X65.350 Y129.650 E66.30312
G1 X65.350 Y125.350 E66.69412
G1 X88.350 Y125.350 E68.78550
G1 X88.350 Y74.650 E73.39563
G1 X65.350 Y74.650 E75.48701
G1 X65.350 Y70.350 E75.87801
G1 X134.650 Y70.350 E82.17943
G1 X134.650 Y74.650 E82.57043
G1 X111.650 Y74.650 E84.66181
G1 X111.650 Y125.275 E89.26512
G1 X111.650 Y125.850 F7800.000
G1 X108.353 Y126.064 F7800.000
G1 X110.936 Y128.647 E89.59785 F1800.000
G1 X107.757 Y126.353 F7800.000
G1 X110.050 Y128.647 E89.89334 F1800.000
G1 X109.165 Y128.647 E89.97402
G1 X106.871 Y126.353 E90.26951
G1 X105.986 Y126.353 E90.35019
G1 X108.279 Y128.647 E90.64568
G1 X107.393 Y128.647 E90.72636
G1 X105.100 Y126.353 E91.02185
G1 X104.215 Y126.353 E91.10253
G1 X106.508 Y128.647 E91.39802
G1 X105.622 Y128.647 E91.47870
G1 X103.329 Y126.353 E91.77419
G1 X102.444 Y126.353 E91.85487
G1 X104.737 Y128.647 E92.15036
G1 X103.851 Y128.647 E92.23105
G1 X101.558 Y126.353 E92.52653
G1 X100.673 Y126.353 E92.60722
G1 X102.966 Y128.647 E92.90270
G1 X102.080 Y128.647 E92.98339
G1 X99.787 Y126.353 E93.27887
G1 X98.902 Y126.353 E93.35956
G1 X101.195 Y128.647 E93.65504
G1 X100.309 Y128.647 E93.73573
G1 X98.016 Y126.353 E94.03121
G1 X97.130 Y126.353 E94.11190
G1 X99.424 Y128.647 E94.40738
G1 X98.538 Y128.647 E94.48807
G1 X96.245 Y126.353 E94.78355
G1 X95.359 Y126.353 E94.86424
G1 X97.653 Y128.647 E95.15972
G1 X96.767 Y128.647 E95.24041
G1 X94.474 Y126.353 E95.53589
G1 X93.588 Y126.353 E95.61658
G1 X95.881 Y128.647 E95.91206
G1 X94.996 Y128.647 E95.99275
G1 X92.703 Y126.353 E96.28823
G1 X91.817 Y126.353 E96.36892
G1 X94.110 Y128.647 E96.66440
G1 X93.225 Y128.647 E96.74509
G1 X89.353 Y124.775 E97.24394
G1 X89.353 Y123.890 E97.32463
G1 X91.647 Y126.183 E97.62011
G1 X91.647 Y125.297 E97.70080
G1 X89.353 Y123.004 E97.99628
G1 X89.353 Y122.119 E98.07697
G1 X91.647 Y124.412 E98.37245
G1 X91.647 Y123.526 E98.45314
G1 X89.353 Y121.233 E98.74862
G1 X89.353 Y120.347 E98.82931
G1 X91.647 Y122.641 E99.12479
G1 X91.647 Y121.755 E99.20548
G1 X89.353 Y119.462 E99.50097
G1 X89.353 Y118.576 E99.58165
G1 X91.647 Y120.869 E99.87714
G1 X91.647 Y119.984 E99.95782
G1 X89.353 Y117.691 E100.25331
G1 X89.353 Y116.805 E100.33399
G1 X91.647 Y119.098 E100.62948
G1 X91.647 Y118.213 E100.71016
G1 X89.353 Y115.920 E101.00565
G1 X89.353 Y115.034 E101.08633
G1 X91.647 Y117.327 E101.38182
G1 X91.647 Y116.442 E101.46250
G1 X89.353 Y114.149 E101.75799
G1 X89.353 Y113.263 E101.83867
G1 X91.647 Y115.556 E102.13416
G1 X91.647 Y114.671 E102.21485
G1 X89.353 Y112.378 E102.51033
G1 X89.353 Y111.492 E102.59102
G1 X91.647 Y113.785 E102.88650
G1 X91.647 Y112.900 E102.96719
G1 X89.353 Y110.607 E103.26267
G1 X89.353 Y109.721 E103.34336
G1 X91.647 Y112.014 E103.63884
G1 X91.647 Y111.129 E103.71953
G1 X89.353 Y108.835 E104.01501
G1 X89.353 Y107.950 E104.09570
G1 X91.647 Y110.243 E104.39118
G1 X91.647 Y109.357 E104.47187
G1 X89.353 Y107.064 E104.76735
G1 X89.353 Y106.179 E104.84804
G1 X91.647 Y108.472 E105.14352
G1 X91.647 Y107.586 E105.22421
G1 X89.353 Y105.293 E105.51969
G1 X89.353 Y104.408 E105.60038
G1 X91.647 Y106.701 E105.89586
G1 X91.647 Y105.815 E105.97655
G1 X89.353 Y103.522 E106.27203
G1 X89.353 Y102.637 E106.35272
G1 X91.647 Y104.930 E106.64820
G1 X91.647 Y104.044 E106.72889
G1 X89.353 Y101.751 E107.02437
G1 X89.353 Y100.866 E107.10506
G1 X91.647 Y103.159 E107.40054
G1 X91.647 Y102.273 E107.48123
G1 X89.353 Y99.980 E107.77671
G1 X89.353 Y99.094 E107.85740
G1 X91.647 Y101.388 E108.15288
G1 X91.647 Y100.502 E108.23357
G1 X89.353 Y98.209 E108.52905
G1 X89.353 Y97.323 E108.60974
G1 X91.647 Y99.616 E108.90522
G1 X91.647 Y98.731 E108.98591
G1 X89.353 Y96.438 E109.28139
G1 X89.353 Y95.552 E109.36208
G1 X91.647 Y97.845 E109.65756
G1 X91.647 Y96.960 E109.73825
G1 X89.353 Y94.667 E110.03374
G1 X89.353 Y93.781 E110.11442
G1 X91.647 Y96.074 E110.40991
G1 X91.647 Y95.189 E110.49059
G1 X89.353 Y92.896 E110.78608
G1 X89.353 Y92.010 E110.86676
G1 X91.647 Y94.303 E111.16225
G1 X91.647 Y93.418 E111.24293
G1 X89.353 Y91.125 E111.53842
G1 X89.353 Y90.239 E111.61910
G1 X91.647 Y92.532 E111.91459
G1 X91.647 Y91.647 E111.99527
G1 X89.353 Y89.353 E112.29076
G1 X89.353 Y88.468 E112.37144
G1 X91.647 Y90.761 E112.66693
G1 X91.647 Y89.875 E112.74762
G1 X89.353 Y87.582 E113.04310
G1 X89.353 Y86.697 E113.12379
G1 X91.647 Y88.990 E113.41927
G1 X91.647 Y88.104 E113.49996
G1 X89.353 Y85.811 E113.79544
G1 X89.353 Y84.926 E113.87613
G1 X91.647 Y87.219 E114.17161
G1 X91.647 Y86.333 E114.25230
G1 X89.353 Y84.040 E114.54778
G1 X89.353 Y83.155 E114.62847
G1 X91.647 Y85.448 E114.92395
G1 X91.647 Y84.562 E115.00464
G1 X89.353 Y82.269 E115.30012
G1 X89.353 Y81.384 E115.38081
G1 X91.647 Y83.677 E115.67629
G1 X91.647 Y82.791 E115.75698
G1 X89.353 Y80.498 E116.05246
G1 X89.353 Y79.613 E116.13315
G1 X91.647 Y81.906 E116.42863
G1 X91.647 Y81.020 E116.50932
G1 X89.353 Y78.727 E116.80480
G1 X89.353 Y77.841 E116.88549
G1 X91.647 Y80.135 E117.18097
G1 X91.647 Y79.249 E117.26166
G1 X89.353 Y76.956 E117.55714
G1 X89.353 Y76.070 E117.63783
G1 X91.647 Y78.363 E117.93331
G1 X91.647 Y77.478 E118.01400
G1 X89.353 Y75.185 E118.30948
G1 X89.353 Y74.299 E118.39017
G1 X91.647 Y76.592 E118.68565
G1 X91.647 Y75.707 E118.76634
G1 X87.293 Y71.353 E119.32731
G1 X88.179 Y71.353 E119.40799
G1 X91.647 Y74.821 E119.85485
G1 X91.647 Y73.936 E119.93554
G1 X89.064 Y71.353 E120.26828
G1 X89.950 Y71.353 E120.34897
G1 X92.243 Y73.647 E120.64445
G1 X93.128 Y73.647 E120.72514
G1 X90.835 Y71.353 E121.02062
G1 X91.721 Y71.353 E121.10131
G1 X94.014 Y73.647 E121.39679
G1 X94.900 Y73.647 E121.47748
G1 X92.606 Y71.353 E121.77296
G1 X93.492 Y71.353 E121.85365
G1 X95.785 Y73.647 E122.14913
G1 X96.671 Y73.647 E122.22982
G1 X94.378 Y71.353 E122.52530
G1 X95.263 Y71.353 E122.60599
G1 X97.556 Y73.647 E122.90147
G1 X98.442 Y73.647 E122.98216
G1 X96.149 Y71.353 E123.27764
G1 X97.034 Y71.353 E123.35833
G1 X99.327 Y73.647 E123.65382
G1 X100.213 Y73.647 E123.73450
G1 X97.920 Y71.353 E124.02999
G1 X98.805 Y71.353 E124.11067
G1 X101.098 Y73.647 E124.40616
G1 X101.984 Y73.647 E124.48684
G1 X99.691 Y71.353 E124.78233
G1 X100.576 Y71.353 E124.86301
G1 X102.869 Y73.647 E125.15850
G1 X103.755 Y73.647 E125.23918
G1 X101.462 Y71.353 E125.53467
G1 X102.347 Y71.353 E125.61535
G1 X104.641 Y73.647 E125.91084
G1 X105.526 Y73.647 E125.99152
G1 X103.233 Y71.353 E126.28701
G1 X104.119 Y71.353 E126.36770
G1 X106.412 Y73.647 E126.66318
G1 X107.297 Y73.647 E126.74387
G1 X105.004 Y71.353 E127.03935
G1 X88.701 Y73.647 F7800.000
G1 X86.408 Y71.353 E127.33483 F1800.000
G1 X85.522 Y71.353 E127.41552
G1 X87.815 Y73.647 E127.71100
G1 X86.930 Y73.647 E127.79169
G1 X84.637 Y71.353 E128.08717
G1 X83.751 Y71.353 E128.16786
G1 X86.044 Y73.647 E128.46334
G1 X85.159 Y73.647 E128.54403
G1 X82.865 Y71.353 E128.83951
G1 X81.980 Y71.353 E128.92020
G1 X84.273 Y73.647 E129.21568
G1 X83.387 Y73.647 E129.29637
G1 X81.094 Y71.353 E129.59185
G1 X80.209 Y71.353 E129.67254
G1 X82.502 Y73.647 E129.96802
G1 X81.616 Y73.647 E130.04871
G1 X79.323 Y71.353 E130.34419
G1 X78.438 Y71.353 E130.42488
G1 X80.731 Y73.647 E130.72036
G1 X79.845 Y73.647 E130.80105
G1 X77.552 Y71.353 E131.09653
G1 X76.667 Y71.353 E131.17722
G1 X78.960 Y73.647 E131.47271
G1 X78.074 Y73.647 E131.55339
G1 X75.781 Y71.353 E131.84888
G1 X74.896 Y71.353 E131.92956
G1 X77.189 Y73.647 E132.22505
G1 X76.303 Y73.647 E132.30573
G1 X74.010 Y71.353 E132.60122
G1 X73.125 Y71.353 E132.68190
G1 X75.418 Y73.647 E132.97739
G1 X74.532 Y73.647 E133.05807
G1 X72.239 Y71.353 E133.35356
G1 X71.353 Y71.353 E133.43424
G1 X73.647 Y73.647 E133.72973
G1 X72.761 Y73.647 E133.81041
G1 X70.468 Y71.353 E134.10590
G1 X69.582 Y71.353 E134.18658
G1 X71.875 Y73.647 E134.48207
G1 X70.990 Y73.647 E134.56275
G1 X68.697 Y71.353 E134.85824
G1 X67.811 Y71.353 E134.93893
G1 X70.104 Y73.647 E135.23441
G1 X69.219 Y73.647 E135.31510
G1 X66.926 Y71.353 E135.61058
G1 X66.353 Y71.667 E135.67002
G1 X68.333 Y73.647 E135.92513
G1 X67.448 Y73.647 E136.00582
G1 X66.353 Y72.552 E136.14683
G1 E134.14683 F2400.00000
G92 E0
G1 X67.022 Y126.353 F7800.000
G1 E2.00000 F2400.00000
G1 X69.315 Y128.647 E2.29548 F1800.000
G1 X70.201 Y128.647 E2.37617
G1 X67.908 Y126.353 E2.67165
G1 X68.793 Y126.353 E2.75234
G1 X71.086 Y128.647 E3.04782
G1 X71.972 Y128.647 E3.12851
G1 X69.679 Y126.353 E3.42399
G1 X70.564 Y126.353 E3.50468
G1 X72.857 Y128.647 E3.80016
G1 X73.743 Y128.647 E3.88085
G1 X71.450 Y126.353 E4.17633
G1 X72.335 Y126.353 E4.25702
G1 X74.628 Y128.647 E4.55250
G1 X75.514 Y128.647 E4.63319
G1 X73.221 Y126.353 E4.92867
G1 X74.106 Y126.353 E5.00936
G1 X76.399 Y128.647 E5.30485
G1 X77.285 Y128.647 E5.38553
G1 X74.992 Y126.353 E5.68102
G1 X75.877 Y126.353 E5.76170
G1 X78.171 Y128.647 E6.05719
G1 X79.056 Y128.647 E6.13787
G1 X76.763 Y126.353 E6.43336
G1 X77.649 Y126.353 E6.51404
G1 X79.942 Y128.647 E6.80953
G1 X80.827 Y128.647 E6.89021
G1 X78.534 Y126.353 E7.18570
G1 X79.420 Y126.353 E7.26638
G1 X81.713 Y128.647 E7.56187
G1 X82.598 Y128.647 E7.64255
G1 X80.305 Y126.353 E7.93804
G1 X81.191 Y126.353 E8.01873
G1 X83.484 Y128.647 E8.31421
G1 X84.369 Y128.647 E8.39490
G1 X82.076 Y126.353 E8.69038
G1 X82.962 Y126.353 E8.77107
G1 X85.255 Y128.647 E9.06655
G1 X86.140 Y128.647 E9.14724
G1 X83.847 Y126.353 E9.44272
G1 X84.733 Y126.353 E9.52341
G1 X87.026 Y128.647 E9.81889
G1 X87.912 Y128.647 E9.89958
G1 X85.618 Y126.353 E10.19506
G1 X86.504 Y126.353 E10.27575
G1 X88.797 Y128.647 E10.57123
G1 X89.683 Y128.647 E10.65192
G1 X87.390 Y126.353 E10.94740
G1 X88.275 Y126.353 E11.02809
G1 X90.568 Y128.647 E11.32357
G1 X91.454 Y128.647 E11.40426
G1 X89.161 Y126.353 E11.69974
G1 X89.353 Y125.661 E11.76526
G1 X92.339 Y128.647 E12.15000
G1 X68.430 Y128.647 F7800.000
G1 X66.353 Y126.570 E12.41753 F1800.000
G1 X66.353 Y127.456 E12.49821
G1 X67.544 Y128.647 E12.65163
G1 X66.658 Y128.647 E12.73232
G1 X66.353 Y128.341 E12.77163
G1 X133.647 Y127.448 F7800.000
G1 X132.552 Y126.353 E12.91264 F1800.000
G1 X131.667 Y126.353 E12.99333
G1 X133.647 Y128.333 E13.24845
G1 X133.074 Y128.647 E13.30790
G1 X130.781 Y126.353 E13.60338
G1 X129.896 Y126.353 E13.68407
G1 X132.189 Y128.647 E13.97955
G1 X131.303 Y128.647 E14.06024
G1 X129.010 Y126.353 E14.35572
G1 X128.125 Y126.353 E14.43641
G1 X130.418 Y128.647 E14.73189
G1 X129.532 Y128.647 E14.81258
G1 X127.239 Y126.353 E15.10806
G1 X126.353 Y126.353 E15.18875
G1 X128.647 Y128.647 E15.48423
G1 X127.761 Y128.647 E15.56492
G1 X125.468 Y126.353 E15.86040
G1 X124.582 Y126.353 E15.94109
G1 X126.875 Y128.647 E16.23657
G1 X125.990 Y128.647 E16.31726
G1 X123.697 Y126.353 E16.61274
G1 X122.811 Y126.353 E16.69343
G1 X125.104 Y128.647 E16.98891
G1 X124.219 Y128.647 E17.06960
G1 X121.926 Y126.353 E17.36508
G1 X121.040 Y126.353 E17.44577
G1 X123.333 Y128.647 E17.74125
G1 X122.448 Y128.647 E17.82194
G1 X120.155 Y126.353 E18.11742
G1 X119.269 Y126.353 E18.19811
G1 X121.562 Y128.647 E18.49360
G1 X120.677 Y128.647 E18.57428
G1 X118.384 Y126.353 E18.86977
G1 X117.498 Y126.353 E18.95045
G1 X119.791 Y128.647 E19.24594
G1 X118.906 Y128.647 E19.32662
G1 X116.612 Y126.353 E19.62211
G1 X115.727 Y126.353 E19.70279
G1 X118.020 Y128.647 E19.99828
G1 X117.134 Y128.647 E20.07897
G1 X114.841 Y126.353 E20.37445
G1 X113.956 Y126.353 E20.45514
G1 X116.249 Y128.647 E20.75062
G1 X115.363 Y128.647 E20.83131
G1 X113.070 Y126.353 E21.12679
G1 X112.185 Y126.353 E21.20748
G1 X114.478 Y128.647 E21.50296
G1 X113.592 Y128.647 E21.58365
G1 X111.299 Y126.353 E21.87913
G1 X110.647 Y126.586 E21.94227
G1 X108.353 Y124.293 E22.23775
G1 X108.353 Y125.179 E22.31844
G1 X111.821 Y128.647 E22.76529
G1 X112.707 Y128.647 E22.84597
G1 X110.414 Y126.353 E23.14146
G1 X110.647 Y125.701 E23.20460
G1 X108.353 Y123.408 E23.50008
G1 X108.353 Y122.522 E23.58077
G1 X110.647 Y124.815 E23.87625
G1 X110.647 Y123.930 E23.95694
G1 X108.353 Y121.637 E24.25242
G1 X108.353 Y120.751 E24.33311
G1 X110.647 Y123.044 E24.62859
G1 X110.647 Y122.159 E24.70928
G1 X108.353 Y119.866 E25.00476
G1 X108.353 Y118.980 E25.08545
G1 X110.647 Y121.273 E25.38093
G1 X110.647 Y120.388 E25.46162
G1 X108.353 Y118.094 E25.75710
G1 X108.353 Y117.209 E25.83779
G1 X110.647 Y119.502 E26.13327
G1 X110.647 Y118.616 E26.21396
G1 X108.353 Y116.323 E26.50944
G1 X108.353 Y115.438 E26.59013
G1 X110.647 Y117.731 E26.88561
G1 X110.647 Y116.845 E26.96630
G1 X108.353 Y114.552 E27.26178
G1 X108.353 Y113.667 E27.34247
G1 X110.647 Y115.960 E27.63795
G1 X110.647 Y115.074 E27.71864
G1 X108.353 Y112.781 E28.01412
G1 X108.353 Y111.896 E28.09481
G1 X110.647 Y114.189 E28.39029
G1 X110.647 Y113.303 E28.47098
G1 X108.353 Y111.010 E28.76646
G1 X108.353 Y110.125 E28.84715
G1 X110.647 Y112.418 E29.14263
G1 X110.647 Y111.532 E29.22332
G1 X108.353 Y109.239 E29.51881
G1 X108.353 Y108.353 E29.59949
G1 X110.647 Y110.647 E29.89498
G1 X110.647 Y109.761 E29.97566
G1 X108.353 Y107.468 E30.27115
G1 X108.353 Y106.582 E30.35183
G1 X110.647 Y108.875 E30.64732
G1 X110.647 Y107.990 E30.72800
G1 X108.353 Y105.697 E31.02349
G1 X108.353 Y104.811 E31.10417
G1 X110.647 Y107.104 E31.39966
G1 X110.647 Y106.219 E31.48034
G1 X108.353 Y103.926 E31.77583
G1 X108.353 Y103.040 E31.85652
G1 X110.647 Y105.333 E32.15200
G1 X110.647 Y104.448 E32.23269
G1 X108.353 Y102.155 E32.52817
G1 X108.353 Y101.269 E32.60886
G1 X110.647 Y103.562 E32.90434
G1 X110.647 Y102.677 E32.98503
G1 X108.353 Y100.384 E33.28051
G1 X108.353 Y99.498 E33.36120
G1 X110.647 Y101.791 E33.65668
G1 X110.647 Y100.906 E33.73737
G1 X108.353 Y98.613 E34.03285
G1 X108.353 Y97.727 E34.11354
G1 X110.647 Y100.020 E34.40902
G1 X110.647 Y99.135 E34.48971
G1 X108.353 Y96.841 E34.78519
G1 X108.353 Y95.956 E34.86588
G1 X110.647 Y98.249 E35.16136
G1 X110.647 Y97.363 E35.24205
G1 X108.353 Y95.070 E35.53753
G1 X108.353 Y94.185 E35.61822
G1 X110.647 Y96.478 E35.91370
G1 X110.647 Y95.592 E35.99439
G1 X108.353 Y93.299 E36.28987
G1 X108.353 Y92.414 E36.37056
G1 X110.647 Y94.707 E36.66604
G1 X110.647 Y93.821 E36.74673
G1 X108.353 Y91.528 E37.04221
G1 X108.353 Y90.643 E37.12290
G1 X110.647 Y92.936 E37.41838
G1 X110.647 Y92.050 E37.49907
