; generated by Slic3r 1.0.0RC2 on 2015-01-01 at 17:21:01

; layer_height = 0.24
; perimeters = 2
; top_solid_layers = 4
; bottom_solid_layers = 3
; fill_density = 0.3
; perimeter_speed = 20
; infill_speed = 20
; travel_speed = 60
; nozzle_diameter = 0.5
; filament_diameter = 1.75
; extrusion_multiplier = 1
; perimeters extrusion width = 0.50mm
; infill extrusion width = 0.87mm
; solid infill extrusion width = 0.85mm
; top infill extrusion width = 0.85mm

G21 ; set units to millimeters
M107
M104 S185 ; set temperature
G21 ; set units to millimeters
G90 ; use absolute coordinates
M83 ; use relative distances for extrusion
M140 S65; Set bed temperature
G28 ; Home all axes
G1 Z5 F200 ; lift nozzle
G1 X2 Y50 F2000; Go to wait for warm position
M116; Wait for all temperatures
G10 P1 S185 R0 ; Set extruder temperature
T1; Select extruder
M116; Wait for all temperatures
M109 S185 ; wait for temperature to be reached
G90 ; use absolute coordinates
M83 ; use relative distances for extrusion
G1 F1800.000 E-4.00000
G1 Z0.240 F3600.000
G1 X76.330 Y59.970 F3600.000
G1 E4.00000 F1800.000
G1 X77.320 Y59.140 E0.06445 F240.000
G1 X78.460 Y58.510 E0.06498
G1 X79.700 Y58.130 E0.06470
G1 X80.990 Y58.000 E0.06468
G1 X140.990 Y58.000 E2.99341
G1 X142.280 Y58.130 E0.06468
G1 X143.520 Y58.510 E0.06470
G1 X144.660 Y59.140 E0.06498
G1 X145.650 Y59.970 E0.06445
G1 X146.460 Y60.990 E0.06498
G1 X162.570 Y86.080 E1.48757
G1 X164.090 Y88.470 E0.14131
G1 X165.360 Y90.680 E0.12717
G1 X166.640 Y93.150 E0.13879
G1 X167.940 Y95.970 E0.15492
G1 X169.000 Y98.600 E0.14147
G1 X169.840 Y100.980 E0.12592
G1 X170.660 Y103.670 E0.14030
G1 X171.440 Y106.680 E0.15513
G1 X171.950 Y109.150 E0.12583
G1 X172.440 Y112.200 E0.15412
G1 X172.760 Y115.020 E0.14159
G1 X172.930 Y117.530 E0.12551
G1 X172.990 Y120.370 E0.14172
G1 X172.940 Y123.160 E0.13922
G1 X172.720 Y126.270 E0.15555
G1 X172.400 Y129.110 E0.14258
G1 X171.990 Y131.630 E0.12738
G1 X171.360 Y134.650 E0.15391
G1 X170.730 Y137.110 E0.12669
G1 X170.220 Y138.450 E0.07153
G1 X169.440 Y139.640 E0.07099
G1 X168.420 Y140.630 E0.07092
G1 X167.200 Y141.380 E0.07145
G1 X165.850 Y141.840 E0.07115
G1 X164.430 Y142.000 E0.07129
G1 X57.560 Y142.000 E5.33177
G1 X56.140 Y141.840 E0.07129
G1 X54.790 Y141.380 E0.07115
G1 X53.570 Y140.630 E0.07145
G1 X52.540 Y139.630 E0.07162
G1 X51.760 Y138.440 E0.07099
G1 X51.260 Y137.100 E0.07136
G1 X50.630 Y134.620 E0.12766
G1 X50.000 Y131.610 E0.15342
G1 X49.560 Y128.840 E0.13993
G1 X49.270 Y126.330 E0.12606
G1 X49.070 Y123.520 E0.14055
G1 X49.000 Y120.640 E0.14373
G1 X49.050 Y117.890 E0.13722
G1 X49.260 Y114.780 E0.15551
G1 X49.580 Y111.960 E0.14159
G1 X49.980 Y109.470 E0.12582
G1 X50.620 Y106.390 E0.15694
G1 X51.240 Y103.970 E0.12463
G1 X52.140 Y101.010 E0.15435
G1 X53.090 Y98.340 E0.14139
G1 X54.160 Y95.720 E0.14119
G1 X55.330 Y93.200 E0.13861
G1 X56.640 Y90.660 E0.14258
G1 X58.050 Y88.230 E0.14016
G1 X59.410 Y86.100 E0.12608
G1 X75.520 Y60.990 E1.48840
G1 X76.283 Y60.029 E0.06124
G1 F1800.000 E-4.00000
G1 X81.750 Y65.250 F3600.000
G1 E4.00000 F1800.000
G1 X140.250 Y65.250 E2.91858 F240.000
G1 X140.250 Y74.205 E0.44679
G1 X142.656 Y75.830 E0.14485
G1 X144.653 Y77.314 E0.12411
G1 X146.580 Y78.887 E0.12411
G1 X148.433 Y80.547 E0.12411
G1 X150.210 Y82.288 E0.12411
G1 X151.905 Y84.109 E0.12411
G1 X153.516 Y86.005 E0.12411
G1 X155.039 Y87.971 E0.12411
G1 X156.471 Y90.006 E0.12411
G1 X157.810 Y92.103 E0.12411
G1 X159.051 Y94.258 E0.12411
G1 X160.194 Y96.468 E0.12411
G1 X161.235 Y98.728 E0.12411
G1 X162.172 Y101.032 E0.12411
G1 X163.003 Y103.377 E0.12411
G1 X163.727 Y105.757 E0.12411
G1 X164.343 Y108.167 E0.12411
G1 X164.848 Y110.603 E0.12411
G1 X165.242 Y113.059 E0.12411
G1 X165.524 Y115.531 E0.12411
G1 X165.693 Y118.013 E0.12411
G1 X165.750 Y120.500 E0.12411
G1 X165.693 Y122.996 E0.12458
G1 X165.522 Y125.488 E0.12458
G1 X165.238 Y127.968 E0.12458
G1 X164.841 Y130.434 E0.12458
G1 X164.332 Y132.878 E0.12458
G1 X163.852 Y134.750 E0.09639
G1 X162.586 Y134.750 E0.06318
G1 X161.482 Y134.610 E0.05555
G1 X160.491 Y134.217 E0.05317
G1 X159.629 Y133.590 E0.05317
G1 X158.951 Y132.768 E0.05317
G1 X158.500 Y131.802 E0.05317
G1 X158.302 Y130.755 E0.05317
G1 X158.376 Y129.632 E0.05615
G1 X158.857 Y126.648 E0.15080
G1 X159.152 Y123.580 E0.15375
G1 X159.250 Y120.503 E0.15360
G1 X159.194 Y118.181 E0.11587
G1 X159.027 Y115.868 E0.11572
G1 X158.749 Y113.565 E0.11572
G1 X158.361 Y111.278 E0.11572
G1 X157.863 Y109.013 E0.11572
G1 X157.257 Y106.774 E0.11572
G1 X156.543 Y104.567 E0.11572
G1 X155.725 Y102.396 E0.11572
G1 X154.803 Y100.268 E0.11572
G1 X153.780 Y98.186 E0.11572
G1 X152.659 Y96.156 E0.11572
G1 X151.441 Y94.182 E0.11572
G1 X150.129 Y92.269 E0.11572
G1 X148.727 Y90.421 E0.11572
G1 X147.238 Y88.642 E0.11572
G1 X145.665 Y86.938 E0.11572
G1 X144.012 Y85.311 E0.11572
G1 X142.283 Y83.765 E0.11572
G1 X140.477 Y82.300 E0.11600
G1 X138.584 Y80.913 E0.11707
G1 X136.697 Y79.663 E0.11292
G1 X135.221 Y78.779 E0.08586
G1 X135.219 Y75.017 E0.18767
G1 X134.479 Y74.681 E0.04055
G1 X133.578 Y74.348 E0.04792
G1 X132.747 Y74.127 E0.04288
G1 X132.407 Y74.049 E0.01740
G1 X131.798 Y73.953 E0.03079
G1 X130.935 Y73.909 E0.04309
G1 X129.615 Y74.043 E0.06618
G1 X129.261 Y74.125 E0.01814
G1 X128.412 Y74.351 E0.04381
G1 X127.932 Y74.550 E0.02595
G1 X126.878 Y74.939 E0.05606
G1 X125.750 Y74.563 E0.05931
G1 X125.750 Y71.750 E0.14032
G1 X96.250 Y71.750 E1.47176
G1 X96.250 Y74.563 E0.14032
G1 X95.122 Y74.939 E0.05930
G1 X94.072 Y74.551 E0.05588
G1 X93.592 Y74.352 E0.02590
G1 X92.747 Y74.127 E0.04362
G1 X92.407 Y74.049 E0.01740
G1 X91.798 Y73.953 E0.03079
G1 X90.935 Y73.909 E0.04309
G1 X89.615 Y74.043 E0.06618
G1 X89.261 Y74.125 E0.01814
G1 X88.409 Y74.352 E0.04400
G1 X87.993 Y74.529 E0.02257
G1 X86.777 Y74.977 E0.06462
G1 X86.786 Y78.776 E0.18954
G1 X85.321 Y79.651 E0.08512
G1 X83.423 Y80.908 E0.11359
G1 X81.526 Y82.298 E0.11730
G1 X79.721 Y83.762 E0.11595
G1 X77.960 Y85.338 E0.11792
G1 X76.340 Y86.932 E0.11340
G1 X74.768 Y88.636 E0.11566
G1 X73.279 Y90.413 E0.11566
G1 X71.905 Y92.224 E0.11339
G1 X70.566 Y94.172 E0.11792
G1 X69.348 Y96.144 E0.11566
G1 X68.226 Y98.173 E0.11566
G1 X67.203 Y100.253 E0.11566
G1 X66.265 Y102.423 E0.11792
G1 X65.463 Y104.549 E0.11340
G1 X64.749 Y106.755 E0.11566
G1 X64.142 Y108.992 E0.11566
G1 X63.643 Y111.256 E0.11566
G1 X63.254 Y113.542 E0.11566
G1 X62.975 Y115.843 E0.11566
G1 X62.807 Y118.155 E0.11566
G1 X62.752 Y120.379 E0.11097
G1 X62.804 Y122.791 E0.12035
G1 X62.970 Y125.103 E0.11566
G1 X63.246 Y127.405 E0.11566
G1 X63.624 Y129.635 E0.11285
G1 X63.698 Y130.755 E0.05600
G1 X63.500 Y131.802 E0.05317
G1 X63.049 Y132.768 E0.05317
G1 X62.371 Y133.590 E0.05317
G1 X61.509 Y134.217 E0.05317
G1 X60.518 Y134.610 E0.05317
G1 X59.414 Y134.750 E0.05555
G1 X58.147 Y134.750 E0.06318
G1 X57.670 Y132.886 E0.09603
G1 X57.162 Y130.448 E0.12421
G1 X56.765 Y127.990 E0.12421
G1 X56.481 Y125.517 E0.12421
G1 X56.308 Y123.020 E0.12487
G1 X56.250 Y120.544 E0.12355
G1 X56.305 Y118.055 E0.12421
G1 X56.474 Y115.558 E0.12487
G1 X56.753 Y113.097 E0.12355
G1 X57.146 Y110.638 E0.12421
G1 X57.653 Y108.187 E0.12487
G1 X58.264 Y105.788 E0.12355
G1 X58.987 Y103.405 E0.12421
G1 X59.818 Y101.058 E0.12421
G1 X60.755 Y98.752 E0.12421
G1 X61.796 Y96.490 E0.12421
G1 X62.938 Y94.278 E0.12421
G1 X64.180 Y92.120 E0.12421
G1 X65.519 Y90.021 E0.12421
G1 X66.951 Y87.984 E0.12421
G1 X68.475 Y86.015 E0.12421
G1 X70.087 Y84.118 E0.12421
G1 X71.783 Y82.295 E0.12421
G1 X73.561 Y80.552 E0.12421
G1 X75.416 Y78.891 E0.12421
G1 X77.344 Y77.317 E0.12421
G1 X79.342 Y75.831 E0.12421
G1 X81.750 Y74.205 E0.14495
G1 X81.750 Y65.325 E0.44305
G1 X81.250 Y64.750 F3600.000
G1 X140.750 Y64.750 E2.96847 F168.000
G1 X140.750 Y73.940 E0.45848
G1 X142.946 Y75.422 E0.13216
G1 X144.960 Y76.920 E0.12525
G1 X146.905 Y78.507 E0.12525
G1 X148.775 Y80.182 E0.12525
G1 X150.568 Y81.939 E0.12525
G1 X152.279 Y83.776 E0.12525
G1 X153.904 Y85.689 E0.12525
G1 X155.441 Y87.674 E0.12525
G1 X156.887 Y89.727 E0.12525
G1 X158.237 Y91.843 E0.12525
G1 X159.490 Y94.019 E0.12525
G1 X160.643 Y96.249 E0.12525
G1 X161.693 Y98.529 E0.12525
G1 X162.639 Y100.854 E0.12525
G1 X163.478 Y103.220 E0.12525
G1 X164.209 Y105.622 E0.12525
G1 X164.830 Y108.054 E0.12525
G1 X165.340 Y110.513 E0.12525
G1 X165.737 Y112.991 E0.12525
G1 X166.022 Y115.486 E0.12525
G1 X166.193 Y117.990 E0.12525
G1 X166.250 Y120.500 E0.12525
G1 X166.192 Y123.019 E0.12572
G1 X166.020 Y125.533 E0.12572
G1 X165.733 Y128.037 E0.12572
G1 X165.333 Y130.524 E0.12572
G1 X164.819 Y132.991 E0.12572
G1 X164.241 Y135.250 E0.11632
G1 X162.555 Y135.250 E0.08411
G1 X161.356 Y135.098 E0.06028
G1 X160.248 Y134.659 E0.05948
G1 X159.284 Y133.957 E0.05948
G1 X158.525 Y133.037 E0.05948
G1 X158.020 Y131.957 E0.05948
G1 X157.799 Y130.785 E0.05948
G1 X157.879 Y129.576 E0.06048
G1 X158.361 Y126.584 E0.15117
G1 X158.653 Y123.548 E0.15216
G1 X158.750 Y120.501 E0.15211
G1 X158.695 Y118.205 E0.11457
G1 X158.529 Y115.916 E0.11452
G1 X158.254 Y113.637 E0.11452
G1 X157.870 Y111.374 E0.11452
G1 X157.377 Y109.132 E0.11452
G1 X156.777 Y106.916 E0.11452
G1 X156.071 Y104.732 E0.11452
G1 X155.262 Y102.584 E0.11452
G1 X154.349 Y100.477 E0.11452
G1 X153.337 Y98.417 E0.11452
G1 X152.227 Y96.408 E0.11452
G1 X151.021 Y94.455 E0.11452
G1 X149.723 Y92.561 E0.11452
G1 X148.336 Y90.733 E0.11452
G1 X146.862 Y88.973 E0.11452
G1 X145.306 Y87.286 E0.11452
G1 X143.670 Y85.675 E0.11452
G1 X141.958 Y84.146 E0.11452
G1 X140.174 Y82.699 E0.11461
G1 X138.279 Y81.310 E0.11721
G1 X136.426 Y80.083 E0.11088
G1 X134.722 Y79.064 E0.09904
G1 X134.719 Y75.339 E0.18583
G1 X134.289 Y75.143 E0.02357
G1 X133.427 Y74.825 E0.04584
G1 X132.627 Y74.612 E0.04130
G1 X132.312 Y74.540 E0.01610
G1 X131.747 Y74.451 E0.02853
G1 X130.937 Y74.410 E0.04049
G1 X129.700 Y74.537 E0.06204
G1 X128.573 Y74.825 E0.05802
G1 X128.114 Y75.016 E0.02478
G1 X127.255 Y75.332 E0.04568
G1 X127.283 Y75.610 E0.01393
G1 X125.250 Y74.928 E0.10697
G1 X125.250 Y72.250 E0.13360
G1 X96.750 Y72.250 E1.42187
G1 X96.750 Y74.928 E0.13360
G1 X94.704 Y75.610 E0.10759
G1 X94.789 Y75.349 E0.01371
G1 X93.889 Y75.017 E0.04787
G1 X93.431 Y74.827 E0.02473
G1 X92.312 Y74.540 E0.05764
G1 X91.747 Y74.451 E0.02853
G1 X90.937 Y74.410 E0.04049
G1 X89.700 Y74.537 E0.06204
G1 X89.382 Y74.611 E0.01629
G1 X88.572 Y74.826 E0.04180
G1 X88.177 Y74.994 E0.02139
G1 X87.277 Y75.326 E0.04786
G1 X87.291 Y79.058 E0.18618
G1 X85.590 Y80.072 E0.09881
G1 X83.709 Y81.318 E0.11254
G1 X81.829 Y82.696 E0.11631
G1 X80.045 Y84.142 E0.11456
G1 X78.335 Y85.671 E0.11446
G1 X76.699 Y87.280 E0.11446
G1 X75.143 Y88.966 E0.11446
G1 X73.692 Y90.699 E0.11280
G1 X72.283 Y92.552 E0.11612
G1 X70.985 Y94.444 E0.11446
G1 X69.780 Y96.397 E0.11446
G1 X68.670 Y98.404 E0.11446
G1 X67.657 Y100.463 E0.11446
G1 X66.745 Y102.568 E0.11446
G1 X65.935 Y104.715 E0.11446
G1 X65.228 Y106.897 E0.11446
G1 X64.628 Y109.112 E0.11446
G1 X64.142 Y111.320 E0.11279
G1 X63.749 Y113.614 E0.11613
G1 X63.470 Y115.925 E0.11612
G1 X63.306 Y118.180 E0.11280
G1 X63.250 Y120.473 E0.11446
G1 X63.304 Y122.767 E0.11446
G1 X63.468 Y125.055 E0.11446
G1 X63.741 Y127.333 E0.11446
G1 X64.121 Y129.577 E0.11353
G1 X64.201 Y130.785 E0.06043
G1 X63.980 Y131.957 E0.05948
G1 X63.475 Y133.037 E0.05948
G1 X62.716 Y133.957 E0.05948
G1 X61.752 Y134.659 E0.05948
G1 X60.644 Y135.098 E0.05948
G1 X59.445 Y135.250 E0.06028
G1 X57.759 Y135.250 E0.08411
G1 X57.182 Y132.999 E0.11595
G1 X56.670 Y130.539 E0.12535
G1 X56.270 Y128.059 E0.12535
G1 X55.982 Y125.563 E0.12535
G1 X55.809 Y123.032 E0.12657
G1 X55.750 Y120.544 E0.12412
G1 X55.805 Y118.033 E0.12535
G1 X55.977 Y115.501 E0.12657
G1 X56.257 Y113.029 E0.12412
G1 X56.654 Y110.548 E0.12535
G1 X57.168 Y108.064 E0.12657
G1 X57.782 Y105.653 E0.12412
G1 X58.512 Y103.249 E0.12535
G1 X59.351 Y100.881 E0.12535
G1 X60.296 Y98.553 E0.12535
G1 X61.346 Y96.270 E0.12535
G1 X62.499 Y94.038 E0.12535
G1 X63.752 Y91.861 E0.12535
G1 X65.103 Y89.742 E0.12535
G1 X66.549 Y87.687 E0.12535
G1 X68.087 Y85.700 E0.12535
G1 X69.713 Y83.785 E0.12535
G1 X71.425 Y81.946 E0.12535
G1 X73.219 Y80.187 E0.12535
G1 X75.090 Y78.511 E0.12535
G1 X77.037 Y76.922 E0.12535
G1 X79.053 Y75.423 E0.12535
G1 X81.250 Y73.940 E0.13226
G1 X81.250 Y64.825 E0.45474
G1 X81.683 Y65.000 F3600.000
G1 X125.049 Y71.361 F3600.000
G1 X119.328 Y65.639 E0.64861 F240.000
G1 X118.192 Y65.639 E0.09109
G1 X123.913 Y71.361 E0.64861
G1 X122.777 Y71.361 E0.09109
G1 X117.056 Y65.639 E0.64861
G1 X115.920 Y65.639 E0.09109
G1 X121.641 Y71.361 E0.64861
G1 X120.505 Y71.361 E0.09109
G1 X114.784 Y65.639 E0.64861
G1 X113.647 Y65.639 E0.09109
G1 X119.368 Y71.361 E0.64861
G1 X118.232 Y71.361 E0.09109
G1 X112.511 Y65.639 E0.64861
G1 X111.375 Y65.639 E0.09109
G1 X117.096 Y71.361 E0.64861
G1 X115.960 Y71.361 E0.09109
G1 X110.239 Y65.639 E0.64861
G1 X109.102 Y65.639 E0.09109
G1 X114.824 Y71.361 E0.64861
G1 X113.687 Y71.361 E0.09109
G1 X107.966 Y65.639 E0.64861
G1 X106.830 Y65.639 E0.09109
G1 X112.551 Y71.361 E0.64861
G1 X111.415 Y71.361 E0.09109
G1 X105.694 Y65.639 E0.64861
G1 X104.558 Y65.639 E0.09109
G1 X110.279 Y71.361 E0.64861
G1 X109.142 Y71.361 E0.09109
G1 X103.421 Y65.639 E0.64861
G1 X102.285 Y65.639 E0.09109
G1 X108.006 Y71.361 E0.64861
G1 X106.870 Y71.361 E0.09109
G1 X101.149 Y65.639 E0.64861
G1 X100.013 Y65.639 E0.09109
G1 X105.734 Y71.361 E0.64861
G1 X104.598 Y71.361 E0.09109
G1 X98.877 Y65.639 E0.64861
G1 X97.740 Y65.639 E0.09109
G1 X103.461 Y71.361 E0.64861
G1 X102.325 Y71.361 E0.09109
G1 X96.604 Y65.639 E0.64861
G1 X95.468 Y65.639 E0.09109
G1 X101.189 Y71.361 E0.64861
G1 X100.053 Y71.361 E0.09109
G1 X94.332 Y65.639 E0.64861
G1 X93.195 Y65.639 E0.09109
G1 X98.917 Y71.361 E0.64861
G1 X97.780 Y71.361 E0.09109
G1 X92.059 Y65.639 E0.64861
G1 X90.923 Y65.639 E0.09109
G1 X96.644 Y71.361 E0.64861
G1 X95.861 Y71.713 E0.06889
G1 X89.787 Y65.639 E0.68858
G1 X88.651 Y65.639 E0.09109
G1 X95.861 Y72.849 E0.81740
G1 X95.861 Y73.986 E0.09109
G1 X87.514 Y65.639 E0.94621
G1 X86.378 Y65.639 E0.09109
G1 X95.231 Y74.492 E1.00363
G1 X93.537 Y73.934 E0.14297
G1 X85.242 Y65.639 E0.94040
G1 X84.106 Y65.639 E0.09109
G1 X92.067 Y73.601 E0.90263
G1 X90.855 Y73.525 E0.09735
G1 X82.970 Y65.639 E0.89404
G1 X82.139 Y65.946 E0.07093
G1 X89.824 Y73.631 E0.87127
G1 X88.881 Y73.823 E0.07720
G1 X82.139 Y67.082 E0.76429
G1 X82.139 Y68.218 E0.09109
G1 X88.017 Y74.095 E0.66633
G1 X87.194 Y74.409 E0.07059
G1 X82.139 Y69.354 E0.57302
G1 X82.139 Y70.490 E0.09109
G1 X86.387 Y74.738 E0.48161
G1 X86.390 Y75.877 E0.09129
G1 X82.139 Y71.627 E0.48189
G1 X82.139 Y72.763 E0.09109
G1 X86.392 Y77.016 E0.48217
G1 X86.395 Y78.155 E0.09129
G1 X82.139 Y73.899 E0.48246
G1 X81.768 Y74.663 E0.06814
G1 X85.935 Y78.831 E0.47245
G1 X85.223 Y79.255 E0.06643
G1 X81.089 Y75.121 E0.46869
G1 X80.411 Y75.579 E0.06561
G1 X84.536 Y79.704 E0.46761
G1 X83.852 Y80.157 E0.06572
G1 X79.733 Y76.037 E0.46702
G1 X79.075 Y76.515 E0.06521
G1 X83.170 Y80.611 E0.46429
G1 X82.514 Y81.091 E0.06517
G1 X78.423 Y77.000 E0.46384
G1 X77.771 Y77.484 E0.06510
G1 X81.858 Y81.572 E0.46339
G1 X81.206 Y82.056 E0.06511
G1 X77.138 Y77.987 E0.46124
G1 X76.513 Y78.498 E0.06473
G1 X80.579 Y82.565 E0.46101
G1 X79.952 Y83.073 E0.06476
G1 X75.887 Y79.009 E0.46078
G1 X75.279 Y79.537 E0.06457
G1 X79.330 Y83.588 E0.45937
G1 X78.731 Y84.125 E0.06451
G1 X74.679 Y80.073 E0.45937
G1 X74.080 Y80.610 E0.06451
G1 X78.132 Y84.662 E0.45937
G1 X77.539 Y85.206 E0.06447
G1 X73.495 Y81.162 E0.45849
G1 X72.922 Y81.724 E0.06441
G1 X76.967 Y85.770 E0.45860
G1 X76.394 Y86.333 E0.06441
G1 X72.348 Y82.287 E0.45870
G1 X71.787 Y82.863 E0.06441
G1 X75.833 Y86.908 E0.45863
G1 X75.287 Y87.499 E0.06446
G1 X71.240 Y83.451 E0.45890
G1 X70.692 Y84.040 E0.06445
G1 X74.742 Y88.090 E0.45918
G1 X74.211 Y88.695 E0.06454
G1 X70.155 Y84.639 E0.45978
G1 X69.633 Y85.253 E0.06462
G1 X73.693 Y89.313 E0.46022
G1 X73.175 Y89.931 E0.06466
G1 X69.112 Y85.868 E0.46066
G1 X68.599 Y86.492 E0.06472
G1 X72.674 Y90.566 E0.46196
G1 X72.184 Y91.212 E0.06501
G1 X68.103 Y87.132 E0.46257
G1 X67.608 Y87.773 E0.06493
G1 X71.693 Y91.858 E0.46319
G1 X71.225 Y92.526 E0.06539
G1 X67.120 Y88.421 E0.46533
G1 X66.651 Y89.088 E0.06537
G1 X70.762 Y93.199 E0.46606
G1 X70.299 Y93.873 E0.06550
