; generated by Slic3r 1.2.9 on 2019-09-12 at 20:41:11

; external perimeters extrusion width = 0.40mm
; perimeters extrusion width = 0.40mm
; infill extrusion width = 0.40mm
; solid infill extrusion width = 0.40mm
; top infill extrusion width = 0.40mm

M107
M83
T0
M116
G21 ; set units to millimeters
G90 ; use absolute coordinates
M83 ; use relative distances for extrusion
G1 E-3.50000 F1500.00000
G1 Z0.400 F15000.000
G1 X0.000 Y17.586 F15000.000
G1 Z0.300 F15000.000
G1 E3.50000 F1500.00000
G1 X-23.950 Y17.586 E1.84572 F960.000
G1 X-25.007 Y17.198 E0.08680
G1 X-25.586 Y15.950 E0.10599
G1 X-25.586 Y-15.950 E2.45839
G1 X-25.198 Y-17.007 E0.08680
G1 X-23.950 Y-17.586 E0.10599
G1 X23.950 Y-17.586 E3.69144
G1 X25.007 Y-17.198 E0.08680
G1 X25.586 Y-15.950 E0.10599 F960.000
G1 X25.586 Y15.950 E2.45839
G1 X25.198 Y17.007 E0.08680
G1 X23.950 Y17.586 E0.10599
G1 X0.060 Y17.586 E1.84109
G1 E-3.50000 F1500.00000
G1 Z0.700 F15000.000
G1 X-0.578 Y-14.964 F15000.000
G1 Z0.300 F15000.000
G1 E3.50000 F1500.00000
G1 X22.964 Y-14.964 E1.81433 F720.000
G1 X22.964 Y14.964 E2.30647
G1 X-22.964 Y14.964 E3.53952 F720.000
G1 X-22.964 Y-14.964 E2.30647
G1 X-0.638 Y-14.964 E1.72057
G1 X-0.638 Y-15.600 F15000.000
G1 X23.600 Y-15.600 E1.86794 F720.000
G1 X23.600 Y15.600 E2.40444
G1 X-23.600 Y15.600 E3.63749 F720.000
G1 X-23.600 Y-15.600 E2.40444
G1 X-0.698 Y-15.600 E1.76493
G1 X-0.438 Y-15.254 F15000.000
G1 X22.579 Y-14.269 F15000.000
G1 X22.269 Y-14.579 E0.03416 F960.000
G1 X21.359 Y-14.579 E0.07097
G1 X22.579 Y-13.359 E0.13453
G1 X22.579 Y-12.450 E0.07097
G1 X20.450 Y-14.579 E0.23489
G1 X19.540 Y-14.579 E0.07097
G1 X22.579 Y-11.540 E0.33526
G1 X22.579 Y-10.630 E0.07097
G1 X18.630 Y-14.579 E0.43563
G1 X17.720 Y-14.579 E0.07097
G1 X22.579 Y-9.720 E0.53599
G1 X22.579 Y-8.810 E0.07097
G1 X16.810 Y-14.579 E0.63636
G1 X15.900 Y-14.579 E0.07097
G1 X22.579 Y-7.900 E0.73672
G1 X22.579 Y-6.991 E0.07097
G1 X14.991 Y-14.579 E0.83709
G1 X14.081 Y-14.579 E0.07097
G1 X22.579 Y-6.081 E0.93746
G1 X22.579 Y-5.171 E0.07097
G1 X13.171 Y-14.579 E1.03782
G1 X12.261 Y-14.579 E0.07097
G1 X22.579 Y-4.261 E1.13819
G1 X22.579 Y-3.351 E0.07097
G1 X11.351 Y-14.579 E1.23855
G1 X10.441 Y-14.579 E0.07097
G1 X22.579 Y-2.441 E1.33892
G1 X22.579 Y-1.532 E0.07097
G1 X9.532 Y-14.579 E1.43929
G1 X8.622 Y-14.579 E0.07097
G1 X22.579 Y-0.622 E1.53965
G1 X22.579 Y0.288 E0.07097
G1 X7.712 Y-14.579 E1.64002
G1 X6.802 Y-14.579 E0.07097
G1 X22.579 Y1.198 E1.74038
G1 X22.579 Y2.108 E0.07097
G1 X5.892 Y-14.579 E1.84075
G1 X4.982 Y-14.579 E0.07097
G1 X22.579 Y3.018 E1.94112
G1 X22.579 Y3.927 E0.07097
G1 X4.073 Y-14.579 E2.04148
G1 X3.163 Y-14.579 E0.07097
G1 X22.579 Y4.837 E2.14185
G1 X22.579 Y5.747 E0.07097
G1 X2.253 Y-14.579 E2.24221
G1 X1.343 Y-14.579 E0.07097
G1 X22.579 Y6.657 E2.34258
G1 X22.579 Y7.567 E0.07097
G1 X0.433 Y-14.579 E2.44295
G1 X-0.477 Y-14.579 E0.07097
G1 X22.579 Y8.477 E2.54331
G1 X22.579 Y9.386 E0.07097
G1 X-1.386 Y-14.579 E2.64368
G1 X-2.296 Y-14.579 E0.07097
G1 X22.579 Y10.296 E2.74405
G1 X22.579 Y11.206 E0.07097
G1 X-3.206 Y-14.579 E2.84441
G1 X-4.116 Y-14.579 E0.07097
G1 X22.579 Y12.116 E2.94478
G1 X22.579 Y13.026 E0.07097
G1 X-5.026 Y-14.579 E3.04514
G1 X-5.936 Y-14.579 E0.07097
G1 X22.579 Y13.936 E3.14551
G1 X22.313 Y14.579 E0.05432
G1 X-6.845 Y-14.579 E3.21648
G1 X-7.755 Y-14.579 E0.07097
G1 X21.403 Y14.579 E3.21648
G1 X20.493 Y14.579 E0.07097
G1 X-8.665 Y-14.579 E3.21648
G1 X-9.575 Y-14.579 E0.07097
G1 X19.583 Y14.579 E3.21648
G1 X18.673 Y14.579 E0.07097
G1 X-10.485 Y-14.579 E3.21648
G1 X-11.395 Y-14.579 E0.07097
G1 X17.763 Y14.579 E3.21648
G1 X16.854 Y14.579 E0.07097
G1 X-12.304 Y-14.579 E3.21648
G1 X-13.214 Y-14.579 E0.07097
G1 X15.944 Y14.579 E3.21648
G1 X15.034 Y14.579 E0.07097
G1 X-14.124 Y-14.579 E3.21648
G1 X-15.034 Y-14.579 E0.07097
G1 X14.124 Y14.579 E3.21648
G1 X13.214 Y14.579 E0.07097
G1 X-15.944 Y-14.579 E3.21648
G1 X-16.854 Y-14.579 E0.07097
G1 X12.304 Y14.579 E3.21648
G1 X11.395 Y14.579 E0.07097
G1 X-17.763 Y-14.579 E3.21648
G1 X-18.673 Y-14.579 E0.07097
G1 X10.485 Y14.579 E3.21648
G1 X9.575 Y14.579 E0.07097
G1 X-19.583 Y-14.579 E3.21648
G1 X-20.493 Y-14.579 E0.07097
G1 X8.665 Y14.579 E3.21648
G1 X7.755 Y14.579 E0.07097
G1 X-21.403 Y-14.579 E3.21648
G1 X-22.313 Y-14.579 E0.07097
G1 X6.845 Y14.579 E3.21648
G1 X5.936 Y14.579 E0.07097
G1 X-22.579 Y-13.936 E3.14550
G1 X-22.579 Y-13.026 E0.07097
G1 X5.026 Y14.579 E3.04514
G1 X4.116 Y14.579 E0.07097
G1 X-22.579 Y-12.116 E2.94477
G1 X-22.579 Y-11.206 E0.07097
G1 X3.206 Y14.579 E2.84441
G1 X2.296 Y14.579 E0.07097
G1 X-22.579 Y-10.296 E2.74404
G1 X-22.579 Y-9.386 E0.07097
G1 X1.386 Y14.579 E2.64367
G1 X0.477 Y14.579 E0.07097
G1 X-22.579 Y-8.477 E2.54331
G1 X-22.579 Y-7.567 E0.07097
G1 X-0.433 Y14.579 E2.44294
G1 X-1.343 Y14.579 E0.07097
G1 X-22.579 Y-6.657 E2.34257
G1 X-22.579 Y-5.747 E0.07097
G1 X-2.253 Y14.579 E2.24221
G1 X-3.163 Y14.579 E0.07097
G1 X-22.579 Y-4.837 E2.14184
G1 X-22.579 Y-3.927 E0.07097
G1 X-4.073 Y14.579 E2.04148
G1 X-4.982 Y14.579 E0.07097
G1 X-22.579 Y-3.018 E1.94111
G1 X-22.579 Y-2.108 E0.07097
G1 X-5.892 Y14.579 E1.84074
G1 X-6.802 Y14.579 E0.07097
G1 X-22.579 Y-1.198 E1.74038
G1 X-22.579 Y-0.288 E0.07097
G1 X-7.712 Y14.579 E1.64001
G1 X-8.622 Y14.579 E0.07097
G1 X-22.579 Y0.622 E1.53965
G1 X-22.579 Y1.532 E0.07097
G1 X-9.532 Y14.579 E1.43928
G1 X-10.442 Y14.579 E0.07097
G1 X-22.579 Y2.441 E1.33891
G1 X-22.579 Y3.351 E0.07097
G1 X-11.351 Y14.579 E1.23855
G1 X-12.261 Y14.579 E0.07097
G1 X-22.579 Y4.261 E1.13818
G1 X-22.579 Y5.171 E0.07097
G1 X-13.171 Y14.579 E1.03782
G1 X-14.081 Y14.579 E0.07097
G1 X-22.579 Y6.081 E0.93745
G1 X-22.579 Y6.991 E0.07097
G1 X-14.991 Y14.579 E0.83708
G1 X-15.901 Y14.579 E0.07097
G1 X-22.579 Y7.901 E0.73672
G1 X-22.579 Y8.810 E0.07097
G1 X-16.810 Y14.579 E0.63635
G1 X-17.720 Y14.579 E0.07097
G1 X-22.579 Y9.720 E0.53599
G1 X-22.579 Y10.630 E0.07097
G1 X-18.630 Y14.579 E0.43562
G1 X-19.540 Y14.579 E0.07097
G1 X-22.579 Y11.540 E0.33525
G1 X-22.579 Y12.450 E0.07097
G1 X-20.450 Y14.579 E0.23489
G1 X-21.360 Y14.579 E0.07097
G1 X-22.579 Y13.360 E0.13452
G1 X-22.579 Y14.269 E0.07097
G1 X-22.269 Y14.579 E0.03415
G1 E-3.50000 F1500.00000
G1 Z0.700 F15000.000
G1 X-23.393 Y-6.557 F15000.000
G1 Z0.500 F15000.000
G1 E3.50000 F1500.00000
G1 X-23.393 Y-15.393 E0.25504 F3600.000
G1 X23.393 Y-15.393 E1.35036
G1 X23.393 Y15.393 E0.88856
G1 X-23.393 Y15.393 E1.35036 F3600.000
G1 X-23.393 Y-6.497 E0.63179
G1 X-23.750 Y-6.497 F15000.000
G1 X-23.750 Y-15.750 E0.26708 F3600.000
G1 X23.750 Y-15.750 E1.37098
G1 X23.750 Y15.750 E0.90917
G1 X-23.750 Y15.750 E1.37098 F3600.000
G1 X-23.750 Y-6.437 E0.64037
G1 X-23.404 Y-6.697 F15000.000
G1 X-23.185 Y-14.994 F15000.000
G1 X-22.994 Y-15.185 E0.00782 F4800.000
G1 X-22.488 Y-15.185 E0.01462
G1 X-23.185 Y-14.488 E0.02849
G1 X-23.185 Y-13.982 E0.01462
G1 X-21.982 Y-15.185 E0.04916
G1 X-21.477 Y-15.185 E0.01462
G1 X-23.185 Y-13.477 E0.06983
G1 X-23.185 Y-12.971 E0.01462
G1 X-20.971 Y-15.185 E0.09050
G1 X-20.465 Y-15.185 E0.01462
G1 X-23.185 Y-12.465 E0.11117
G1 X-23.185 Y-11.960 E0.01462
G1 X-19.960 Y-15.185 E0.13184
G1 X-19.454 Y-15.185 E0.01462
G1 X-23.185 Y-11.454 E0.15251
G1 X-23.185 Y-10.948 E0.01462
G1 X-18.948 Y-15.185 E0.17318
G1 X-18.443 Y-15.185 E0.01462
G1 X-23.185 Y-10.443 E0.19385
G1 X-23.185 Y-9.937 E0.01462
G1 X-17.937 Y-15.185 E0.21451
G1 X-17.431 Y-15.185 E0.01462
G1 X-23.185 Y-9.431 E0.23518
G1 X-23.185 Y-8.926 E0.01462
G1 X-16.926 Y-15.185 E0.25585
G1 X-16.420 Y-15.185 E0.01462
G1 X-23.185 Y-8.420 E0.27652
G1 X-23.185 Y-7.914 E0.01462
G1 X-15.914 Y-15.185 E0.29719
G1 X-15.409 Y-15.185 E0.01462
G1 X-23.185 Y-7.409 E0.31786
G1 X-23.185 Y-6.903 E0.01462
G1 X-14.903 Y-15.185 E0.33853
G1 X-14.397 Y-15.185 E0.01462
G1 X-23.185 Y-6.397 E0.35920
G1 X-23.185 Y-5.892 E0.01462
G1 X-13.892 Y-15.185 E0.37987
G1 X-13.386 Y-15.185 E0.01462
G1 X-23.185 Y-5.386 E0.40054
G1 X-23.185 Y-4.880 E0.01462
G1 X-12.880 Y-15.185 E0.42121
G1 X-12.375 Y-15.185 E0.01462
G1 X-23.185 Y-4.375 E0.44188
G1 X-23.185 Y-3.869 E0.01462
G1 X-11.869 Y-15.185 E0.46255
G1 X-11.363 Y-15.185 E0.01462
G1 X-23.185 Y-3.363 E0.48321
G1 X-23.185 Y-2.857 E0.01462
G1 X-10.857 Y-15.185 E0.50388
G1 X-10.352 Y-15.185 E0.01462
G1 X-23.185 Y-2.352 E0.52455
G1 X-23.185 Y-1.846 E0.01462
G1 X-9.846 Y-15.185 E0.54522
G1 X-9.340 Y-15.185 E0.01462
G1 X-23.185 Y-1.340 E0.56589
G1 X-23.185 Y-0.835 E0.01462
G1 X-8.835 Y-15.185 E0.58656
G1 X-8.329 Y-15.185 E0.01462
G1 X-23.185 Y-0.329 E0.60723
G1 X-23.185 Y0.177 E0.01462
G1 X-7.823 Y-15.185 E0.62790
G1 X-7.318 Y-15.185 E0.01462
G1 X-23.185 Y0.682 E0.64857
G1 X-23.185 Y1.188 E0.01462
G1 X-6.812 Y-15.185 E0.66924
G1 X-6.306 Y-15.185 E0.01462
G1 X-23.185 Y1.694 E0.68991
G1 X-23.185 Y2.199 E0.01462
G1 X-5.801 Y-15.185 E0.71058
G1 X-5.295 Y-15.185 E0.01462
G1 X-23.185 Y2.705 E0.73125
G1 X-23.185 Y3.211 E0.01462
G1 X-4.789 Y-15.185 E0.75191
G1 X-4.284 Y-15.185 E0.01462
G1 X-23.185 Y3.716 E0.77258
G1 X-23.185 Y4.222 E0.01462
G1 X-3.778 Y-15.185 E0.79325
G1 X-3.272 Y-15.185 E0.01462
G1 X-23.185 Y4.728 E0.81392
G1 X-23.185 Y5.233 E0.01462
G1 X-2.767 Y-15.185 E0.83459
G1 X-2.261 Y-15.185 E0.01462
G1 X-23.185 Y5.739 E0.85526
G1 X-23.185 Y6.245 E0.01462
G1 X-1.755 Y-15.185 E0.87593
G1 X-1.250 Y-15.185 E0.01462
G1 X-23.185 Y6.750 E0.89660
G1 X-23.185 Y7.256 E0.01462
G1 X-0.744 Y-15.185 E0.91727
G1 X-0.238 Y-15.185 E0.01462
G1 X-23.185 Y7.762 E0.93794
G1 X-23.185 Y8.268 E0.01462
G1 X0.268 Y-15.185 E0.95861
G1 X0.773 Y-15.185 E0.01462
G1 X-23.185 Y8.773 E0.97928
G1 X-23.185 Y9.279 E0.01462
G1 X1.279 Y-15.185 E0.99995
G1 X1.785 Y-15.185 E0.01462
G1 X-23.185 Y9.785 E1.02062
G1 X-23.185 Y10.290 E0.01462
G1 X2.290 Y-15.185 E1.04128
G1 X2.796 Y-15.185 E0.01462
G1 X-23.185 Y10.796 E1.06195
G1 X-23.185 Y11.302 E0.01462
G1 X3.302 Y-15.185 E1.08262
G1 X3.807 Y-15.185 E0.01462
G1 X-23.185 Y11.807 E1.10329
G1 X-23.185 Y12.313 E0.01462
G1 X4.313 Y-15.185 E1.12396
G1 X4.819 Y-15.185 E0.01462
G1 X-23.185 Y12.819 E1.14463
G1 X-23.185 Y13.324 E0.01462
G1 X5.324 Y-15.185 E1.16530
G1 X5.830 Y-15.185 E0.01462
G1 X-23.185 Y13.830 E1.18597
G1 X-23.185 Y14.336 E0.01462
G1 X6.336 Y-15.185 E1.20664
G1 X6.841 Y-15.185 E0.01462
G1 X-23.185 Y14.841 E1.22731
G1 X-23.023 Y15.185 E0.01098
G1 X7.347 Y-15.185 E1.24136
G1 X7.853 Y-15.185 E0.01462
G1 X-22.518 Y15.185 E1.24136
G1 X-22.012 Y15.185 E0.01462
G1 X8.358 Y-15.185 E1.24136
G1 X8.864 Y-15.185 E0.01462
G1 X-21.506 Y15.185 E1.24136
G1 X-21.001 Y15.185 E0.01462
G1 X9.370 Y-15.185 E1.24136
G1 X9.875 Y-15.185 E0.01462
G1 X-20.495 Y15.185 E1.24136
G1 X-19.989 Y15.185 E0.01462
G1 X10.381 Y-15.185 E1.24136
G1 X10.887 Y-15.185 E0.01462
G1 X-19.484 Y15.185 E1.24136
G1 X-18.978 Y15.185 E0.01462
G1 X11.392 Y-15.185 E1.24136
G1 X11.898 Y-15.185 E0.01462
G1 X-18.472 Y15.185 E1.24136
G1 X-17.966 Y15.185 E0.01462
G1 X12.404 Y-15.185 E1.24136
G1 X12.910 Y-15.185 E0.01462
G1 X-17.461 Y15.185 E1.24136
G1 X-16.955 Y15.185 E0.01462
G1 X13.415 Y-15.185 E1.24136
G1 X13.921 Y-15.185 E0.01462
G1 X-16.449 Y15.185 E1.24136
G1 X-15.944 Y15.185 E0.01462
G1 X14.427 Y-15.185 E1.24136
G1 X14.932 Y-15.185 E0.01462
G1 X-15.438 Y15.185 E1.24136
G1 X-14.932 Y15.185 E0.01462
G1 X15.438 Y-15.185 E1.24136
G1 X15.944 Y-15.185 E0.01462
G1 X-14.427 Y15.185 E1.24136
G1 X-13.921 Y15.185 E0.01462
G1 X16.449 Y-15.185 E1.24136
G1 X16.955 Y-15.185 E0.01462
G1 X-13.415 Y15.185 E1.24136
G1 X-12.910 Y15.185 E0.01462
G1 X17.461 Y-15.185 E1.24136
G1 X17.966 Y-15.185 E0.01462
G1 X-12.404 Y15.185 E1.24136
G1 X-11.898 Y15.185 E0.01462
G1 X18.472 Y-15.185 E1.24136
G1 X18.978 Y-15.185 E0.01462
G1 X-11.393 Y15.185 E1.24136
G1 X-10.887 Y15.185 E0.01462
G1 X19.483 Y-15.185 E1.24136
G1 X19.989 Y-15.185 E0.01462
G1 X-10.381 Y15.185 E1.24136
G1 X-9.876 Y15.185 E0.01462
G1 X20.495 Y-15.185 E1.24136
G1 X21.000 Y-15.185 E0.01462
G1 X-9.370 Y15.185 E1.24136
G1 X-8.864 Y15.185 E0.01462
G1 X21.506 Y-15.185 E1.24136
G1 X22.012 Y-15.185 E0.01462
G1 X-8.359 Y15.185 E1.24136
G1 X-7.853 Y15.185 E0.01462
G1 X22.517 Y-15.185 E1.24136
G1 X23.023 Y-15.185 E0.01462
G1 X-7.347 Y15.185 E1.24136
G1 X-6.842 Y15.185 E0.01462
G1 X23.185 Y-14.842 E1.22731
G1 X23.185 Y-14.336 E0.01462
G1 X-6.336 Y15.185 E1.20664
G1 X-5.830 Y15.185 E0.01462
G1 X23.185 Y-13.830 E1.18597
G1 X23.185 Y-13.324 E0.01462
G1 X-5.324 Y15.185 E1.16531
G1 X-4.819 Y15.185 E0.01462
G1 X23.185 Y-12.819 E1.14464
G1 X23.185 Y-12.313 E0.01462
G1 X-4.313 Y15.185 E1.12397
G1 X-3.807 Y15.185 E0.01462
G1 X23.185 Y-11.807 E1.10330
G1 X23.185 Y-11.302 E0.01462
G1 X-3.302 Y15.185 E1.08263
G1 X-2.796 Y15.185 E0.01462
G1 X23.185 Y-10.796 E1.06196
G1 X23.185 Y-10.290 E0.01462
G1 X-2.290 Y15.185 E1.04129
G1 X-1.785 Y15.185 E0.01462
G1 X23.185 Y-9.785 E1.02062
G1 X23.185 Y-9.279 E0.01462
G1 X-1.279 Y15.185 E0.99995
G1 X-0.773 Y15.185 E0.01462
G1 X23.185 Y-8.773 E0.97928
G1 X23.185 Y-8.268 E0.01462
G1 X-0.268 Y15.185 E0.95861
G1 X0.238 Y15.185 E0.01462
G1 X23.185 Y-7.762 E0.93794
G1 X23.185 Y-7.256 E0.01462
G1 X0.744 Y15.185 E0.91727
G1 X1.249 Y15.185 E0.01462
G1 X23.185 Y-6.751 E0.89661
G1 X23.185 Y-6.245 E0.01462
G1 X1.755 Y15.185 E0.87594
G1 X2.261 Y15.185 E0.01462
G1 X23.185 Y-5.739 E0.85527
G1 X23.185 Y-5.234 E0.01462
G1 X2.766 Y15.185 E0.83460
G1 X3.272 Y15.185 E0.01462
G1 X23.185 Y-4.728 E0.81393
G1 X23.185 Y-4.222 E0.01462
G1 X3.778 Y15.185 E0.79326
G1 X4.283 Y15.185 E0.01462
G1 X23.185 Y-3.717 E0.77259
G1 X23.185 Y-3.211 E0.01462
G1 X4.789 Y15.185 E0.75192
G1 X5.295 Y15.185 E0.01462
G1 X23.185 Y-2.705 E0.73125
G1 X23.185 Y-2.199 E0.01462
G1 X5.801 Y15.185 E0.71058
G1 X6.306 Y15.185 E0.01462
G1 X23.185 Y-1.694 E0.68991
G1 X23.185 Y-1.188 E0.01462
G1 X6.812 Y15.185 E0.66924
G1 X7.318 Y15.185 E0.01462
G1 X23.185 Y-0.682 E0.64857
G1 X23.185 Y-0.177 E0.01462
G1 X7.823 Y15.185 E0.62790
G1 X8.329 Y15.185 E0.01462
G1 X23.185 Y0.329 E0.60724
G1 X23.185 Y0.835 E0.01462
G1 X8.835 Y15.185 E0.58657
G1 X9.340 Y15.185 E0.01462
G1 X23.185 Y1.340 E0.56590
G1 X23.185 Y1.846 E0.01462
G1 X9.846 Y15.185 E0.54523
G1 X10.352 Y15.185 E0.01462
G1 X23.185 Y2.352 E0.52456
G1 X23.185 Y2.857 E0.01462
G1 X10.857 Y15.185 E0.50389
G1 X11.363 Y15.185 E0.01462
G1 X23.185 Y3.363 E0.48322
G1 X23.185 Y3.869 E0.01462
G1 X11.869 Y15.185 E0.46255
G1 X12.374 Y15.185 E0.01462
G1 X23.185 Y4.374 E0.44188
G1 X23.185 Y4.880 E0.01462
G1 X12.880 Y15.185 E0.42121
G1 X13.386 Y15.185 E0.01462
G1 X23.185 Y5.386 E0.40054
G1 X23.185 Y5.891 E0.01462
G1 X13.891 Y15.185 E0.37987
G1 X14.397 Y15.185 E0.01462
G1 X23.185 Y6.397 E0.35920
G1 X23.185 Y6.903 E0.01462
G1 X14.903 Y15.185 E0.33854
G1 X15.408 Y15.185 E0.01462
G1 X23.185 Y7.408 E0.31787
G1 X23.185 Y7.914 E0.01462
G1 X15.914 Y15.185 E0.29720
G1 X16.420 Y15.185 E0.01462
G1 X23.185 Y8.420 E0.27653
G1 X23.185 Y8.926 E0.01462
G1 X16.926 Y15.185 E0.25586
G1 X17.431 Y15.185 E0.01462
G1 X23.185 Y9.431 E0.23519
G1 X23.185 Y9.937 E0.01462
G1 X17.937 Y15.185 E0.21452
G1 X18.443 Y15.185 E0.01462
G1 X23.185 Y10.443 E0.19385
G1 X23.185 Y10.948 E0.01462
G1 X18.948 Y15.185 E0.17318
G1 X19.454 Y15.185 E0.01462
G1 X23.185 Y11.454 E0.15251
G1 X23.185 Y11.960 E0.01462
G1 X19.960 Y15.185 E0.13184
G1 X20.465 Y15.185 E0.01462
G1 X23.185 Y12.465 E0.11117
G1 X23.185 Y12.971 E0.01462
G1 X20.971 Y15.185 E0.09050
G1 X21.477 Y15.185 E0.01462
G1 X23.185 Y13.477 E0.06983
G1 X23.185 Y13.982 E0.01462
G1 X21.982 Y15.185 E0.04917
G1 X22.488 Y15.185 E0.01462
G1 X23.185 Y14.488 E0.02850
G1 X23.185 Y14.994 E0.01462
G1 X22.994 Y15.185 E0.00783
G1 E-3.50000 F1500.00000
G1 Z0.900 F15000.000
G1 X-0.057 Y15.393 F15000.000
G1 Z0.700 F15000.000
G1 E3.50000 F1500.00000
G1 X-23.393 Y15.393 E0.67354 F2400.000
G1 X-23.393 Y-15.393 E0.88856
G1 X23.393 Y-15.393 E1.35036
G1 X23.393 Y15.393 E0.88856
G1 X0.003 Y15.393 E0.67509 F2400.000
G1 X0.003 Y15.750 F15000.000
G1 X-23.750 Y15.750 E0.68558 F2400.000
G1 X-23.750 Y-15.750 E0.90917
G1 X23.750 Y-15.750 E1.37098
G1 X23.750 Y15.750 E0.90917
G1 X0.063 Y15.750 E0.68367 F2400.000
G1 X-0.197 Y15.404 F15000.000
G1 X-23.185 Y14.980 F15000.000
G1 X-22.980 Y15.185 E0.00838 F2621.805
G1 X-20.805 Y15.185 E0.06278
G1 X-23.185 Y13.023 E0.09282
G1 X-23.185 Y9.930 E0.08927
G1 X-17.930 Y15.185 E0.21451
G1 X-15.480 Y15.185 E0.07071
