; generated by Slic3r 1.2.9 on 2019-09-12 at 18:26:59

; external perimeters extrusion width = 0.40mm
; perimeters extrusion width = 0.40mm
; infill extrusion width = 0.40mm
; solid infill extrusion width = 0.40mm
; top infill extrusion width = 0.40mm

M107
M83
T0
M116
G21 ; set units to millimeters
G90 ; use absolute coordinates
M83 ; use relative distances for extrusion
G1 E-3.50000 F1500.00000
G1 Z0.400 F15000.000
G1 X-21.289 Y-2.992 F15000.000
G1 Z0.300 F15000.000
G1 E3.50000 F1500.00000
G1 X-16.836 Y-34.678 E2.46587 F960.000
G1 X-16.305 Y-35.671 E0.08680
G1 X-15.216 Y-36.086 E0.08977
G1 X24.956 Y-36.086 E3.09594
G1 X26.014 Y-35.698 E0.08680
G1 X26.592 Y-34.450 E0.10599 F960.000
G1 X26.592 Y34.450 E5.30981
G1 X26.204 Y35.507 E0.08680
G1 X24.956 Y36.086 E0.10599
G1 X-24.899 Y36.086 E3.84216
G1 X-25.957 Y35.698 E0.08680
G1 X-26.519 Y34.222 E0.12169
G1 X-21.297 Y-2.932 E2.89149
G1 E-3.50000 F1500.00000
G1 Z0.700 F15000.000
G1 X23.971 Y2.467 F15000.000
G1 Z0.300 F15000.000
G1 E3.50000 F1500.00000
G1 X23.971 Y33.464 E2.38884 F720.000
G1 X-23.765 Y33.464 E3.67882 F720.000
G1 X-23.073 Y28.536 E0.38357
G1 X-22.181 Y28.536 E0.06875
G1 X-22.673 Y32.036 E0.27238
G1 X8.130 Y32.036 E2.37385
G1 X16.807 Y-32.536 E5.02094
G1 X-13.598 Y-32.536 E2.34318
G1 X-14.020 Y-29.536 E0.23347
G1 X-14.912 Y-29.536 E0.06876
G1 X-14.360 Y-33.464 E0.30575
G1 X23.971 Y-33.464 E2.95395
G1 X23.971 Y2.407 E2.76444
G1 X24.606 Y2.407 F15000.000
G1 X24.606 Y34.100 E2.44245 F720.000
G1 X-24.497 Y34.100 E3.78416 F720.000
G1 X-23.625 Y27.900 E0.48250
G1 X-21.449 Y27.900 E0.16769
G1 X-21.941 Y31.400 E0.27238
G1 X7.575 Y31.400 E2.27466
G1 X16.080 Y-31.900 E4.92209
G1 X-13.045 Y-31.900 E2.24459
G1 X-13.467 Y-28.900 E0.23347
G1 X-15.643 Y-28.900 E0.16769
G1 X-14.912 Y-34.100 E0.40468
G1 X24.606 Y-34.100 E3.04552
G1 X24.606 Y2.347 E2.80880
G1 X24.260 Y2.607 F15000.000
G1 X9.050 Y33.079 F15000.000
G1 X8.741 Y32.769 E0.03390 F960.000
G1 X8.741 Y31.866 E0.06994
G1 X9.953 Y33.079 E0.13281
G1 X10.857 Y33.079 E0.06994
G1 X8.658 Y30.880 E0.24078
G1 X8.765 Y30.084 E0.06221
G1 X11.760 Y33.079 E0.32797
G1 X12.663 Y33.079 E0.06994
G1 X8.872 Y29.288 E0.41516
G1 X8.979 Y28.492 E0.06221
G1 X13.566 Y33.079 E0.50235
G1 X14.469 Y33.079 E0.06994
G1 X9.086 Y27.695 E0.58954
G1 X9.193 Y26.899 E0.06221
G1 X15.372 Y33.079 E0.67673
G1 X16.276 Y33.079 E0.06994
G1 X9.300 Y26.103 E0.76392
G1 X9.407 Y25.307 E0.06221
G1 X17.179 Y33.079 E0.85111
G1 X18.082 Y33.079 E0.06994
G1 X9.514 Y24.511 E0.93829
G1 X9.621 Y23.714 E0.06221
G1 X18.985 Y33.079 E1.02548
G1 X19.888 Y33.079 E0.06994
G1 X9.728 Y22.918 E1.11267
G1 X9.835 Y22.122 E0.06221
G1 X20.792 Y33.079 E1.19986
G1 X21.695 Y33.079 E0.06994
G1 X9.942 Y21.326 E1.28705
G1 X10.049 Y20.530 E0.06221
G1 X22.598 Y33.079 E1.37424
G1 X23.501 Y33.079 E0.06994
G1 X10.156 Y19.733 E1.46143
G1 X10.263 Y18.937 E0.06221
G1 X23.585 Y32.260 E1.45894
G1 X23.585 Y31.357 E0.06994
G1 X10.370 Y18.141 E1.44722
G1 X10.477 Y17.345 E0.06221
G1 X23.585 Y30.454 E1.43550
G1 X23.585 Y29.550 E0.06994
G1 X10.584 Y16.549 E1.42379
G1 X10.691 Y15.752 E0.06221
G1 X23.585 Y28.647 E1.41207
G1 X23.585 Y27.744 E0.06994
G1 X10.797 Y14.956 E1.40036
G1 X10.904 Y14.160 E0.06221
G1 X23.585 Y26.841 E1.38864
G1 X23.585 Y25.938 E0.06994
G1 X11.011 Y13.364 E1.37693
G1 X11.118 Y12.568 E0.06221
G1 X23.585 Y25.035 E1.36521
G1 X23.585 Y24.131 E0.06994
G1 X11.225 Y11.771 E1.35349
G1 X11.332 Y10.975 E0.06221
G1 X23.585 Y23.228 E1.34178
G1 X23.585 Y22.325 E0.06994
G1 X11.439 Y10.179 E1.33006
G1 X11.546 Y9.383 E0.06221
G1 X23.585 Y21.422 E1.31835
G1 X23.585 Y20.519 E0.06994
G1 X11.653 Y8.587 E1.30663
G1 X11.760 Y7.790 E0.06221
G1 X23.585 Y19.615 E1.29491
G1 X23.585 Y18.712 E0.06994
G1 X11.867 Y6.994 E1.28320
G1 X11.974 Y6.198 E0.06221
G1 X23.585 Y17.809 E1.27148
G1 X23.585 Y16.906 E0.06994
G1 X12.081 Y5.402 E1.25977
G1 X12.188 Y4.606 E0.06221
G1 X23.585 Y16.003 E1.24805
G1 X23.585 Y15.100 E0.06994
G1 X12.295 Y3.809 E1.23633
G1 X12.402 Y3.013 E0.06221
G1 X23.585 Y14.196 E1.22462
G1 X23.585 Y13.293 E0.06994
G1 X12.509 Y2.217 E1.21290
G1 X12.616 Y1.421 E0.06221
G1 X23.585 Y12.390 E1.20119
G1 X23.585 Y11.487 E0.06994
G1 X12.723 Y0.625 E1.18947
G1 X12.830 Y-0.172 E0.06221
G1 X23.585 Y10.584 E1.17776
G1 X23.585 Y9.680 E0.06994
G1 X12.937 Y-0.968 E1.16604
G1 X13.044 Y-1.764 E0.06221
G1 X23.585 Y8.777 E1.15432
G1 X23.585 Y7.874 E0.06994
G1 X13.151 Y-2.560 E1.14261
G1 X13.258 Y-3.356 E0.06221
G1 X23.585 Y6.971 E1.13089
G1 X23.585 Y6.068 E0.06994
G1 X13.365 Y-4.153 E1.11918
G1 X13.472 Y-4.949 E0.06221
G1 X23.585 Y5.164 E1.10746
G1 X23.585 Y4.261 E0.06994
G1 X13.579 Y-5.745 E1.09574
G1 X13.686 Y-6.541 E0.06221
G1 X23.585 Y3.358 E1.08403
G1 X23.585 Y2.455 E0.06994
G1 X13.793 Y-7.337 E1.07231
G1 X13.900 Y-8.134 E0.06221
G1 X23.585 Y1.552 E1.06060
G1 X23.585 Y0.649 E0.06994
G1 X14.007 Y-8.930 E1.04888
G1 X14.114 Y-9.726 E0.06221
G1 X23.585 Y-0.255 E1.03717
G1 X23.585 Y-1.158 E0.06994
G1 X14.221 Y-10.522 E1.02545
G1 X14.328 Y-11.318 E0.06221
G1 X23.585 Y-2.061 E1.01373
G1 X23.585 Y-2.964 E0.06994
G1 X14.435 Y-12.115 E1.00202
G1 X14.542 Y-12.911 E0.06221
G1 X23.585 Y-3.867 E0.99030
G1 X23.585 Y-4.771 E0.06994
G1 X14.649 Y-13.707 E0.97859
G1 X14.756 Y-14.503 E0.06221
G1 X23.585 Y-5.674 E0.96687
G1 X23.585 Y-6.577 E0.06994
G1 X14.863 Y-15.299 E0.95515
G1 X14.970 Y-16.095 E0.06221
G1 X23.585 Y-7.480 E0.94344
G1 X23.585 Y-8.383 E0.06994
G1 X15.077 Y-16.892 E0.93172
G1 X15.184 Y-17.688 E0.06221
G1 X23.585 Y-9.286 E0.92001
G1 X23.585 Y-10.190 E0.06994
G1 X15.291 Y-18.484 E0.90829
G1 X15.398 Y-19.280 E0.06221
G1 X23.585 Y-11.093 E0.89658
G1 X23.585 Y-11.996 E0.06994
G1 X15.505 Y-20.076 E0.88486
G1 X15.612 Y-20.873 E0.06221
G1 X23.585 Y-12.899 E0.87314
G1 X23.585 Y-13.802 E0.06994
G1 X15.719 Y-21.669 E0.86143
G1 X15.826 Y-22.465 E0.06221
G1 X23.585 Y-14.706 E0.84971
G1 X23.585 Y-15.609 E0.06994
G1 X15.933 Y-23.261 E0.83800
G1 X16.040 Y-24.057 E0.06221
G1 X23.585 Y-16.512 E0.82628
G1 X23.585 Y-17.415 E0.06994
G1 X16.147 Y-24.854 E0.81456
G1 X16.254 Y-25.650 E0.06221
G1 X23.585 Y-18.318 E0.80285
G1 X23.585 Y-19.222 E0.06994
G1 X16.361 Y-26.446 E0.79113
G1 X16.468 Y-27.242 E0.06221
G1 X23.585 Y-20.125 E0.77942
G1 X23.585 Y-21.028 E0.06994
G1 X16.575 Y-28.038 E0.76770
G1 X16.682 Y-28.835 E0.06221
G1 X23.585 Y-21.931 E0.75599
G1 X23.585 Y-22.834 E0.06994
G1 X16.789 Y-29.631 E0.74427
G1 X16.896 Y-30.427 E0.06221
G1 X23.585 Y-23.737 E0.73255
G1 X23.585 Y-24.641 E0.06994
G1 X17.003 Y-31.223 E0.72084
G1 X17.110 Y-32.019 E0.06221
G1 X23.585 Y-25.544 E0.70912
G1 X23.585 Y-26.447 E0.06994
G1 X17.576 Y-32.457 E0.65811
G1 X17.857 Y-33.079 E0.05286
G1 X23.585 Y-27.350 E0.62734
G1 X23.585 Y-28.253 E0.06994
G1 X18.760 Y-33.079 E0.52843
G1 X19.663 Y-33.079 E0.06994
G1 X23.585 Y-29.157 E0.42953
G1 X23.585 Y-30.060 E0.06994
G1 X20.566 Y-33.079 E0.33062
G1 X21.469 Y-33.079 E0.06994
G1 X23.585 Y-30.963 E0.23172
G1 X23.585 Y-31.866 E0.06994
G1 X22.373 Y-33.079 E0.13282
G1 X23.276 Y-33.079 E0.06994
G1 X23.585 Y-32.769 E0.03391
G1 X17.190 Y-33.000 F15000.000
G1 X-13.874 Y-33.000 E2.39399 F960.000
G1 X-13.948 Y-32.991 E0.00572
G1 X-13.997 Y-32.871 E0.01000
G1 X-14.421 Y-29.853 E0.23481
G1 E-3.50000 F1500.00000
G1 Z0.700 F15000.000
G1 X-22.671 Y28.853 F15000.000
G1 Z0.300 F15000.000
G1 E3.50000 F1500.00000
G1 X-23.121 Y32.050 E0.24877 F960.000
G1 X-23.344 Y32.750 F15000.000
G1 X8.355 Y32.750 E5.13328 F960.000
G1 E-3.50000 F1500.00000
G1 Z0.700 F15000.000
G1 X12.576 Y-4.045 F15000.000
G1 Z0.500 F15000.000
G1 E3.50000 F1500.00000
G1 X16.347 Y-32.107 E0.81723 F3600.000
G1 X-13.143 Y-32.107 E0.85115
G1 X-13.564 Y-29.107 E0.08744
G1 X-15.322 Y-29.107 E0.05073
G1 X-14.649 Y-33.893 E0.13949
G1 X24.399 Y-33.893 E1.12705
G1 X24.399 Y33.893 E1.95648
G1 X-24.176 Y33.893 E1.40201 F3600.000
G1 X-23.363 Y28.107 E0.16864
G1 X-21.605 Y28.107 E0.05073
G1 X-22.097 Y31.607 E0.10201
G1 X7.785 Y31.607 E0.86249
G1 X12.568 Y-3.986 E1.03653
G1 X12.214 Y-4.033 F15000.000
G1 X15.939 Y-31.750 E0.80717 F3600.000
G1 X-12.832 Y-31.750 E0.83041
G1 X-13.254 Y-28.750 E0.08744
G1 X-15.733 Y-28.750 E0.07155
G1 X-14.960 Y-34.250 E0.16030
G1 X24.756 Y-34.250 E1.14632
G1 X24.756 Y34.250 E1.97709
G1 X-24.587 Y34.250 E1.42417 F3600.000
G1 X-23.673 Y27.750 E0.18945
G1 X-21.194 Y27.750 E0.07155
G1 X-21.686 Y31.250 E0.10201
G1 X7.473 Y31.250 E0.84162
G1 X12.206 Y-3.974 E1.02579
G1 X12.584 Y-4.185 F15000.000
G1 X16.580 Y-32.200 F15000.000
G1 X18.065 Y-33.685 E0.06070 F4800.000
G1 X18.571 Y-33.685 E0.01461
G1 X16.501 Y-31.616 E0.08457
G1 X16.423 Y-31.032 E0.01703
G1 X19.076 Y-33.685 E0.10843
G1 X19.582 Y-33.685 E0.01461
G1 X16.344 Y-30.448 E0.13230
G1 X16.266 Y-29.864 E0.01703
G1 X20.088 Y-33.685 E0.15616
G1 X20.593 Y-33.685 E0.01461
G1 X16.188 Y-29.280 E0.18003
G1 X16.109 Y-28.696 E0.01703
G1 X21.099 Y-33.685 E0.20389
G1 X21.604 Y-33.685 E0.01461
G1 X16.031 Y-28.112 E0.22776
G1 X15.952 Y-27.528 E0.01703
G1 X22.110 Y-33.685 E0.25163
G1 X22.615 Y-33.685 E0.01461
G1 X15.874 Y-26.943 E0.27549
G1 X15.795 Y-26.359 E0.01703
G1 X23.121 Y-33.685 E0.29936
G1 X23.626 Y-33.685 E0.01461
G1 X15.717 Y-25.775 E0.32322
G1 X15.638 Y-25.191 E0.01703
G1 X24.132 Y-33.685 E0.34709
G1 X24.192 Y-33.239 E0.01300
G1 X15.560 Y-24.607 E0.35273
G1 X15.481 Y-24.023 E0.01703
G1 X24.192 Y-32.734 E0.35594
G1 X24.192 Y-32.228 E0.01461
G1 X15.403 Y-23.439 E0.35915
G1 X15.324 Y-22.855 E0.01703
G1 X24.192 Y-31.723 E0.36235
G1 X24.192 Y-31.217 E0.01461
G1 X15.246 Y-22.271 E0.36556
G1 X15.167 Y-21.687 E0.01703
G1 X24.192 Y-30.711 E0.36877
G1 X24.192 Y-30.206 E0.01461
G1 X15.089 Y-21.103 E0.37197
G1 X15.010 Y-20.519 E0.01703
G1 X24.192 Y-29.700 E0.37518
G1 X24.192 Y-29.195 E0.01461
G1 X14.932 Y-19.935 E0.37839
G1 X14.853 Y-19.351 E0.01703
G1 X24.192 Y-28.689 E0.38159
G1 X24.192 Y-28.184 E0.01461
G1 X14.775 Y-18.767 E0.38480
G1 X14.696 Y-18.183 E0.01703
G1 X24.192 Y-27.678 E0.38801
G1 X24.192 Y-27.173 E0.01461
G1 X14.618 Y-17.599 E0.39121
G1 X14.539 Y-17.015 E0.01703
G1 X24.192 Y-26.667 E0.39442
G1 X24.192 Y-26.162 E0.01461
G1 X14.461 Y-16.431 E0.39763
G1 X14.383 Y-15.847 E0.01703
G1 X24.192 Y-25.656 E0.40084
G1 X24.192 Y-25.150 E0.01461
G1 X14.304 Y-15.263 E0.40404
G1 X14.226 Y-14.679 E0.01703
G1 X24.192 Y-24.645 E0.40725
G1 X24.192 Y-24.139 E0.01461
G1 X14.147 Y-14.095 E0.41046
G1 X14.069 Y-13.511 E0.01703
G1 X24.192 Y-23.634 E0.41366
G1 X24.192 Y-23.128 E0.01461
G1 X13.990 Y-12.927 E0.41687
G1 X13.912 Y-12.343 E0.01703
G1 X24.192 Y-22.623 E0.42008
G1 X24.192 Y-22.117 E0.01461
G1 X13.833 Y-11.759 E0.42328
G1 X13.755 Y-11.175 E0.01703
G1 X24.192 Y-21.612 E0.42649
G1 X24.192 Y-21.106 E0.01461
G1 X13.676 Y-10.591 E0.42970
G1 X13.598 Y-10.007 E0.01703
G1 X24.192 Y-20.600 E0.43290
G1 X24.192 Y-20.095 E0.01461
G1 X13.519 Y-9.423 E0.43611
G1 X13.441 Y-8.839 E0.01703
G1 X24.192 Y-19.589 E0.43932
G1 X24.192 Y-19.084 E0.01461
G1 X13.362 Y-8.254 E0.44253
G1 X13.284 Y-7.670 E0.01703
G1 X24.192 Y-18.578 E0.44573
G1 X24.192 Y-18.073 E0.01461
G1 X13.205 Y-7.086 E0.44894
G1 X13.127 Y-6.502 E0.01703
G1 X24.192 Y-17.567 E0.45215
G1 X24.192 Y-17.062 E0.01461
G1 X13.048 Y-5.918 E0.45535
G1 X12.970 Y-5.334 E0.01703
G1 X24.192 Y-16.556 E0.45856
G1 X24.192 Y-16.050 E0.01461
G1 X12.891 Y-4.750 E0.46177
G1 X12.813 Y-4.166 E0.01703
G1 X24.192 Y-15.545 E0.46497
G1 X24.192 Y-15.039 E0.01461
G1 X12.734 Y-3.582 E0.46818
G1 X12.656 Y-2.998 E0.01703
G1 X24.192 Y-14.534 E0.47139
G1 X24.192 Y-14.028 E0.01461
G1 X12.578 Y-2.414 E0.47459
G1 X12.499 Y-1.830 E0.01703
G1 X24.192 Y-13.523 E0.47780
G1 X24.192 Y-13.017 E0.01461
G1 X12.421 Y-1.246 E0.48101
G1 X12.342 Y-0.662 E0.01703
G1 X24.192 Y-12.512 E0.48421
G1 X24.192 Y-12.006 E0.01461
G1 X12.264 Y-0.078 E0.48742
G1 X12.185 Y0.506 E0.01703
G1 X24.192 Y-11.500 E0.49063
G1 X24.192 Y-10.995 E0.01461
G1 X12.107 Y1.090 E0.49384
G1 X12.028 Y1.674 E0.01703
G1 X24.192 Y-10.489 E0.49704
G1 X24.192 Y-9.984 E0.01461
G1 X11.950 Y2.258 E0.50025
G1 X11.871 Y2.842 E0.01703
G1 X24.192 Y-9.478 E0.50346
G1 X24.192 Y-8.973 E0.01461
G1 X11.793 Y3.426 E0.50666
G1 X11.714 Y4.010 E0.01703
G1 X24.192 Y-8.467 E0.50987
G1 X24.192 Y-7.962 E0.01461
G1 X11.636 Y4.594 E0.51308
G1 X11.557 Y5.178 E0.01703
G1 X24.192 Y-7.456 E0.51628
G1 X24.192 Y-6.951 E0.01461
G1 X11.479 Y5.762 E0.51949
G1 X11.400 Y6.346 E0.01703
G1 X24.192 Y-6.445 E0.52270
G1 X24.192 Y-5.939 E0.01461
G1 X11.322 Y6.930 E0.52590
G1 X11.243 Y7.514 E0.01703
G1 X24.192 Y-5.434 E0.52911
G1 X24.192 Y-4.928 E0.01461
G1 X11.165 Y8.098 E0.53232
G1 X11.086 Y8.682 E0.01703
G1 X24.192 Y-4.423 E0.53553
G1 X24.192 Y-3.917 E0.01461
G1 X11.008 Y9.266 E0.53873
G1 X10.929 Y9.850 E0.01703
G1 X24.192 Y-3.412 E0.54194
G1 X24.192 Y-2.906 E0.01461
G1 X10.851 Y10.434 E0.54515
G1 X10.773 Y11.019 E0.01703
G1 X24.192 Y-2.401 E0.54835
G1 X24.192 Y-1.895 E0.01461
G1 X10.694 Y11.603 E0.55156
G1 X10.616 Y12.187 E0.01703
G1 X24.192 Y-1.389 E0.55477
G1 X24.192 Y-0.884 E0.01461
G1 X10.537 Y12.771 E0.55797
G1 X10.459 Y13.355 E0.01703
G1 X24.192 Y-0.378 E0.56118
G1 X24.192 Y0.127 E0.01461
G1 X10.380 Y13.939 E0.56439
G1 X10.302 Y14.523 E0.01703
G1 X24.192 Y0.633 E0.56759
G1 X24.192 Y1.138 E0.01461
G1 X10.223 Y15.107 E0.57080
G1 X10.145 Y15.691 E0.01703
G1 X24.192 Y1.644 E0.57401
G1 X24.192 Y2.149 E0.01461
G1 X10.066 Y16.275 E0.57722
G1 X9.988 Y16.859 E0.01703
G1 X24.192 Y2.655 E0.58042
G1 X24.192 Y3.161 E0.01461
G1 X9.909 Y17.443 E0.58363
G1 X9.831 Y18.027 E0.01703
G1 X24.192 Y3.666 E0.58684
G1 X24.192 Y4.172 E0.01461
G1 X9.752 Y18.611 E0.59004
G1 X9.674 Y19.195 E0.01703
G1 X24.192 Y4.677 E0.59325
G1 X24.192 Y5.183 E0.01461
G1 X9.595 Y19.779 E0.59646
G1 X9.517 Y20.363 E0.01703
G1 X24.192 Y5.688 E0.59966
G1 X24.192 Y6.194 E0.01461
G1 X9.438 Y20.947 E0.60287
G1 X9.360 Y21.531 E0.01703
G1 X24.192 Y6.699 E0.60608
G1 X24.192 Y7.205 E0.01461
G1 X9.281 Y22.115 E0.60928
G1 X9.203 Y22.699 E0.01703
G1 X24.192 Y7.710 E0.61249
G1 X24.192 Y8.216 E0.01461
G1 X9.124 Y23.283 E0.61570
G1 X9.046 Y23.867 E0.01703
G1 X24.192 Y8.722 E0.61891
G1 X24.192 Y9.227 E0.01461
G1 X8.968 Y24.451 E0.62211
G1 X8.889 Y25.035 E0.01703
G1 X24.192 Y9.733 E0.62532
G1 X24.192 Y10.238 E0.01461
G1 X8.811 Y25.619 E0.62853
G1 X8.732 Y26.203 E0.01703
G1 X24.192 Y10.744 E0.63173
G1 X24.192 Y11.249 E0.01461
G1 X8.654 Y26.787 E0.63494
G1 X8.575 Y27.371 E0.01703
G1 X24.192 Y11.755 E0.63815
G1 X24.192 Y12.260 E0.01461
G1 X8.497 Y27.955 E0.64135
G1 X8.418 Y28.539 E0.01703
G1 X24.192 Y12.766 E0.64456
G1 X24.192 Y13.272 E0.01461
G1 X8.340 Y29.123 E0.64777
G1 X8.261 Y29.708 E0.01703
G1 X24.192 Y13.777 E0.65097
G1 X24.192 Y14.283 E0.01461
G1 X8.183 Y30.292 E0.65418
G1 X8.104 Y30.876 E0.01703
G1 X24.192 Y14.788 E0.65739
G1 X24.192 Y15.294 E0.01461
G1 X8.026 Y31.460 E0.66060
G1 X7.671 Y31.815 F15000.000
G1 X5.800 Y33.685 E0.07643 F4800.000
G1 X6.306 Y33.685 E0.01461
G1 X24.192 Y15.799 E0.73088
G1 X24.192 Y16.305 E0.01461
G1 X6.811 Y33.685 E0.71022
G1 X7.317 Y33.685 E0.01461
G1 X24.192 Y16.810 E0.68956
G1 X24.192 Y17.316 E0.01461
G1 X7.822 Y33.685 E0.66891
G1 X8.328 Y33.685 E0.01461
G1 X24.192 Y17.822 E0.64825
G1 X24.192 Y18.327 E0.01461
G1 X8.834 Y33.685 E0.62759
G1 X9.339 Y33.685 E0.01461
G1 X24.192 Y18.833 E0.60693
G1 X24.192 Y19.338 E0.01461
G1 X9.845 Y33.685 E0.58627
G1 X10.350 Y33.685 E0.01461
G1 X24.192 Y19.844 E0.56561
G1 X24.192 Y20.349 E0.01461
G1 X10.856 Y33.685 E0.54495
G1 X11.361 Y33.685 E0.01461
G1 X24.192 Y20.855 E0.52429
G1 X24.192 Y21.360 E0.01461
G1 X11.867 Y33.685 E0.50364
G1 X12.372 Y33.685 E0.01461
G1 X24.192 Y21.866 E0.48298
G1 X24.192 Y22.372 E0.01461
G1 X12.878 Y33.685 E0.46232
G1 X13.384 Y33.685 E0.01461
G1 X24.192 Y22.877 E0.44166
G1 X24.192 Y23.383 E0.01461
G1 X13.889 Y33.685 E0.42100
G1 X14.395 Y33.685 E0.01461
G1 X24.192 Y23.888 E0.40034
G1 X24.192 Y24.394 E0.01461
G1 X14.900 Y33.685 E0.37968
G1 X15.406 Y33.685 E0.01461
G1 X24.192 Y24.899 E0.35902
G1 X24.192 Y25.405 E0.01461
G1 X15.911 Y33.685 E0.33837
G1 X16.417 Y33.685 E0.01461
G1 X24.192 Y25.910 E0.31771
G1 X24.192 Y26.416 E0.01461
G1 X16.922 Y33.685 E0.29705
G1 X17.428 Y33.685 E0.01461
G1 X24.192 Y26.921 E0.27639
G1 X24.192 Y27.427 E0.01461
G1 X17.933 Y33.685 E0.25573
G1 X18.439 Y33.685 E0.01461
G1 X24.192 Y27.933 E0.23507
G1 X24.192 Y28.438 E0.01461
