; generated by Slic3r 1.2.9 on 2019-09-08 at 16:19:03

; external perimeters extrusion width = 0.40mm
; perimeters extrusion width = 0.40mm
; infill extrusion width = 0.40mm
; solid infill extrusion width = 0.40mm
; top infill extrusion width = 0.40mm

M107
M83
T0
M116
G21 ; set units to millimeters
G90 ; use absolute coordinates
M83 ; use relative distances for extrusion
G1 E-3.50000 F1500.00000
G1 Z0.400 F15000.000
G1 X-14.217 Y14.173 F15000.000
G1 Z0.300 F15000.000
G1 E3.50000 F1500.00000
G1 X-23.849 Y4.512 E1.05139 F960.000
G1 X-24.026 Y4.302 E0.02110
G1 X-24.990 Y2.940 E0.12861
G1 X-26.142 Y1.012 E0.17311
G1 X-26.239 Y0.821 E0.01649
G1 X-27.261 Y-1.565 E0.20003
G1 X-27.346 Y-1.819 E0.02069
G1 X-28.122 Y-5.035 E0.25494
G1 X-28.359 Y-7.209 E0.16850
G1 X-28.359 Y-9.366 E0.16625
G1 X-28.331 Y-9.668 E0.02333
G1 X-27.991 Y-11.483 E0.14236
G1 X-27.163 Y-14.234 E0.22139
G1 X-26.254 Y-16.505 E0.18852
G1 X-26.076 Y-16.836 E0.02895
G1 X-25.286 Y-17.964 E0.10616
G1 X-24.960 Y-18.310 E0.03658
G1 X-21.437 Y-21.094 E0.34605
G1 X-21.219 Y-21.240 E0.02023
G1 X-16.627 Y-23.793 E0.40490
G1 X-12.417 Y-25.784 E0.35887
G1 X-12.120 Y-25.891 E0.02438
G1 X-7.858 Y-26.971 E0.33880
G1 X-7.456 Y-27.021 E0.03119
G1 X-4.660 Y-27.019 E0.21546
G1 X0.718 Y-26.793 E0.41484 F960.000
G1 X5.041 Y-26.088 E0.33756
G1 X5.257 Y-26.037 E0.01712
G1 X10.034 Y-24.559 E0.38534
G1 X10.359 Y-24.418 E0.02734
G1 X14.056 Y-22.314 E0.32780
G1 X16.987 Y-20.383 E0.27046
G1 X17.415 Y-19.971 E0.04583
G1 X19.945 Y-16.427 E0.33556
G1 X21.650 Y-13.473 E0.26282
G1 X21.820 Y-13.053 E0.03497
G1 X22.924 Y-8.612 E0.35265
G1 X28.335 Y23.696 E2.52452
G1 X28.341 Y24.198 E0.03865
G1 X28.232 Y24.955 E0.05897
G1 X27.595 Y26.032 E0.09647
G1 X26.716 Y26.691 E0.08459
G1 X25.709 Y27.018 E0.08161
G1 X4.253 Y26.679 E1.65376
G1 X3.882 Y26.630 E0.02882
G1 X0.246 Y25.721 E0.28883
G1 X-0.002 Y25.638 E0.02014
G1 X-2.964 Y24.355 E0.24880
G1 X-5.403 Y22.937 E0.21743
G1 X-5.740 Y22.677 E0.03272
G1 X-14.175 Y14.216 E0.92077
G1 E-3.50000 F1500.00000
G1 Z0.700 F15000.000
G1 X20.889 Y23.744 F15000.000
G1 Z0.300 F15000.000
G1 E3.50000 F1500.00000
G1 X22.330 Y23.953 E0.11216 F600.000
G1 X23.699 Y24.125 E0.10634
G1 X24.247 Y24.237 E0.04315
G1 X24.282 Y24.294 E0.00516
G1 X24.598 Y24.405 E0.02579
G1 X24.882 Y24.384 E0.02200
G1 X24.957 Y24.332 E0.00701
G1 X25.250 Y24.354 E0.02263
G1 X25.642 Y24.249 E0.03132
G1 X25.682 Y23.833 E0.03215
G1 X25.634 Y23.540 E0.02288
G1 X25.916 Y23.426 E0.02344
G1 X26.355 Y24.054 E0.05909
G1 X26.287 Y24.531 E0.03714 F600.000
G1 X25.642 Y25.015 E0.06215
G1 X21.983 Y24.469 E0.28513
G1 X18.102 Y24.049 E0.30081
G1 X18.121 Y23.688 E0.02783
G1 X19.721 Y23.686 E0.12329
G1 X20.829 Y23.741 E0.08553
G1 X21.049 Y24.111 F15000.000
G1 E-3.50000 F1500.00000
G1 Z0.700 F15000.000
G1 X24.645 Y22.769 F15000.000
G1 Z0.300 F15000.000
G1 E3.50000 F1500.00000
G1 X24.546 Y22.682 E0.01015 F600.000
G1 X24.781 Y22.399 E0.02835
G1 X25.382 Y22.862 E0.05843
G1 X25.160 Y23.162 E0.02881 F600.000
G1 X24.690 Y22.809 E0.04529
G1 X24.668 Y22.640 F15000.000
G1 X24.406 Y22.303 F15000.000
G1 X23.282 Y21.451 E0.10870 F720.000
G1 X22.875 Y21.087 E0.04206
G1 X20.462 Y18.206 F15000.000
G1 X20.754 Y18.727 E0.04602 F600.000
G1 X22.707 Y20.731 E0.21569
G1 X22.505 Y20.993 E0.02549
G1 X22.207 Y20.825 E0.02642
G1 X21.953 Y20.563 E0.02813
G1 X21.787 Y20.434 E0.01614
G1 X21.453 Y20.108 E0.03597
G1 X21.263 Y19.976 E0.01787
G1 X20.608 Y19.237 E0.07609
G1 X20.386 Y18.922 E0.02970
G1 X20.118 Y18.466 E0.04073
G1 X19.909 Y18.215 E0.02519
G1 X19.786 Y17.926 E0.02419
G1 X19.705 Y17.794 E0.01193
G1 X19.654 Y17.540 E0.01997
G1 X19.518 Y17.501 E0.01086
G1 X19.156 Y16.857 E0.05695
G1 X19.013 Y16.303 E0.04410
G1 X19.324 Y16.178 E0.02582
G1 X20.171 Y17.688 E0.13343
G1 X20.432 Y18.154 E0.04114 F600.000
G1 X20.258 Y18.550 F15000.000
G1 X18.969 Y16.131 F15000.000
G1 X18.860 Y15.596 E0.04208 F600.000
G1 X19.229 Y15.526 E0.02892
G1 X19.359 Y16.154 E0.04945
G1 X18.997 Y16.239 E0.02869 F600.000
G1 X18.984 Y16.190 E0.00391
G1 X19.264 Y15.861 F15000.000
G1 X18.995 Y15.214 F15000.000
G1 X18.666 Y13.785 E0.11300 F720.000
G1 X18.731 Y13.400 F15000.000
G1 X18.439 Y13.489 E0.02352 F600.000
G1 X18.312 Y13.036 E0.03626
G1 X18.674 Y12.944 E0.02882
G1 X18.794 Y13.381 E0.03493
G1 X18.788 Y13.383 E0.00048 F600.000
G1 X18.508 Y13.191 F15000.000
G1 X18.219 Y11.826 F15000.000
G1 X18.357 Y11.789 E0.01095 F600.000
G1 X18.502 Y12.318 E0.04225
G1 X18.150 Y12.427 E0.02843 F600.000
G1 X17.991 Y11.887 E0.04341
G1 X18.161 Y11.841 E0.01360
G1 X18.320 Y11.926 F15000.000
G1 X18.218 Y11.284 F15000.000
G1 X18.340 Y11.728 E0.03553 F600.000
G1 X17.991 Y11.840 E0.02822
G1 X17.658 Y10.986 E0.07063
G1 X17.924 Y10.812 E0.02449
G1 X18.155 Y11.055 E0.02583
G1 X18.202 Y11.226 E0.01367 F600.000
G1 X17.937 Y11.568 F15000.000
G1 X12.564 Y7.137 F15000.000
G1 X16.052 Y8.844 E0.29927 F600.000
G1 X16.505 Y9.321 E0.05071 F600.000
G1 X16.323 Y9.577 E0.02422
G1 X16.083 Y9.468 E0.02032
G1 X15.829 Y9.282 E0.02430
G1 X15.580 Y9.127 E0.02256
G1 X15.384 Y9.033 E0.01674
G1 X15.188 Y8.900 E0.01825
G1 X14.328 Y8.446 E0.07501
G1 X13.445 Y8.096 E0.07315
G1 X12.804 Y7.941 E0.05087
G1 X12.341 Y7.854 E0.03631
G1 X11.698 Y7.793 E0.04972
G1 X11.651 Y7.502 E0.02269
G1 X12.114 Y7.297 E0.03897
G1 X12.507 Y7.157 E0.03218
G1 X12.695 Y7.515 F15000.000
G1 X13.047 Y6.984 F15000.000
G1 X14.224 Y6.354 E0.10286 F720.000
G1 X15.290 Y5.707 E0.09613
G1 X15.758 Y5.259 E0.04995
G1 X16.578 Y4.398 E0.09159
G1 X17.292 Y3.574 E0.08406
G1 X17.911 Y3.133 F15000.000
G1 X17.650 Y3.415 E0.02960 F600.000
G1 X17.377 Y3.191 E0.02723
G1 X17.763 Y2.641 E0.05179
G1 X18.068 Y2.824 E0.02738
G1 X17.938 Y3.079 E0.02210 F600.000
G1 X17.530 Y3.083 F15000.000
G1 X18.088 Y2.427 F15000.000
G1 X18.943 Y0.823 E0.14007 F720.000
G1 X19.472 Y-0.282 E0.09445
G1 X19.686 Y-0.944 E0.05359
G1 X19.830 Y-1.487 E0.04333
G1 X19.962 Y-1.851 E0.02984
G1 X20.332 Y-3.274 E0.11333
G1 X20.379 Y-3.530 E0.02005
G1 X20.664 Y-5.961 E0.18859
G1 X20.727 Y-7.271 E0.10110
G1 X20.937 Y-8.395 F15000.000
G1 X20.957 Y-8.317 E0.00619 F600.000
G1 X20.884 Y-7.626 E0.05356 F600.000
G1 X20.550 Y-7.617 E0.02577
G1 X20.453 Y-8.228 E0.04772
G1 X20.333 Y-9.350 E0.08693
G1 X20.683 Y-9.412 E0.02743
G1 X20.923 Y-8.453 E0.07619
G1 X20.880 Y-8.339 F15000.000
G1 X20.446 Y-9.725 F15000.000
G1 X20.185 Y-11.018 E0.10163 F720.000
G1 X19.927 Y-12.041 E0.08127
G1 X19.793 Y-12.478 E0.03526
G1 X19.049 Y-13.767 E0.11468
G1 X18.628 Y-14.542 E0.06793
G1 X17.923 Y-15.633 E0.10017
G1 X17.363 Y-16.451 E0.07634
G1 X16.695 Y-17.302 E0.08343
G1 X16.408 Y-17.710 E0.03841
G1 X16.010 Y-18.122 E0.04417
G1 X15.776 Y-18.804 F15000.000
G1 X15.839 Y-18.762 E0.00584 F600.000
G1 X15.953 Y-18.603 E0.01509 F600.000
G1 X15.766 Y-18.376 E0.02264
G1 X15.485 Y-18.506 E0.02381
G1 X15.284 Y-18.729 E0.02316
G1 X15.503 Y-18.984 E0.02591
G1 X15.726 Y-18.837 E0.02060
G1 X15.771 Y-18.728 F15000.000
G1 X15.209 Y-19.179 F15000.000
G1 X14.612 Y-19.492 E0.05196 F720.000
G1 X13.933 Y-19.962 E0.06363
G1 X13.679 Y-20.108 E0.02261
G1 X13.041 Y-20.558 E0.06010
G1 X12.361 Y-20.914 E0.05923
G1 X10.891 Y-21.790 E0.13187
G1 X9.597 Y-22.485 E0.11314
G1 X9.373 Y-22.588 E0.01901
G1 X8.195 Y-22.978 E0.09565
G1 X7.955 Y-23.084 E0.02022
G1 X7.409 Y-23.273 E0.04454
G1 X7.120 Y-23.402 E0.02442
G1 X6.462 Y-23.640 E0.05391
G1 X5.484 Y-23.872 E0.07743
G1 X4.764 Y-24.088 E0.05798
G1 X2.857 Y-24.463 E0.14973
G1 X0.608 Y-24.767 E0.17487
G1 X-2.213 Y-24.881 E0.21765
G1 X-3.089 Y-24.950 E0.06768
G1 X-4.738 Y-24.980 E0.12708
G1 X-7.403 Y-24.955 E0.20538
G1 X-8.411 Y-24.739 E0.07946
G1 X-9.737 Y-24.376 E0.10595
G1 X-10.733 Y-24.133 E0.07906
G1 X-11.565 Y-23.884 E0.06687
G1 X-12.491 Y-23.441 E0.07915
G1 X-12.972 Y-23.188 E0.04185
G1 X-15.154 Y-22.198 E0.18464
G1 X-16.212 Y-21.680 E0.09082
G1 X-18.217 Y-20.555 E0.17717
G1 X-19.120 Y-20.002 E0.08159
G1 X-20.066 Y-19.502 E0.08247
G1 X-20.849 Y-18.953 E0.07374
G1 X-21.415 Y-18.509 E0.05538
G1 X-23.219 Y-16.981 E0.18223
G1 X-23.590 Y-16.691 E0.03629
G1 X-23.987 Y-16.209 E0.04809
G1 X-24.344 Y-15.686 E0.04882
G1 X-24.701 Y-14.962 E0.06221
G1 X-25.213 Y-13.645 E0.10894
G1 X-25.853 Y-11.576 E0.16690
G1 X-25.980 Y-11.083 E0.03918
G1 X-26.284 Y-9.325 E0.13750
G1 X-26.313 Y-8.714 E0.04713
G1 X-26.312 Y-7.448 E0.09760
G1 X-26.201 Y-6.306 E0.08844
G1 X-26.061 Y-5.299 E0.07833
G1 X-25.307 Y-2.360 E0.23386
G1 X-24.324 Y-0.032 E0.19471
G1 X-23.902 Y0.737 E0.06762
G1 X-23.319 Y1.708 E0.08734
G1 X-22.950 Y2.244 E0.05011
G1 X-22.850 Y2.422 E0.01574
G1 X-22.354 Y3.069 E0.06281
G1 X-21.331 Y4.012 E0.10722
G1 X-20.658 Y4.711 E0.07480
G1 X-18.912 Y6.379 E0.18604
G1 X-18.191 Y7.045 E0.07569
G1 X-17.253 Y7.836 E0.09455
G1 X-15.924 Y8.677 E0.12120
G1 X-15.515 Y8.959 E0.03825
G1 X-15.310 Y9.076 E0.01820
G1 X-14.531 Y9.425 E0.06583
G1 X-14.072 Y9.575 E0.03720
G1 X-13.713 Y9.646 E0.02822
G1 X-10.658 Y10.053 E0.23745
G1 X-9.933 Y10.098 E0.05600
G1 X-9.077 Y10.112 E0.06599
G1 X-8.238 Y10.107 E0.06467
G1 X-7.095 Y9.927 E0.08914
G1 X-5.520 Y9.715 E0.12250
G1 X-4.271 Y9.487 E0.09780
G1 X-3.851 Y9.498 E0.03237
G1 X-3.797 Y9.666 E0.01363
G1 X-3.845 Y10.113 E0.03467
G1 X-4.088 Y10.646 E0.04510
G1 X-4.405 Y11.228 E0.05109
G1 X-5.429 Y12.842 E0.14731
G1 X-6.010 Y13.870 E0.09099
G1 X-6.282 Y14.434 E0.04825
G1 X-6.302 Y16.207 E0.13663
G1 X-5.011 Y19.643 F15000.000
G1 X-4.836 Y19.982 E0.02940 F600.000
G1 X-4.535 Y20.441 E0.04236
G1 X-3.851 Y21.164 E0.07671
G1 X-4.056 Y21.423 E0.02546
G1 X-4.351 Y21.252 E0.02633
G1 X-5.840 Y19.443 E0.18055
G1 X-6.436 Y16.845 E0.20542
G1 X-6.436 Y16.582 E0.02028
G1 X-6.113 Y16.531 E0.02515
G1 X-5.791 Y17.536 E0.08129
G1 X-5.583 Y18.303 E0.06124 F600.000
G1 X-5.308 Y19.069 E0.06277
G1 X-5.039 Y19.590 E0.04514
G1 X-5.217 Y19.964 F15000.000
G1 X-3.676 Y21.507 F15000.000
G1 X-3.133 Y21.845 E0.04929 F720.000
G1 X-1.678 Y22.696 E0.12989
G1 X-0.787 Y23.132 E0.07643
G1 X-0.222 Y23.373 E0.04730
G1 X0.641 Y23.700 E0.07116
G1 X2.116 Y24.083 E0.11743
G1 X2.785 Y24.237 E0.05289
G1 X4.345 Y24.506 E0.12198
G1 X5.947 Y24.545 E0.12353
G1 X7.196 Y24.520 E0.09626
G1 X7.427 Y24.499 E0.01786
G1 X9.267 Y24.293 E0.14273
G1 X11.507 Y23.890 E0.17535
G1 X11.943 Y23.837 E0.03386
G1 X13.956 Y23.847 E0.15512
G1 X15.196 Y23.901 E0.09568
G1 X17.762 Y23.857 E0.19774
G1 E-3.50000 F1500.00000
G1 Z0.700 F15000.000
G1 X11.328 Y7.695 F15000.000
G1 Z0.300 F15000.000
G1 E3.50000 F1500.00000
G1 X10.864 Y7.717 E0.03579 F720.000
G1 X9.570 Y7.707 E0.09973
G1 X6.889 Y7.729 E0.20666
G1 E-3.50000 F1500.00000
G1 Z0.700 F15000.000
G1 X25.418 Y24.523 F15000.000
G1 Z0.500 F15000.000
G1 E3.50000 F1500.00000
G1 X25.799 Y24.421 E0.01138 F2400.000
G1 X25.828 Y24.480 E0.00190
G1 X25.897 Y23.760 E0.02088
G1 X26.139 Y24.106 E0.01217
G1 X26.094 Y24.417 E0.00907 F2400.000
G1 X25.587 Y24.797 E0.01830
G1 X25.246 Y24.746 E0.00996
G1 X25.236 Y24.572 E0.00503
G1 X25.360 Y24.539 E0.00372
G1 E-3.50000 F1500.00000
G1 Z0.900 F15000.000
G1 X12.586 Y7.689 F15000.000
G1 Z0.500 F15000.000
G1 E3.50000 F1500.00000
G1 X12.271 Y7.639 E0.00920 F2400.000
G1 X12.250 Y7.469 E0.00496
G1 X12.551 Y7.361 E0.00922
G1 X12.990 Y7.576 E0.01411
G1 X12.931 Y7.754 E0.00540 F2400.000
G1 X12.645 Y7.700 E0.00841
G1 E-3.50000 F1500.00000
G1 Z0.900 F15000.000
G1 X-5.426 Y19.390 F15000.000
G1 Z0.500 F15000.000
G1 E3.50000 F1500.00000
G1 X-5.549 Y19.471 E0.00425 F2400.000
G1 X-5.649 Y19.349 E0.00456
G1 X-5.683 Y19.203 E0.00434
G1 X-5.506 Y19.138 E0.00545
G1 X-5.395 Y19.352 E0.00696
G1 X-5.078 Y19.188 F15000.000
G1 X-4.707 Y19.906 E0.02333 F2400.000
G1 X-4.417 Y20.348 E0.01525
G1 X-3.835 Y20.962 E0.02442
G1 X-3.342 Y21.438 E0.01978
G1 X-3.233 Y21.480 E0.00337
G1 X-2.987 Y21.644 E0.00853
G1 X-2.459 Y21.924 E0.01724
G1 X-2.250 Y22.088 E0.00767
G1 X-2.080 Y22.173 E0.00548
G1 X-1.583 Y22.510 E0.01733
G1 X-0.749 Y22.978 E0.02760
G1 X-0.419 Y23.096 E0.01014
G1 X-0.202 Y23.213 E0.00710
G1 X0.184 Y23.319 E0.01155
G1 X0.720 Y23.518 E0.01650
G1 X2.170 Y23.883 E0.04317
G1 X2.837 Y24.023 E0.01967
G1 X3.375 Y24.096 E0.01566
G1 X5.017 Y24.217 E0.04754
G1 X5.964 Y24.247 E0.02733
G1 X7.417 Y24.187 E0.04199
G1 X8.860 Y24.082 E0.04175
G1 X9.730 Y23.947 E0.02541
G1 X11.453 Y23.568 E0.05093
G1 X11.924 Y23.515 E0.01367
G1 X12.946 Y23.510 E0.02950
G1 X13.976 Y23.535 E0.02974
G1 X14.883 Y23.631 E0.02631
G1 X15.213 Y23.643 E0.00953
G1 X18.251 Y23.538 E0.08774
G1 X19.725 Y23.536 E0.04254
G1 X20.894 Y23.594 E0.03381
G1 X22.348 Y23.804 E0.04240
G1 X23.726 Y23.977 E0.04007
G1 X24.176 Y24.078 E0.01331
G1 X24.339 Y24.097 E0.00476
G1 X24.390 Y24.178 E0.00276
G1 X24.620 Y24.253 E0.00700
G1 X24.830 Y24.238 E0.00607
G1 X24.914 Y24.178 E0.00297
G1 X25.235 Y24.203 E0.00929
G1 X25.503 Y24.131 E0.00799
G1 X25.531 Y23.838 E0.00848
G1 X25.506 Y23.687 E0.00444
G1 X25.435 Y23.538 E0.00475
G1 X25.311 Y23.386 E0.00565
G1 X25.166 Y23.283 E0.00515
G1 X25.020 Y23.247 E0.00432
G1 X24.702 Y23.022 E0.01127
G1 X24.190 Y22.565 E0.01979
G1 X24.055 Y22.485 E0.00452
G1 X23.990 Y22.394 E0.00324
G1 X23.848 Y22.270 E0.00544
G1 X23.318 Y21.882 E0.01895
G1 X23.310 Y21.813 E0.00201
G1 X23.095 Y21.710 E0.00687
G1 X22.920 Y21.529 E0.00727
G1 X22.869 Y21.508 E0.00160
G1 X22.864 Y21.457 E0.00148
G1 X22.633 Y21.363 E0.00719
G1 X22.518 Y21.233 E0.00503
G1 X22.400 Y21.171 E0.00384
G1 X22.268 Y21.031 E0.00556
G1 X22.114 Y20.944 E0.00508
G1 X21.852 Y20.675 E0.01085
G1 X21.689 Y20.547 E0.00599
G1 X21.357 Y20.224 E0.01335
G1 X21.162 Y20.089 E0.00685
G1 X20.490 Y19.330 E0.02926
G1 X20.260 Y19.003 E0.01155
G1 X19.995 Y18.553 E0.01508
G1 X19.780 Y18.294 E0.00971
G1 X19.653 Y17.995 E0.00937
G1 X19.563 Y17.850 E0.00492
G1 X19.524 Y17.655 E0.00573
G1 X19.425 Y17.629 E0.00296
G1 X19.389 Y17.577 E0.00181
G1 X19.016 Y16.913 E0.02198
G1 X18.775 Y15.979 E0.02787
G1 X18.581 Y14.864 E0.03265
G1 X18.433 Y14.278 E0.01745
G1 X18.306 Y13.564 E0.02093
G1 X18.222 Y13.312 E0.00767
G1 X18.067 Y12.645 E0.01976
G1 X17.933 Y12.260 E0.01179
G1 X17.805 Y11.766 E0.01471
G1 X17.686 Y11.441 E0.00999
G1 X17.547 Y11.110 E0.01036
G1 X17.452 Y10.999 E0.00424
G1 X17.439 Y10.952 E0.00138
G1 X17.235 Y10.704 E0.00929
G1 X16.800 Y10.274 E0.01764
G1 X16.766 Y10.195 E0.00248
G1 X16.430 Y9.862 E0.01368
G1 X16.344 Y9.828 E0.00264
G1 X16.164 Y9.669 E0.00695
G1 X16.007 Y9.598 E0.00496
G1 X15.504 Y9.258 E0.01753
G1 X15.309 Y9.164 E0.00625
G1 X14.926 Y8.925 E0.01302
G1 X14.527 Y8.733 E0.01279
G1 X14.262 Y8.581 E0.00880
G1 X13.400 Y8.239 E0.02678
G1 X12.772 Y8.087 E0.01863
G1 X12.320 Y8.003 E0.01329
G1 X11.614 Y7.935 E0.02044
G1 X9.136 Y7.813 E0.07161
G1 X9.134 Y7.615 E0.00572
G1 X9.562 Y7.575 E0.01241
G1 X10.869 Y7.533 E0.03776
G1 X11.062 Y7.505 E0.00563
G1 X11.718 Y7.308 E0.01976
G1 X12.058 Y7.158 E0.01073
G1 X12.663 Y6.942 E0.01854
G1 X14.106 Y6.181 E0.04709
G1 X14.680 Y5.821 E0.01955
G1 X15.187 Y5.450 E0.01812
G1 X15.578 Y5.100 E0.01516
G1 X16.418 Y4.211 E0.03529
G1 X16.474 Y4.108 E0.00338
G1 X16.720 Y3.840 E0.01051
G1 X17.717 Y2.445 E0.04950
G1 X18.373 Y1.309 E0.03786
G1 X18.702 Y0.688 E0.02027
G1 X19.243 Y-0.515 E0.03808
G1 X19.447 Y-1.046 E0.01641
G1 X19.594 Y-1.591 E0.01629
G1 X19.673 Y-1.715 E0.00425
G1 X19.750 Y-1.900 E0.00577
G1 X19.955 Y-2.616 E0.02150
G1 X20.133 Y-3.339 E0.02149
G1 X20.195 Y-3.977 E0.01852
G1 X20.279 Y-4.472 E0.01448
G1 X20.470 Y-5.997 E0.04435
G1 X20.477 Y-6.622 E0.01806
G1 X20.457 Y-7.245 E0.01797
G1 X20.304 Y-8.208 E0.02817
G1 X20.153 Y-9.614 E0.04081
G1 X20.048 Y-10.412 E0.02322
G1 X19.943 Y-10.985 E0.01682
G1 X19.804 Y-11.448 E0.01393
G1 X19.694 Y-11.960 E0.01512
G1 X19.589 Y-12.302 E0.01033
G1 X19.561 Y-12.309 E0.00083
G1 X19.453 Y-12.560 E0.00790
G1 X19.362 Y-12.723 E0.00536
G1 X19.329 Y-12.728 E0.00098
G1 X19.227 Y-12.953 E0.00713
G1 X19.126 Y-13.055 E0.00414
G1 X19.096 Y-13.175 E0.00356
G1 X18.976 Y-13.341 E0.00592
G1 X18.798 Y-13.660 E0.01056
G1 X18.745 Y-13.835 E0.00527
G1 X18.649 Y-13.965 E0.00466
G1 X18.620 Y-14.060 E0.00288
G1 X18.443 Y-14.308 E0.00878
G1 X18.377 Y-14.516 E0.00632
G1 X18.224 Y-14.662 E0.00610
G1 X18.039 Y-14.964 E0.01020
G1 X17.782 Y-15.278 E0.01172
G1 X17.658 Y-15.542 E0.00842
G1 X17.525 Y-15.689 E0.00573
G1 X17.483 Y-15.807 E0.00363
G1 X17.393 Y-15.916 E0.00408
G1 X17.348 Y-16.054 E0.00419
G1 X17.280 Y-16.076 E0.00208
G1 X17.190 Y-16.258 E0.00585
