; generated by Slic3r 1.2.9 on 2019-08-09 at 12:31:24

; external perimeters extrusion width = 0.40mm
; perimeters extrusion width = 0.40mm
; infill extrusion width = 0.40mm
; solid infill extrusion width = 0.40mm
; top infill extrusion width = 0.40mm

M107
M83
T0
M116
G21 ; set units to millimeters
G90 ; use absolute coordinates
M83 ; use relative distances for extrusion
G1 E-3.50000 F1500.00000
G1 Z0.400 F15000.000
G1 X51.141 Y11.428 F15000.000
G1 Z0.300 F15000.000
G1 E3.50000 F1500.00000
G1 X50.602 Y13.811 E0.18829 F960.000
G1 X49.209 Y18.155 E0.35154
G1 X47.436 Y22.389 E0.35371
G1 X45.290 Y26.463 E0.35491
G1 X42.661 Y30.524 E0.37277
G1 X39.858 Y34.104 E0.35041
G1 X36.777 Y37.406 E0.34811
G1 X33.176 Y40.638 E0.37286
G1 X29.423 Y43.433 E0.36061
G1 X25.619 Y45.784 E0.34463
G1 X21.509 Y47.854 E0.35461
G1 X17.151 Y49.586 E0.36144
G1 X12.509 Y50.957 E0.37302
G1 X8.051 Y51.849 E0.35035
G1 X3.564 Y52.354 E0.34800
G1 X-1.406 Y52.457 E0.38312
G1 X-5.951 Y52.140 E0.35106
G1 X-10.410 Y51.438 E0.34789
G1 X-14.836 Y50.342 E0.35138
G1 X-19.262 Y48.823 E0.36060
G1 X-23.392 Y46.985 E0.34839
G1 X-27.492 Y44.713 E0.36127
G1 X-31.496 Y41.993 E0.37302
G1 X-35.012 Y39.111 E0.35036
G1 X-38.305 Y35.895 E0.35473
G1 X-41.472 Y32.183 E0.37605
G1 X-44.113 Y28.461 E0.35166
G1 X-46.410 Y24.537 E0.35040
G1 X-48.413 Y20.294 E0.36164
G1 X-49.983 Y16.062 E0.34787
G1 X-51.175 Y11.703 E0.34821
G1 X-52.018 Y7.094 E0.36114
G1 X-52.446 Y2.420 E0.36171
G1 X-52.450 Y-2.287 E0.36274
G1 X-52.051 Y-6.859 E0.35371
G1 X-51.249 Y-11.394 E0.35490
G1 X-49.983 Y-16.063 E0.37278
G1 X-48.404 Y-20.327 E0.35040
G1 X-46.476 Y-24.411 E0.34810
G1 X-43.933 Y-28.733 E0.38641
G1 X-41.385 Y-32.295 E0.33750
G1 X-38.391 Y-35.804 E0.35551
G1 X-35.119 Y-39.014 E0.35327
G1 X-31.496 Y-41.993 E0.36145
G1 X-27.495 Y-44.712 E0.37280
G1 X-23.545 Y-46.908 E0.34828
G1 X-19.230 Y-48.833 E0.36411
G1 X-14.699 Y-50.382 E0.36904
G1 X-10.381 Y-51.445 E0.34270
G1 X-5.810 Y-52.156 E0.35651
G1 X-1.262 Y-52.461 E0.35125
G1 X3.237 Y-52.372 E0.34686
G1 X8.051 Y-51.849 E0.37316 F960.000
G1 X12.652 Y-50.922 E0.36166
G1 X17.012 Y-49.634 E0.35041
G1 X21.378 Y-47.913 E0.36166
G1 X25.605 Y-45.793 E0.36442
G1 X29.526 Y-43.363 E0.35546
G1 X33.038 Y-40.747 E0.33750
G1 X36.672 Y-37.509 E0.37514
G1 X39.765 Y-34.213 E0.34829
G1 X42.661 Y-30.524 E0.36148
G1 X45.217 Y-26.588 E0.36167
G1 X47.436 Y-22.389 E0.36601
G1 X49.209 Y-18.155 E0.35371
G1 X50.602 Y-13.811 E0.35154
G1 X51.631 Y-9.234 E0.36155
G1 X52.246 Y-4.629 E0.35809
G1 X52.452 Y0.071 E0.36256
G1 X52.246 Y4.629 E0.35156
G1 X51.656 Y9.092 E0.34696
G1 X51.154 Y11.370 E0.17977
G1 E-3.50000 F1500.00000
G1 Z0.700 F15000.000
G1 X25.724 Y42.641 F15000.000
G1 Z0.300 F15000.000
G1 E3.50000 F1500.00000
G1 X24.281 Y43.530 E0.13059 F720.000
G1 X20.373 Y45.491 E0.33699
G1 X16.227 Y47.133 E0.34359
G1 X11.952 Y48.396 E0.34359
G1 X7.579 Y49.270 E0.34364
G1 X3.319 Y49.744 E0.33036
G1 X-1.271 Y49.839 E0.35379
G1 X-5.589 Y49.544 E0.33350
G1 X-9.825 Y48.882 E0.33043
G1 X-14.027 Y47.848 E0.33349
G1 X-18.369 Y46.358 E0.35380
G1 X-22.283 Y44.609 E0.33036
G1 X-26.181 Y42.444 E0.34364
G1 X-29.868 Y39.938 E0.34358
G1 X-33.316 Y37.111 E0.34360
G1 X-36.440 Y34.053 E0.33688
G1 X-39.362 Y30.628 E0.34696
G1 X-41.873 Y27.099 E0.33375
G1 X-44.125 Y23.251 E0.34360
G1 X-46.023 Y19.216 E0.34366
G1 X-47.510 Y15.194 E0.33045
G1 X-48.635 Y11.057 E0.33044
G1 X-49.431 Y6.669 E0.34366
G1 X-49.831 Y2.228 E0.34361
G1 X-49.835 Y-2.103 E0.33376
G1 X-49.444 Y-6.588 E0.34696
G1 X-48.676 Y-10.891 E0.33686
G1 X-47.509 Y-15.194 E0.34361
G1 X-45.961 Y-19.376 E0.34365
G1 X-44.126 Y-23.249 E0.33029
G1 X-41.774 Y-27.246 E0.35740
G1 X-39.362 Y-30.628 E0.32013
G1 X-36.652 Y-33.812 E0.32223
G1 X-36.444 Y-34.048 E0.02423
G1 X-33.316 Y-37.111 E0.33738
G1 X-29.868 Y-39.938 E0.34360
G1 X-26.180 Y-42.444 E0.34365
G1 X-22.437 Y-44.532 E0.33030
G1 X-18.203 Y-46.420 E0.35729
G1 X-14.026 Y-47.848 E0.34016
G1 X-10.225 Y-48.792 E0.30182
G1 X-9.834 Y-48.881 E0.03095
G1 X-5.589 Y-49.544 E0.33112
G1 X-1.271 Y-49.839 E0.33354
G1 X3.142 Y-49.752 E0.34015
G1 X7.580 Y-49.270 E0.34403 F720.000
G1 X11.952 Y-48.396 E0.34355
G1 X16.227 Y-47.133 E0.34359
G1 X20.373 Y-45.491 E0.34359
G1 X24.285 Y-43.528 E0.33738
G1 X28.107 Y-41.159 E0.34647
G1 X31.434 Y-38.673 E0.32012
G1 X34.893 Y-35.583 E0.35739
G1 X37.821 Y-32.454 E0.33029
G1 X40.570 Y-28.943 E0.34365
G1 X42.993 Y-25.200 E0.34360
G1 X45.036 Y-21.335 E0.33687
G1 X46.775 Y-17.183 E0.34696
G1 X48.091 Y-13.057 E0.33375
G1 X49.063 Y-8.705 E0.34362
G1 X49.642 Y-4.328 E0.34026
G1 X49.831 Y-0.000 E0.33386
G1 X49.642 Y4.328 E0.33386
G1 X49.063 Y8.705 E0.34026
G1 X48.091 Y13.057 E0.34362
G1 X46.775 Y17.183 E0.33375
G1 X45.036 Y21.335 E0.34696
G1 X42.993 Y25.200 E0.33687
G1 X40.570 Y28.943 E0.34360
G1 X37.821 Y32.454 E0.34365
G1 X34.892 Y35.584 E0.33039
G1 X31.574 Y38.563 E0.34361
G1 X27.892 Y41.305 E0.35379
G1 X25.775 Y42.610 E0.19169
G1 X26.108 Y43.151 F15000.000
G1 X24.591 Y44.086 E0.13735 F720.000
G1 X20.633 Y46.072 E0.34128
G1 X16.435 Y47.734 E0.34795
G1 X12.104 Y49.013 E0.34799
G1 X7.677 Y49.899 E0.34797
G1 X3.360 Y50.378 E0.33469
G1 X-1.286 Y50.475 E0.35817
G1 X-5.659 Y50.176 E0.33780
G1 X-9.950 Y49.506 E0.33467
G1 X-14.206 Y48.458 E0.33779
G1 X-18.603 Y46.950 E0.35818
G1 X-22.567 Y45.178 E0.33469
G1 X-26.514 Y42.985 E0.34797
G1 X-30.249 Y40.447 E0.34798
G1 X-33.741 Y37.585 E0.34796
G1 X-36.905 Y34.487 E0.34124
G1 X-39.864 Y31.019 E0.35131
G1 X-42.407 Y27.445 E0.33808
G1 X-44.688 Y23.548 E0.34798
G1 X-46.610 Y19.462 E0.34796
G1 X-48.115 Y15.388 E0.33472
G1 X-49.255 Y11.197 E0.33471
G1 X-50.062 Y6.754 E0.34796
G1 X-50.467 Y2.257 E0.34799
G1 X-50.471 Y-2.130 E0.33810
G1 X-50.075 Y-6.671 E0.35131
G1 X-49.297 Y-11.030 E0.34122
G1 X-48.115 Y-15.388 E0.34797
G1 X-46.548 Y-19.623 E0.34800
G1 X-44.688 Y-23.547 E0.33464
G1 X-42.307 Y-27.592 E0.36174
G1 X-39.864 Y-31.019 E0.32437
G1 X-37.133 Y-34.227 E0.32468
G1 X-36.906 Y-34.485 E0.02646
G1 X-33.741 Y-37.585 E0.34142
G1 X-30.249 Y-40.447 E0.34796
G1 X-26.514 Y-42.985 E0.34801
G1 X-22.722 Y-45.101 E0.33464
G1 X-18.436 Y-47.013 E0.36169
G1 X-14.206 Y-48.459 E0.34448
G1 X-10.372 Y-49.410 E0.30442
G1 X-9.953 Y-49.505 E0.03312
G1 X-5.659 Y-50.176 E0.33492
G1 X-1.286 Y-50.475 E0.33782
G1 X3.183 Y-50.387 E0.34447
G1 X7.677 Y-49.899 E0.34839 F720.000
G1 X12.104 Y-49.013 E0.34794
G1 X16.435 Y-47.734 E0.34799
G1 X20.633 Y-46.072 E0.34795
G1 X24.592 Y-44.085 E0.34142
G1 X28.465 Y-41.685 E0.35114
G1 X31.837 Y-39.166 E0.32437
G1 X35.337 Y-36.038 E0.36173
G1 X38.304 Y-32.868 E0.33464
G1 X41.088 Y-29.312 E0.34801
G1 X43.542 Y-25.522 E0.34796
G1 X45.611 Y-21.607 E0.34123
G1 X47.372 Y-17.402 E0.35131
G1 X48.705 Y-13.223 E0.33809
G1 X49.690 Y-8.816 E0.34796
G1 X50.276 Y-4.384 E0.34458
G1 X50.468 Y0.000 E0.33815
G1 X50.276 Y4.384 E0.33815
G1 X49.690 Y8.816 E0.34458
G1 X48.705 Y13.223 E0.34796
G1 X47.372 Y17.402 E0.33809
G1 X45.611 Y21.607 E0.35131
G1 X43.542 Y25.522 E0.34123
G1 X41.088 Y29.312 E0.34796
G1 X38.304 Y32.868 E0.34801
G1 X35.337 Y36.039 E0.33467
G1 X31.977 Y39.055 E0.34799
G1 X28.250 Y41.831 E0.35819
G1 X26.159 Y43.119 E0.18922
G1 X25.756 Y42.961 F15000.000
G1 X-15.729 Y46.803 F15000.000
G1 X-46.865 Y15.666 E3.39617 F960.000
G1 X-47.304 Y14.328 E0.10861
G1 X-14.359 Y47.272 E3.59338
G1 X-13.087 Y47.645 E0.10225
G1 X-47.640 Y13.092 E3.76880
G1 X-47.976 Y11.857 E0.09875
G1 X-11.894 Y47.939 E3.93560
G1 X-10.700 Y48.233 E0.09478
G1 X-48.291 Y10.642 E4.10016
G1 X-48.491 Y9.542 E0.08616
G1 X-9.516 Y48.518 E4.25116
G1 X-8.450 Y48.684 E0.08322
G1 X-48.691 Y8.443 E4.38921
G1 X-48.890 Y7.344 E0.08616
G1 X-7.384 Y48.851 E4.52725
G1 X-6.318 Y49.017 E0.08322
G1 X-49.068 Y6.267 E4.66289
G1 X-49.157 Y5.278 E0.07656
G1 X-5.265 Y49.170 E4.78740
G1 X-4.299 Y49.236 E0.07466
G1 X-49.246 Y4.290 E4.90245
G1 X-49.335 Y3.301 E0.07656
G1 X-3.334 Y49.302 E5.01749
G1 X-2.368 Y49.368 E0.07466
G1 X-49.424 Y2.312 E5.13254
G1 X-49.446 Y1.390 E0.07114
G1 X-1.402 Y49.434 E5.24032
G1 X-0.497 Y49.440 E0.06985
G1 X-49.447 Y0.490 E5.33918
G1 X-49.448 Y-0.411 E0.06945
G1 X0.385 Y49.422 E5.43540
G1 X1.266 Y49.404 E0.06798
G1 X-49.449 Y-1.311 E5.53161
G1 X-49.450 Y-2.212 E0.06945
G1 X2.147 Y49.385 E5.62782
G1 X3.028 Y49.367 E0.06798
G1 X-49.378 Y-3.039 E5.71610
G1 X-49.306 Y-3.867 E0.06406
G1 X3.870 Y49.309 E5.80001
G1 X4.679 Y49.219 E0.06283
G1 X-49.233 Y-4.694 E5.88045
G1 X-49.161 Y-5.522 E0.06406
G1 X5.489 Y49.129 E5.96089
G1 X6.299 Y49.039 E0.06283
G1 X-49.089 Y-6.349 E6.04134
G1 X-48.977 Y-7.136 E0.06132
G1 X7.108 Y48.949 E6.11737
G1 X7.897 Y48.838 E0.06142
G1 X-48.840 Y-7.900 E6.18853
G1 X-48.704 Y-8.663 E0.05981
G1 X8.647 Y48.688 E6.25544
G1 X9.396 Y48.538 E0.05896
G1 X-48.568 Y-9.426 E6.32235
G1 X-48.432 Y-10.190 E0.05981
G1 X10.146 Y48.388 E6.38926
G1 X10.896 Y48.238 E0.05896
G1 X-48.292 Y-10.950 E6.45585
G1 X-48.101 Y-11.658 E0.05656
G1 X11.645 Y48.088 E6.51669
G1 X12.363 Y47.906 E0.05711
G1 X-47.909 Y-12.366 E6.57404
G1 X-47.717 Y-13.073 E0.05656
G1 X13.058 Y47.701 E6.62886
G1 X13.752 Y47.496 E0.05585
G1 X-47.525 Y-13.781 E6.68368
G1 X-47.333 Y-14.489 E0.05656
G1 X14.447 Y47.291 E6.73850
G1 X15.141 Y47.086 E0.05585
G1 X-47.139 Y-15.195 E6.79311
G1 X-46.896 Y-15.851 E0.05400
G1 X15.836 Y46.881 E6.84235
G1 X16.506 Y46.651 E0.05463
G1 X-46.653 Y-16.508 E6.88893
G1 X-46.410 Y-17.164 E0.05400
G1 X17.150 Y46.396 E6.93271
G1 X17.795 Y46.141 E0.05346
G1 X-46.167 Y-17.821 E6.97649
G1 X-45.924 Y-18.477 E0.05400
G1 X18.439 Y45.886 E7.02027
G1 X19.083 Y45.631 E0.05346
G1 X-45.681 Y-19.134 E7.06405
G1 X-45.404 Y-19.757 E0.05256
G1 X19.728 Y45.375 E7.10413
G1 X20.367 Y45.115 E0.05322
G1 X-45.115 Y-20.367 E7.14228
G1 X-44.826 Y-20.977 E0.05209
G1 X20.966 Y44.814 E7.17607
G1 X21.565 Y44.513 E0.05169
G1 X-44.536 Y-21.588 E7.20986
G1 X-44.247 Y-22.198 E0.05209
G1 X22.164 Y44.213 E7.24365
G1 X22.763 Y43.912 E0.05169
G1 X-43.958 Y-22.809 E7.27744
G1 X-43.649 Y-23.399 E0.05140
G1 X23.362 Y43.612 E7.30903
G1 X23.961 Y43.311 E0.05169
G1 X-43.315 Y-23.965 E7.33801
G1 X-42.982 Y-24.531 E0.05068
G1 X24.532 Y42.982 E7.36392
G1 X25.088 Y42.639 E0.05043
G1 X-42.649 Y-25.098 E7.38828
G1 X-42.315 Y-25.664 E0.05068
G1 X25.645 Y42.296 E7.41264
G1 X26.202 Y41.953 E0.05043
G1 X-41.982 Y-26.230 E7.43700
G1 X-41.649 Y-26.797 E0.05068
G1 X26.758 Y41.610 E7.46136
G1 X27.315 Y41.268 E0.05043
G1 X-41.296 Y-27.344 E7.48362
G1 X-40.922 Y-27.869 E0.04974
G1 X27.862 Y40.914 E7.50239
G1 X28.377 Y40.530 E0.04958
G1 X-40.547 Y-28.394 E7.51778
G1 X-40.173 Y-28.919 E0.04974
G1 X28.893 Y40.146 E7.53317
G1 X29.408 Y39.762 E0.04958
G1 X-39.798 Y-29.444 E7.54857
G1 X-39.424 Y-29.969 E0.04974
G1 X29.924 Y39.378 E7.56396
G1 X30.440 Y38.994 E0.04958
G1 X-39.045 Y-30.490 E7.57893
G1 X-38.632 Y-30.976 E0.04922
G1 X30.955 Y38.610 E7.59005
G1 X31.463 Y38.219 E0.04947
G1 X-38.218 Y-31.462 E7.60036
G1 X-37.804 Y-31.948 E0.04922
G1 X31.937 Y37.793 E7.60695
G1 X32.411 Y37.368 E0.04913
G1 X-37.391 Y-32.434 E7.61353
G1 X-36.977 Y-32.920 E0.04922
G1 X32.886 Y36.942 E7.62012
G1 X33.360 Y36.517 E0.04913
G1 X-36.563 Y-33.406 E7.62670
G1 X-36.128 Y-33.870 E0.04909
G1 X33.834 Y36.091 E7.63090
G1 X34.308 Y35.666 E0.04913
G1 X-35.678 Y-34.320 E7.63355
G1 X-35.228 Y-34.770 E0.04906
G1 X34.761 Y35.220 E7.63398
G1 X35.207 Y34.765 E0.04906
G1 X-34.778 Y-35.219 E7.63340
G1 X-34.323 Y-35.664 E0.04906
G1 X35.642 Y34.301 E7.63126
G1 X36.076 Y33.836 E0.04909
G1 X-33.869 Y-36.109 E7.62911
G1 X-33.414 Y-36.554 E0.04906
G1 X36.511 Y33.371 E7.62696
G1 X36.946 Y32.906 E0.04909
G1 X-32.947 Y-36.987 E7.62344
G1 X-32.452 Y-37.392 E0.04930
G1 X37.381 Y32.442 E7.61695
G1 X37.792 Y31.954 E0.04924
G1 X-31.958 Y-37.797 E7.60791
G1 X-31.464 Y-38.202 E0.04930
G1 X38.188 Y31.449 E7.59708
G1 X38.583 Y30.944 E0.04942
G1 X-30.969 Y-38.608 E7.58625
G1 X-30.475 Y-39.013 E0.04930
G1 X38.978 Y30.440 E7.57542
G1 X39.373 Y29.935 E0.04942
G1 X-29.981 Y-39.418 E7.56458
G1 X-29.469 Y-39.806 E0.04952
G1 X39.768 Y29.431 E7.55189
G1 X40.163 Y28.926 E0.04942
G1 X-28.934 Y-40.170 E7.53655
G1 X-28.398 Y-40.534 E0.04995
G1 X40.529 Y28.392 E7.51804
G1 X40.882 Y27.846 E0.05017
G1 X-27.862 Y-40.898 E7.49818
G1 X-27.327 Y-41.262 E0.04995
G1 X41.236 Y27.300 E7.47831
G1 X41.589 Y26.754 E0.05017
G1 X-26.791 Y-41.626 E7.45844
G1 X-26.256 Y-41.990 E0.04995
G1 X41.943 Y26.208 E7.43857
G1 X42.296 Y25.662 E0.05017
G1 X-25.695 Y-42.329 E7.41597
G1 X-25.117 Y-42.651 E0.05100
G1 X42.650 Y25.116 E7.39154
G1 X42.964 Y24.531 E0.05123
G1 X-24.540 Y-42.973 E7.36286
G1 X-23.962 Y-43.295 E0.05100
G1 X43.275 Y23.942 E7.33380
G1 X43.586 Y23.354 E0.05134
G1 X-23.385 Y-43.618 E7.30475
G1 X-22.807 Y-43.940 E0.05100
G1 X43.897 Y22.765 E7.27570
G1 X44.208 Y22.176 E0.05134
G1 X-22.222 Y-44.253 E7.24572
G1 X-21.599 Y-44.531 E0.05254
G1 X44.520 Y21.588 E7.21180
G1 X44.811 Y20.980 E0.05200
G1 X-20.977 Y-44.808 E7.17578
G1 X-20.355 Y-45.086 E0.05254
G1 X45.077 Y20.346 E7.13689
G1 X45.343 Y19.712 E0.05302
G1 X-19.733 Y-45.363 E7.09800
G1 X-19.111 Y-45.641 E0.05254
G1 X45.608 Y19.078 E7.05911
G1 X45.874 Y18.444 E0.05302
G1 X-18.489 Y-45.918 E7.02022
G1 X-17.845 Y-46.174 E0.05344
G1 X46.139 Y17.810 E6.97895
G1 X46.405 Y17.176 E0.05302
G1 X-17.174 Y-46.403 E6.93479
G1 X-16.504 Y-46.632 E0.05465
G1 X46.625 Y16.497 E6.88571
G1 X46.843 Y15.815 E0.05522
G1 X-15.834 Y-46.862 E6.83631
G1 X-15.163 Y-47.091 E0.05465
G1 X47.060 Y15.133 E6.78692
G1 X47.278 Y14.451 E0.05522
G1 X-14.493 Y-47.320 E6.73752
G1 X-13.808 Y-47.535 E0.05535
G1 X47.496 Y13.769 E6.68656
G1 X47.713 Y13.087 E0.05522
G1 X-13.087 Y-47.714 E6.63168
G1 X-12.366 Y-47.893 E0.05727
G1 X47.880 Y12.354 E6.57126
G1 X48.044 Y11.619 E0.05811
G1 X-11.646 Y-48.072 E6.51058
G1 X-10.925 Y-48.250 E0.05727
G1 X48.209 Y10.883 E6.44989
G1 X48.373 Y10.148 E0.05811
G1 X-10.204 Y-48.429 E6.38914
G1 X-9.446 Y-48.571 E0.05946
G1 X48.537 Y9.413 E6.32442
G1 X48.696 Y8.672 E0.05845
G1 X-8.668 Y-48.692 E6.25684
G1 X-7.890 Y-48.814 E0.06074
G1 X48.801 Y7.877 E6.18342
G1 X48.906 Y7.082 E0.06182
G1 X-7.112 Y-48.935 E6.11000
G1 X-6.334 Y-49.057 E0.06074
G1 X49.011 Y6.288 E6.03659
G1 X49.116 Y5.493 E0.06182
G1 X-5.546 Y-49.169 E5.96219
G1 X-4.704 Y-49.227 E0.06509
G1 X49.221 Y4.699 E5.88181
G1 X49.282 Y3.861 E0.06481
G1 X-3.862 Y-49.284 E5.79668
G1 X-3.021 Y-49.342 E0.06509
G1 X49.320 Y2.999 E5.70896
G1 X49.358 Y2.137 E0.06654
G1 X-2.179 Y-49.400 E5.62123
G1 X-1.332 Y-49.452 E0.06545
G1 X49.396 Y1.275 E5.53296
G1 X49.433 Y0.413 E0.06654
G1 X-0.414 Y-49.434 E5.43697
G1 X0.504 Y-49.416 E0.07079
G1 X49.418 Y-0.502 E5.33517
G1 X49.376 Y-1.443 E0.07263
G1 X1.422 Y-49.398 E5.23059
G1 X2.339 Y-49.380 E0.07079
G1 X49.335 Y-2.384 E5.12601
G1 X49.294 Y-3.325 E0.07263
G1 X3.285 Y-49.334 E5.01835
G1 X4.294 Y-49.224 E0.07830
G1 X49.241 Y-4.277 E4.90247
G1 X49.104 Y-5.314 E0.08065
G1 X5.304 Y-49.114 E4.77743
G1 X6.313 Y-49.005 E0.07830
G1 X48.967 Y-6.351 E4.65240
G1 X48.830 Y-7.387 E0.08065
G1 X7.322 Y-48.895 E4.52737
G1 X8.442 Y-48.675 E0.08799
G1 X48.693 Y-8.424 E4.39031
G1 X48.440 Y-9.576 E0.09096
G1 X9.566 Y-48.450 E4.24013
G1 X10.691 Y-48.225 E0.08845
G1 X48.182 Y-10.734 E4.08924
G1 X47.923 Y-11.893 E0.09155
G1 X11.832 Y-47.984 E3.93652
G1 X13.109 Y-47.607 E0.10268
G1 X47.626 Y-13.089 E3.76496
G1 X47.205 Y-14.410 E0.10694
G1 X14.385 Y-47.229 E3.57974
G1 X15.662 Y-46.852 E0.10268
G1 X46.784 Y-15.731 E3.39452
G1 X46.331 Y-17.083 F15000.000
G1 X17.108 Y-46.306 E3.18740 F960.000
G1 X18.598 Y-45.716 F15000.000
G1 X45.682 Y-18.631 E2.95423 F960.000
G1 X45.034 Y-20.179 F15000.000
G1 X20.100 Y-45.113 E2.71963 F960.000
G1 X21.906 Y-44.207 F15000.000
G1 X44.211 Y-21.902 E2.43290 F960.000
G1 X43.202 Y-23.810 F15000.000
G1 X23.712 Y-43.301 E2.12590 F960.000
G1 X26.015 Y-41.897 F15000.000
G1 X41.885 Y-26.027 E1.73098 F960.000
G1 X40.190 Y-28.622 F15000.000
G1 X28.744 Y-40.067 E1.24838 F960.000
G1 X34.128 Y-35.583 F15000.000
G1 X35.076 Y-34.635 E0.10335 F960.000
G1 X-17.098 Y46.333 F15000.000
G1 X-46.338 Y17.093 E3.18929 F960.000
G1 X-45.811 Y18.520 F15000.000
G1 X-18.547 Y45.783 E2.97371 F960.000
G1 X-20.174 Y45.056 F15000.000
G1 X-45.080 Y20.150 E2.71659 F960.000
G1 X-44.281 Y21.849 F15000.000
G1 X-21.801 Y44.329 E2.45199 F960.000
G1 X-23.797 Y43.233 F15000.000
G1 X-43.296 Y23.734 E2.12677 F960.000
