; generated by Slic3r 1.2.9 on 2019-08-15 at 16:06:16

; external perimeters extrusion width = 0.40mm
; perimeters extrusion width = 0.40mm
; infill extrusion width = 0.40mm
; solid infill extrusion width = 0.40mm
; top infill extrusion width = 0.40mm

M107
M83
T0
M116
G21 ; set units to millimeters
G90 ; use absolute coordinates
M83 ; use relative distances for extrusion
G1 E-3.50000 F1500.00000
G1 Z0.400 F15000.000
G1 X11.501 Y7.640 F15000.000
G1 Z0.300 F15000.000
G1 E3.50000 F1500.00000
G1 X-3.688 Y30.505 E2.11545 F960.000
G1 X-5.050 Y31.236 E0.11914
G1 X-22.950 Y31.236 E1.37947
G1 X-24.007 Y30.848 E0.08680
G1 X-24.586 Y29.600 E0.10599
G1 X-24.586 Y-29.600 E4.56228
G1 X-24.198 Y-30.657 E0.08680
G1 X-22.950 Y-31.236 E0.10599
G1 X22.950 Y-31.236 E3.53731
G1 X24.007 Y-30.848 E0.08680
G1 X24.586 Y-29.600 E0.10599 F960.000
G1 X24.586 Y-12.550 E1.31397
G1 X24.312 Y-11.645 E0.07286
G1 X11.535 Y7.590 E1.77964
G1 E-3.50000 F1500.00000
G1 Z0.700 F15000.000
G1 X-6.036 Y21.686 F15000.000
G1 Z0.300 F15000.000
G1 E3.50000 F1500.00000
G1 X-6.036 Y28.614 E0.53393 F720.000
G1 X-21.964 Y28.614 E1.22756
G1 X-21.964 Y-28.614 E4.41036
G1 X21.964 Y-28.614 E3.38539
G1 X21.964 Y-13.536 E1.16205
G1 X8.959 Y-13.536 E1.00224 F720.000
G1 X6.647 Y-13.354 E0.17872
G1 X4.353 Y-12.803 E0.18186
G1 X2.173 Y-11.900 E0.18186
G1 X0.160 Y-10.667 E0.18186
G1 X-1.634 Y-9.134 E0.18186
G1 X-3.167 Y-7.340 E0.18186
G1 X-4.400 Y-5.327 E0.18186
G1 X-5.303 Y-3.147 E0.18186
G1 X-5.854 Y-0.853 E0.18186
G1 X-6.036 Y1.459 E0.17872
G1 X-6.036 Y21.626 E1.55416
G1 X-5.400 Y21.626 F15000.000
G1 X-5.400 Y29.250 E0.58754 F720.000
G1 X-22.600 Y29.250 E1.32553
G1 X-22.600 Y-29.250 E4.50833
G1 X22.600 Y-29.250 E3.48336
G1 X22.600 Y-12.900 E1.26002
G1 X8.984 Y-12.900 E1.04930 F720.000
G1 X6.747 Y-12.724 E0.17294
G1 X4.550 Y-12.196 E0.17415
G1 X2.462 Y-11.332 E0.17415
G1 X0.535 Y-10.151 E0.17415
G1 X-1.183 Y-8.683 E0.17415
G1 X-2.651 Y-6.965 E0.17415
G1 X-3.832 Y-5.038 E0.17415
G1 X-4.696 Y-2.950 E0.17415
G1 X-5.224 Y-0.753 E0.17415
G1 X-5.400 Y1.484 E0.17294
G1 X-5.400 Y21.566 E1.54762
G1 X-5.746 Y21.826 F15000.000
G1 X-21.579 Y27.919 F15000.000
G1 X-21.269 Y28.229 E0.03378 F960.000
G1 X-20.369 Y28.229 E0.06944
G1 X-21.579 Y27.019 E0.13198
G1 X-21.579 Y26.119 E0.06944
G1 X-19.469 Y28.229 E0.23018
G1 X-18.569 Y28.229 E0.06944
G1 X-21.579 Y25.219 E0.32839
G1 X-21.579 Y24.319 E0.06944
G1 X-17.669 Y28.229 E0.42659
G1 X-16.770 Y28.229 E0.06944
G1 X-21.579 Y23.420 E0.52479
G1 X-21.579 Y22.520 E0.06944
G1 X-15.870 Y28.229 E0.62299
G1 X-14.970 Y28.229 E0.06944
G1 X-21.579 Y21.620 E0.72119
G1 X-21.579 Y20.720 E0.06944
G1 X-14.070 Y28.229 E0.81939
G1 X-13.170 Y28.229 E0.06944
G1 X-21.579 Y19.820 E0.91760
G1 X-21.579 Y18.920 E0.06944
G1 X-12.270 Y28.229 E1.01580
G1 X-11.370 Y28.229 E0.06944
G1 X-21.579 Y18.020 E1.11400
G1 X-21.579 Y17.120 E0.06944
G1 X-10.470 Y28.229 E1.21220
G1 X-9.570 Y28.229 E0.06944
G1 X-21.579 Y16.220 E1.31040
G1 X-21.579 Y15.320 E0.06944
G1 X-8.670 Y28.229 E1.40860
G1 X-7.770 Y28.229 E0.06944
G1 X-21.579 Y14.420 E1.50680
G1 X-21.579 Y13.520 E0.06944
G1 X-6.870 Y28.229 E1.60500
G1 X-6.421 Y27.778 E0.04910
G1 X-21.579 Y12.620 E1.65398
G1 X-21.579 Y11.720 E0.06944
G1 X-6.421 Y26.878 E1.65398
G1 X-6.421 Y25.978 E0.06944
G1 X-21.579 Y10.820 E1.65398
G1 X-21.579 Y9.920 E0.06944
G1 X-6.421 Y25.078 E1.65398
G1 X-6.421 Y24.178 E0.06944
G1 X-21.579 Y9.020 E1.65398
G1 X-21.579 Y8.120 E0.06944
G1 X-6.421 Y23.278 E1.65398
G1 X-6.421 Y22.378 E0.06944
G1 X-21.579 Y7.220 E1.65398
G1 X-21.579 Y6.320 E0.06944
G1 X-6.421 Y21.478 E1.65398
G1 X-6.421 Y20.578 E0.06944
G1 X-21.579 Y5.420 E1.65398
G1 X-21.579 Y4.520 E0.06944
G1 X-6.421 Y19.678 E1.65398
G1 X-6.421 Y18.778 E0.06944
G1 X-21.579 Y3.620 E1.65398
G1 X-21.579 Y2.720 E0.06944
G1 X-6.421 Y17.878 E1.65398
G1 X-6.421 Y16.978 E0.06944
G1 X-21.579 Y1.820 E1.65398
G1 X-21.579 Y0.920 E0.06944
G1 X-6.421 Y16.078 E1.65398
G1 X-6.421 Y15.178 E0.06944
G1 X-21.579 Y0.020 E1.65398
G1 X-21.579 Y-0.880 E0.06944
G1 X-6.421 Y14.278 E1.65398
G1 X-6.421 Y13.378 E0.06944
G1 X-21.579 Y-1.780 E1.65398
G1 X-21.579 Y-2.680 E0.06944
G1 X-6.421 Y12.478 E1.65398
G1 X-6.421 Y11.578 E0.06944
G1 X-21.579 Y-3.580 E1.65398
G1 X-21.579 Y-4.480 E0.06944
G1 X-6.421 Y10.678 E1.65398
G1 X-6.421 Y9.778 E0.06944
G1 X-21.579 Y-5.379 E1.65398
G1 X-21.579 Y-6.279 E0.06944
G1 X-6.421 Y8.878 E1.65398
G1 X-6.421 Y7.978 E0.06944
G1 X-21.579 Y-7.179 E1.65398
G1 X-21.579 Y-8.079 E0.06944
G1 X-6.421 Y7.079 E1.65398
G1 X-6.421 Y6.179 E0.06944
G1 X-21.579 Y-8.979 E1.65398
G1 X-21.579 Y-9.879 E0.06944
G1 X-6.421 Y5.279 E1.65398
G1 X-6.421 Y4.379 E0.06944
G1 X-21.579 Y-10.779 E1.65398
G1 X-21.579 Y-11.679 E0.06944
G1 X-6.421 Y3.479 E1.65398
G1 X-6.421 Y2.579 E0.06944
G1 X-21.579 Y-12.579 E1.65398
G1 X-21.579 Y-13.479 E0.06944
G1 X-6.421 Y1.679 E1.65398
G1 X-6.363 Y0.837 E0.06512
G1 X-21.579 Y-14.379 E1.66031
G1 X-21.579 Y-15.279 E0.06944
G1 X-6.297 Y0.002 E1.66747
G1 X-6.227 Y-0.828 E0.06427
G1 X-21.579 Y-16.179 E1.67510
G1 X-21.579 Y-17.079 E0.06944
G1 X-6.053 Y-1.553 E1.69411
G1 X-5.879 Y-2.279 E0.05759
G1 X-21.579 Y-17.979 E1.71312
G1 X-21.579 Y-18.879 E0.06944
G1 X-5.705 Y-3.005 E1.73213
G1 X-5.462 Y-3.662 E0.05405
G1 X-21.579 Y-19.779 E1.75863
G1 X-21.579 Y-20.679 E0.06944
G1 X-5.198 Y-4.298 E1.78739
G1 X-4.935 Y-4.935 E0.05315
G1 X-21.579 Y-21.579 E1.81615
G1 X-21.579 Y-22.479 E0.06944
G1 X-4.654 Y-5.554 E1.84682
G1 X-4.312 Y-6.112 E0.05050
G1 X-21.579 Y-23.379 E1.88413
G1 X-21.579 Y-24.279 E0.06944
G1 X-3.970 Y-6.670 E1.92144
G1 X-3.628 Y-7.228 E0.05050
G1 X-21.579 Y-25.179 E1.95875
G1 X-21.579 Y-26.079 E0.06944
G1 X-3.250 Y-7.750 E1.99996
G1 X-2.836 Y-8.235 E0.04925
G1 X-21.579 Y-26.979 E2.04520
G1 X-21.579 Y-27.879 E0.06944
G1 X-2.421 Y-8.721 E2.09043
G1 X-2.007 Y-9.206 E0.04925
G1 X-21.029 Y-28.229 E2.07569
G1 X-20.129 Y-28.229 E0.06944
G1 X-1.545 Y-9.644 E2.02787
G1 X-1.059 Y-10.059 E0.04925
G1 X-19.229 Y-28.229 E1.98264
G1 X-18.329 Y-28.229 E0.06944
G1 X-0.574 Y-10.474 E1.93740
G1 X-0.089 Y-10.888 E0.04925
G1 X-17.429 Y-28.229 E1.89216
G1 X-16.529 Y-28.229 E0.06944
G1 X0.458 Y-11.242 E1.85359
G1 X1.016 Y-11.584 E0.05050
G1 X-15.629 Y-28.229 E1.81628
G1 X-14.729 Y-28.229 E0.06944
G1 X1.574 Y-11.926 E1.77897
G1 X2.141 Y-12.259 E0.05072
G1 X-13.829 Y-28.229 E1.74260
G1 X-12.930 Y-28.229 E0.06944
G1 X2.777 Y-12.522 E1.71383
G1 X3.413 Y-12.786 E0.05315
G1 X-12.030 Y-28.229 E1.68507
G1 X-11.130 Y-28.229 E0.06944
G1 X4.050 Y-13.050 E1.65631
G1 X4.737 Y-13.263 E0.05549
G1 X-10.230 Y-28.229 E1.63306
G1 X-9.330 Y-28.229 E0.06944
G1 X5.462 Y-13.437 E1.61405
G1 X6.188 Y-13.611 E0.05759
G1 X-8.430 Y-28.229 E1.59504
G1 X-7.530 Y-28.229 E0.06944
G1 X6.946 Y-13.754 E1.57950
G1 X7.780 Y-13.819 E0.06457
G1 X-6.630 Y-28.229 E1.57234
G1 X-5.730 Y-28.229 E0.06944
G1 X8.614 Y-13.885 E1.56517
G1 X9.478 Y-13.921 E0.06671
G1 X-4.830 Y-28.229 E1.56123
G1 X-3.930 Y-28.229 E0.06944
G1 X10.378 Y-13.921 E1.56123
G1 X11.278 Y-13.921 E0.06944
G1 X-3.030 Y-28.229 E1.56123
G1 X-2.130 Y-28.229 E0.06944
G1 X12.178 Y-13.921 E1.56123
G1 X13.078 Y-13.921 E0.06944
G1 X-1.230 Y-28.229 E1.56123
G1 X-0.330 Y-28.229 E0.06944
G1 X13.978 Y-13.921 E1.56123
G1 X14.878 Y-13.921 E0.06944
G1 X0.570 Y-28.229 E1.56123
G1 X1.470 Y-28.229 E0.06944
G1 X15.778 Y-13.921 E1.56123
G1 X16.678 Y-13.921 E0.06944
G1 X2.370 Y-28.229 E1.56123
G1 X3.270 Y-28.229 E0.06944
G1 X17.578 Y-13.921 E1.56123
G1 X18.478 Y-13.921 E0.06944
G1 X4.170 Y-28.229 E1.56123
G1 X5.070 Y-28.229 E0.06944
G1 X19.378 Y-13.921 E1.56123
G1 X20.278 Y-13.921 E0.06944
G1 X5.970 Y-28.229 E1.56123
G1 X6.870 Y-28.229 E0.06944
G1 X21.178 Y-13.921 E1.56123
G1 X21.579 Y-14.420 E0.04939
G1 X7.770 Y-28.229 E1.50681
G1 X8.670 Y-28.229 E0.06944
G1 X21.579 Y-15.320 E1.40861
G1 X21.579 Y-16.220 E0.06944
G1 X9.570 Y-28.229 E1.31041
G1 X10.470 Y-28.229 E0.06944
G1 X21.579 Y-17.120 E1.21221
G1 X21.579 Y-18.020 E0.06944
G1 X11.370 Y-28.229 E1.11401
G1 X12.270 Y-28.229 E0.06944
G1 X21.579 Y-18.920 E1.01580
G1 X21.579 Y-19.820 E0.06944
G1 X13.170 Y-28.229 E0.91760
G1 X14.070 Y-28.229 E0.06944
G1 X21.579 Y-20.720 E0.81940
G1 X21.579 Y-21.620 E0.06944
G1 X14.970 Y-28.229 E0.72120
G1 X15.869 Y-28.229 E0.06944
G1 X21.579 Y-22.519 E0.62300
G1 X21.579 Y-23.419 E0.06944
G1 X16.769 Y-28.229 E0.52480
G1 X17.669 Y-28.229 E0.06944
G1 X21.579 Y-24.319 E0.42660
G1 X21.579 Y-25.219 E0.06944
G1 X18.569 Y-28.229 E0.32839
G1 X19.469 Y-28.229 E0.06944
G1 X21.579 Y-26.119 E0.23019
G1 X21.579 Y-27.019 E0.06944
G1 X20.369 Y-28.229 E0.13199
G1 X21.269 Y-28.229 E0.06944
G1 X21.579 Y-27.919 E0.03379
G1 E-3.50000 F1500.00000
G1 Z0.700 F15000.000
G1 X-5.607 Y15.245 F15000.000
G1 Z0.500 F15000.000
G1 E3.50000 F1500.00000
G1 X-5.607 Y29.293 E0.40545 F3600.000
G1 X-22.393 Y29.293 E0.48448
G1 X-22.393 Y-29.293 E1.69094
G1 X22.393 Y-29.293 E1.29264
G1 X22.393 Y-13.107 E0.46717
G1 X8.976 Y-13.107 E0.38724 F3600.000
G1 X6.715 Y-12.929 E0.06547
G1 X4.486 Y-12.394 E0.06617
G1 X2.368 Y-11.517 E0.06617
G1 X0.413 Y-10.319 E0.06617
G1 X-1.330 Y-8.830 E0.06617
G1 X-2.819 Y-7.087 E0.06617
G1 X-4.017 Y-5.132 E0.06617
G1 X-4.894 Y-3.014 E0.06617
G1 X-5.429 Y-0.785 E0.06617
G1 X-5.607 Y1.476 E0.06547
G1 X-5.607 Y15.185 E0.39568
G1 X-5.250 Y15.185 F15000.000
G1 X-5.250 Y29.650 E0.41749 F3600.000
G1 X-22.750 Y29.650 E0.50510
G1 X-22.750 Y-29.650 E1.71156
G1 X22.750 Y-29.650 E1.31325
G1 X22.750 Y-12.750 E0.48778
G1 X8.990 Y-12.750 E0.39715 F3600.000
G1 X6.771 Y-12.575 E0.06426
G1 X4.596 Y-12.053 E0.06454
G1 X2.530 Y-11.198 E0.06454
G1 X0.624 Y-10.029 E0.06454
G1 X-1.077 Y-8.577 E0.06454
G1 X-2.529 Y-6.876 E0.06454
G1 X-3.698 Y-4.970 E0.06454
G1 X-4.553 Y-2.904 E0.06454
G1 X-5.075 Y-0.729 E0.06454
G1 X-5.250 Y1.490 E0.06426
G1 X-5.250 Y15.125 E0.39354
G1 X-5.596 Y15.385 F15000.000
G1 X-6.006 Y29.085 F15000.000
G1 X-5.815 Y28.894 E0.00786 F4800.000
G1 X-5.815 Y28.386 E0.01475
G1 X-6.514 Y29.085 E0.02872
G1 X-7.022 Y29.085 E0.01475
G1 X-5.815 Y27.878 E0.04957
G1 X-5.815 Y27.370 E0.01475
G1 X-7.530 Y29.085 E0.07042
G1 X-8.038 Y29.085 E0.01475
G1 X-5.815 Y26.862 E0.09128
G1 X-5.815 Y26.354 E0.01475
G1 X-8.546 Y29.085 E0.11213
G1 X-9.054 Y29.085 E0.01475
G1 X-5.815 Y25.846 E0.13298
G1 X-5.815 Y25.338 E0.01475
G1 X-9.562 Y29.085 E0.15384
G1 X-10.070 Y29.085 E0.01475
G1 X-5.815 Y24.830 E0.17469
G1 X-5.815 Y24.322 E0.01475
G1 X-10.578 Y29.085 E0.19554
G1 X-11.086 Y29.085 E0.01475
G1 X-5.815 Y23.814 E0.21640
G1 X-5.815 Y23.306 E0.01475
G1 X-11.594 Y29.085 E0.23725
G1 X-12.101 Y29.085 E0.01475
G1 X-5.815 Y22.799 E0.25810
G1 X-5.815 Y22.291 E0.01475
G1 X-12.609 Y29.085 E0.27896
G1 X-13.117 Y29.085 E0.01475
G1 X-5.815 Y21.783 E0.29981
G1 X-5.815 Y21.275 E0.01475
G1 X-13.625 Y29.085 E0.32067
G1 X-14.133 Y29.085 E0.01475
G1 X-5.815 Y20.767 E0.34152
G1 X-5.815 Y20.259 E0.01475
G1 X-14.641 Y29.085 E0.36237
G1 X-15.149 Y29.085 E0.01475
G1 X-5.815 Y19.751 E0.38323
G1 X-5.815 Y19.243 E0.01475
G1 X-15.657 Y29.085 E0.40408
G1 X-16.165 Y29.085 E0.01475
G1 X-5.815 Y18.735 E0.42493
G1 X-5.815 Y18.227 E0.01475
G1 X-16.673 Y29.085 E0.44579
G1 X-17.181 Y29.085 E0.01475
G1 X-5.815 Y17.719 E0.46664
G1 X-5.815 Y17.211 E0.01475
G1 X-17.689 Y29.085 E0.48749
G1 X-18.197 Y29.085 E0.01475
G1 X-5.815 Y16.703 E0.50835
G1 X-5.815 Y16.195 E0.01475
G1 X-18.705 Y29.085 E0.52920
G1 X-19.213 Y29.085 E0.01475
G1 X-5.815 Y15.687 E0.55005
G1 X-5.815 Y15.180 E0.01475
G1 X-19.720 Y29.085 E0.57091
G1 X-20.228 Y29.085 E0.01475
G1 X-5.815 Y14.672 E0.59176
G1 X-5.815 Y14.164 E0.01475
G1 X-20.736 Y29.085 E0.61261
G1 X-21.244 Y29.085 E0.01475
G1 X-5.815 Y13.656 E0.63347
G1 X-5.815 Y13.148 E0.01475
G1 X-21.752 Y29.085 E0.65432
G1 X-22.185 Y29.010 E0.01276
G1 X-5.815 Y12.640 E0.67210
G1 X-5.815 Y12.132 E0.01475
G1 X-22.185 Y28.502 E0.67210
G1 X-22.185 Y27.994 E0.01475
G1 X-5.815 Y11.624 E0.67210
G1 X-5.815 Y11.116 E0.01475
G1 X-22.185 Y27.486 E0.67210
G1 X-22.185 Y26.979 E0.01475
G1 X-5.815 Y10.608 E0.67210
G1 X-5.815 Y10.100 E0.01475
G1 X-22.185 Y26.471 E0.67210
G1 X-22.185 Y25.963 E0.01475
G1 X-5.815 Y9.592 E0.67210
G1 X-5.815 Y9.084 E0.01475
G1 X-22.185 Y25.455 E0.67210
G1 X-22.185 Y24.947 E0.01475
G1 X-5.815 Y8.576 E0.67210
G1 X-5.815 Y8.069 E0.01475
G1 X-22.185 Y24.439 E0.67210
G1 X-22.185 Y23.931 E0.01475
G1 X-5.815 Y7.561 E0.67210
G1 X-5.815 Y7.053 E0.01475
G1 X-22.185 Y23.423 E0.67210
G1 X-22.185 Y22.915 E0.01475
G1 X-5.815 Y6.545 E0.67210
G1 X-5.815 Y6.037 E0.01475
G1 X-22.185 Y22.407 E0.67210
G1 X-22.185 Y21.899 E0.01475
G1 X-5.815 Y5.529 E0.67210
G1 X-5.815 Y5.021 E0.01475
G1 X-22.185 Y21.391 E0.67210
G1 X-22.185 Y20.883 E0.01475
G1 X-5.815 Y4.513 E0.67210
G1 X-5.815 Y4.005 E0.01475
G1 X-22.185 Y20.375 E0.67210
G1 X-22.185 Y19.868 E0.01475
G1 X-5.815 Y3.497 E0.67210
G1 X-5.815 Y2.989 E0.01475
G1 X-22.185 Y19.360 E0.67210
G1 X-22.185 Y18.852 E0.01475
G1 X-5.815 Y2.481 E0.67210
G1 X-5.815 Y1.973 E0.01475
G1 X-22.185 Y18.344 E0.67210
G1 X-22.185 Y17.836 E0.01475
G1 X-5.815 Y1.465 E0.67210
G1 X-5.778 Y0.921 E0.01585
G1 X-22.185 Y17.328 E0.67361
G1 X-22.185 Y16.820 E0.01475
G1 X-5.735 Y0.369 E0.67539
G1 X-5.691 Y-0.182 E0.01605
G1 X-22.185 Y16.312 E0.67718
G1 X-22.185 Y15.804 E0.01475
G1 X-5.648 Y-0.733 E0.67896
G1 X-5.524 Y-1.365 E0.01869
G1 X-22.185 Y15.296 E0.68404
G1 X-22.185 Y14.788 E0.01475
G1 X-5.363 Y-2.034 E0.69063
G1 X-5.203 Y-2.702 E0.01996
G1 X-22.185 Y14.280 E0.69722
G1 X-22.185 Y13.772 E0.01475
G1 X-4.985 Y-3.428 E0.70616
G1 X-4.626 Y-4.295 F15000.000
G1 X-22.185 Y13.264 E0.72090 F4800.000
G1 X-22.185 Y12.756 E0.01475
G1 X-4.267 Y-5.162 E0.73565
G1 X-3.553 Y-6.384 F15000.000
G1 X-22.185 Y12.249 E0.76496 F4800.000
G1 X-22.185 Y11.741 E0.01475
G1 X-2.145 Y-8.300 E0.82277
G1 X-0.800 Y-9.645 F15000.000
G1 X18.641 Y-29.085 E0.79814 F4800.000
G1 X18.133 Y-29.085 E0.01475
G1 X-22.185 Y11.233 E1.65529
G1 X-22.185 Y10.725 E0.01475
G1 X17.625 Y-29.085 E1.63443
G1 X17.117 Y-29.085 E0.01475
G1 X-22.185 Y10.217 E1.61358
G1 X-22.185 Y9.709 E0.01475
G1 X16.609 Y-29.085 E1.59273
G1 X16.101 Y-29.085 E0.01475
G1 X-22.185 Y9.201 E1.57187
G1 X-22.185 Y8.693 E0.01475
G1 X15.593 Y-29.085 E1.55102
G1 X15.085 Y-29.085 E0.01475
G1 X-22.185 Y8.185 E1.53017
G1 X-22.185 Y7.677 E0.01475
G1 X14.577 Y-29.085 E1.50931
G1 X14.069 Y-29.085 E0.01475
G1 X-22.185 Y7.169 E1.48846
G1 X-22.185 Y6.661 E0.01475
G1 X13.561 Y-29.085 E1.46760
G1 X13.053 Y-29.085 E0.01475
G1 X-22.185 Y6.153 E1.44675
G1 X-22.185 Y5.645 E0.01475
G1 X12.545 Y-29.085 E1.42590
G1 X12.038 Y-29.085 E0.01475
G1 X-22.185 Y5.138 E1.40504
G1 X-22.185 Y4.630 E0.01475
G1 X11.530 Y-29.085 E1.38419
G1 X11.022 Y-29.085 E0.01475
G1 X-22.185 Y4.122 E1.36334
G1 X-22.185 Y3.614 E0.01475
G1 X10.514 Y-29.085 E1.34248
G1 X10.006 Y-29.085 E0.01475
G1 X-22.185 Y3.106 E1.32163
G1 X-22.185 Y2.598 E0.01475
G1 X9.498 Y-29.085 E1.30078
G1 X8.990 Y-29.085 E0.01475
G1 X-22.185 Y2.090 E1.27992
G1 X-22.185 Y1.582 E0.01475
G1 X8.482 Y-29.085 E1.25907
G1 X7.974 Y-29.085 E0.01475
G1 X-22.185 Y1.074 E1.23822
G1 X-22.185 Y0.566 E0.01475
G1 X7.466 Y-29.085 E1.21736
G1 X6.958 Y-29.085 E0.01475
G1 X-22.185 Y0.058 E1.19651
G1 X-22.185 Y-0.450 E0.01475
G1 X6.450 Y-29.085 E1.17565
G1 X5.942 Y-29.085 E0.01475
G1 X-22.185 Y-0.958 E1.15480
G1 X-22.185 Y-1.466 E0.01475
G1 X5.434 Y-29.085 E1.13395
G1 X4.926 Y-29.085 E0.01475
G1 X-22.185 Y-1.974 E1.11309
G1 X-22.185 Y-2.481 E0.01475
G1 X4.419 Y-29.085 E1.09224
G1 X3.911 Y-29.085 E0.01475
G1 X-22.185 Y-2.989 E1.07139
G1 X-22.185 Y-3.497 E0.01475
G1 X3.403 Y-29.085 E1.05053
G1 X2.895 Y-29.085 E0.01475
G1 X-22.185 Y-4.005 E1.02968
G1 X-22.185 Y-4.513 E0.01475
G1 X2.387 Y-29.085 E1.00883
G1 X1.879 Y-29.085 E0.01475
G1 X-22.185 Y-5.021 E0.98797
G1 X-22.185 Y-5.529 E0.01475
G1 X1.371 Y-29.085 E0.96712
G1 X0.863 Y-29.085 E0.01475
G1 X-22.185 Y-6.037 E0.94627
G1 X-22.185 Y-6.545 E0.01475
G1 X0.355 Y-29.085 E0.92541
G1 X-0.153 Y-29.085 E0.01475
G1 X-22.185 Y-7.053 E0.90456
G1 X-22.185 Y-7.561 E0.01475
G1 X-0.661 Y-29.085 E0.88371
G1 X-1.169 Y-29.085 E0.01475
G1 X-22.185 Y-8.069 E0.86285
G1 X-22.185 Y-8.577 E0.01475
G1 X-1.677 Y-29.085 E0.84200
G1 X-2.185 Y-29.085 E0.01475
G1 X-22.185 Y-9.085 E0.82114
G1 X-22.185 Y-9.592 E0.01475
G1 X-2.692 Y-29.085 E0.80029
G1 X-3.200 Y-29.085 E0.01475
