; generated by Slic3r 1.2.9 on 2020-09-01 at 15:14:07

; external perimeters extrusion width = 0.40mm
; perimeters extrusion width = 0.40mm
; infill extrusion width = 0.40mm
; solid infill extrusion width = 0.40mm
; top infill extrusion width = 0.40mm

M107
M83
T0
M116
G21 ; set units to millimeters
G90 ; use absolute coordinates
M83 ; use relative distances for extrusion
G1 E-4.20000 F1500.00000
G1 Z1.000 F15000.000
G1 X0.000 Y10.450 F15000.000
G1 Z0.300 F15000.000
G1 E4.20000 F1500.00000
G1 X-8.289 Y10.450 E0.63877 F2400.000
G1 X-9.936 Y10.056 E0.13052
G1 X-11.380 Y8.728 E0.15124
G1 X-14.058 Y4.399 E0.39225
G1 X-14.602 Y2.486 E0.15326
G1 X-14.602 Y-12.876 E1.18392
G1 X-14.208 Y-14.523 E0.13052
G1 X-13.110 Y-15.813 E0.13052
G1 X-10.967 Y-16.512 E0.17373
G1 X10.967 Y-16.512 E1.69029
G1 X12.614 Y-16.117 E0.13052
G1 X13.903 Y-15.019 E0.13052 F2400.000
G1 X14.602 Y-12.876 E0.17373
G1 X14.602 Y2.486 E1.18392
G1 X14.058 Y4.399 E0.15326
G1 X11.380 Y8.728 E0.39225
G1 X10.178 Y9.921 E0.13052
G1 X8.289 Y10.450 E0.15124
G1 X0.060 Y10.450 E0.63415
G1 E-4.20000 F1500.00000
G1 Z1.300 F15000.000
G1 X4.854 Y1.501 F15000.000
G1 Z0.300 F15000.000
G1 E4.20000 F1500.00000
G1 X-9.981 Y1.501 E1.14325 F2400.000
G1 X-9.981 Y-2.533 E0.31088
G1 X9.981 Y-2.533 E1.53838
G1 X9.981 Y1.501 E0.31088
G1 X4.914 Y1.501 E0.39050 F2400.000
G1 X4.914 Y2.136 F15000.000
G1 X-7.048 Y2.136 E0.92181 F2400.000
G1 X-7.048 Y6.465 E0.33357
G1 X-7.940 Y6.465 E0.06875
G1 X-7.953 Y2.136 E0.33357
G1 X-10.617 Y2.136 E0.20528
G1 X-10.617 Y-12.526 E1.12998
G1 X-9.227 Y-12.526 E0.10711
G1 X-9.227 Y-3.169 E0.72113
G1 X9.227 Y-3.169 E1.42212 F2400.000
G1 X9.227 Y-12.526 E0.72113
G1 X10.617 Y-12.526 E0.10711
G1 X10.617 Y2.136 E1.12998
G1 X7.953 Y2.136 E0.20528
G1 X7.940 Y6.465 E0.33357
G1 X7.048 Y6.465 E0.06875
G1 X7.048 Y2.136 E0.33357
G1 X4.974 Y2.136 E0.15982
G1 X4.714 Y1.790 F15000.000
G1 X7.501 Y1.819 F15000.000
G1 X7.494 Y6.147 E0.33357 F2400.000
G1 E-4.20000 F1500.00000
G1 Z1.300 F15000.000
G1 X9.596 Y-1.838 F15000.000
G1 Z0.300 F15000.000
G1 E4.20000 F1500.00000
G1 X9.286 Y-2.148 E0.03416 F2400.000
G1 X8.376 Y-2.148 E0.07096
G1 X9.596 Y-0.928 E0.13452
G1 X9.596 Y-0.019 E0.07096
G1 X7.466 Y-2.148 E0.23487
G1 X6.557 Y-2.148 E0.07096
G1 X9.596 Y0.891 E0.33523
G1 X8.910 Y1.115 E0.05627
G1 X5.647 Y-2.148 E0.35995
G1 X4.737 Y-2.148 E0.07096
G1 X8.000 Y1.115 E0.35995
G1 X7.090 Y1.115 E0.07096
G1 X3.827 Y-2.148 E0.35995
G1 X2.917 Y-2.148 E0.07096
G1 X6.181 Y1.115 E0.35995
G1 X5.271 Y1.115 E0.07096
G1 X2.008 Y-2.148 E0.35995
G1 X1.098 Y-2.148 E0.07096
G1 X4.361 Y1.115 E0.35995
G1 X3.451 Y1.115 E0.07096
G1 X0.188 Y-2.148 E0.35995
G1 X-0.722 Y-2.148 E0.07096
G1 X2.541 Y1.115 E0.35995
G1 X1.632 Y1.115 E0.07096
G1 X-1.632 Y-2.148 E0.35995
G1 X-2.541 Y-2.148 E0.07096
G1 X0.722 Y1.115 E0.35995
G1 X-0.188 Y1.115 E0.07096
G1 X-3.451 Y-2.148 E0.35995
G1 X-4.361 Y-2.148 E0.07096
G1 X-1.098 Y1.115 E0.35995
G1 X-2.008 Y1.115 E0.07096
G1 X-5.271 Y-2.148 E0.35995
G1 X-6.181 Y-2.148 E0.07096
G1 X-2.917 Y1.115 E0.35995
G1 X-3.827 Y1.115 E0.07096
G1 X-7.090 Y-2.148 E0.35995
G1 X-8.000 Y-2.148 E0.07096
G1 X-4.737 Y1.115 E0.35995
G1 X-5.647 Y1.115 E0.07096
G1 X-8.910 Y-2.148 E0.35995
G1 X-9.596 Y-1.924 E0.05627
G1 X-6.557 Y1.115 E0.33523
G1 X-7.466 Y1.115 E0.07096
G1 X-9.596 Y-1.014 E0.23487
G1 X-9.596 Y-0.104 E0.07096
G1 X-8.376 Y1.115 E0.13451
G1 X-9.286 Y1.115 E0.07096
G1 X-9.596 Y0.806 E0.03416
G1 X-7.501 Y1.819 F15000.000
G1 X-7.494 Y6.147 E0.33357 F2400.000
G1 E-4.20000 F1500.00000
G1 Z1.300 F15000.000
G1 X-9.922 Y-2.851 F15000.000
G1 Z0.300 F15000.000
G1 E4.20000 F1500.00000
G1 X-9.922 Y-12.208 E1.51530 F2400.000
G1 E-4.20000 F1500.00000
G1 Z1.300 F15000.000
G1 X9.922 Y-12.208 F15000.000
G1 Z0.300 F15000.000
G1 E4.20000 F1500.00000
G1 X9.922 Y-2.851 E1.51530 F2400.000
G1 E-4.20000 F1500.00000
G1 Z1.300 F15000.000
G1 X7.842 Y4.827 F15000.000
G1 Z0.500 F15000.000
G1 E4.20000 F1500.00000
G1 X7.834 Y6.933 E0.06078 F2400.000
G1 X7.126 Y6.933 E0.02043
G1 X7.115 Y2.069 E0.14040
G1 X-7.115 Y2.069 E0.41074
G1 X-7.126 Y6.933 E0.14040
G1 X-7.834 Y6.933 E0.02043
G1 X-7.842 Y2.069 E0.14040
G1 X-10.549 Y2.069 E0.07815
G1 X-10.549 Y-12.458 E0.41929
G1 X-9.368 Y-12.458 E0.03410
G1 X-9.368 Y-3.102 E0.27006
G1 X9.368 Y-3.102 E0.54076 F2400.000
G1 X9.368 Y-12.458 E0.27006
G1 X10.549 Y-12.458 E0.03410
G1 X10.549 Y2.069 E0.41929
G1 X7.842 Y2.069 E0.07815
G1 X7.842 Y4.767 E0.07789
G1 X8.199 Y4.767 F15000.000
G1 X8.189 Y7.015 E0.06487 F2400.000
G1 X8.181 Y7.290 E0.01399 F4800.000
G1 X6.784 Y7.290 E0.07097
G1 X6.772 Y7.015 E0.01400
G1 X6.758 Y6.677 E0.00975 F2400.000
G1 X6.758 Y2.426 E0.12271
G1 X-6.758 Y2.426 E0.39013
G1 X-6.758 Y6.677 E0.12271
G1 X-6.772 Y7.015 E0.00975
G1 X-6.784 Y7.290 E0.01400 F4800.000
G1 X-8.181 Y7.290 E0.07097
G1 X-8.189 Y7.015 E0.01399
G1 X-8.199 Y2.426 E0.13245 F2400.000
G1 X-10.906 Y2.426 E0.07815
G1 X-10.906 Y-12.815 E0.43990
G1 X-9.011 Y-12.815 E0.05471
G1 X-9.011 Y-3.459 E0.27006
G1 X9.011 Y-3.459 E0.52015
G1 X9.011 Y-12.815 E0.27006
G1 X10.906 Y-12.815 E0.05471
G1 X10.906 Y2.426 E0.43990
G1 X8.199 Y2.426 E0.07815
G1 X8.199 Y4.707 E0.06586
G1 X7.852 Y4.966 F15000.000
G1 X7.479 Y6.754 F15000.000
G1 X7.479 Y1.890 E0.29768 F2400.000
G1 X10.150 Y1.861 F15000.000
G1 X10.342 Y1.669 E0.00783 F2400.000
G1 X10.342 Y1.163 E0.01464
G1 X9.644 Y1.861 E0.02853
G1 X9.138 Y1.861 E0.01464
G1 X10.342 Y0.657 E0.04923
G1 X10.342 Y0.151 E0.01464
G1 X8.632 Y1.861 E0.06993
G1 X8.126 Y1.861 E0.01464
G1 X10.342 Y-0.355 E0.09063
G1 X10.342 Y-0.861 E0.01464
G1 X7.798 Y1.682 E0.10403
G1 X7.292 Y1.682 E0.01464
G1 X10.342 Y-1.367 E0.12473
G1 X10.342 Y-1.873 E0.01464
G1 X6.608 Y1.861 E0.15273
G1 X6.102 Y1.861 E0.01464
G1 X10.342 Y-2.379 E0.17343
G1 X10.342 Y-2.885 E0.01464
G1 X5.596 Y1.861 E0.19413
G1 X5.090 Y1.861 E0.01464
G1 X10.342 Y-3.391 E0.21483
G1 X10.342 Y-3.897 E0.01464
G1 X9.576 Y-3.131 E0.03133
G1 X9.338 Y-2.894 F15000.000
G1 X4.583 Y1.861 E0.19448 F2400.000
G1 X4.077 Y1.861 E0.01464
G1 X8.832 Y-2.894 E0.19448
G1 X8.326 Y-2.894 E0.01464
G1 X3.571 Y1.861 E0.19448
G1 X3.065 Y1.861 E0.01464
G1 X7.820 Y-2.894 E0.19448
G1 X7.314 Y-2.894 E0.01464
G1 X2.559 Y1.861 E0.19448
G1 X2.053 Y1.861 E0.01464
G1 X6.808 Y-2.894 E0.19448
G1 X6.302 Y-2.894 E0.01464
G1 X1.547 Y1.861 E0.19448
G1 X1.041 Y1.861 E0.01464
G1 X5.796 Y-2.894 E0.19448
G1 X5.290 Y-2.894 E0.01464
G1 X0.535 Y1.861 E0.19448
G1 X0.029 Y1.861 E0.01464
G1 X4.784 Y-2.894 E0.19448
G1 X4.278 Y-2.894 E0.01464
G1 X-0.477 Y1.861 E0.19448
G1 X-0.983 Y1.861 E0.01464
G1 X3.771 Y-2.894 E0.19448
G1 X3.265 Y-2.894 E0.01464
G1 X-1.489 Y1.861 E0.19448
G1 X-1.995 Y1.861 E0.01464
G1 X2.759 Y-2.894 E0.19448
G1 X2.253 Y-2.894 E0.01464
G1 X-2.501 Y1.861 E0.19448
G1 X-3.007 Y1.861 E0.01464
G1 X1.747 Y-2.894 E0.19448
G1 X1.241 Y-2.894 E0.01464
G1 X-3.513 Y1.861 E0.19448
G1 X-4.019 Y1.861 E0.01464
G1 X0.735 Y-2.894 E0.19448
G1 X0.229 Y-2.894 E0.01464
G1 X-4.525 Y1.861 E0.19448
G1 X-5.032 Y1.861 E0.01464
G1 X-0.277 Y-2.894 E0.19448
G1 X-0.783 Y-2.894 E0.01464
G1 X-5.538 Y1.861 E0.19448
G1 X-6.044 Y1.861 E0.01464
G1 X-1.289 Y-2.894 E0.19448
G1 X-1.795 Y-2.894 E0.01464
G1 X-6.550 Y1.861 E0.19448
G1 X-6.877 Y1.682 E0.01079
G1 X-2.301 Y-2.894 E0.18718
G1 X-2.807 Y-2.894 E0.01464
G1 X-7.383 Y1.682 E0.18718
G1 X-7.889 Y1.682 E0.01464
G1 X-3.313 Y-2.894 E0.18718
G1 X-3.819 Y-2.894 E0.01464
G1 X-8.574 Y1.861 E0.19448
G1 X-9.080 Y1.861 E0.01464
G1 X-4.325 Y-2.894 E0.19448
G1 X-4.831 Y-2.894 E0.01464
G1 X-9.586 Y1.861 E0.19448
G1 X-10.092 Y1.861 E0.01464
G1 X-5.337 Y-2.894 E0.19448
G1 X-5.844 Y-2.894 E0.01464
G1 X-10.342 Y1.604 E0.18399
G1 X-10.342 Y1.098 E0.01464
G1 X-6.350 Y-2.894 E0.16329
G1 X-6.856 Y-2.894 E0.01464
G1 X-10.342 Y0.592 E0.14259
G1 X-10.342 Y0.086 E0.01464
G1 X-7.362 Y-2.894 E0.12189
G1 X-7.868 Y-2.894 E0.01464
G1 X-10.342 Y-0.420 E0.10119
G1 X-10.342 Y-0.926 E0.01464
G1 X-8.374 Y-2.894 E0.08049
G1 X-8.880 Y-2.894 E0.01464
G1 X-10.342 Y-1.432 E0.05979
G1 X-10.342 Y-1.938 E0.01464
G1 X-9.386 Y-2.894 E0.03909
G1 X-9.576 Y-3.210 F15000.000
G1 X-10.342 Y-2.444 E0.03133 F2400.000
G1 X-10.342 Y-2.950 E0.01464
G1 X-9.576 Y-3.716 E0.03133
G1 X-9.576 Y-4.222 E0.01464
G1 X-10.342 Y-3.456 E0.03133
G1 X-10.342 Y-3.962 E0.01464
G1 X-9.576 Y-4.728 E0.03133
G1 X-9.576 Y-5.234 E0.01464
G1 X-10.342 Y-4.468 E0.03133
G1 X-10.342 Y-4.974 E0.01464
G1 X-9.576 Y-5.740 E0.03133
G1 X-9.576 Y-6.246 E0.01464
G1 X-10.342 Y-5.481 E0.03133
G1 X-10.342 Y-5.987 E0.01464
G1 X-9.576 Y-6.753 E0.03133
G1 X-9.576 Y-7.259 E0.01464
G1 X-10.342 Y-6.493 E0.03133
G1 X-10.342 Y-6.999 E0.01464
G1 X-9.576 Y-7.765 E0.03133
G1 X-9.576 Y-8.271 E0.01464
G1 X-10.342 Y-7.505 E0.03133
G1 X-10.342 Y-8.011 E0.01464
G1 X-9.576 Y-8.777 E0.03133
G1 X-9.576 Y-9.283 E0.01464
G1 X-10.342 Y-8.517 E0.03133
G1 X-10.342 Y-9.023 E0.01464
G1 X-9.576 Y-9.789 E0.03133
G1 X-9.576 Y-10.295 E0.01464
G1 X-10.342 Y-9.529 E0.03133
G1 X-10.342 Y-10.035 E0.01464
G1 X-9.576 Y-10.801 E0.03133
G1 X-9.576 Y-11.307 E0.01464
G1 X-10.342 Y-10.541 E0.03133
G1 X-10.342 Y-11.047 E0.01464
G1 X-9.576 Y-11.813 E0.03133
G1 X-9.644 Y-12.251 E0.01281
G1 X-10.342 Y-11.553 E0.02853
G1 X-10.342 Y-12.059 E0.01464
G1 X-10.150 Y-12.251 E0.00783
G1 E-4.20000 F1500.00000
G1 Z1.500 F15000.000
G1 X9.576 Y-11.734 F15000.000
G1 Z0.500 F15000.000
G1 E4.20000 F1500.00000
G1 X10.092 Y-12.251 E0.02112 F2400.000
G1 X10.342 Y-11.994 E0.01035
G1 X9.576 Y-11.228 E0.03133
G1 X9.576 Y-10.722 E0.01464
G1 X10.342 Y-11.488 E0.03133
G1 X10.342 Y-10.982 E0.01464
G1 X9.576 Y-10.216 E0.03133
G1 X9.576 Y-9.710 E0.01464
G1 X10.342 Y-10.476 E0.03133
G1 X10.342 Y-9.970 E0.01464
G1 X9.576 Y-9.204 E0.03133
G1 X9.576 Y-8.698 E0.01464
G1 X10.342 Y-9.464 E0.03133
G1 X10.342 Y-8.958 E0.01464
G1 X9.576 Y-8.192 E0.03133
G1 X9.576 Y-7.686 E0.01464
G1 X10.342 Y-8.452 E0.03133
G1 X10.342 Y-7.946 E0.01464
G1 X9.576 Y-7.180 E0.03133
G1 X9.576 Y-6.674 E0.01464
G1 X10.342 Y-7.440 E0.03133
G1 X10.342 Y-6.934 E0.01464
G1 X9.576 Y-6.168 E0.03133
G1 X9.576 Y-5.662 E0.01464
G1 X10.342 Y-6.428 E0.03133
G1 X10.342 Y-5.922 E0.01464
G1 X9.576 Y-5.156 E0.03133
G1 X9.576 Y-4.650 E0.01464
G1 X10.342 Y-5.415 E0.03133
G1 X10.342 Y-4.909 E0.01464
G1 X9.576 Y-4.143 E0.03133
G1 X9.576 Y-3.637 E0.01464
G1 X10.342 Y-4.403 E0.03133
G1 E-4.20000 F1500.00000
G1 Z1.500 F15000.000
G1 X-7.479 Y1.890 F15000.000
G1 Z0.500 F15000.000
G1 E4.20000 F1500.00000
G1 X-7.479 Y6.754 E0.29768 F2400.000
G1 E-4.20000 F1500.00000
G1 Z1.500 F15000.000
G1 X-7.886 Y3.614 F15000.000
G1 Z0.700 F15000.000
G1 E4.20000 F1500.00000
G1 X-7.886 Y2.132 E0.04280 F2400.000
G1 X-10.613 Y2.132 E0.07871
G1 X-10.613 Y-12.521 E0.42292
G1 X-9.338 Y-12.521 E0.03679
G1 X-9.338 Y-3.165 E0.27006
G1 X9.338 Y-3.165 E0.53904 F2400.000
G1 X9.338 Y-12.521 E0.27006
G1 X10.613 Y-12.521 E0.03679
G1 X10.613 Y2.132 E0.42292
G1 X7.886 Y2.132 E0.07871
G1 X7.886 Y7.473 E0.15418
G1 X7.052 Y7.473 E0.02405
G1 X7.052 Y2.132 E0.15418
G1 X-7.052 Y2.132 E0.40710
G1 X-7.052 Y7.473 E0.15418
G1 X-7.886 Y7.473 E0.02405
G1 X-7.886 Y3.674 E0.10965
G1 X-8.243 Y3.674 F15000.000
G1 X-8.243 Y2.489 E0.03423 F2400.000
G1 X-10.970 Y2.489 E0.07871
G1 X-10.970 Y-12.878 E0.44354
G1 X-8.981 Y-12.878 E0.05740
G1 X-8.981 Y-3.522 E0.27006
G1 X8.981 Y-3.522 E0.51843
G1 X8.981 Y-12.878 E0.27006
G1 X10.970 Y-12.878 E0.05740
G1 X10.970 Y2.489 E0.44354
G1 X8.243 Y2.489 E0.07871
G1 X8.243 Y7.690 E0.15013
G1 X8.243 Y7.830 E0.00713 F4800.000
G1 X6.720 Y7.830 E0.07731
G1 X6.697 Y7.690 E0.00723
G1 X6.695 Y2.489 E0.15013 F2400.000
G1 X-6.695 Y2.489 E0.38649
G1 X-6.697 Y7.690 E0.15013
G1 X-6.720 Y7.830 E0.00723 F4800.000
G1 X-8.243 Y7.830 E0.07731
G1 X-8.243 Y7.690 E0.00713
G1 X-8.243 Y3.734 E0.11417 F2400.000
G1 X-7.896 Y3.474 F15000.000
G1 X-7.469 Y1.953 F15000.000
G1 X-7.469 Y7.295 E0.32689 F2400.000
G1 E-4.20000 F1500.00000
G1 Z1.700 F15000.000
G1 X7.469 Y7.295 F15000.000
G1 Z0.700 F15000.000
G1 E4.20000 F1500.00000
G1 X7.469 Y1.953 E0.32689 F2400.000
G1 X7.100 Y1.745 F15000.000
G1 X1.280 Y-2.957 E0.21596 F2400.000
G1 X-1.522 Y-2.957 E0.08087
G1 X3.358 Y1.924 E0.19922
G1 X1.652 Y1.924 E0.04925
G1 X-4.390 Y-2.957 E0.22419
G1 X-6.572 Y-2.957 E0.06297
G1 X-1.692 Y1.924 E0.19922
G1 X-4.018 Y1.924 E0.06715
G1 X-10.405 Y-3.233 E0.23693
G1 X-10.405 Y-1.740 E0.04311
G1 X-6.920 Y1.745 E0.14224
G1 X-9.688 Y1.924 E0.08006
G1 X-10.405 Y1.319 E0.02707
G1 X-9.546 Y-5.930 F15000.000
G1 X-10.405 Y-6.789 E0.03506 F2400.000
G1 X-9.546 Y-7.066 E0.02604
G1 X-10.405 Y-7.785 E0.03234
G1 X-9.546 Y-10.980 E0.09549
G1 X-10.405 Y-11.839 E0.03506
G1 X-10.369 Y-12.309 E0.01359
G1 X-9.546 Y-11.618 E0.03103
G1 E-4.20000 F1500.00000
G1 Z1.700 F15000.000
G1 X10.405 Y-11.229 F15000.000
G1 Z0.700 F15000.000
G1 E4.20000 F1500.00000
G1 X9.546 Y-12.088 E0.03506 F2400.000
G1 X9.546 Y-9.977 E0.06094
G1 X10.405 Y-9.257 E0.03234
G1 X9.546 Y-7.038 E0.06867
G1 X10.405 Y-6.179 E0.03506
G1 X9.546 Y-5.425 E0.03300
G1 X10.405 Y-4.705 E0.03234
G1 X8.577 Y-2.957 F15000.000
G1 X10.405 Y-1.130 E0.07459 F2400.000
G1 X10.405 Y-0.153 E0.02818
G1 X6.950 Y-2.957 E0.12843
G1 X3.527 Y-2.957 E0.09877
G1 X8.408 Y1.924 E0.19922
M106 S255
G1 E-4.20000 F1500.00000
G1 Z1.700 F15000.000
G1 X-7.886 Y6.118 F15000.000
G1 Z0.900 F15000.000
G1 E4.20000 F1500.00000
G1 X-7.886 Y2.132 E0.11505 F2400.000
G1 X-10.613 Y2.132 E0.07871
G1 X-10.613 Y-12.521 E0.42292
G1 X-9.338 Y-12.521 E0.03679
G1 X-9.338 Y-3.165 E0.27006
G1 X9.338 Y-3.165 E0.53904 F2400.000
G1 X9.338 Y-12.521 E0.27006
G1 X10.613 Y-12.521 E0.03679
G1 X10.613 Y2.132 E0.42292
G1 X7.886 Y2.132 E0.07871
G1 X7.886 Y8.013 E0.16976
G1 X7.052 Y8.013 E0.02405
G1 X7.052 Y2.132 E0.16976
G1 X-7.052 Y2.132 E0.40710
G1 X-7.052 Y8.013 E0.16976
G1 X-7.886 Y8.013 E0.02405
G1 X-7.886 Y6.178 E0.05297
G1 X-8.243 Y6.178 F15000.000
G1 X-8.243 Y2.489 E0.10648 F2400.000
G1 X-10.970 Y2.489 E0.07871
G1 X-10.970 Y-12.878 E0.44354
G1 X-8.981 Y-12.878 E0.05740
G1 X-8.981 Y-3.522 E0.27006
G1 X8.981 Y-3.522 E0.51843
G1 X8.981 Y-12.878 E0.27006
G1 X10.970 Y-12.878 E0.05740
G1 X10.970 Y2.489 E0.44354
G1 X8.243 Y2.489 E0.07871
G1 X8.243 Y8.230 E0.16572
M106 S255
G1 X8.243 Y8.370 E0.00710 F4800.000
G1 X6.695 Y8.370 E0.07858
G1 X6.695 Y8.230 E0.00710
M106 S255
G1 X6.695 Y2.489 E0.16572 F2400.000
G1 X-6.695 Y2.489 E0.38649
G1 X-6.695 Y8.230 E0.16572
M106 S255
G1 X-6.695 Y8.370 E0.00710 F4800.000
G1 X-8.243 Y8.370 E0.07858
G1 X-8.243 Y8.230 E0.00710
M106 S255
G1 X-8.243 Y6.238 E0.05752 F2400.000
G1 X-7.896 Y5.978 F15000.000
G1 X-7.469 Y7.835 F15000.000
G1 X-7.469 Y1.953 E0.35992 F2400.000
G1 X7.469 Y1.953 F15000.000
G1 X7.469 Y7.835 E0.35992 F2400.000
G1 E-4.20000 F1500.00000
G1 Z1.900 F15000.000
G1 X9.611 Y1.924 F15000.000
G1 Z0.900 F15000.000
G1 E4.20000 F1500.00000
G1 X10.405 Y1.130 E0.03242 F2400.000
G1 X7.105 Y1.745 E0.09688
G1 X10.405 Y-2.327 E0.15128
G1 X9.546 Y-3.061 E0.03261
G1 X10.405 Y-3.920 E0.03506
G1 X9.441 Y-2.957 F15000.000
G1 X4.561 Y1.924 E0.19922 F2400.000
G1 X2.410 Y1.924 E0.06208
G1 X6.358 Y-2.957 E0.18119
G1 X4.392 Y-2.957 E0.05676
G1 X-0.489 Y1.924 E0.19922
G1 X-2.142 Y1.924 E0.04770
G1 X1.806 Y-2.957 E0.18119
G1 X-0.658 Y-2.957 E0.07113
G1 X-5.539 Y1.924 E0.19922
G1 X-6.694 Y1.924 E0.03333
G1 X-2.746 Y-2.957 E0.18119
G1 X-5.708 Y-2.957 E0.08550
G1 X-10.405 Y1.740 E0.19171
G1 X-10.405 Y0.876 E0.02493
G1 X-7.298 Y-2.957 E0.14241
G1 E-4.20000 F1500.00000
G1 Z1.900 F15000.000
G1 X-9.546 Y-4.169 F15000.000
G1 Z0.900 F15000.000
G1 E4.20000 F1500.00000
G1 X-10.405 Y-3.310 E0.03506 F2400.000
G1 X-10.405 Y-4.794 E0.04283
G1 X-9.546 Y-5.827 E0.03877
G1 X-10.405 Y-8.360 E0.07721
G1 X-9.546 Y-9.219 E0.03506
G1 X-10.405 Y-10.464 E0.04366
G1 X-9.546 Y-11.497 E0.03877
G1 E-4.20000 F1500.00000
G1 Z1.900 F15000.000
G1 X9.546 Y-8.111 F15000.000
G1 Z0.900 F15000.000
G1 E4.20000 F1500.00000
G1 X10.405 Y-8.970 E0.03506 F2400.000
G1 X10.405 Y-7.997 E0.02807
G1 X9.546 Y-6.965 E0.03877
G1 E-4.20000 F1500.00000
G1 Z1.900 F15000.000
G1 X9.338 Y-7.721 F15000.000
G1 Z1.100 F15000.000
G1 E4.20000 F1500.00000
G1 X9.338 Y-12.521 E0.13856 F2400.000
G1 X10.613 Y-12.521 E0.03679
G1 X10.613 Y2.132 E0.42292
G1 X7.886 Y2.132 E0.07871
G1 X7.886 Y8.550 E0.18524
G1 X7.052 Y8.550 E0.02405
G1 X7.052 Y2.132 E0.18524
G1 X-7.052 Y2.132 E0.40710
