; generated by Slic3r 1.2.9 on 2020-09-01 at 15:09:39

; external perimeters extrusion width = 0.40mm
; perimeters extrusion width = 0.40mm
; infill extrusion width = 0.40mm
; solid infill extrusion width = 0.40mm
; top infill extrusion width = 0.40mm

M107
M83
T0
M116
G21 ; set units to millimeters
G90 ; use absolute coordinates
M83 ; use relative distances for extrusion
G1 E-4.20000 F1500.00000
G1 Z1.000 F15000.000
G1 X4.773 Y20.557 F15000.000
G1 Z0.300 F15000.000
G1 E4.20000 F1500.00000
G1 X-0.786 Y21.848 E0.43986 F960.000
G1 X-1.609 Y21.942 E0.06379
G1 X-23.521 Y21.942 E1.68869
G1 X-25.168 Y21.547 E0.13052
G1 X-26.458 Y20.449 E0.13052
G1 X-27.157 Y18.306 E0.17373
G1 X-27.157 Y-17.586 E2.76606
G1 X-26.762 Y-19.233 E0.13052
G1 X-25.664 Y-20.523 E0.13052
G1 X-23.747 Y-21.215 E0.15708
G1 X1.372 Y-22.779 E1.93955
G1 X23.532 Y-22.786 E1.70782
G1 X25.179 Y-22.391 E0.13052
G1 X26.469 Y-21.294 E0.13052 F960.000
G1 X27.168 Y-19.150 E0.17373
G1 X27.168 Y8.760 E2.15094
G1 X26.625 Y10.672 E0.15318
G1 X23.947 Y15.002 E0.39232
G1 X22.746 Y16.196 E0.13052
G1 X21.677 Y16.632 E0.08891
G1 X4.832 Y20.543 E1.33277
G1 E-4.20000 F1500.00000
G1 Z1.300 F15000.000
G1 X-9.669 Y14.203 F15000.000
G1 Z0.300 F15000.000
G1 E4.20000 F1500.00000
G1 X-10.059 Y14.203 E0.03007 F600.000
G1 X-10.183 Y14.502 E0.02494
G1 X-10.616 Y15.079 E0.05557
G1 X-11.186 Y15.519 E0.05551
G1 X-11.858 Y15.798 E0.05605
G1 X-12.560 Y15.877 E0.05444
G1 X-13.262 Y15.798 E0.05444
G1 X-13.927 Y15.522 E0.05550
G1 X-14.510 Y15.085 E0.05613
G1 X-14.947 Y14.502 E0.05613
G1 X-15.223 Y13.837 E0.05550
G1 X-15.302 Y13.135 E0.05444
G1 X-15.223 Y12.433 E0.05444
G1 X-14.944 Y11.761 E0.05605
G1 X-14.504 Y11.191 E0.05551
G1 X-13.921 Y10.753 E0.05620
G1 X-13.234 Y10.482 E0.05689
G1 X-12.560 Y10.390 E0.05244 F600.000
G1 X-11.847 Y10.487 E0.05544
G1 X-11.186 Y10.761 E0.05514
G1 X-10.622 Y11.197 E0.05496
G1 X-10.186 Y11.761 E0.05496
G1 X-9.912 Y12.422 E0.05514
G1 X-9.677 Y14.144 E0.13389
G1 X-10.397 Y13.567 F15000.000
G1 X-10.484 Y13.567 E0.00667 F600.000
G1 X-10.740 Y14.185 E0.05149
G1 X-11.073 Y14.628 E0.04275
G1 X-11.508 Y14.964 E0.04235
G1 X-12.019 Y15.176 E0.04264
G1 X-12.560 Y15.238 E0.04197
G1 X-13.101 Y15.176 E0.04197
G1 X-13.610 Y14.965 E0.04243
G1 X-14.056 Y14.631 E0.04296
G1 X-14.390 Y14.185 E0.04296
G1 X-14.601 Y13.676 E0.04243
G1 X-14.663 Y13.135 E0.04197
G1 X-14.601 Y12.594 E0.04197
G1 X-14.389 Y12.083 E0.04264
G1 X-14.053 Y11.648 E0.04235
G1 X-13.607 Y11.313 E0.04297
G1 X-13.072 Y11.101 E0.04438
G1 X-12.560 Y11.031 E0.03982 F600.000
G1 X-12.015 Y11.106 E0.04242
G1 X-11.508 Y11.316 E0.04229
G1 X-11.075 Y11.650 E0.04214
G1 X-10.741 Y12.083 E0.04214
G1 X-10.531 Y12.590 E0.04229
G1 X-10.405 Y13.508 E0.07143
G1 X-10.393 Y13.654 F15000.000
G1 X-11.858 Y5.798 F15000.000
G1 X-12.560 Y5.877 E0.05444 F600.000
G1 X-13.262 Y5.798 E0.05444
G1 X-13.927 Y5.522 E0.05550
G1 X-14.510 Y5.085 E0.05613
G1 X-14.947 Y4.502 E0.05613
G1 X-15.223 Y3.837 E0.05550
G1 X-15.302 Y3.135 E0.05444
G1 X-15.223 Y2.433 E0.05444
G1 X-14.944 Y1.761 E0.05605
G1 X-14.504 Y1.191 E0.05551
G1 X-13.921 Y0.753 E0.05620
G1 X-13.234 Y0.482 E0.05689
G1 X-12.560 Y0.390 E0.05244 F600.000
G1 X-11.847 Y0.487 E0.05544
G1 X-11.186 Y0.761 E0.05514
G1 X-10.622 Y1.197 E0.05496
G1 X-10.186 Y1.761 E0.05496
G1 X-9.912 Y2.422 E0.05514
G1 X-9.815 Y3.135 E0.05544
G1 X-9.912 Y3.848 E0.05544
G1 X-10.183 Y4.502 E0.05459
G1 X-10.616 Y5.079 E0.05557
G1 X-11.186 Y5.519 E0.05551
G1 X-11.803 Y5.775 E0.05142
G1 X-12.019 Y5.176 F15000.000
G1 X-12.560 Y5.238 E0.04197 F600.000
G1 X-13.101 Y5.176 E0.04197
G1 X-13.610 Y4.965 E0.04243
G1 X-14.056 Y4.631 E0.04296
G1 X-14.390 Y4.185 E0.04296
G1 X-14.601 Y3.676 E0.04243
G1 X-14.663 Y3.135 E0.04197
G1 X-14.601 Y2.594 E0.04197
G1 X-14.389 Y2.083 E0.04264
G1 X-14.053 Y1.648 E0.04235
G1 X-13.607 Y1.313 E0.04297
G1 X-13.072 Y1.101 E0.04438
G1 X-12.560 Y1.031 E0.03982 F600.000
G1 X-12.015 Y1.106 E0.04242
G1 X-11.508 Y1.316 E0.04229
G1 X-11.075 Y1.650 E0.04214
G1 X-10.741 Y2.083 E0.04214
G1 X-10.531 Y2.590 E0.04229
G1 X-10.456 Y3.135 E0.04242
G1 X-10.531 Y3.680 E0.04242
G1 X-10.740 Y4.185 E0.04208
G1 X-11.073 Y4.628 E0.04275
G1 X-11.508 Y4.964 E0.04235
G1 X-11.963 Y5.153 E0.03802
G1 X-12.144 Y5.556 F15000.000
G1 E-4.20000 F1500.00000
G1 Z1.300 F15000.000
G1 X-17.748 Y-7.241 F15000.000
G1 Z0.300 F15000.000
G1 E4.20000 F1500.00000
G1 X-2.594 Y-7.241 E1.16785 F720.000
G1 X-2.594 Y17.321 E1.89282
G1 X-22.536 Y17.321 E1.53678 F720.000
G1 X-22.536 Y-7.241 E1.89282
G1 X-17.808 Y-7.241 E0.36430
G1 X-17.808 Y-7.876 F15000.000
G1 X-3.221 Y-7.876 E1.12417 F720.000
G1 X-3.221 Y-17.236 E0.72133
G1 X-1.959 Y-17.236 E0.09729
G1 X-1.959 Y17.956 E2.71212
G1 X-23.171 Y17.956 E1.63474
G1 X-23.171 Y-17.236 E2.71212
G1 X-21.909 Y-17.236 E0.09729
G1 X-21.909 Y-7.876 E0.72133
G1 X-17.868 Y-7.876 E0.31138 F720.000
G1 X-17.608 Y-7.530 F15000.000
G1 X-22.540 Y-7.558 F15000.000
G1 X-22.540 Y-16.918 E1.51572 F960.000
G1 E-4.20000 F1500.00000
G1 Z1.300 F15000.000
G1 X-2.590 Y-16.918 F15000.000
G1 Z0.300 F15000.000
G1 E4.20000 F1500.00000
G1 X-2.590 Y-7.558 E1.51572 F960.000
G1 X-2.980 Y-6.545 F15000.000
G1 X-3.290 Y-6.855 E0.03382 F960.000
G1 X-4.190 Y-6.855 E0.06958
G1 X-2.980 Y-5.645 E0.13222
G1 X-2.980 Y-4.744 E0.06958
G1 X-5.091 Y-6.855 E0.23062
G1 X-5.992 Y-6.855 E0.06958
G1 X-2.980 Y-3.843 E0.32902
G1 X-2.980 Y-2.942 E0.06958
G1 X-6.893 Y-6.855 E0.42742
G1 X-7.794 Y-6.855 E0.06958
G1 X-2.980 Y-2.041 E0.52583
G1 X-2.980 Y-1.140 E0.06958
G1 X-8.695 Y-6.855 E0.62423
G1 X-9.596 Y-6.855 E0.06958
G1 X-2.980 Y-0.239 E0.72263
G1 X-2.980 Y0.662 E0.06958
G1 X-10.497 Y-6.855 E0.82103
G1 X-11.397 Y-6.855 E0.06958
G1 X-2.980 Y1.562 E0.91943
G1 X-2.980 Y2.463 E0.06958
G1 X-12.298 Y-6.855 E1.01783
G1 X-13.199 Y-6.855 E0.06958
G1 X-2.980 Y3.364 E1.11623
G1 X-2.980 Y4.265 E0.06958
G1 X-14.100 Y-6.855 E1.21463
G1 X-15.001 Y-6.855 E0.06958
G1 X-2.980 Y5.166 E1.31303
G1 X-2.980 Y6.067 E0.06958
G1 X-15.902 Y-6.855 E1.41143
G1 X-16.803 Y-6.855 E0.06958
G1 X-2.980 Y6.968 E1.50983
G1 X-2.980 Y7.869 E0.06958
G1 X-17.704 Y-6.855 E1.60823
G1 X-18.604 Y-6.855 E0.06958
G1 X-11.643 Y0.106 E0.76037
G1 X-12.624 Y0.027 E0.07598
G1 X-19.505 Y-6.855 E0.75167
G1 X-20.406 Y-6.855 E0.06958
G1 X-13.382 Y0.169 E0.76722
G1 X-14.028 Y0.424 E0.05361
G1 X-21.307 Y-6.855 E0.79512
G1 X-22.150 Y-6.797 E0.06527
G1 X-14.545 Y0.808 E0.83066
G1 X-14.983 Y1.270 E0.04922
G1 X-22.150 Y-5.896 E0.78280
G1 X-22.150 Y-4.996 E0.06958
G1 X-15.339 Y1.816 E0.74397
G1 X-15.599 Y2.457 E0.05343
G1 X-22.150 Y-4.095 E0.71560
G1 X-22.150 Y-3.194 E0.06958
G1 X-15.691 Y3.266 E0.70556
G1 X-15.485 Y4.372 E0.08695
G1 X-22.150 Y-2.293 E0.72805
G1 X-22.150 Y-1.392 E0.06958
G1 X-3.823 Y16.935 E2.00182
G1 X-2.980 Y16.877 E0.06527
G1 X-13.797 Y6.060 E1.18158
G1 X-12.691 Y6.266 E0.08695
G1 X-2.980 Y15.976 E1.06069
G1 X-2.980 Y15.076 E0.06958
G1 X-11.882 Y6.174 E0.97233
G1 X-11.241 Y5.914 E0.05343
G1 X-2.980 Y14.175 E0.90230
G1 X-2.980 Y13.274 E0.06958
G1 X-10.695 Y5.558 E0.84273
G1 X-10.233 Y5.120 E0.04922
G1 X-2.980 Y12.373 E0.79219
G1 X-2.980 Y11.472 E0.06958
G1 X-9.852 Y4.600 E0.75058
G1 X-9.588 Y3.964 E0.05325
G1 X-2.980 Y10.571 E0.72174
G1 X-2.980 Y9.670 E0.06958
G1 X-9.452 Y3.199 E0.70689
G1 X-9.531 Y2.218 E0.07598
G1 X-2.980 Y8.769 E0.71559
G1 X-9.563 Y12.096 F15000.000
G1 X-4.724 Y16.935 E0.52857 F960.000
G1 X-5.625 Y16.935 E0.06958
G1 X-9.403 Y13.157 E0.41272
G1 X-9.261 Y14.200 E0.08131
G1 X-6.526 Y16.935 E0.29878
G1 X-7.426 Y16.935 E0.06958
G1 X-9.773 Y14.589 E0.25631
G1 X-10.194 Y15.069 E0.04931
G1 X-8.327 Y16.935 E0.20387
G1 X-9.228 Y16.935 E0.06958
G1 X-10.644 Y15.519 E0.15467
G1 X-11.177 Y15.887 E0.05001
G1 X-10.129 Y16.935 E0.11443
G1 X-11.030 Y16.935 E0.06958
G1 X-11.497 Y16.468 E0.05106
G1 X-13.733 Y16.935 F15000.000
G1 X-22.150 Y8.518 E0.91942 F960.000
G1 X-22.150 Y7.617 E0.06958
G1 X-15.549 Y14.218 E0.72106
G1 X-15.681 Y13.185 E0.08048
G1 X-22.150 Y6.716 E0.70657
G1 X-22.150 Y5.815 E0.06958
G1 X-15.577 Y12.389 E0.71802
G1 X-15.312 Y11.752 E0.05325
G1 X-22.150 Y4.914 E0.74686
G1 X-22.150 Y4.013 E0.06958
G1 X-14.944 Y11.219 E0.78710
G1 X-14.494 Y10.769 E0.04920
G1 X-22.150 Y3.112 E0.83630
G1 X-22.150 Y2.211 E0.06958
G1 X-13.963 Y10.399 E0.89428
G1 X-13.317 Y10.143 E0.05361
G1 X-22.150 Y1.311 E0.96477
G1 X-22.150 Y0.410 E0.06958
G1 X-12.544 Y10.016 E1.04924
G1 X-11.521 Y10.138 E0.07958
G1 X-22.150 Y-0.491 E1.16099
G1 X-22.150 Y9.418 F15000.000
G1 X-14.633 Y16.935 E0.82102 F960.000
G1 X-15.534 Y16.935 E0.06958
G1 X-22.150 Y10.319 E0.72262
G1 X-22.150 Y11.220 E0.06958
G1 X-16.435 Y16.935 E0.62422
G1 X-17.336 Y16.935 E0.06958
G1 X-22.150 Y12.121 E0.52582
G1 X-22.150 Y13.022 E0.06958
G1 X-18.237 Y16.935 E0.42742
G1 X-19.138 Y16.935 E0.06958
G1 X-22.150 Y13.923 E0.32902
G1 X-22.150 Y14.824 E0.06958
G1 X-20.039 Y16.935 E0.23062
G1 X-20.940 Y16.935 E0.06958
G1 X-22.150 Y15.725 E0.13222
G1 X-22.150 Y16.626 E0.06958
G1 X-21.841 Y16.935 E0.03382
G1 X-13.234 Y16.563 F15000.000
G1 X-12.514 Y16.599 E0.11669 F960.000
G1 X-11.886 Y16.563 E0.10193
G1 E-4.20000 F1500.00000
G1 Z1.300 F15000.000
G1 X10.626 Y-2.041 F15000.000
G1 Z0.300 F15000.000
G1 E4.20000 F1500.00000
G1 X10.186 Y-2.611 E0.05551 F600.000
G1 X9.907 Y-3.283 E0.05605
G1 X9.828 Y-3.985 E0.05444
G1 X9.907 Y-4.687 E0.05444
G1 X10.183 Y-5.352 E0.05550
G1 X10.620 Y-5.935 E0.05613
G1 X11.210 Y-6.377 E0.05685
G1 X11.910 Y-6.652 E0.05795
G1 X12.570 Y-6.727 E0.05117 F600.000
G1 X13.272 Y-6.648 E0.05444
G1 X13.944 Y-6.369 E0.05605
G1 X14.514 Y-5.929 E0.05551
G1 X14.947 Y-5.352 E0.05558
G1 X15.218 Y-4.698 E0.05459
G1 X15.315 Y-3.985 E0.05544
G1 X15.218 Y-3.272 E0.05544
G1 X14.944 Y-2.611 E0.05514
G1 X14.508 Y-2.047 E0.05496
G1 X13.944 Y-1.611 E0.05496
G1 X13.283 Y-1.337 E0.05514
G1 X12.570 Y-1.240 E0.05544
G1 X11.857 Y-1.337 E0.05544
G1 X11.203 Y-1.608 E0.05459
G1 X10.674 Y-2.005 E0.05095
G1 X11.076 Y-2.498 F15000.000
G1 X10.741 Y-2.933 E0.04235 F600.000
G1 X10.529 Y-3.444 E0.04264
G1 X10.467 Y-3.985 E0.04197
G1 X10.529 Y-4.526 E0.04197
G1 X10.740 Y-5.035 E0.04243
G1 X11.074 Y-5.481 E0.04296
G1 X11.523 Y-5.817 E0.04322
G1 X12.065 Y-6.030 E0.04489
G1 X12.570 Y-6.088 E0.03917 F600.000
G1 X13.111 Y-6.026 E0.04197
G1 X13.622 Y-5.814 E0.04264
G1 X14.057 Y-5.478 E0.04235
G1 X14.390 Y-5.035 E0.04275
G1 X14.599 Y-4.530 E0.04208
G1 X14.674 Y-3.985 E0.04242
G1 X14.599 Y-3.440 E0.04242
G1 X14.389 Y-2.933 E0.04229
G1 X14.055 Y-2.500 E0.04214
G1 X13.622 Y-2.166 E0.04214
G1 X13.115 Y-1.956 E0.04229
G1 X12.570 Y-1.881 E0.04242
G1 X12.025 Y-1.956 E0.04242
G1 X11.520 Y-2.165 E0.04208
G1 X11.124 Y-2.462 E0.03813
G1 X10.686 Y-2.409 F15000.000
G1 E-4.20000 F1500.00000
G1 Z1.300 F15000.000
G1 X12.326 Y-11.273 F15000.000
G1 Z0.300 F15000.000
G1 E4.20000 F1500.00000
G1 X11.857 Y-11.337 E0.03647 F600.000
G1 X11.203 Y-11.608 E0.05459
G1 X10.626 Y-12.041 E0.05558
G1 X10.186 Y-12.611 E0.05551
G1 X9.907 Y-13.283 E0.05605
G1 X9.828 Y-13.985 E0.05444
G1 X9.907 Y-14.687 E0.05444
G1 X10.183 Y-15.352 E0.05550
G1 X10.620 Y-15.935 E0.05613
G1 X11.211 Y-16.378 E0.05689
G1 X11.912 Y-16.653 E0.05808
G1 X12.570 Y-16.727 E0.05100 F600.000
G1 X14.062 Y-16.558 E0.11574
G1 X14.062 Y-16.277 E0.02159
G1 X14.514 Y-15.929 E0.04397
G1 X14.947 Y-15.352 E0.05558
G1 X15.218 Y-14.698 E0.05459
G1 X15.315 Y-13.985 E0.05544
G1 X15.218 Y-13.272 E0.05544
G1 X14.944 Y-12.611 E0.05514
G1 X14.508 Y-12.047 E0.05496
G1 X13.944 Y-11.611 E0.05496
G1 X13.283 Y-11.337 E0.05514
G1 X12.570 Y-11.240 E0.05544
G1 X12.386 Y-11.265 E0.01435
G1 X12.471 Y-11.895 F15000.000
G1 X12.025 Y-11.956 E0.03475 F600.000
G1 X11.520 Y-12.165 E0.04208
G1 X11.076 Y-12.498 E0.04275
G1 X10.741 Y-12.933 E0.04235
G1 X10.529 Y-13.444 E0.04264
G1 X10.467 Y-13.985 E0.04197
G1 X10.529 Y-14.526 E0.04197
G1 X10.740 Y-15.035 E0.04243
G1 X11.074 Y-15.481 E0.04296
G1 X11.523 Y-15.817 E0.04323
G1 X12.067 Y-16.030 E0.04502
G1 X12.570 Y-16.088 E0.03902 F600.000
G1 X13.427 Y-15.990 E0.06644
G1 X13.427 Y-15.895 E0.00732
G1 X13.622 Y-15.814 E0.01632
G1 X14.057 Y-15.478 E0.04235
G1 X14.390 Y-15.035 E0.04275
G1 X14.599 Y-14.530 E0.04208
G1 X14.674 Y-13.985 E0.04242
G1 X14.599 Y-13.440 E0.04242
G1 X14.389 Y-12.933 E0.04229
G1 X14.055 Y-12.500 E0.04214
G1 X13.622 Y-12.166 E0.04214
G1 X13.115 Y-11.956 E0.04229
G1 X12.531 Y-11.887 E0.04536
G1 X12.251 Y-11.561 F15000.000
G1 X22.547 Y-9.048 F15000.000
G1 X22.547 Y7.775 E1.29643 F720.000
G1 X2.583 Y7.775 E1.53849 F720.000
G1 X2.583 Y-18.165 E1.99903
G1 X22.547 Y-18.165 E1.53849
G1 X22.547 Y-9.108 E0.69798
G1 X23.182 Y-9.108 F15000.000
G1 X23.182 Y8.410 E1.35004 F720.000
G1 X20.519 Y8.410 E0.20527 F720.000
G1 X20.519 Y12.740 E0.33369
G1 X19.615 Y12.740 E0.06968
G1 X19.615 Y8.410 E0.33369
G1 X5.515 Y8.410 E1.08658
G1 X5.515 Y12.740 E0.33369
G1 X4.611 Y12.740 E0.06968
G1 X4.611 Y8.410 E0.33369
G1 X1.948 Y8.410 E0.20527
G1 X1.948 Y-18.800 E2.09700
G1 X23.182 Y-18.800 E1.63646
G1 X23.182 Y-9.168 E0.74234
G1 X22.836 Y-8.908 F15000.000
G1 X22.161 Y-17.470 F15000.000
G1 X21.852 Y-17.779 E0.03422 F960.000
G1 X20.940 Y-17.779 E0.07120
G1 X22.161 Y-16.558 E0.13490
G1 X22.161 Y-15.647 E0.07120
G1 X20.029 Y-17.779 E0.23559
G1 X19.118 Y-17.779 E0.07120
G1 X22.161 Y-14.736 E0.33628
G1 X22.161 Y-13.824 E0.07120
G1 X18.206 Y-17.779 E0.43696
G1 X17.295 Y-17.779 E0.07120
G1 X22.161 Y-12.913 E0.53765
G1 X22.161 Y-12.002 E0.07120
G1 X16.384 Y-17.779 E0.63834
G1 X15.473 Y-17.779 E0.07120
G1 X22.161 Y-11.091 E0.73903
G1 X22.161 Y-10.179 E0.07120
G1 X14.561 Y-17.779 E0.83971
G1 X14.448 Y-16.982 E0.06295
G1 X22.161 Y-9.268 E0.85227
G1 X22.161 Y-8.357 E0.07120
G1 X15.596 Y-14.922 E0.72539
G1 X15.679 Y-13.928 E0.07796
G1 X22.161 Y-7.445 E0.71620
G1 X22.161 Y-6.534 E0.07120
G1 X15.541 Y-13.154 E0.73142
G1 X15.274 Y-12.510 E0.05448
G1 X22.161 Y-5.623 E0.76093
G1 X22.161 Y-4.712 E0.07120
G1 X14.883 Y-11.990 E0.80419
G1 X14.409 Y-11.552 E0.05038
G1 X22.161 Y-3.800 E0.85649
G1 X22.161 Y-2.889 E0.07120
G1 X13.850 Y-11.200 E0.91826
G1 X13.187 Y-10.952 E0.05533
G1 X22.161 Y-1.978 E0.99157
G1 X22.161 Y-1.066 E0.07120
G1 X12.369 Y-10.859 E1.08192
G1 X11.185 Y-11.131 E0.09494
G1 X22.161 Y-0.155 E1.21276
G1 X22.161 Y0.756 E0.07120
G1 X3.626 Y-17.779 E2.04796
G1 X2.969 Y-17.525 E0.05505
G1 X13.464 Y-7.030 E1.15962
G1 X12.491 Y-7.092 E0.07619
G1 X2.969 Y-16.614 E1.05209
G1 X2.969 Y-15.703 E0.07120
G1 X11.722 Y-6.949 E0.96713
G1 X11.072 Y-6.688 E0.05472
G1 X2.969 Y-14.791 E0.89533
G1 X2.969 Y-13.880 E0.07120
G1 X10.551 Y-6.297 E0.83780
G1 X10.119 Y-5.819 E0.05041
G1 X2.969 Y-12.969 E0.79001
G1 X2.969 Y-12.057 E0.07120
G1 X9.771 Y-5.255 E0.75155
G1 X9.523 Y-4.592 E0.05535
G1 X2.969 Y-11.146 E0.72420
G1 X2.969 Y-10.235 E0.07120
G1 X9.450 Y-3.754 E0.71610
G1 X9.716 Y-2.576 E0.09435
G1 X2.969 Y-9.324 E0.74556
G1 X2.969 Y-8.412 E0.07120
G1 X18.770 Y7.389 E1.74589
G1 X19.682 Y7.389 E0.07120
G1 X11.144 Y-1.149 E0.94333
G1 X12.341 Y-0.862 E0.09619
G1 X20.593 Y7.389 E0.91171
G1 X21.504 Y7.389 E0.07120
G1 X13.166 Y-0.949 E0.92130
G1 X13.833 Y-1.193 E0.05553
G1 X22.161 Y7.135 E0.92015
G1 X22.161 Y6.224 E0.07120
G1 X14.396 Y-1.542 E0.85800
G1 X14.872 Y-1.976 E0.05040
G1 X22.161 Y5.313 E0.80535
G1 X22.161 Y4.401 E0.07120
G1 X15.267 Y-2.493 E0.76171
G1 X15.534 Y-3.137 E0.05448
G1 X22.161 Y3.490 E0.73220
G1 X22.161 Y2.579 E0.07120
G1 X15.676 Y-3.906 E0.71652
G1 X15.600 Y-4.894 E0.07740
G1 X22.161 Y1.667 E0.72496
G1 X17.859 Y7.389 F15000.000
G1 X2.969 Y-7.501 E1.64521 F960.000
G1 X2.969 Y-6.590 E0.07120
G1 X16.948 Y7.389 E1.54452
G1 X16.036 Y7.389 E0.07120
G1 X2.969 Y-5.678 E1.44383
G1 X2.969 Y-4.767 E0.07120
G1 X15.125 Y7.389 E1.34314
G1 X14.214 Y7.389 E0.07120
G1 X2.969 Y-3.856 E1.24246
G1 X2.969 Y-2.945 E0.07120
G1 X13.302 Y7.389 E1.14177
G1 X12.391 Y7.389 E0.07120
G1 X2.969 Y-2.033 E1.04108
G1 X2.969 Y-1.122 E0.07120
G1 X11.480 Y7.389 E0.94040
G1 X10.569 Y7.389 E0.07120
G1 X2.969 Y-0.211 E0.83971
G1 X2.969 Y0.701 E0.07120
G1 X9.657 Y7.389 E0.73902
G1 X8.746 Y7.389 E0.07120
G1 X2.969 Y1.612 E0.63833
G1 X2.969 Y2.523 E0.07120
G1 X7.835 Y7.389 E0.53765
G1 X6.923 Y7.389 E0.07120
G1 X2.969 Y3.434 E0.43696
G1 X2.969 Y4.346 E0.07120
G1 X6.012 Y7.389 E0.33627
G1 X5.101 Y7.389 E0.07120
G1 X2.969 Y5.257 E0.23559
G1 X2.969 Y6.168 E0.07120
G1 X4.190 Y7.389 E0.13490
