; generated by Slic3r 1.0.0RC2 on 2014-08-24 at 23:06:14

; layer_height = 0.24
; perimeters = 2
; top_solid_layers = 4
; bottom_solid_layers = 3
; fill_density = 0.3
; perimeter_speed = 20
; infill_speed = 20
; travel_speed = 60
; nozzle_diameter = 0.5
; filament_diameter = 1.75
; extrusion_multiplier = 1
; perimeters extrusion width = 0.50mm
; infill extrusion width = 0.87mm
; solid infill extrusion width = 0.85mm
; top infill extrusion width = 0.85mm

G21 ; set units to millimeters
M107
M104 S185 ; set temperature
G21 ; set units to millimeters
G90 ; use absolute coordinates
M83 ; use relative distances for extrusion
M140 S65; Set bed temperature
G28 ; Home all axes
G1 Z5 F200 ; lift nozzle
G1 X2 Y50 F2000; Go to wait for warm position
M116; Wait for all temperatures
G10 P1 S185 R0 ; Set extruder temperature
T1; Select extruder
M116; Wait for all temperatures
M109 S185 ; wait for temperature to be reached
G90 ; use absolute coordinates
M83 ; use relative distances for extrusion
G1 F1800.000 E-4.00000
G1 Z0.240 F3600.000
G1 X28.330 Y22.060 F3600.000
G1 E4.00000 F1800.000
G1 X29.730 Y20.250 E0.11416 F600.000
G1 X31.790 Y17.910 E0.15554
G1 X33.410 Y16.290 E0.11430
G1 X35.430 Y14.500 E0.13465
G1 X35.750 Y14.230 E0.02089
G1 X37.890 Y12.590 E0.13451
G1 X40.120 Y11.090 E0.13408
G1 X42.090 Y9.920 E0.11431
G1 X44.880 Y8.500 E0.15619
G1 X46.990 Y7.590 E0.11464
G1 X49.900 Y6.540 E0.15434
G1 X52.100 Y5.900 E0.11431
G1 X55.140 Y5.220 E0.15541
G1 X57.400 Y4.860 E0.11417
G1 X60.100 Y4.600 E0.13533
G1 X60.500 Y4.570 E0.02001
G1 X62.760 Y4.500 E0.11281
G1 X65.490 Y4.570 E0.13625
G1 X68.590 Y4.860 E0.15533
G1 X70.850 Y5.220 E0.11417
G1 X73.490 Y5.800 E0.13485
G1 X73.890 Y5.900 E0.02057
G1 X76.090 Y6.540 E0.11431
G1 X76.480 Y6.670 E0.02051
G1 X79.000 Y7.590 E0.13384
G1 X81.110 Y8.500 E0.11464
G1 X83.900 Y9.920 E0.15619
G1 X85.870 Y11.090 E0.11431
G1 X88.100 Y12.590 E0.13408
G1 X90.240 Y14.230 E0.13451
G1 X92.580 Y16.290 E0.15554
G1 X94.200 Y17.910 E0.11430
G1 X96.240 Y20.230 E0.15413
G1 X154.620 Y95.000 E4.73268
G1 X156.180 Y97.300 E0.13865
G1 X157.390 Y99.360 E0.11919
G1 X158.290 Y101.120 E0.09862
G1 X159.400 Y103.700 E0.14012
G1 X160.070 Y105.560 E0.09863
G1 X160.180 Y105.920 E0.01878
G1 X160.740 Y107.820 E0.09882
G1 X160.850 Y108.250 E0.02214
G1 X161.360 Y110.570 E0.11851
G1 X161.670 Y112.530 E0.09900
G1 X161.930 Y115.290 E0.13831
G1 X162.000 Y117.270 E0.09884
G1 X162.000 Y117.730 E0.02295
G1 X161.930 Y119.700 E0.09835
G1 X161.720 Y122.030 E0.11672
G1 X161.670 Y122.460 E0.02160
G1 X161.360 Y124.420 E0.09900
G1 X160.850 Y126.740 E0.11851
G1 X160.740 Y127.170 E0.02214
G1 X160.070 Y129.430 E0.11760
G1 X159.400 Y131.290 E0.09863
G1 X158.290 Y133.870 E0.14012
G1 X157.190 Y135.990 E0.11916
G1 X156.180 Y137.690 E0.09865
G1 X154.860 Y139.650 E0.11789
G1 X154.620 Y139.990 E0.02076
G1 X153.410 Y141.550 E0.09850
G1 X151.560 Y143.660 E0.14000
G1 X150.160 Y145.060 E0.09878
G1 X149.850 Y145.340 E0.02084
G1 X148.050 Y146.910 E0.11916
G1 X146.490 Y148.120 E0.09850
G1 X144.190 Y149.680 E0.13865
G1 X142.490 Y150.690 E0.09865
G1 X140.370 Y151.790 E0.11916
G1 X139.970 Y151.970 E0.02188
G1 X137.790 Y152.900 E0.11824
G1 X135.930 Y153.570 E0.09863
G1 X133.670 Y154.240 E0.11760
G1 X133.240 Y154.350 E0.02214
G1 X130.920 Y154.860 E0.11851
G1 X128.960 Y155.170 E0.09900
G1 X126.200 Y155.430 E0.13831
G1 X124.230 Y155.500 E0.09835
G1 X123.770 Y155.500 E0.02295
G1 X121.790 Y155.430 E0.09884
G1 X121.430 Y155.400 E0.01802
G1 X119.030 Y155.170 E0.12029
G1 X117.070 Y154.860 E0.09900
G1 X114.750 Y154.350 E0.11851
G1 X114.320 Y154.240 E0.02214
G1 X112.060 Y153.570 E0.11760
G1 X110.200 Y152.900 E0.09863
G1 X107.620 Y151.790 E0.14012
G1 X105.860 Y150.890 E0.09862
G1 X103.800 Y149.680 E0.11919
G1 X101.500 Y148.120 E0.13865
G1 X99.940 Y146.910 E0.09850
G1 X97.780 Y145.010 E0.14352
G1 X96.430 Y143.660 E0.09525
G1 X31.730 Y77.010 E4.63424
G1 X29.730 Y74.740 E0.15094
G1 X28.330 Y72.930 E0.11416
G1 X26.800 Y70.700 E0.13492
G1 X25.420 Y68.400 E0.13382
G1 X24.180 Y65.990 E0.13522
G1 X24.000 Y65.610 E0.02098
G1 X23.090 Y63.500 E0.11464
G1 X22.040 Y60.590 E0.15434
G1 X21.400 Y58.390 E0.11431
G1 X21.300 Y57.990 E0.02057
G1 X20.720 Y55.350 E0.13485
G1 X20.360 Y53.090 E0.11417
G1 X20.310 Y52.670 E0.02110
G1 X20.070 Y49.990 E0.13424
G1 X20.000 Y47.690 E0.11480
G1 X20.070 Y45.000 E0.13425
G1 X20.360 Y41.900 E0.15533
G1 X20.720 Y39.640 E0.11417
G1 X21.400 Y36.600 E0.15541
G1 X22.040 Y34.400 E0.11431
G1 X22.170 Y34.010 E0.02051
G1 X23.090 Y31.490 E0.13384
G1 X24.000 Y29.380 E0.11464
G1 X25.220 Y26.960 E0.13521
G1 X25.420 Y26.590 E0.02098
G1 X26.590 Y24.620 E0.11431
G1 X28.286 Y22.121 E0.15069
G1 F1800.000 E-4.00000
G1 X36.909 Y28.544 F3600.000
G1 E4.00000 F1800.000
G1 X38.151 Y26.943 E0.10108 F600.000
G1 X39.491 Y25.423 E0.10108
G1 X40.923 Y23.991 E0.10108
G1 X42.443 Y22.651 E0.10108
G1 X44.044 Y21.409 E0.10108
G1 X45.719 Y20.270 E0.10108
G1 X47.463 Y19.239 E0.10108
G1 X49.269 Y18.319 E0.10108
G1 X51.128 Y17.514 E0.10108
G1 X53.034 Y16.828 E0.10108
G1 X54.980 Y16.263 E0.10108
G1 X56.957 Y15.821 E0.10108
G1 X58.901 Y15.513 E0.09821
G1 X60.975 Y15.313 E0.10394
G1 X63.000 Y15.250 E0.10108
G1 X65.025 Y15.313 E0.10108
G1 X67.042 Y15.504 E0.10108
G1 X69.043 Y15.821 E0.10108
G1 X71.020 Y16.263 E0.10108
G1 X72.966 Y16.828 E0.10108
G1 X74.872 Y17.514 E0.10108
G1 X76.732 Y18.319 E0.10109
G1 X78.537 Y19.239 E0.10107
G1 X80.281 Y20.270 E0.10108
G1 X81.956 Y21.409 E0.10108
G1 X83.557 Y22.651 E0.10108
G1 X85.077 Y23.991 E0.10108
G1 X86.509 Y25.423 E0.10108
G1 X87.849 Y26.943 E0.10108
G1 X89.091 Y28.544 E0.10108
G1 X90.198 Y30.172 E0.09821
G1 X91.261 Y31.963 E0.10394
G1 X92.181 Y33.769 E0.10108
G1 X93.446 Y36.693 E0.15896
G1 X93.369 Y36.693 E0.00386
G1 X93.672 Y37.534 E0.04461
G1 X94.237 Y39.480 E0.10108
G1 X94.679 Y41.457 E0.10108
G1 X94.996 Y43.458 E0.10108
G1 X95.187 Y45.475 E0.10108
G1 X95.250 Y47.500 E0.10108
G1 X95.187 Y49.525 E0.10108
G1 X94.996 Y51.542 E0.10108
G1 X94.679 Y53.543 E0.10108
G1 X94.237 Y55.520 E0.10108
G1 X93.672 Y57.466 E0.10108
G1 X92.986 Y59.372 E0.10107
G1 X92.181 Y61.232 E0.10108
G1 X91.261 Y63.037 E0.10108
G1 X90.230 Y64.781 E0.10108
G1 X89.091 Y66.456 E0.10108
G1 X87.849 Y68.057 E0.10108
G1 X86.509 Y69.577 E0.10108
G1 X85.077 Y71.009 E0.10108
G1 X83.557 Y72.349 E0.10108
G1 X81.956 Y73.591 E0.10108
G1 X80.281 Y74.730 E0.10108
G1 X78.537 Y75.761 E0.10108
G1 X76.731 Y76.681 E0.10108
G1 X74.872 Y77.486 E0.10108
G1 X72.966 Y78.172 E0.10108
G1 X71.020 Y78.737 E0.10108
G1 X69.043 Y79.179 E0.10108
G1 X67.042 Y79.496 E0.10108
G1 X65.025 Y79.687 E0.10108
G1 X63.000 Y79.750 E0.10108
G1 X61.793 Y79.712 E0.06025
G1 X61.793 Y79.764 E0.00257
G1 X58.958 Y79.496 E0.14207
G1 X56.957 Y79.179 E0.10108
G1 X54.980 Y78.737 E0.10108
G1 X53.034 Y78.172 E0.10108
G1 X52.193 Y77.869 E0.04461
G1 X52.193 Y77.946 E0.00386
G1 X49.269 Y76.681 E0.15896
G1 X47.463 Y75.761 E0.10108
G1 X45.719 Y74.730 E0.10108
G1 X44.044 Y73.591 E0.10108
G1 X42.443 Y72.349 E0.10108
G1 X40.923 Y71.009 E0.10108
G1 X39.491 Y69.577 E0.10108
G1 X38.151 Y68.057 E0.10108
G1 X36.909 Y66.456 E0.10108
G1 X35.770 Y64.781 E0.10108
G1 X34.713 Y62.985 E0.10394
G1 X33.819 Y61.232 E0.09820
G1 X33.014 Y59.372 E0.10109
G1 X32.328 Y57.466 E0.10108
G1 X31.763 Y55.520 E0.10108
G1 X31.321 Y53.543 E0.10108
G1 X31.004 Y51.542 E0.10108
G1 X30.813 Y49.525 E0.10108
G1 X30.750 Y47.500 E0.10108
G1 X30.813 Y45.475 E0.10108
G1 X30.995 Y43.549 E0.09652
G1 X31.321 Y41.457 E0.10563
G1 X31.763 Y39.480 E0.10108
G1 X32.328 Y37.534 E0.10108
G1 X33.014 Y35.628 E0.10107
G1 X33.819 Y33.769 E0.10108
G1 X34.739 Y31.963 E0.10108
G1 X35.770 Y30.219 E0.10108
G1 X36.867 Y28.606 E0.09734
G1 X37.290 Y28.872 F3600.000
G1 X38.536 Y27.262 E0.10159 F420.000
G1 X39.855 Y25.766 E0.09951
G1 X41.266 Y24.355 E0.09951
G1 X42.762 Y23.036 E0.09951
G1 X44.338 Y21.814 E0.09951
G1 X45.987 Y20.693 E0.09951
G1 X47.704 Y19.677 E0.09951
G1 X49.482 Y18.772 E0.09951
G1 X51.312 Y17.979 E0.09951
G1 X53.189 Y17.304 E0.09951
G1 X55.104 Y16.747 E0.09951
G1 X57.051 Y16.312 E0.09951
G1 X59.021 Y16.000 E0.09951
G1 X61.006 Y15.813 E0.09951
G1 X63.000 Y15.750 E0.09951
G1 X64.994 Y15.813 E0.09951
G1 X66.979 Y16.000 E0.09951
G1 X68.949 Y16.312 E0.09951
G1 X70.896 Y16.747 E0.09951
G1 X72.811 Y17.304 E0.09951
G1 X74.688 Y17.979 E0.09951
G1 X76.519 Y18.772 E0.09951
G1 X78.296 Y19.677 E0.09951
G1 X80.013 Y20.693 E0.09951
G1 X81.662 Y21.814 E0.09951
G1 X83.238 Y23.036 E0.09951
G1 X84.734 Y24.355 E0.09951
G1 X86.145 Y25.766 E0.09951
G1 X87.464 Y27.262 E0.09951
G1 X88.686 Y28.838 E0.09951
G1 X89.784 Y30.453 E0.09743
G1 X90.823 Y32.204 E0.10159
G1 X91.728 Y33.982 E0.09951
G1 X92.685 Y36.193 E0.12020
G1 X92.658 Y36.193 E0.00138
G1 X93.196 Y37.689 E0.07932
G1 X93.753 Y39.604 E0.09951
G1 X94.188 Y41.551 E0.09951
G1 X94.500 Y43.521 E0.09951
G1 X94.687 Y45.506 E0.09951
G1 X94.750 Y47.500 E0.09951
G1 X94.687 Y49.494 E0.09951
G1 X94.500 Y51.479 E0.09951
G1 X94.188 Y53.449 E0.09951
G1 X93.753 Y55.396 E0.09951
G1 X93.196 Y57.311 E0.09951
G1 X92.521 Y59.188 E0.09951
G1 X91.728 Y61.018 E0.09951
G1 X90.823 Y62.796 E0.09951
G1 X89.807 Y64.513 E0.09951
G1 X88.686 Y66.162 E0.09951
G1 X87.464 Y67.738 E0.09951
G1 X86.145 Y69.234 E0.09951
G1 X84.734 Y70.645 E0.09951
G1 X83.238 Y71.964 E0.09951
G1 X81.662 Y73.186 E0.09951
G1 X80.013 Y74.307 E0.09951
G1 X78.296 Y75.323 E0.09951
G1 X76.518 Y76.228 E0.09951
G1 X74.688 Y77.021 E0.09951
G1 X72.811 Y77.696 E0.09951
G1 X70.896 Y78.253 E0.09951
G1 X68.949 Y78.688 E0.09951
G1 X66.979 Y79.000 E0.09951
G1 X64.994 Y79.187 E0.09951
G1 X63.000 Y79.250 E0.09951
G1 X61.293 Y79.196 E0.08521
G1 X61.293 Y79.215 E0.00090
G1 X59.021 Y79.000 E0.11387
G1 X57.051 Y78.688 E0.09951
G1 X55.104 Y78.253 E0.09951
G1 X53.189 Y77.696 E0.09951
G1 X51.693 Y77.158 E0.07932
G1 X51.693 Y77.185 E0.00138
G1 X49.482 Y76.228 E0.12020
G1 X47.704 Y75.323 E0.09951
G1 X45.987 Y74.307 E0.09951
G1 X44.338 Y73.186 E0.09951
G1 X42.762 Y71.964 E0.09951
G1 X41.266 Y70.645 E0.09951
G1 X39.855 Y69.234 E0.09951
G1 X38.536 Y67.738 E0.09951
G1 X37.314 Y66.162 E0.09951
G1 X36.193 Y64.513 E0.09951
G1 X35.158 Y62.758 E0.10159
G1 X34.272 Y61.019 E0.09742
G1 X33.479 Y59.188 E0.09951
G1 X32.804 Y57.311 E0.09951
G1 X32.247 Y55.396 E0.09951
G1 X31.812 Y53.449 E0.09951
G1 X31.500 Y51.479 E0.09951
G1 X31.313 Y49.494 E0.09951
G1 X31.250 Y47.500 E0.09951
G1 X31.313 Y45.506 E0.09951
G1 X31.500 Y43.521 E0.09951
G1 X31.812 Y41.551 E0.09951
G1 X32.247 Y39.604 E0.09951
G1 X32.804 Y37.689 E0.09951
G1 X33.479 Y35.812 E0.09951
G1 X34.272 Y33.982 E0.09951
G1 X35.177 Y32.204 E0.09951
G1 X36.193 Y30.487 E0.09951
G1 X37.248 Y28.934 E0.09368
G1 X37.091 Y28.414 F3600.000
G1 X34.078 Y26.487 F3600.000
G1 X35.454 Y24.712 E0.11205 F600.000
G1 X36.940 Y23.028 E0.11204
G1 X38.528 Y21.440 E0.11205
G1 X40.212 Y19.954 E0.11204
G1 X41.987 Y18.578 E0.11205
G1 X43.844 Y17.316 E0.11205
G1 X45.777 Y16.172 E0.11205
G1 X47.779 Y15.153 E0.11205
G1 X49.840 Y14.261 E0.11204
G1 X51.953 Y13.500 E0.11205
G1 X54.109 Y12.873 E0.11204
G1 X56.301 Y12.384 E0.11205
G1 X58.519 Y12.032 E0.11205
G1 X60.755 Y11.821 E0.11205
G1 X63.000 Y11.750 E0.11204
G1 X65.245 Y11.821 E0.11205
G1 X67.481 Y12.032 E0.11205
G1 X69.699 Y12.384 E0.11205
G1 X71.891 Y12.873 E0.11205
G1 X74.047 Y13.500 E0.11204
G1 X76.160 Y14.261 E0.11205
G1 X78.221 Y15.153 E0.11205
G1 X80.223 Y16.172 E0.11205
G1 X82.142 Y17.308 E0.11126
G1 X84.013 Y18.578 E0.11283
G1 X85.788 Y19.954 E0.11205
G1 X87.472 Y21.440 E0.11204
G1 X89.060 Y23.028 E0.11205
G1 X90.546 Y24.712 E0.11204
G1 X91.922 Y26.487 E0.11205
G1 X93.184 Y28.344 E0.11205
G1 X94.328 Y30.277 E0.11205
G1 X95.340 Y32.265 E0.11126
G1 X96.239 Y34.340 E0.11283
G1 X97.000 Y36.453 E0.11205
G1 X97.627 Y38.609 E0.11204
G1 X98.116 Y40.801 E0.11205
G1 X98.468 Y43.019 E0.11205
G1 X98.679 Y45.255 E0.11205
G1 X98.750 Y47.500 E0.11205
G1 X98.679 Y49.745 E0.11205
G1 X98.468 Y51.981 E0.11205
G1 X98.116 Y54.199 E0.11205
G1 X97.627 Y56.391 E0.11205
G1 X97.000 Y58.547 E0.11204
G1 X96.239 Y60.660 E0.11205
G1 X95.347 Y62.721 E0.11205
G1 X94.328 Y64.723 E0.11205
G1 X93.184 Y66.656 E0.11205
G1 X91.922 Y68.513 E0.11205
G1 X90.546 Y70.288 E0.11205
G1 X89.060 Y71.972 E0.11204
G1 X87.472 Y73.560 E0.11205
G1 X85.788 Y75.046 E0.11204
G1 X84.013 Y76.422 E0.11205
G1 X82.156 Y77.684 E0.11205
G1 X80.223 Y78.828 E0.11205
G1 X78.221 Y79.847 E0.11205
G1 X76.160 Y80.739 E0.11205
G1 X74.047 Y81.500 E0.11205
G1 X71.891 Y82.127 E0.11204
G1 X69.683 Y82.619 E0.11283
G1 X67.481 Y82.968 E0.11126
G1 X65.245 Y83.179 E0.11205
G1 X63.000 Y83.250 E0.11204
G1 X60.755 Y83.179 E0.11205
G1 X58.519 Y82.968 E0.11205
G1 X56.301 Y82.616 E0.11205
G1 X54.109 Y82.127 E0.11204
G1 X51.953 Y81.500 E0.11204
G1 X49.840 Y80.739 E0.11205
G1 X47.779 Y79.847 E0.11205
G1 X45.777 Y78.828 E0.11205
G1 X43.844 Y77.684 E0.11205
G1 X41.987 Y76.422 E0.11205
G1 X40.212 Y75.046 E0.11205
G1 X38.528 Y73.560 E0.11204
G1 X36.940 Y71.972 E0.11205
G1 X35.454 Y70.288 E0.11204
G1 X34.078 Y68.513 E0.11205
G1 X32.816 Y66.656 E0.11205
G1 X31.672 Y64.723 E0.11205
G1 X30.653 Y62.721 E0.11205
G1 X29.761 Y60.660 E0.11205
G1 X29.000 Y58.547 E0.11205
G1 X28.373 Y56.391 E0.11204
G1 X27.884 Y54.199 E0.11205
G1 X27.532 Y51.981 E0.11205
G1 X27.321 Y49.745 E0.11205
G1 X27.250 Y47.500 E0.11205
G1 X27.321 Y45.255 E0.11205
G1 X27.532 Y43.019 E0.11205
G1 X27.884 Y40.801 E0.11205
G1 X28.373 Y38.609 E0.11205
G1 X29.000 Y36.453 E0.11204
G1 X29.761 Y34.340 E0.11205
G1 X30.653 Y32.279 E0.11205
G1 X31.672 Y30.277 E0.11205
G1 X32.816 Y28.344 E0.11205
G1 X34.036 Y26.549 E0.10831
G1 X33.656 Y26.219 F3600.000
G1 X35.069 Y24.393 E0.11518 F420.000
G1 X36.575 Y22.685 E0.11361
G1 X38.185 Y21.075 E0.11361
G1 X39.893 Y19.569 E0.11361
G1 X41.693 Y18.173 E0.11361
G1 X43.576 Y16.893 E0.11362
G1 X45.536 Y15.734 E0.11361
G1 X47.566 Y14.700 E0.11361
G1 X49.656 Y13.796 E0.11361
G1 X51.798 Y13.024 E0.11361
G1 X53.985 Y12.389 E0.11361
G1 X56.207 Y11.892 E0.11361
G1 X58.457 Y11.536 E0.11361
G1 X60.724 Y11.322 E0.11361
G1 X63.000 Y11.250 E0.11361
G1 X65.276 Y11.322 E0.11361
G1 X67.543 Y11.536 E0.11361
G1 X69.793 Y11.892 E0.11361
G1 X72.015 Y12.389 E0.11361
G1 X74.202 Y13.024 E0.11361
G1 X76.344 Y13.796 E0.11361
G1 X78.434 Y14.700 E0.11361
G1 X80.464 Y15.734 E0.11362
G1 X82.397 Y16.877 E0.11205
G1 X84.307 Y18.173 E0.11518
G1 X86.107 Y19.569 E0.11361
G1 X87.815 Y21.075 E0.11361
G1 X89.425 Y22.685 E0.11361
G1 X90.931 Y24.393 E0.11361
G1 X92.327 Y26.193 E0.11361
G1 X93.607 Y28.076 E0.11362
G1 X94.766 Y30.036 E0.11361
G1 X95.800 Y32.066 E0.11362
G1 X96.704 Y34.156 E0.11361
G1 X97.476 Y36.298 E0.11362
G1 X98.111 Y38.485 E0.11361
G1 X98.608 Y40.707 E0.11361
G1 X98.964 Y42.957 E0.11361
G1 X99.178 Y45.224 E0.11361
G1 X99.250 Y47.500 E0.11361
G1 X99.178 Y49.776 E0.11361
G1 X98.964 Y52.043 E0.11361
G1 X98.608 Y54.293 E0.11361
G1 X98.111 Y56.515 E0.11361
G1 X97.476 Y58.702 E0.11361
G1 X96.704 Y60.844 E0.11362
G1 X95.800 Y62.934 E0.11361
G1 X94.766 Y64.963 E0.11362
G1 X93.607 Y66.924 E0.11361
G1 X92.327 Y68.807 E0.11362
G1 X90.931 Y70.607 E0.11361
G1 X89.425 Y72.315 E0.11361
G1 X87.815 Y73.925 E0.11361
G1 X86.107 Y75.431 E0.11361
G1 X84.307 Y76.827 E0.11361
G1 X82.424 Y78.107 E0.11362
G1 X80.464 Y79.266 E0.11361
G1 X78.434 Y80.300 E0.11362
G1 X76.344 Y81.204 E0.11361
G1 X74.202 Y81.976 E0.11361
G1 X72.015 Y82.611 E0.11361
G1 X69.793 Y83.108 E0.11361
G1 X67.543 Y83.464 E0.11361
G1 X65.276 Y83.678 E0.11361
G1 X63.000 Y83.750 E0.11361
G1 X60.724 Y83.678 E0.11361
G1 X58.715 Y83.488 E0.10068
G1 X58.715 Y83.505 E0.00082
G1 X56.207 Y83.108 E0.12665
G1 X53.985 Y82.611 E0.11361
G1 X51.798 Y81.976 E0.11361
G1 X49.656 Y81.204 E0.11361
G1 X47.566 Y80.300 E0.11361
G1 X45.536 Y79.266 E0.11362
G1 X43.576 Y78.107 E0.11361
G1 X41.693 Y76.827 E0.11362
G1 X39.893 Y75.431 E0.11361
G1 X38.185 Y73.925 E0.11361
G1 X36.575 Y72.315 E0.11361
G1 X35.069 Y70.607 E0.11361
G1 X33.673 Y68.807 E0.11361
G1 X32.393 Y66.924 E0.11362
G1 X31.234 Y64.964 E0.11361
G1 X30.200 Y62.934 E0.11362
G1 X29.296 Y60.844 E0.11361
G1 X28.524 Y58.702 E0.11361
G1 X27.889 Y56.515 E0.11361
G1 X27.392 Y54.293 E0.11361
G1 X27.036 Y52.043 E0.11361
G1 X26.822 Y49.776 E0.11361
G1 X26.750 Y47.500 E0.11361
G1 X26.822 Y45.224 E0.11361
