; generated by Slic3r 1.3.0 on 2020-06-11 at 15:17:58

; external perimeters extrusion width = 0.40mm (4.28mm^3/s)
; perimeters extrusion width = 0.40mm (4.28mm^3/s)
; infill extrusion width = 0.40mm (5.71mm^3/s)
; solid infill extrusion width = 0.40mm (5.71mm^3/s)
; top infill extrusion width = 0.40mm (5.71mm^3/s)

M107
M83
T0
M116
; Filament gcode

G21 ; set units to millimeters
G90 ; use absolute coordinates
M83 ; use relative distances for extrusion
G1 E-3.50000 F300.00000
G1 Z0.300 F15000.000
G1 X-6.086 Y-30.450 F15000.000
G1 E3.50000 F300.00000
G1 F960
G1 X-5.691 Y-32.097 E0.13052
G1 X-4.593 Y-33.387 E0.13052
G1 X-2.450 Y-34.086 E0.17373
G1 X2.450 Y-34.086 E0.37762
G1 X4.097 Y-33.691 E0.13052
G1 X5.387 Y-32.593 E0.13052
G1 X6.086 Y-30.450 E0.17373
G1 X6.086 Y30.450 E4.69329
G1 X5.691 Y32.097 E0.13052
G1 X4.593 Y33.387 E0.13052
G1 X2.450 Y34.086 E0.17373
G1 X-2.450 Y34.086 E0.37762
G1 X-4.097 Y33.691 E0.13052
G1 X-5.387 Y32.593 E0.13052
G1 X-6.086 Y30.450 E0.17373
G1 X-6.086 Y-30.390 E4.68866
G1 E-3.50000 F300.00000
G1 X-1.496 Y-28.308 F15000.000
G1 E3.50000 F300.00000
G1 F600
G1 X-1.275 Y-28.629 E0.03009
G1 X-0.967 Y-28.901 E0.03164
G1 X-0.604 Y-29.092 E0.03164
G1 X-0.205 Y-29.191 E0.03164
G1 X0.205 Y-29.191 E0.03164
G1 X0.606 Y-29.092 E0.03181
G1 X0.982 Y-28.888 E0.03297
G1 X1.275 Y-28.629 E0.03009
G1 X1.508 Y-28.291 E0.03164
G1 X1.653 Y-27.908 E0.03164
G1 X1.703 Y-27.500 E0.03164
G1 X1.653 Y-27.092 E0.03164
G1 X1.508 Y-26.709 E0.03164
G1 X1.273 Y-26.369 E0.03181
G1 X0.950 Y-26.089 E0.03297
G1 X0.604 Y-25.908 E0.03009
G1 X0.203 Y-25.809 E0.03181
G1 X-0.225 Y-25.814 E0.03297
G1 X-0.604 Y-25.908 E0.03009
G1 X-0.967 Y-26.099 E0.03164
G1 X-1.275 Y-26.371 E0.03164
G1 X-1.508 Y-26.709 E0.03164
G1 X-1.653 Y-27.092 E0.03164
G1 X-1.703 Y-27.500 E0.03164
G1 X-1.653 Y-27.910 E0.03181
G1 X-1.518 Y-28.252 E0.02835
G1 X-1.496 Y-28.308 F15000.000
G1 E-3.50000 F300.00000
G1 X-1.464 Y0.164 F15000.000
G1 E3.50000 F300.00000
G1 F720
G1 X-1.464 Y-25.642 E1.98869
G1 X-0.831 Y-25.309 E0.05513
G1 X-0.306 Y-25.180 E0.04168
G1 X0.276 Y-25.172 E0.04487
G1 X0.831 Y-25.309 E0.04401
G1 X1.464 Y-25.642 E0.05513
G1 X1.464 Y25.642 E3.95215
G1 X0.831 Y25.309 E0.05513
G1 X0.282 Y25.174 E0.04353
G1 X-0.282 Y25.174 E0.04353
G1 X-0.831 Y25.309 E0.04353
G1 X-1.464 Y25.642 E0.05513
G1 X-1.464 Y0.224 E1.95884
G1 X-2.100 Y0.224 F15000.000
G1 F720
G1 X-2.100 Y-30.100 E2.33691
G1 X2.100 Y-30.100 E0.32368
G1 X2.100 Y30.100 E4.63934
G1 X-2.100 Y30.100 E0.32368
G1 X-2.100 Y27.364 E0.21082
G1 X-1.719 Y27.364 E0.02933
G1 X-1.653 Y27.908 E0.04216
G1 X-1.508 Y28.291 E0.03164
G1 X-1.286 Y28.613 E0.03009
G1 X-0.969 Y28.900 E0.03297
G1 X-0.604 Y29.092 E0.03181
G1 X-0.205 Y29.191 E0.03164
G1 X0.205 Y29.191 E0.03164
G1 X0.604 Y29.092 E0.03164
G1 X0.967 Y28.901 E0.03164
G1 X1.275 Y28.629 E0.03164
G1 X1.508 Y28.291 E0.03164
G1 X1.653 Y27.908 E0.03164
G1 X1.703 Y27.500 E0.03164
G1 X1.653 Y27.092 E0.03164
G1 X1.508 Y26.709 E0.03164
G1 X1.286 Y26.387 E0.03009
G1 X0.969 Y26.100 E0.03297
G1 X0.604 Y25.908 E0.03181
G1 X0.205 Y25.809 E0.03164
G1 X-0.205 Y25.809 E0.03164
G1 X-0.604 Y25.908 E0.03164
G1 X-0.967 Y26.099 E0.03164
G1 X-1.275 Y26.371 E0.03164
G1 X-1.832 Y27.178 E0.07562
G1 X-2.100 Y27.095 E0.02163
G1 X-2.100 Y0.284 E2.06622
G1 X-1.754 Y0.022 F15000.000
G1 E-3.50000 F300.00000
G1 X0.761 Y24.721 F15000.000
G1 E3.50000 F300.00000
G1 F960
G1 X0.896 Y24.586 E0.01489
G1 X0.896 Y23.676 E0.07101
G1 X-0.033 Y24.606 E0.10256
G1 X-0.427 Y24.606 E0.03073
G1 X-0.896 Y24.721 E0.03770
G1 X-0.896 Y24.559 E0.01270
G1 X0.896 Y22.766 E0.19778
G1 X0.896 Y21.856 E0.07101
G1 X-0.896 Y23.648 E0.19778
G1 X-0.896 Y22.738 E0.07101
G1 X0.896 Y20.946 E0.19778
G1 X0.896 Y20.036 E0.07101
G1 X-0.896 Y21.828 E0.19778
G1 X-0.896 Y20.918 E0.07101
G1 X0.896 Y19.126 E0.19778
G1 X0.896 Y18.216 E0.07101
G1 X-0.896 Y20.008 E0.19778
G1 X-0.896 Y19.098 E0.07101
G1 X0.896 Y17.306 E0.19778
G1 X0.896 Y16.396 E0.07101
G1 X-0.896 Y18.188 E0.19778
G1 X-0.896 Y17.278 E0.07101
G1 X0.896 Y15.485 E0.19778
G1 X0.896 Y14.575 E0.07101
G1 X-0.896 Y16.368 E0.19778
G1 X-0.896 Y15.458 E0.07101
G1 X0.896 Y13.665 E0.19778
G1 X0.896 Y12.755 E0.07101
G1 X-0.896 Y14.548 E0.19778
G1 X-0.896 Y13.637 E0.07101
G1 X0.896 Y11.845 E0.19778
G1 X0.896 Y10.935 E0.07101
G1 X-0.896 Y12.727 E0.19778
G1 X-0.896 Y11.817 E0.07101
G1 X0.896 Y10.025 E0.19778
G1 X0.896 Y9.115 E0.07101
G1 X-0.896 Y10.907 E0.19778
G1 X-0.896 Y9.997 E0.07101
G1 X0.896 Y8.205 E0.19778
G1 X0.896 Y7.295 E0.07101
G1 X-0.896 Y9.087 E0.19778
G1 X-0.896 Y8.177 E0.07101
G1 X0.896 Y6.385 E0.19778
G1 X0.896 Y5.474 E0.07101
G1 X-0.896 Y7.267 E0.19778
G1 X-0.896 Y6.357 E0.07101
G1 X0.896 Y4.564 E0.19778
G1 X0.896 Y3.654 E0.07101
G1 X-0.896 Y5.447 E0.19778
G1 X-0.896 Y4.537 E0.07101
G1 X0.896 Y2.744 E0.19778
G1 X0.896 Y1.834 E0.07101
G1 X-0.896 Y3.626 E0.19778
G1 X-0.896 Y2.716 E0.07101
G1 X0.896 Y0.924 E0.19778
G1 X0.896 Y0.014 E0.07101
G1 X-0.896 Y1.806 E0.19778
G1 X-0.896 Y0.896 E0.07101
G1 X0.896 Y-0.896 E0.19778
G1 X0.896 Y-1.806 E0.07101
G1 X-0.896 Y-0.014 E0.19778
G1 X-0.896 Y-0.924 E0.07101
G1 X0.896 Y-2.716 E0.19778
G1 X0.896 Y-3.626 E0.07101
G1 X-0.896 Y-1.834 E0.19778
G1 X-0.896 Y-2.744 E0.07101
G1 X0.896 Y-4.537 E0.19778
G1 X0.896 Y-5.447 E0.07101
G1 X-0.896 Y-3.654 E0.19778
G1 X-0.896 Y-4.564 E0.07101
G1 X0.896 Y-6.357 E0.19778
G1 X0.896 Y-7.267 E0.07101
G1 X-0.896 Y-5.474 E0.19778
G1 X-0.896 Y-6.385 E0.07101
G1 X0.896 Y-8.177 E0.19778
G1 X0.896 Y-9.087 E0.07101
G1 X-0.896 Y-7.295 E0.19778
G1 X-0.896 Y-8.205 E0.07101
G1 X0.896 Y-9.997 E0.19778
G1 X0.896 Y-10.907 E0.07101
G1 X-0.896 Y-9.115 E0.19778
G1 X-0.896 Y-10.025 E0.07101
G1 X0.896 Y-11.817 E0.19778
G1 X0.896 Y-12.727 E0.07101
G1 X-0.896 Y-10.935 E0.19778
G1 X-0.896 Y-11.845 E0.07101
G1 X0.896 Y-13.637 E0.19778
G1 X0.896 Y-14.548 E0.07101
G1 X-0.896 Y-12.755 E0.19778
G1 X-0.896 Y-13.665 E0.07101
G1 X0.896 Y-15.458 E0.19778
G1 X0.896 Y-16.368 E0.07101
G1 X-0.896 Y-14.575 E0.19778
G1 X-0.896 Y-15.485 E0.07101
G1 X0.896 Y-17.278 E0.19778
G1 X0.896 Y-18.188 E0.07101
G1 X-0.896 Y-16.395 E0.19778
G1 X-0.896 Y-17.306 E0.07101
G1 X0.896 Y-19.098 E0.19778
G1 X0.896 Y-20.008 E0.07101
G1 X-0.896 Y-18.216 E0.19778
G1 X-0.896 Y-19.126 E0.07101
G1 X0.896 Y-20.918 E0.19778
G1 X0.896 Y-21.828 E0.07101
G1 X-0.896 Y-20.036 E0.19778
G1 X-0.896 Y-20.946 E0.07101
G1 X0.896 Y-22.738 E0.19778
G1 X0.896 Y-23.648 E0.07101
G1 X-0.896 Y-21.856 E0.19778
G1 X-0.896 Y-22.766 E0.07101
G1 X0.896 Y-24.559 E0.19778
G1 X0.896 Y-24.721 E0.01270
G1 X0.417 Y-24.603 E0.03850
G1 X0.036 Y-24.608 E0.02977
G1 X-0.896 Y-23.676 E0.10281
G1 X-0.896 Y-24.586 E0.07101
G1 X-0.761 Y-24.721 E0.01489
G1 X-1.401 Y-26.009 F15000.000
G1 F960
G1 X-1.782 Y-26.294 E0.00311
G1 E-3.50000 F300.00000
G1 X-1.782 Y-29.278 F15000.000
G1 E3.50000 F300.00000
G1 F960
G1 X-1.383 Y-29.429 E0.03449
G1 F960
G1 X-0.255 Y-29.782 E0.08829
G1 X-0.440 Y-29.624 F15000.000
G1 F960
G1 X-0.765 Y-29.584 E0.01161
G1 F960
G1 X-1.782 Y-29.397 E0.04389
G1 X-0.440 Y-29.624 F15000.000
G1 F960
G1 X-0.244 Y-29.645 E0.00510
G1 X0.277 Y-29.643 E0.01349
G1 F960
G1 X0.605 Y-29.603 E0.01174
G1 F960
G1 X1.782 Y-29.394 E0.05107
G1 X1.782 Y-29.278 F15000.000
G1 F960
G1 X1.405 Y-29.421 E0.03258
G1 X0.262 Y-29.782 E0.09691
G1 E-3.50000 F300.00000
G1 X1.782 Y-26.292 F15000.000
G1 E3.50000 F300.00000
G1 F960
G1 X1.399 Y-26.008 E0.00332
G1 E-3.50000 F300.00000
G1 X1.390 Y26.003 F15000.000
G1 E3.50000 F300.00000
G1 F960
G1 X1.782 Y26.296 E0.00417
G1 E-3.50000 F300.00000
G1 X1.782 Y29.278 F15000.000
G1 E3.50000 F300.00000
G1 F960
G1 X1.383 Y29.429 E0.03449
G1 X0.819 Y29.606 E0.04779
G1 F960
G1 X0.255 Y29.782 E0.04415
G1 X0.277 Y29.643 F15000.000
G1 F960
G1 X-0.244 Y29.645 E0.01349
G1 X-0.440 Y29.624 E0.00510
G1 F960
G1 X-0.765 Y29.584 E0.01161
G1 F960
G1 X-1.782 Y29.397 E0.04389
G1 X-1.782 Y29.276 F15000.000
G1 F960
G1 X-1.392 Y29.426 E0.03142
G1 X-0.268 Y29.782 E0.08864
G1 X0.277 Y29.643 F15000.000
G1 F960
G1 X0.602 Y29.604 E0.01161
G1 F960
G1 X1.782 Y29.397 E0.05082
G1 E-3.50000 F300.00000
G1 X-1.402 Y26.009 F15000.000
G1 E3.50000 F300.00000
G1 F960
G1 X-1.782 Y26.294 E0.00311
G1 E-3.50000 F300.00000
G1 Z0.500 F15000.000
G1 X-1.279 Y26.641 F15000.000
G1 E3.50000 F300.00000
G1 F3000
G1 X-1.162 Y26.471 E0.00596
G1 X-0.882 Y26.223 E0.01080
G1 X-0.550 Y26.049 E0.01080
G1 X-0.187 Y25.959 E0.01080
G1 X0.187 Y25.959 E0.01080
G1 X0.550 Y26.049 E0.01080
G1 X0.882 Y26.223 E0.01080
G1 X1.162 Y26.471 E0.01080
G1 X1.374 Y26.779 E0.01080
G1 X1.507 Y27.129 E0.01080
G1 X1.552 Y27.502 E0.01087
G1 X1.493 Y27.909 E0.01185
G1 X1.374 Y28.221 E0.00965
G1 X1.162 Y28.529 E0.01080
G1 X0.882 Y28.777 E0.01080
G1 X0.550 Y28.951 E0.01080
G1 X0.187 Y29.041 E0.01080
G1 X-0.187 Y29.041 E0.01080
G1 X-0.550 Y28.951 E0.01080
G1 X-0.882 Y28.777 E0.01080
G1 X-1.162 Y28.529 E0.01080
G1 X-1.374 Y28.221 E0.01080
G1 X-1.507 Y27.871 E0.01080
G1 X-1.552 Y27.498 E0.01087
G1 X-1.493 Y27.091 E0.01185
G1 X-1.374 Y26.779 E0.00965
G1 X-1.313 Y26.690 E0.00311
G1 X-1.377 Y26.459 F15000.000
G1 X-1.893 Y29.269 F15000.000
G1 F2400
G1 X-1.893 Y28.363 E0.02615
G1 X-1.742 Y28.316 E0.00455
G1 X-1.431 Y28.768 E0.01583
G1 X-1.086 Y29.073 E0.01330
G1 X-0.678 Y29.287 E0.01330
G1 X-0.230 Y29.398 E0.01330
G1 X0.230 Y29.398 E0.01330
G1 X0.678 Y29.287 E0.01330
G1 X1.086 Y29.073 E0.01330
G1 X1.431 Y28.768 E0.01330
G1 X1.742 Y28.316 E0.01583
G1 X1.893 Y28.363 E0.00455
G1 X1.893 Y29.893 E0.04416
G1 X-1.893 Y29.893 E0.10927
G1 X-1.893 Y29.329 E0.01627
G1 E-3.50000 F300.00000
G1 X1.893 Y-0.156 F15000.000
G1 E3.50000 F300.00000
G1 F2400
G1 X1.893 Y26.637 E0.77330
G1 X1.742 Y26.684 E0.00455
G1 X1.431 Y26.232 E0.01583
G1 X1.086 Y25.927 E0.01330
G1 X0.678 Y25.713 E0.01330
G1 X0.230 Y25.602 E0.01330
G1 X-0.230 Y25.602 E0.01330
G1 X-0.678 Y25.713 E0.01330
G1 X-1.086 Y25.927 E0.01330
G1 X-1.431 Y26.232 E0.01330
G1 X-1.742 Y26.684 E0.01583
G1 X-1.893 Y26.637 E0.00455
G1 X-1.893 Y-26.637 E1.53763
G1 X-1.742 Y-26.684 E0.00455
G1 X-1.431 Y-26.232 E0.01583
G1 X-1.086 Y-25.927 E0.01330
G1 X-0.678 Y-25.713 E0.01330
G1 X-0.230 Y-25.602 E0.01330
G1 X0.230 Y-25.602 E0.01330
G1 X0.678 Y-25.713 E0.01330
G1 X1.086 Y-25.927 E0.01330
G1 X1.431 Y-26.232 E0.01330
G1 X1.742 Y-26.684 E0.01583
G1 X1.893 Y-26.637 E0.00455
G1 X1.893 Y-0.216 E0.76259
G1 E-3.50000 F300.00000
G1 X1.519 Y-29.893 F15000.000
G1 E3.50000 F300.00000
G1 F2400
G1 X1.893 Y-29.893 E0.01078
G1 X1.893 Y-28.363 E0.04416
G1 X1.742 Y-28.316 E0.00455
G1 X1.431 Y-28.768 E0.01583
G1 X1.119 Y-29.044 E0.01202
G1 X0.685 Y-29.286 E0.01435
G1 X0.230 Y-29.398 E0.01350
G1 X-0.230 Y-29.398 E0.01330
G1 X-0.678 Y-29.287 E0.01330
G1 X-1.086 Y-29.073 E0.01330
G1 X-1.431 Y-28.768 E0.01330
G1 X-1.742 Y-28.316 E0.01583
G1 X-1.893 Y-28.363 E0.00455
G1 X-1.893 Y-29.893 E0.04416
G1 X1.459 Y-29.893 E0.09676
G1 X0.844 Y-28.788 F15000.000
G1 F3000
G1 X0.911 Y-28.751 E0.00222
G1 X1.162 Y-28.529 E0.00965
G1 X1.374 Y-28.221 E0.01080
G1 X1.507 Y-27.871 E0.01080
G1 X1.552 Y-27.500 E0.01080
G1 X1.507 Y-27.129 E0.01080
G1 X1.374 Y-26.779 E0.01080
G1 X1.162 Y-26.471 E0.01080
G1 X0.882 Y-26.223 E0.01080
G1 X0.550 Y-26.049 E0.01080
G1 X0.187 Y-25.959 E0.01080
G1 X-0.187 Y-25.959 E0.01080
G1 X-0.550 Y-26.049 E0.01080
G1 X-0.882 Y-26.223 E0.01080
G1 X-1.162 Y-26.471 E0.01080
G1 X-1.374 Y-26.779 E0.01080
G1 X-1.507 Y-27.129 E0.01080
G1 X-1.552 Y-27.502 E0.01087
G1 X-1.493 Y-27.909 E0.01185
G1 X-1.374 Y-28.221 E0.00965
G1 X-1.162 Y-28.529 E0.01080
G1 X-0.882 Y-28.777 E0.01080
G1 X-0.550 Y-28.951 E0.01080
G1 X-0.187 Y-29.041 E0.01080
G1 X0.187 Y-29.041 E0.01080
G1 X0.553 Y-28.950 E0.01087
G1 X0.792 Y-28.817 E0.00790
G1 X0.908 Y-28.831 F15000.000
G1 X0.792 Y-30.250 F15000.000
G1 F3600
G1 X2.250 Y-30.250 E0.04209
G1 X2.250 Y30.250 E1.74619
G1 X-2.250 Y30.250 E0.12988
G1 X-2.250 Y-30.250 E1.74619
G1 X0.732 Y-30.250 E0.08606
G1 X1.135 Y-30.044 F15000.000
G1 X0.611 Y-29.603 F15000.000
G1 F2400
G1 X0.269 Y-29.644 E0.00503
G1 F2400
G1 X-0.252 Y-29.645 E0.00410
G1 X-0.525 Y-29.613 E0.00216
G1 F2400
G1 X-0.781 Y-29.582 E0.00365
G1 X-1.044 Y-29.321 F15000.000
G1 F2400
G1 X-0.431 Y-29.714 E0.00501
G1 X0.611 Y-29.603 F15000.000
G1 F2400
G1 X1.110 Y-29.519 E0.00964
G1 X1.611 Y-28.100 F15000.000
G1 F2400
G1 X1.873 Y-27.963 E0.00836
G1 X1.888 Y-27.729 E0.00659
G1 F2400
G1 X1.901 Y-27.479 E0.00603
G1 F2400
G1 X1.873 Y-27.037 E0.01264
G1 X1.611 Y-26.900 E0.00846
G1 X1.574 Y-25.810 F15000.000
G1 F2400
G1 X1.498 Y-25.886 E0.00311
G1 X1.223 Y-25.654 E0.01043
G1 X1.574 Y-25.303 E0.01436
G1 X1.574 Y-24.796 E0.01470
G1 X0.891 Y-25.479 E0.02799
G1 X0.768 Y-25.414 E0.00404
G1 X0.512 Y-25.351 E0.00764
G1 X1.574 Y-24.289 E0.04353
G1 X1.574 Y-23.782 E0.01470
G1 X0.073 Y-25.283 E0.06153
G1 X-0.312 Y-25.283 E0.01113
G1 X-0.475 Y-25.323 E0.00487
G1 X1.574 Y-23.275 E0.08397
G1 X1.574 Y-22.768 E0.01470
G1 X-1.326 Y-25.668 E0.11887
G1 X-1.574 Y-25.886 E0.00957
G1 X-1.574 Y-25.408 E0.01386
G1 X1.574 Y-22.261 E0.12901
G1 X1.574 Y-21.754 E0.01470
G1 X-1.574 Y-24.901 E0.12901
G1 X-1.574 Y-24.394 E0.01470
G1 X1.574 Y-21.246 E0.12901
G1 X1.574 Y-20.739 E0.01470
G1 X-1.574 Y-23.887 E0.12901
G1 X-1.574 Y-23.380 E0.01470
G1 X1.574 Y-20.232 E0.12901
G1 X1.574 Y-19.725 E0.01470
G1 X-1.574 Y-22.873 E0.12901
G1 X-1.574 Y-22.365 E0.01470
G1 X1.574 Y-19.218 E0.12901
G1 X1.574 Y-18.711 E0.01470
G1 X-1.574 Y-21.858 E0.12901
G1 X-1.574 Y-21.351 E0.01470
G1 X1.574 Y-18.204 E0.12901
G1 X1.574 Y-17.697 E0.01470
G1 X-1.574 Y-20.844 E0.12901
G1 X-1.574 Y-20.337 E0.01470
G1 X1.574 Y-17.190 E0.12901
G1 X1.574 Y-16.682 E0.01470
G1 X-1.574 Y-19.830 E0.12901
G1 X-1.574 Y-19.323 E0.01470
G1 X1.574 Y-16.175 E0.12901
G1 X1.574 Y-15.668 E0.01470
G1 X-1.574 Y-18.816 E0.12901
G1 X-1.574 Y-18.309 E0.01470
G1 X1.574 Y-15.161 E0.12901
G1 X1.574 Y-14.654 E0.01470
G1 X-1.574 Y-17.801 E0.12901
G1 X-1.574 Y-17.294 E0.01470
G1 X1.574 Y-14.147 E0.12901
G1 X1.574 Y-13.640 E0.01470
G1 X-1.574 Y-16.787 E0.12901
G1 X-1.574 Y-16.280 E0.01470
G1 X1.574 Y-13.133 E0.12901
G1 X1.574 Y-12.625 E0.01470
G1 X-1.574 Y-15.773 E0.12901
G1 X-1.574 Y-15.266 E0.01470
G1 X1.574 Y-12.118 E0.12901
G1 X1.574 Y-11.611 E0.01470
G1 X-1.574 Y-14.759 E0.12901
G1 X-1.574 Y-14.252 E0.01470
G1 X1.574 Y-11.104 E0.12901
G1 X1.574 Y-10.597 E0.01470
G1 X-1.574 Y-13.744 E0.12901
G1 X-1.574 Y-13.237 E0.01470
G1 X1.574 Y-10.090 E0.12901
G1 X1.574 Y-9.583 E0.01470
G1 X-1.574 Y-12.730 E0.12901
G1 X-1.574 Y-12.223 E0.01470
G1 X1.574 Y-9.076 E0.12901
G1 X1.574 Y-8.569 E0.01470
G1 X-1.574 Y-11.716 E0.12901
G1 X-1.574 Y-11.209 E0.01470
G1 X1.574 Y-8.061 E0.12901
G1 X1.574 Y-7.554 E0.01470
G1 X-1.574 Y-10.702 E0.12901
G1 X-1.574 Y-10.195 E0.01470
G1 X1.574 Y-7.047 E0.12901
G1 X1.574 Y-6.540 E0.01470
G1 X-1.574 Y-9.688 E0.12901
G1 X-1.574 Y-9.180 E0.01470
G1 X1.574 Y-6.033 E0.12901
G1 X1.574 Y-5.526 E0.01470
G1 X-1.574 Y-8.673 E0.12901
G1 X-1.574 Y-8.166 E0.01470
G1 X1.574 Y-5.019 E0.12901
G1 X1.574 Y-4.512 E0.01470
G1 X-1.574 Y-7.659 E0.12901
G1 X-1.574 Y-7.152 E0.01470
G1 X1.574 Y-4.005 E0.12901
G1 X1.574 Y-3.497 E0.01470
G1 X-1.574 Y-6.645 E0.12901
G1 X-1.574 Y-6.138 E0.01470
G1 X1.574 Y-2.990 E0.12901
G1 X1.574 Y-2.483 E0.01470
G1 X-1.574 Y-5.631 E0.12901
G1 X-1.574 Y-5.124 E0.01470
G1 X1.574 Y-1.976 E0.12901
G1 X1.574 Y-1.469 E0.01470
G1 X-1.574 Y-4.616 E0.12901
G1 X-1.574 Y-4.109 E0.01470
G1 X1.574 Y-0.962 E0.12901
G1 X1.574 Y-0.455 E0.01470
G1 X-1.574 Y-3.602 E0.12901
G1 X-1.574 Y-3.095 E0.01470
G1 X1.574 Y0.052 E0.12901
G1 X1.574 Y0.559 E0.01470
G1 X-1.574 Y-2.588 E0.12901
G1 X-1.574 Y-2.081 E0.01470
G1 X1.574 Y1.067 E0.12901
G1 X1.574 Y1.574 E0.01470
G1 X-1.574 Y-1.574 E0.12901
G1 X-1.574 Y-1.067 E0.01470
G1 X1.574 Y2.081 E0.12901
G1 X1.574 Y2.588 E0.01470
G1 X-1.574 Y-0.560 E0.12901
G1 X-1.574 Y-0.052 E0.01470
G1 X1.574 Y3.095 E0.12901
G1 X1.574 Y3.602 E0.01470
G1 X-1.574 Y0.455 E0.12901
G1 X-1.574 Y0.962 E0.01470
G1 X1.574 Y4.109 E0.12901
G1 X1.574 Y4.616 E0.01470
G1 X-1.574 Y1.469 E0.12901
G1 X-1.574 Y1.976 E0.01470
G1 X1.574 Y5.124 E0.12901
G1 X1.574 Y5.631 E0.01470
G1 X-1.574 Y2.483 E0.12901
G1 X-1.574 Y2.990 E0.01470
G1 X1.574 Y6.138 E0.12901
G1 X1.574 Y6.645 E0.01470
G1 X-1.574 Y3.497 E0.12901
G1 X-1.574 Y4.005 E0.01470
G1 X1.574 Y7.152 E0.12901
