; GCode generated by RepRap Java Host Software
; Created: 2013-01-19:16-24-17
;#!RECTANGLE: <BOX x:[l:48.35000038146973, h:95.64999961853027], y:[l:43.39999961853027, h:94.60000038146973]>, height: 5.900000095367432
M110
G21
G90
G10 P0 X0 Y0 Z0 S205.0 R205.0
M83
G92 E0
G28 X0
G28 Y0
G28 Z0
T0
G1 Z0.25 F200.0
T0
G1 X48.35 Y43.4 F2500.0
G1 F5612.6
G1 E3.118
G1 F2500.0
G1 F78.0
G1 E0.065
G1 F2500.0
G1 X95.65 E1.475
G1 Y94.6 E1.596
G1 X48.35 E1.475
G1 Y43.4 E1.596
G1 F5612.6
G1 E-3.118
G1 F2500.0
;#!LAYER: 1/23
G92 E0
G1 Z0.25 F200.0
G1 X48.35 Y43.4
G1 X54.84 Y88.08 F15000.0
T0
G1 F5612.6
G1 E3.118
G1 F2500.0
G1 F78.0
G1 E0.065
G1 F2500.0
G1 Y49.89 E1.191 F2250.0
G1 X89.16 E1.07
G1 Y88.11 E1.192
G1 X54.84 Y88.08 E1.07
G1 X54.54 Y88.35 E0.013
G1 Y49.59 E1.209
G1 X89.46 Y49.62 E1.089
G1 Y88.41 E1.21
G1 X54.54 Y88.35 E1.089
G1 F5612.6
G1 E-3.118
G1 F2500.0
G1 X54.84 Y88.08
G1 X89.07 Y87.63 F15000.0
G1 F5612.6
G1 E3.118
G1 F2500.0
G1 F78.0
G1 E0.065
G1 F2500.0
G1 X88.62 Y88.02 E0.019
G1 X88.29 E0.01
G1 X89.07 Y87.15 E0.036
G1 Y86.79 E0.011
G1 X87.78 Y88.02 E0.056
G1 X87.42 E0.011
G1 X89.07 Y86.31 E0.074
G1 Y85.95 E0.011
G1 X86.94 Y88.02 E0.093
G1 X86.58 E0.011
G1 X89.07 Y85.44 E0.112
G1 Y85.11 E0.01
G1 X86.07 Y88.02 E0.13
G1 X85.74 E0.01
G1 X89.07 Y84.6 E0.149
G1 Y84.27 E0.01
G1 X85.23 Y88.02 E0.167
G1 X84.87 E0.011
G1 X89.07 Y83.76 E0.187
G1 Y83.4 E0.011
G1 X84.39 Y88.02 E0.205
G1 X84.03 E0.011
G1 X89.07 Y82.92 E0.224
G1 Y82.56 E0.011
G1 X83.52 Y88.02 E0.243
G1 X83.19 E0.01
G1 X89.07 Y82.05 E0.261
G1 Y81.72 E0.01
G1 X82.68 Y88.02 E0.28
G1 X82.35 E0.01
G1 X89.07 Y81.21 E0.298
G1 Y80.85 E0.011
G1 X81.84 Y88.02 E0.318
G1 X81.48 E0.011
G1 X89.07 Y80.37 E0.336
G1 Y80.01 E0.011
G1 X81.0 Y88.02 E0.355
G1 X80.64 E0.011
G1 X89.07 Y79.5 E0.374
G1 Y79.17 E0.01
G1 X80.13 Y88.02 E0.392
G1 X79.8 E0.01
G1 X89.07 Y78.66 E0.411
G1 Y78.33 E0.01
G1 X79.29 Y88.02 E0.429
G1 X78.93 E0.011
G1 X89.07 Y77.82 E0.448
G1 Y77.46 E0.011
G1 X78.45 Y88.02 E0.467
G1 X78.09 E0.011
G1 X89.07 Y76.98 E0.486
G1 Y76.62 E0.011
G1 X77.61 Y88.02 E0.504
G1 X77.25 E0.011
G1 X89.07 Y76.11 E0.523
G1 Y75.78 E0.01
G1 X76.74 Y88.02 E0.542
G1 X76.41 E0.01
G1 X89.07 Y75.27 E0.56
G1 Y74.91 E0.011
G1 X75.9 Y88.02 E0.579
G1 X75.54 E0.011
G1 X89.07 Y74.43 E0.598
G1 Y74.07 E0.011
G1 X75.06 Y88.02 E0.616
G1 X74.7 E0.011
G1 X89.07 Y73.59 E0.635
G1 Y73.23 E0.011
G1 X74.19 Y88.02 E0.654
G1 X73.86 E0.01
G1 X89.07 Y72.72 E0.673
G1 Y72.39 E0.01
G1 X73.35 Y88.02 E0.691
G1 X72.99 E0.011
G1 X89.07 Y71.88 E0.71
G1 Y71.52 E0.011
G1 X72.51 Y88.02 E0.729
G1 X72.15 E0.011
G1 X89.07 Y71.04 E0.747
G1 Y70.68 E0.011
G1 X71.7 Y87.99 E0.765
G1 X71.34 E0.011
G1 X89.07 Y70.17 E0.784
G1 Y69.84 E0.01
G1 X70.83 Y87.99 E0.802
G1 X70.5 E0.01
G1 X89.07 Y69.33 E0.821
G1 Y68.97 E0.011
G1 X69.99 Y87.99 E0.84
G1 X69.63 E0.011
G1 X89.07 Y68.49 E0.859
G1 Y68.13 E0.011
G1 X69.15 Y87.99 E0.877
G1 X68.79 E0.011
G1 X89.07 Y67.65 E0.896
G1 Y67.29 E0.011
G1 X68.28 Y87.99 E0.915
G1 X67.95 E0.01
G1 X89.07 Y66.78 E0.933
G1 Y66.45 E0.01
G1 X67.44 Y87.99 E0.952
G1 X67.08 E0.011
G1 X89.07 Y65.94 E0.971
G1 Y65.58 E0.011
G1 X66.6 Y87.99 E0.99
G1 X66.24 E0.011
G1 X89.07 Y65.1 E1.008
G1 Y64.74 E0.011
G1 X65.76 Y87.99 E1.027
G1 X65.4 E0.011
G1 X89.07 Y64.23 E1.046
G1 Y63.9 E0.01
G1 X64.89 Y87.99 E1.064
G1 X64.56 E0.01
G1 X89.07 Y63.39 E1.083
G1 Y63.03 E0.011
G1 X64.05 Y87.99 E1.102
G1 X63.69 E0.011
G1 X89.07 Y62.55 E1.121
G1 Y62.19 E0.011
G1 X63.21 Y87.99 E1.139
G1 X62.85 E0.011
G1 X89.07 Y61.71 E1.158
G1 Y61.35 E0.011
G1 X62.34 Y87.99 E1.177
G1 X62.01 E0.01
G1 X89.07 Y60.84 E1.195
G1 Y60.51 E0.01
G1 X61.5 Y87.99 E1.214
G1 X61.14 E0.011
G1 X89.07 Y60.0 E1.233
G1 Y59.64 E0.011
G1 X60.66 Y87.99 E1.251
G1 X60.3 E0.011
G1 X89.07 Y59.16 E1.27
G1 Y58.8 E0.011
G1 X59.82 Y87.99 E1.289
G1 X59.46 E0.011
G1 X89.07 Y58.29 E1.308
G1 Y57.96 E0.01
G1 X58.95 Y87.99 E1.326
G1 X58.62 E0.01
G1 X89.07 Y57.45 E1.345
G1 Y57.09 E0.011
G1 X58.11 Y87.99 E1.364
G1 X57.75 E0.011
G1 X89.07 Y56.61 E1.382
G1 Y56.25 E0.011
G1 X57.27 Y87.99 E1.401
G1 X56.91 E0.011
G1 X89.07 Y55.77 E1.419
G1 Y55.41 E0.011
G1 X56.4 Y87.99 E1.439
G1 X56.07 E0.01
G1 X89.07 Y54.9 E1.457
G1 Y54.57 E0.01
G1 X55.56 Y87.99 E1.476
G1 X55.2 E0.011
G1 X89.07 Y54.06 E1.495
G1 Y53.7 E0.011
G1 X54.93 Y87.78 E1.504
G1 Y87.42 E0.011
G1 X89.07 Y53.22 E1.507
G1 Y52.86 E0.011
G1 X54.93 Y86.94 E1.504
G1 Y86.58 E0.011
G1 X89.07 Y52.35 E1.507
G1 Y52.02 E0.01
G1 X54.93 Y86.07 E1.503
G1 Y85.74 E0.01
G1 X89.07 Y51.51 E1.507
G1 Y51.15 E0.011
G1 X54.93 Y85.23 E1.504
G1 Y84.87 E0.011
G1 X89.07 Y50.67 E1.507
G1 Y50.31 E0.011
G1 X54.93 Y84.39 E1.504
G1 Y84.03 E0.011
G1 X88.92 Y49.98 E1.5
G1 X88.56 E0.011
G1 X54.93 Y83.52 E1.481
G1 Y83.19 E0.01
G1 X88.05 Y49.98 E1.462
G1 X87.72 E0.01
G1 X54.93 Y82.68 E1.444
G1 Y82.32 E0.011
G1 X87.21 Y49.98 E1.425
G1 X86.85 E0.011
G1 X54.93 Y81.84 E1.406
G1 Y81.48 E0.011
G1 X86.37 Y49.98 E1.388
G1 X86.01 E0.011
G1 X54.93 Y81.0 E1.369
G1 Y80.64 E0.011
G1 X85.5 Y49.98 E1.35
G1 X85.17 E0.01
G1 X54.93 Y80.13 E1.332
G1 Y79.8 E0.01
G1 X84.66 Y49.98 E1.313
G1 X84.3 E0.011
G1 X54.93 Y79.29 E1.294
G1 Y78.93 E0.011
G1 X83.82 Y49.98 E1.275
G1 X83.46 E0.011
G1 X54.93 Y78.45 E1.257
G1 Y78.09 E0.011
G1 X82.98 Y49.98 E1.238
G1 X82.62 E0.011
G1 X54.93 Y77.58 E1.219
G1 Y77.25 E0.01
G1 X82.11 Y49.98 E1.201
G1 X81.78 E0.01
G1 X54.93 Y76.74 E1.182
G1 Y76.38 E0.011
G1 X81.27 Y49.98 E1.163
G1 X80.91 E0.011
G1 X54.93 Y75.9 E1.144
G1 Y75.54 E0.011
G1 X80.43 Y49.98 E1.126
G1 X80.07 E0.011
G1 X54.93 Y75.06 E1.107
G1 Y74.7 E0.011
G1 X79.56 Y49.98 E1.088
G1 X79.23 E0.01
G1 X54.93 Y74.19 E1.07
G1 Y73.86 E0.01
G1 X78.72 Y49.98 E1.051
G1 X78.36 E0.011
G1 X54.93 Y73.35 E1.032
G1 Y72.99 E0.011
G1 X77.88 Y49.98 E1.013
G1 X77.52 E0.011
G1 X54.93 Y72.51 E0.995
G1 Y72.15 E0.011
G1 X77.04 Y49.98 E0.976
G1 X76.68 E0.011
G1 X54.93 Y71.64 E0.957
G1 Y71.31 E0.01
G1 X76.17 Y49.98 E0.939
G1 X75.84 E0.01
G1 X54.93 Y70.8 E0.92
G1 Y70.47 E0.01
G1 X75.33 Y49.98 E0.902
G1 X74.97 E0.011
G1 X54.93 Y69.96 E0.882
G1 Y69.6 E0.011
G1 X74.49 Y49.98 E0.864
G1 X74.13 E0.011
G1 X54.93 Y69.12 E0.845
G1 Y68.76 E0.011
G1 X73.62 Y49.98 E0.826
G1 X73.29 E0.01
G1 X54.93 Y68.25 E0.808
G1 Y67.92 E0.01
G1 X72.78 Y49.98 E0.789
G1 X72.45 E0.01
G1 X54.93 Y67.41 E0.771
G1 Y67.05 E0.011
G1 X71.94 Y49.98 E0.751
G1 X71.58 E0.011
G1 X54.93 Y66.57 E0.733
G1 Y66.21 E0.011
G1 X71.1 Y49.98 E0.714
G1 X70.74 E0.011
G1 X54.93 Y65.7 E0.695
G1 Y65.37 E0.01
G1 X70.23 Y49.98 E0.677
G1 X69.9 E0.01
G1 X54.93 Y64.86 E0.658
G1 Y64.53 E0.01
G1 X69.39 Y49.98 E0.64
G1 X69.03 E0.011
G1 X54.93 Y64.02 E0.62
G1 Y63.66 E0.011
G1 X68.55 Y49.98 E0.602
G1 X68.19 E0.011
G1 X54.93 Y63.18 E0.583
G1 Y62.82 E0.011
G1 X67.68 Y49.98 E0.564
G1 X67.35 E0.01
G1 X54.93 Y62.31 E0.546
G1 Y61.98 E0.01
G1 X66.84 Y49.98 E0.527
G1 X66.51 E0.01
G1 X54.93 Y61.47 E0.509
G1 Y61.11 E0.011
G1 X66.0 Y49.98 E0.489
G1 X65.64 E0.011
G1 X54.93 Y60.63 E0.471
G1 Y60.27 E0.011
G1 X65.16 Y49.98 E0.452
G1 X64.8 E0.011
G1 X54.93 Y59.76 E0.433
G1 Y59.43 E0.01
G1 X64.29 Y49.98 E0.415
G1 X63.96 E0.01
G1 X54.93 Y58.92 E0.396
G1 Y58.59 E0.01
G1 X63.45 Y49.98 E0.378
G1 X63.09 E0.011
G1 X54.93 Y58.08 E0.359
G1 Y57.72 E0.011
G1 X62.61 Y49.98 E0.34
G1 X62.25 E0.011
G1 X54.93 Y57.24 E0.321
G1 Y56.88 E0.011
G1 X61.74 Y49.98 E0.302
G1 X61.41 E0.01
G1 X54.93 Y56.37 E0.284
G1 Y56.04 E0.01
G1 X60.9 Y49.98 E0.265
G1 X60.57 E0.01
G1 X54.93 Y55.53 E0.247
G1 Y55.17 E0.011
G1 X60.06 Y49.98 E0.228
G1 X59.7 E0.011
G1 X54.93 Y54.69 E0.209
G1 Y54.33 E0.011
G1 X59.22 Y49.98 E0.191
G1 X58.86 E0.011
G1 X54.93 Y53.82 E0.171
G1 Y53.49 E0.01
G1 X58.35 Y49.98 E0.153
G1 X58.02 E0.01
G1 X54.93 Y52.98 E0.134
G1 Y52.65 E0.01
G1 X57.51 Y49.98 E0.116
G1 X57.15 E0.011
G1 X54.93 Y52.14 E0.097
G1 Y51.78 E0.011
G1 X56.67 Y49.98 E0.078
G1 X56.31 E0.011
G1 X54.93 Y51.3 E0.06
G1 Y50.94 E0.011
G1 X55.8 Y49.98 E0.04
G1 X55.47 E0.01
G1 X54.93 Y50.46 E0.023
G1 Y50.1 E0.011
G1 X55.02 Y49.98 E0.005
G1 F5612.6
G1 E-3.118
G1 F2500.0
;#!LAYER: 2/23
G92 E0
G1 Z0.5 F200.0
G1 X54.84 Y88.08 F15000.0
T0
G1 F5612.6
G1 E3.118
G1 F2500.0
G1 F78.0
G1 E0.065
G1 F2500.0
G1 Y49.89 E1.191 F2250.0
G1 X89.16 E1.07
G1 Y88.11 E1.192
G1 X54.84 Y88.08 E1.07
G1 X54.54 Y88.35 E0.013
G1 Y49.59 E1.209
G1 X89.46 Y49.62 E1.089
G1 Y88.41 E1.21
G1 X54.54 Y88.35 E1.089
G1 F5612.6
G1 E-3.118
G1 F2500.0
G1 X54.84 Y88.08
G1 X54.93 Y87.6 F15000.0
G1 F5612.6
G1 E3.118
G1 F2500.0
G1 F78.0
G1 E0.065
G1 F2500.0
G1 X55.35 Y87.99 E0.018
G1 X55.68 E0.01
G1 X54.93 Y87.15 E0.035
G1 Y86.82 E0.01
G1 X56.19 Y87.99 E0.054
G1 X56.52 E0.01
G1 X54.93 Y86.31 E0.072
G1 Y85.95 E0.011
G1 X57.03 Y87.99 E0.091
G1 X57.39 E0.011
G1 X54.93 Y85.47 E0.11
G1 Y85.11 E0.011
G1 X57.87 Y87.99 E0.128
G1 X58.23 E0.011
G1 X54.93 Y84.6 E0.148
G1 Y84.27 E0.01
G1 X58.74 Y87.99 E0.166
G1 X59.07 E0.01
G1 X54.93 Y83.76 E0.185
G1 Y83.43 E0.01
G1 X59.58 Y87.99 E0.203
G1 X59.94 E0.011
G1 X54.93 Y82.92 E0.222
G1 Y82.56 E0.011
G1 X60.42 Y87.99 E0.241
G1 X60.78 E0.011
G1 X54.93 Y82.08 E0.259
G1 Y81.72 E0.011
G1 X61.29 Y87.99 E0.278
G1 X61.62 E0.01
G1 X54.93 Y81.21 E0.297
G1 Y80.88 E0.01
G1 X62.13 Y87.99 E0.316
G1 X62.46 E0.01
G1 X54.93 Y80.37 E0.334
G1 Y80.01 E0.011
G1 X62.97 Y87.99 E0.353
G1 X63.33 E0.011
G1 X54.93 Y79.53 E0.372
G1 Y79.17 E0.011
G1 X63.81 Y87.99 E0.39
G1 X64.17 E0.011
G1 X54.93 Y78.66 E0.409
G1 Y78.33 E0.01
G1 X64.68 Y87.99 E0.428
G1 X65.01 E0.01
G1 X54.93 Y77.82 E0.446
G1 Y77.49 E0.01
G1 X65.52 Y87.99 E0.465
G1 X65.88 E0.011
G1 X54.93 Y76.98 E0.484
G1 Y76.62 E0.011
G1 X66.36 Y87.99 E0.503
G1 X66.72 E0.011
G1 X54.93 Y76.14 E0.521
G1 Y75.78 E0.011
G1 X67.23 Y87.99 E0.54
G1 X67.56 E0.01
G1 X54.93 Y75.27 E0.559
G1 Y74.94 E0.01
G1 X68.07 Y87.99 E0.577
G1 X68.4 E0.01
G1 X54.93 Y74.43 E0.596
G1 Y74.07 E0.011
G1 X68.91 Y87.99 E0.615
G1 X69.27 E0.011
G1 X54.93 Y73.59 E0.634
G1 Y73.23 E0.011
G1 X69.75 Y87.99 E0.652
G1 X70.11 E0.011
G1 X54.93 Y72.72 E0.671
G1 Y72.39 E0.01
G1 X70.62 Y87.99 E0.69
G1 X70.95 E0.01
G1 X54.93 Y71.88 E0.708
G1 Y71.55 E0.01
G1 X71.46 Y87.99 E0.727
G1 X71.82 E0.011
G1 X54.93 Y71.04 E0.746
G1 Y70.68 E0.011
G1 X72.33 Y88.02 E0.766
G1 X72.69 E0.011
G1 X54.93 Y70.2 E0.784
G1 Y69.84 E0.011
G1 X73.2 Y88.02 E0.804
G1 X73.53 E0.01
G1 X54.93 Y69.33 E0.822
G1 Y69.0 E0.01
G1 X74.04 Y88.02 E0.841
G1 X74.37 E0.01
G1 X54.93 Y68.49 E0.859
G1 Y68.13 E0.011
G1 X74.88 Y88.02 E0.878
G1 X75.24 E0.011
G1 X54.93 Y67.65 E0.897
G1 Y67.29 E0.011
G1 X75.72 Y88.02 E0.915
G1 X76.08 E0.011
G1 X54.93 Y66.78 E0.935
G1 Y66.45 E0.01
G1 X76.59 Y88.02 E0.953
G1 X76.92 E0.01
G1 X54.93 Y65.94 E0.972
G1 Y65.61 E0.01
G1 X77.43 Y88.02 E0.99
G1 X77.79 E0.011
G1 X54.93 Y65.1 E1.009
G1 Y64.74 E0.011
G1 X78.27 Y88.02 E1.028
G1 X78.63 E0.011
G1 X54.93 Y64.26 E1.046
G1 Y63.9 E0.011
G1 X79.14 Y88.02 E1.066
G1 X79.47 E0.01
G1 X54.93 Y63.39 E1.084
G1 Y63.06 E0.01
G1 X79.98 Y88.02 E1.103
G1 X80.31 E0.01
G1 X54.93 Y62.55 E1.121
G1 Y62.19 E0.011
G1 X80.82 Y88.02 E1.14
G1 X81.18 E0.011
G1 X54.93 Y61.71 E1.159
G1 Y61.35 E0.011
G1 X81.66 Y88.02 E1.177
G1 X82.02 E0.011
G1 X54.93 Y60.84 E1.197
G1 Y60.51 E0.01
G1 X82.53 Y88.02 E1.215
G1 X82.86 E0.01
G1 X54.93 Y60.0 E1.234
G1 Y59.67 E0.01
G1 X83.37 Y88.02 E1.252
G1 X83.73 E0.011
G1 X54.93 Y59.16 E1.271
G1 Y58.8 E0.011
G1 X84.21 Y88.02 E1.29
G1 X84.57 E0.011
G1 X54.93 Y58.32 E1.308
G1 Y57.96 E0.011
G1 X85.08 Y88.02 E1.328
G1 X85.41 E0.01
G1 X54.93 Y57.45 E1.346
G1 Y57.12 E0.01
G1 X85.92 Y88.02 E1.365
G1 X86.25 E0.01
G1 X54.93 Y56.61 E1.383
G1 Y56.25 E0.011
G1 X86.76 Y88.02 E1.402
G1 X87.12 E0.011
G1 X54.93 Y55.77 E1.421
G1 Y55.41 E0.011
G1 X87.6 Y88.02 E1.439
G1 X87.96 E0.011
G1 X54.93 Y54.93 E1.458
G1 Y54.57 E0.011
G1 X88.47 Y88.02 E1.477
G1 X88.8 E0.01
G1 X54.93 Y54.06 E1.496
G1 Y53.73 E0.01
G1 X89.07 Y87.78 E1.503
G1 Y87.42 E0.011
G1 X54.93 Y53.22 E1.507
G1 Y52.86 E0.011
G1 X89.07 Y86.94 E1.504
G1 Y86.58 E0.011
G1 X54.93 Y52.38 E1.507
G1 Y52.02 E0.011
G1 X89.07 Y86.1 E1.504
G1 Y85.74 E0.011
G1 X54.93 Y51.51 E1.507
G1 Y51.18 E0.01
G1 X89.07 Y85.23 E1.503
G1 Y84.9 E0.01
G1 X54.93 Y50.67 E1.507
G1 Y50.31 E0.011
G1 X89.07 Y84.39 E1.504
G1 Y84.03 E0.011
G1 X55.08 Y49.98 E1.5
G1 X55.44 E0.011
G1 X89.07 Y83.55 E1.482
G1 Y83.19 E0.011
G1 X55.92 Y49.98 E1.463
G1 X56.28 E0.011
G1 X89.07 Y82.68 E1.444
G1 Y82.35 E0.01
G1 X56.79 Y49.98 E1.425
G1 X57.12 E0.01
G1 X89.07 Y81.84 E1.407
G1 Y81.48 E0.011
G1 X57.63 Y49.98 E1.388
G1 X57.99 E0.011
G1 X89.07 Y81.0 E1.369
G1 Y80.64 E0.011
G1 X58.47 Y49.98 E1.351
G1 X58.83 E0.011
G1 X89.07 Y80.16 E1.332
G1 Y79.8 E0.011
G1 X59.34 Y49.98 E1.313
G1 X59.67 E0.01
G1 X89.07 Y79.29 E1.294
G1 Y78.96 E0.01
G1 X60.18 Y49.98 E1.276
G1 X60.54 E0.011
G1 X89.07 Y78.45 E1.257
G1 Y78.09 E0.011
G1 X61.02 Y49.98 E1.238
G1 X61.38 E0.011
G1 X89.07 Y77.61 E1.22
G1 Y77.25 E0.011
G1 X61.86 Y49.98 E1.201
G1 X62.22 E0.011
G1 X89.07 Y76.74 E1.182
G1 Y76.41 E0.01
G1 X62.73 Y49.98 E1.164
G1 X63.06 E0.01
G1 X89.07 Y75.9 E1.145
G1 Y75.54 E0.011
G1 X63.57 Y49.98 E1.126
G1 X63.93 E0.011
G1 X89.07 Y75.06 E1.107
G1 Y74.7 E0.011
G1 X64.41 Y49.98 E1.089
G1 X64.77 E0.011
G1 X89.07 Y74.22 E1.07
G1 Y73.86 E0.011
G1 X65.28 Y49.98 E1.051
G1 X65.61 E0.01
G1 X89.07 Y73.35 E1.033
G1 Y73.02 E0.01
G1 X66.12 Y49.98 E1.014
G1 X66.48 E0.011
G1 X89.07 Y72.51 E0.995
G1 Y72.15 E0.011
G1 X66.96 Y49.98 E0.976
G1 X67.32 E0.011
G1 X89.07 Y71.67 E0.958
G1 Y71.31 E0.011
G1 X67.8 Y49.98 E0.939
G1 X68.16 E0.011
G1 X89.07 Y70.8 E0.92
G1 Y70.47 E0.01
G1 X68.67 Y49.98 E0.902
G1 X69.0 E0.01
G1 X89.07 Y69.96 E0.883
G1 Y69.6 E0.011
G1 X69.51 Y49.98 E0.864
G1 X69.87 E0.011
G1 X89.07 Y69.12 E0.845
G1 Y68.76 E0.011
G1 X70.35 Y49.98 E0.827
G1 X70.71 E0.011
G1 X89.07 Y68.28 E0.808
G1 Y67.92 E0.011
G1 X71.22 Y49.98 E0.789
G1 X71.55 E0.01
G1 X89.07 Y67.41 E0.771
G1 Y67.08 E0.01
G1 X72.06 Y49.98 E0.752
G1 X72.42 E0.011
G1 X89.07 Y66.57 E0.733
G1 Y66.21 E0.011
G1 X72.9 Y49.98 E0.714
G1 X73.26 E0.011
G1 X89.07 Y65.73 E0.696
G1 Y65.37 E0.011
G1 X73.74 Y49.98 E0.677
G1 X74.1 E0.011
G1 X89.07 Y64.86 E0.658
G1 Y64.53 E0.01
G1 X74.61 Y49.98 E0.64
G1 X74.94 E0.01
G1 X89.07 Y64.02 E0.621
G1 Y63.66 E0.011
G1 X75.45 Y49.98 E0.602
G1 X75.81 E0.011
G1 X89.07 Y63.18 E0.583
G1 Y62.82 E0.011
G1 X76.29 Y49.98 E0.565
G1 X76.65 E0.011
G1 X89.07 Y62.34 E0.546
G1 Y61.98 E0.011
G1 X77.16 Y49.98 E0.527
G1 X77.49 E0.01
G1 X89.07 Y61.47 E0.509
G1 Y61.14 E0.01
G1 X78.0 Y49.98 E0.49
G1 X78.36 E0.011
G1 X89.07 Y60.63 E0.471
G1 Y60.27 E0.011
G1 X78.84 Y49.98 E0.452
G1 X79.2 E0.011
G1 X89.07 Y59.79 E0.434
G1 Y59.43 E0.011
G1 X79.68 Y49.98 E0.415
G1 X80.04 E0.011
G1 X89.07 Y58.92 E0.396
G1 Y58.59 E0.01
G1 X80.55 Y49.98 E0.378
G1 X80.88 E0.01
G1 X89.07 Y58.08 E0.359
G1 Y57.72 E0.011
G1 X81.39 Y49.98 E0.34
G1 X81.75 E0.011
G1 X89.07 Y57.24 E0.321
G1 Y56.88 E0.011
G1 X82.23 Y49.98 E0.303
G1 X82.59 E0.011
G1 X89.07 Y56.4 E0.284
G1 Y56.04 E0.011
G1 X83.1 Y49.98 E0.265
G1 X83.43 E0.01
G1 X89.07 Y55.53 E0.247
G1 Y55.2 E0.01
G1 X83.94 Y49.98 E0.228
G1 X84.3 E0.011
G1 X89.07 Y54.69 E0.209
G1 Y54.33 E0.011
G1 X84.78 Y49.98 E0.191
G1 X85.14 E0.011
G1 X89.07 Y53.85 E0.172
G1 Y53.49 E0.011
G1 X85.62 Y49.98 E0.153
G1 X85.98 E0.011
G1 X89.07 Y52.98 E0.134
G1 Y52.65 E0.01
G1 X86.49 Y49.98 E0.116
G1 X86.82 E0.01
G1 X89.07 Y52.14 E0.097
G1 Y51.78 E0.011
G1 X87.33 Y49.98 E0.078
G1 X87.69 E0.011
G1 X89.07 Y51.3 E0.06
G1 Y50.94 E0.011
G1 X88.17 Y49.98 E0.041
G1 X88.53 E0.011
G1 X89.07 Y50.46 E0.023
G1 Y50.22 E0.007
G1 X89.01 Y49.98 E0.008
G1 F5612.6
G1 E-3.118
G1 F2500.0
;#!LAYER: 3/23
G92 E0
G1 Z0.75 F200.0
G1 X54.84 Y88.08 F15000.0
T0
G1 F5612.6
G1 E3.118
G1 F2500.0
G1 F78.0
G1 E0.065
G1 F2500.0
G1 Y49.89 E1.191 F2250.0
G1 X89.16 E1.07
G1 Y88.11 E1.192
G1 X54.84 Y88.08 E1.07
G1 X54.54 Y88.35 E0.013
G1 Y49.59 E1.209
G1 X89.46 Y49.62 E1.089
G1 Y88.41 E1.21
G1 X54.54 Y88.35 E1.089
G1 F5612.6
G1 E-3.118
G1 F2500.0
G1 X54.84 Y88.08
G1 X56.31 Y86.7 F15000.0
G1 F5612.6
G1 E3.118
G1 F2500.0
G1 F78.0
G1 E0.065
G1 F2500.0
G1 X87.78 Y55.2 E1.388
G1 Y55.56 E0.011
G1 X56.7 Y86.73 E1.373
G1 X57.03 E0.01
G1 X87.78 Y56.07 E1.354
G1 Y56.4 E0.01
G1 X57.54 Y86.73 E1.335
G1 X57.87 E0.01
G1 X87.78 Y56.91 E1.317
G1 Y57.27 E0.011
G1 X58.38 Y86.73 E1.298
G1 X58.74 E0.011
G1 X87.78 Y57.75 E1.279
G1 Y58.11 E0.011
G1 X59.22 Y86.73 E1.261
G1 X59.58 E0.011
G1 X87.78 Y58.62 E1.242
G1 Y58.95 E0.01
G1 X60.09 Y86.73 E1.223
G1 X60.42 E0.01
G1 X87.78 Y59.46 E1.205
G1 Y59.79 E0.01
G1 X60.93 Y86.73 E1.186
G1 X61.29 E0.011
G1 X87.78 Y60.3 E1.167
G1 Y60.66 E0.011
G1 X61.77 Y86.73 E1.148
G1 X62.13 E0.011
G1 X87.78 Y61.14 E1.13
G1 Y61.5 E0.011
G1 X62.64 Y86.73 E1.111
G1 X62.97 E0.01
G1 X87.78 Y62.01 E1.092
G1 Y62.34 E0.01
G1 X63.48 Y86.73 E1.074
G1 X63.81 E0.01
G1 X87.78 Y62.85 E1.055
G1 Y63.21 E0.011
G1 X64.32 Y86.73 E1.036
G1 X64.68 E0.011
G1 X87.78 Y63.69 E1.017
G1 Y64.05 E0.011
G1 X65.16 Y86.73 E0.999
G1 X65.52 E0.011
G1 X87.78 Y64.56 E0.98
G1 Y64.89 E0.01
G1 X66.03 Y86.73 E0.961
G1 X66.36 E0.01
G1 X87.78 Y65.4 E0.943
G1 Y65.73 E0.01
G1 X66.87 Y86.73 E0.924
G1 X67.23 E0.011
G1 X87.78 Y66.24 E0.905
G1 Y66.6 E0.011
G1 X67.71 Y86.73 E0.886
G1 X68.07 E0.011
G1 X87.78 Y67.08 E0.868
G1 Y67.44 E0.011
G1 X68.58 Y86.73 E0.849
G1 X68.91 E0.01
G1 X87.78 Y67.95 E0.83
G1 Y68.28 E0.01
G1 X69.42 Y86.73 E0.812
G1 X69.75 E0.01
G1 X87.78 Y68.79 E0.793
G1 Y69.15 E0.011
G1 X70.26 Y86.73 E0.774
G1 X70.62 E0.011
G1 X87.78 Y69.63 E0.755
G1 Y69.99 E0.011
G1 X71.1 Y86.73 E0.737
G1 X71.46 E0.011
G1 X87.78 Y70.5 E0.718
G1 Y70.83 E0.01
G1 X71.97 Y86.73 E0.699
G1 X72.3 E0.01
G1 X87.78 Y71.34 E0.681
G1 Y71.67 E0.01
G1 X72.81 Y86.73 E0.662
G1 X73.17 E0.011
G1 X87.78 Y72.18 E0.643
G1 Y72.54 E0.011
G1 X73.65 Y86.73 E0.624
G1 X74.01 E0.011
G1 X87.78 Y73.02 E0.606
G1 Y73.38 E0.011
G1 X74.52 Y86.73 E0.587
G1 X74.85 E0.01
G1 X87.78 Y73.89 E0.568
G1 Y74.22 E0.01
G1 X75.36 Y86.73 E0.55
G1 X75.69 E0.01
G1 X87.78 Y74.73 E0.531
G1 Y75.09 E0.011
G1 X76.2 Y86.73 E0.512
G1 X76.56 E0.011
G1 X87.78 Y75.57 E0.493
G1 Y75.93 E0.011
G1 X77.04 Y86.73 E0.475
G1 X77.4 E0.011
G1 X87.78 Y76.44 E0.456
G1 Y76.77 E0.01
G1 X77.91 Y86.73 E0.437
G1 X78.24 E0.01
G1 X87.78 Y77.28 E0.419
G1 Y77.61 E0.01
G1 X78.75 Y86.73 E0.4
G1 X79.11 E0.011
G1 X87.78 Y78.12 E0.381
G1 Y78.48 E0.011
G1 X79.59 Y86.73 E0.362
G1 X79.92 Y86.76 E0.01
G1 X87.78 Y78.96 E0.345
G1 Y79.32 E0.011
G1 X80.43 Y86.76 E0.326
G1 X80.76 E0.01
G1 X87.78 Y79.83 E0.308
G1 Y80.16 E0.01
G1 X81.27 Y86.76 E0.289
G1 X81.6 E0.01
G1 X87.78 Y80.67 E0.271
G1 Y81.03 E0.011
G1 X82.11 Y86.76 E0.251
G1 X82.47 E0.011
G1 X87.78 Y81.51 E0.233
G1 Y81.87 E0.011
G1 X82.95 Y86.76 E0.214
G1 X83.31 E0.011
G1 X87.78 Y82.35 E0.196
G1 Y82.71 E0.011
G1 X83.82 Y86.76 E0.177
G1 X84.15 E0.01
G1 X87.78 Y83.22 E0.158
G1 Y83.55 E0.01
G1 X84.66 Y86.76 E0.14
G1 X85.02 E0.011
G1 X87.78 Y84.06 E0.12
G1 Y84.42 E0.011
G1 X85.5 Y86.76 E0.102
G1 X85.86 E0.011
G1 X87.78 Y84.9 E0.083
G1 Y85.26 E0.011
G1 X86.34 Y86.76 E0.065
G1 X86.7 E0.011
G1 X87.78 Y85.77 E0.046
G1 Y86.1 E0.01
G1 X87.21 Y86.76 E0.027
G1 X87.54 E0.01
G1 X87.78 Y86.58 E0.009
G1 F5612.6
G1 E-3.118
G1 F2500.0
G1 X86.43 Y86.4 F15000.0
G1 F5612.6
G1 E3.118
G1 F2500.0
G1 F78.0
G1 E0.065
G1 F2500.0
G1 X84.75 Y88.02 E0.073
G1 X82.98 E0.055
G1 X84.51 Y86.4 E0.069
G1 X82.74 E0.055
G1 X81.06 Y88.02 E0.073
G1 X79.29 E0.055
G1 X80.85 Y86.4 E0.07
G1 X79.08 E0.055
G1 X77.37 Y88.02 E0.073
G1 X75.63 E0.054
G1 X77.16 Y86.4 E0.069
G1 X75.39 E0.055
G1 X73.71 Y88.02 E0.073
G1 X71.97 Y87.99 E0.054
G1 X73.5 Y86.4 E0.069
G1 X71.7 Y86.43 E0.056
G1 X70.05 Y87.99 E0.071
G1 X68.31 E0.054
G1 X69.78 Y86.43 E0.067
G1 X68.01 E0.055
G1 X66.39 Y87.99 E0.07
G1 X64.62 E0.055
G1 X66.09 Y86.43 E0.067
G1 X64.35 E0.054
G1 X62.7 Y87.99 E0.071
G1 X60.93 E0.055
G1 X62.43 Y86.43 E0.067
G1 X60.66 E0.055
G1 X59.04 Y87.99 E0.07
G1 X57.27 E0.055
G1 X58.74 Y86.43 E0.067
G1 X57.03 Y86.4 E0.053
G1 X55.35 Y87.99 E0.072
G1 X54.93 Y87.96 E0.013
G1 Y86.64 E0.041
G1 X56.52 Y84.99 E0.071
G1 Y83.22 E0.055
G1 X54.93 Y84.72 E0.068
G1 Y82.98 E0.054
G1 X56.52 Y81.3 E0.072
G1 Y79.53 E0.055
G1 X54.93 Y81.06 E0.069
G1 Y79.29 E0.055
G1 X56.52 Y77.64 E0.071
G1 Y75.87 E0.055
G1 X54.93 Y77.37 E0.068
G1 Y75.63 E0.054
G1 X56.52 Y73.95 E0.072
G1 Y72.18 E0.055
G1 X54.93 Y73.71 E0.069
G1 Y71.94 E0.055
G1 X56.52 Y70.26 E0.072
G1 Y68.52 E0.054
G1 X54.93 Y70.02 E0.068
G1 Y68.25 E0.055
G1 X56.52 Y66.6 E0.071
G1 Y64.83 E0.055
G1 X54.93 Y66.36 E0.069
G1 Y64.59 E0.055
G1 X56.52 Y62.91 E0.072
G1 Y61.17 E0.054
G1 X54.93 Y62.67 E0.068
G1 Y60.9 E0.055
G1 X56.52 Y59.25 E0.071
G1 Y57.48 E0.055
G1 X54.93 Y59.01 E0.069
G1 Y57.24 E0.055
G1 X56.52 Y55.56 E0.072
G1 Y53.79 E0.055
G1 X54.93 Y55.32 E0.069
G1 Y53.55 E0.055
G1 X58.29 Y50.13 E0.149
G1 X58.26 Y49.98 E0.005
G1 X56.67 E0.05
G1 X54.93 Y51.69 E0.076
G1 F5612.6
G1 E-3.118
G1 F2500.0
G1 X56.19 Y51.57 F15000.0
G1 F5612.6
G1 E3.118
G1 F2500.0
G1 F78.0
G1 E0.065
G1 F2500.0
G1 X56.55 Y51.24 E0.015
G1 X56.88 E0.01
G1 X56.19 Y52.02 E0.032
G1 Y52.35 E0.01
G1 X57.39 Y51.21 E0.052
G1 F5612.6
G1 E-3.118
G1 F2500.0
G1 X58.2 Y49.98 F15000.0
G1 F5612.6
G1 E3.118
G1 F2500.0
G1 F78.0
G1 E0.065
G1 F2500.0
G1 X58.02 Y50.19 E0.009
G1 Y50.55 E0.011
G1 X58.65 Y49.98 E0.026
G1 X59.01 E0.011
G1 X56.19 Y52.86 E0.126
G1 Y53.22 E0.011
G1 X59.49 Y49.98 E0.144
G1 X59.85 E0.011
G1 X56.19 Y53.7 E0.163
G1 Y54.06 E0.011
G1 X60.33 Y49.98 E0.181
G1 X60.69 E0.011
G1 X56.19 Y54.57 E0.2
G1 Y54.9 E0.01
G1 X61.2 Y49.98 E0.219
G1 X61.53 E0.01
G1 X56.19 Y55.41 E0.237
G1 Y55.77 E0.011
G1 X62.04 Y49.98 E0.257
G1 X62.28 E0.007
G1 X62.34 Y50.04 E0.003
G1 X56.19 Y56.25 E0.273
G1 Y56.61 E0.011
G1 X62.34 Y50.52 E0.27
G1 X62.37 Y50.85 E0.01
G1 X56.19 Y57.09 E0.274
G1 Y57.45 E0.011
G1 X62.61 Y51.15 E0.28
G1 X62.82 Y51.24 E0.007
G1 X56.19 Y57.96 E0.294
G1 Y58.29 E0.01
G1 X63.33 Y51.24 E0.313
G1 X63.69 E0.011
G1 X56.19 Y58.8 E0.332
G1 Y59.16 E0.011
G1 X64.17 Y51.24 E0.351
G1 X64.53 E0.011
G1 X56.19 Y59.64 E0.369
G1 Y60.0 E0.011
G1 X65.01 Y51.24 E0.388
G1 X65.4 Y51.21 E0.012
G1 X56.19 Y60.51 E0.408
G1 Y60.84 E0.01
G1 X65.91 Y51.21 E0.427
G1 X66.24 E0.01
G1 X56.19 Y61.35 E0.445
G1 Y61.71 E0.011
G1 X66.78 Y51.18 E0.466
G1 X67.14 E0.011
G1 X56.19 Y62.19 E0.484
G1 Y62.55 E0.011
G1 X67.68 Y51.12 E0.505
G1 F5612.6
G1 E-3.118
G1 F2500.0
G1 X73.2 Y49.98 F15000.0
G1 F5612.6
G1 E3.118
G1 F2500.0
G1 F78.0
G1 E0.065
G1 F2500.0
G1 X71.97 Y51.21 E0.054
G1 X72.03 Y51.51 E0.01
G1 X73.41 Y51.54 E0.043
G1 X75.06 Y49.98 E0.071
G1 X76.8 E0.054
G1 X75.33 Y51.54 E0.067
G1 X77.1 E0.055
G1 X78.72 Y49.98 E0.07
G1 X80.49 E0.055
G1 X79.02 Y51.54 E0.067
G1 X80.73 Y51.57 E0.053
G1 X82.41 Y49.98 E0.072
G1 X84.18 E0.055
G1 X82.65 Y51.57 E0.069
G1 X84.42 E0.055
G1 X86.07 Y49.98 E0.071
G1 X87.84 E0.055
G1 X86.34 Y51.57 E0.068
G1 X87.03 Y51.6 E0.022
G1 X87.33 Y51.81 E0.011
G1 X87.48 Y52.17 E0.012
G1 X89.07 Y50.67 E0.068
G1 Y52.44 E0.055
G1 X87.48 Y54.09 E0.071
G1 Y55.86 E0.055
G1 X89.07 Y54.36 E0.068
G1 Y56.1 E0.054
G1 X87.48 Y57.78 E0.072
G1 Y59.55 E0.055
G1 X89.07 Y58.02 E0.069
G1 Y59.79 E0.055
G1 X87.48 Y61.44 E0.071
G1 Y63.21 E0.055
G1 X89.07 Y61.71 E0.068
G1 Y63.45 E0.054
G1 X87.48 Y65.13 E0.072
G1 Y66.9 E0.055
G1 X89.07 Y65.37 E0.069
G1 Y67.14 E0.055
G1 X87.48 Y68.82 E0.072
G1 Y70.56 E0.054
G1 X89.07 Y69.06 E0.068
G1 Y70.83 E0.055
G1 X87.48 Y72.48 E0.071
G1 Y74.25 E0.055
G1 X89.07 Y72.72 E0.069
G1 Y74.49 E0.055
G1 X87.48 Y76.17 E0.072
G1 Y77.91 E0.054
G1 X89.07 Y76.41 E0.068
G1 Y78.18 E0.055
G1 X87.48 Y79.83 E0.071
G1 Y81.6 E0.055
G1 X89.07 Y80.07 E0.069
G1 Y81.84 E0.055
G1 X87.48 Y83.52 E0.072
G1 Y85.29 E0.055
G1 X89.07 Y83.76 E0.069
G1 Y85.53 E0.055
G1 X86.64 Y88.02 E0.108
G1 X88.41 E0.055
G1 X89.07 Y87.42 E0.028
G1 F5612.6
G1 E-3.118
G1 F2500.0
G1 X87.78 Y54.78 F15000.0
G1 F5612.6
G1 E3.118
G1 F2500.0
G1 F78.0
G1 E0.065
G1 F2500.0
G1 X56.19 Y86.31 E1.392
G1 Y85.95 E0.011
G1 X87.78 Y54.3 E1.394
G1 Y53.94 E0.011
G1 X56.19 Y85.44 E1.391
G1 Y85.11 E0.01
G1 X87.78 Y53.43 E1.395
G1 Y53.1 E0.01
G1 X56.19 Y84.6 E1.391
G1 Y84.27 E0.01
G1 X87.78 Y52.59 E1.395
G1 Y52.23 E0.011
G1 X56.19 Y83.76 E1.392
G1 Y83.4 E0.011
G1 X87.78 Y51.75 E1.394
G1 Y51.39 E0.011
G1 X56.19 Y82.92 E1.392
G1 Y82.56 E0.011
G1 X87.39 Y51.27 E1.378
G1 X87.06 E0.01
G1 X56.19 Y82.05 E1.359
G1 Y81.72 E0.01
G1 X86.55 Y51.27 E1.341
G1 X86.22 E0.01
G1 X56.19 Y81.21 E1.322
G1 Y80.85 E0.011
G1 X85.71 Y51.27 E1.303
G1 X85.35 E0.011
G1 X56.19 Y80.37 E1.285
G1 Y80.01 E0.011
G1 X84.87 Y51.27 E1.266
G1 X84.51 E0.011
G1 X56.19 Y79.5 E1.247
G1 Y79.17 E0.01
G1 X84.0 Y51.27 E1.228
G1 X83.67 E0.01
G1 X56.19 Y78.66 E1.21
G1 Y78.33 E0.01
G1 X83.16 Y51.27 E1.191
G1 X82.8 E0.011
G1 X56.19 Y77.82 E1.172
G1 Y77.46 E0.011
G1 X82.32 Y51.27 E1.154
G1 X81.96 E0.011
G1 X56.19 Y76.98 E1.135
G1 Y76.62 E0.011
G1 X81.45 Y51.27 E1.116
G1 X81.12 E0.01
G1 X56.19 Y76.11 E1.097
G1 Y75.78 E0.01
G1 X80.61 Y51.27 E1.079
G1 X80.28 E0.01
G1 X56.19 Y75.27 E1.06
G1 Y74.91 E0.011
G1 X79.77 Y51.27 E1.041
G1 X79.41 E0.011
G1 X56.19 Y74.43 E1.023
G1 Y74.07 E0.011
G1 X78.93 Y51.27 E1.004
G1 X78.57 E0.011
G1 X56.19 Y73.56 E0.985
G1 Y73.23 E0.01
G1 X78.06 Y51.27 E0.966
G1 X77.73 E0.01
G1 X56.19 Y72.72 E0.948
G1 Y72.39 E0.01
G1 X77.22 Y51.27 E0.929
G1 X76.86 E0.011
G1 X56.19 Y71.88 E0.91
G1 Y71.52 E0.011
G1 X76.41 Y51.24 E0.893
G1 X76.05 E0.011
G1 X56.19 Y71.04 E0.874
G1 Y70.68 E0.011
G1 X75.54 Y51.24 E0.855
G1 X75.21 E0.01
G1 X56.19 Y70.17 E0.837
G1 Y69.84 E0.01
G1 X74.7 Y51.24 E0.818
G1 X74.37 E0.01
G1 X56.19 Y69.33 E0.8
G1 Y68.97 E0.011
G1 X73.86 Y51.24 E0.781
G1 X73.5 E0.011
G1 X56.19 Y68.49 E0.762
G1 Y68.13 E0.011
G1 X73.02 Y51.24 E0.743
G1 X72.72 Y51.18 E0.01
G1 X56.19 Y67.65 E0.728
G1 Y67.29 E0.011
G1 X72.42 Y50.97 E0.718
G1 X72.33 Y50.73 E0.008
G1 X56.19 Y66.78 E0.71
G1 Y66.45 E0.01
G1 X72.3 Y50.25 E0.712
G1 X72.27 Y49.98 E0.008
G1 X56.19 Y65.94 E0.706
G1 Y65.58 E0.011
G1 X71.73 Y49.98 E0.687
G1 X71.37 E0.011
G1 X56.19 Y65.1 E0.668
G1 Y64.74 E0.011
G1 X70.89 Y49.98 E0.65
G1 X70.53 E0.011
G1 X56.19 Y64.23 E0.63
G1 Y63.9 E0.01
G1 X70.02 Y49.98 E0.612
G1 X69.69 E0.01
G1 X56.19 Y63.39 E0.593
G1 Y63.03 E0.011
G1 X69.18 Y49.98 E0.574
G1 X68.82 E0.011
G1 X67.95 Y50.85 E0.038
G1 X68.28 Y51.21 E0.015
G1 X67.86 Y51.57 E0.017
G1 X66.15 Y51.54 E0.053
G1 X67.59 Y50.01 E0.066
G1 X65.82 E0.055
G1 X64.23 Y51.54 E0.069
G1 X62.46 E0.055
G1 X63.96 Y49.98 E0.067
G1 X62.19 E0.055
G1 X61.98 Y50.16 E0.009
G1 F5612.6
G1 E-3.118
G1 F2500.0
;#!LAYER: 4/23
G92 E0
G1 Z1.0 F200.0
G1 X56.25 Y50.94 F15000.0
T0
G1 F5612.6
G1 E3.118
G1 F2500.0
G1 F78.0
G1 E0.065
G1 F2500.0
G1 X55.98 Y51.15 E0.011 F2250.0
G1 X55.86 Y51.69 E0.017
G1 Y86.58 E1.088
G1 X55.95 Y86.85 E0.009
G1 X56.13 Y87.0 E0.007
G1 X56.4 Y87.09 E0.009
G1 X87.72 E0.977
G1 X87.96 Y86.94 E0.009
G1 X88.14 Y86.37 E0.019
G1 Y51.42 E1.09
G1 X88.05 Y51.15 E0.009
G1 X87.87 Y51.0 E0.007
G1 X87.6 Y50.91 E0.009
G1 X72.63 E0.467
G1 X72.66 Y49.89 E0.032
G1 X89.16 Y49.95 E0.514
G1 Y88.11 E1.19
G1 X54.84 E1.07
G1 Y49.89 E1.192
G1 X57.66 Y49.92 E0.088
G1 X57.63 Y50.91 E0.031
G1 X56.25 Y50.94 E0.043
G1 X56.31 Y51.21 E0.009
G1 X56.16 Y51.63 E0.014
G1 Y86.58 E1.09
G1 X56.28 Y86.76 E0.007
G1 X87.72 E0.98
G1 X87.84 Y86.37 E0.013
G1 Y51.42 E1.09
G1 X87.72 Y51.24 E0.007
G1 X72.33 Y51.18 E0.48
G1 Y49.59 E0.05
G1 X89.46 Y49.62 E0.534
G1 Y88.41 E1.21
G1 X54.54 Y88.38 E1.089
G1 Y49.59 E1.21
G1 X57.96 Y49.62 E0.107
G1 X57.93 Y51.21 E0.05
G1 X56.31 E0.051
G1 F5612.6
G1 E-3.118
G1 F2500.0
G1 X56.25 Y50.94
G1 X67.62 Y50.91 F15000.0
G1 F5612.6
G1 E3.118
G1 F2500.0
G1 F78.0
G1 E0.065
G1 F2500.0
G1 X62.64 Y50.85 E0.155 F2250.0
G1 Y49.89 E0.03
G1 X67.65 Y49.92 E0.156
G1 X67.62 Y50.91 E0.031
G1 X67.92 Y51.21 E0.013
G1 X62.34 Y51.18 E0.174
G1 Y49.59 E0.05
G1 X67.95 Y49.62 E0.175
G1 X67.92 Y51.21 E0.05
G1 F5612.6
G1 E-3.118
G1 F2500.0
G1 X67.62 Y50.91
G1 X67.47 Y50.01 F15000.0
G1 F5612.6
G1 E3.118
G1 F2500.0
G1 F78.0
G1 E0.065
G1 F2500.0
G1 X67.56 Y50.19 E0.006
G1 X67.53 Y50.82 E0.02
G1 X66.45 E0.034
G1 X65.58 Y50.01 E0.037
G1 X63.78 Y49.98 E0.056
G1 X64.53 Y50.79 E0.034
G1 X62.73 E0.056
G1 F5612.6
G1 E-3.118
G1 F2500.0
G1 X56.43 Y50.01 F15000.0
G1 F5612.6
G1 E3.118
G1 F2500.0
G1 F78.0
G1 E0.065
G1 F2500.0
G1 X57.18 Y50.82 E0.034
G1 X56.16 Y50.85 E0.032
G1 X55.83 Y51.21 E0.015
G1 X54.93 Y50.4 E0.038
G1 Y52.17 E0.055
G1 X55.77 Y53.07 E0.038
G1 Y54.84 E0.055
G1 X54.93 Y54.06 E0.036
G1 Y55.83 E0.055
G1 X55.77 Y56.76 E0.039
G1 Y58.5 E0.054
G1 X54.93 Y57.75 E0.035
G1 Y59.52 E0.055
G1 X55.77 Y60.42 E0.038
G1 Y62.19 E0.055
G1 X54.93 Y61.41 E0.036
G1 Y63.18 E0.055
G1 X55.77 Y64.11 E0.039
G1 Y65.88 E0.055
G1 X54.93 Y65.1 E0.036
G1 Y66.87 E0.055
G1 X55.77 Y67.77 E0.038
G1 Y69.54 E0.055
G1 X54.93 Y68.79 E0.035
G1 Y70.53 E0.054
G1 X55.77 Y71.46 E0.039
G1 Y73.23 E0.055
G1 X54.93 Y72.45 E0.036
G1 Y74.22 E0.055
G1 X55.77 Y75.12 E0.038
G1 Y76.89 E0.055
G1 X54.93 Y76.14 E0.035
G1 Y77.91 E0.055
G1 X55.77 Y78.81 E0.038
G1 Y80.58 E0.055
G1 X54.93 Y79.8 E0.036
G1 Y81.57 E0.055
G1 X55.77 Y82.5 E0.039
G1 Y84.24 E0.054
G1 X54.93 Y83.43 E0.036
G1 F5612.6
G1 E-3.118
G1 F2500.0
G1 X55.86 Y88.02 F15000.0
G1 F5612.6
G1 E3.118
G1 F2500.0
G1 F78.0
G1 E0.065
G1 F2500.0
G1 X54.93 Y87.03 E0.042
G1 Y85.26 E0.055
G1 X55.77 Y86.19 E0.039
G1 X55.83 Y86.82 E0.02
G1 X56.16 Y87.12 E0.014
G1 X56.76 Y87.18 E0.019
G1 X56.85 E0.003
G1 X57.75 Y88.02 E0.038
G1 X59.52 E0.055
G1 X58.77 Y87.18 E0.035
G1 X60.51 E0.054
G1 X61.44 Y88.02 E0.039
G1 X63.21 E0.055
G1 X62.43 Y87.18 E0.036
G1 X64.2 E0.055
G1 X65.1 Y88.02 E0.038
G1 X66.87 E0.055
G1 X66.12 Y87.18 E0.035
G1 X67.89 E0.055
G1 X68.79 Y88.02 E0.038
G1 X70.56 E0.055
G1 X69.78 Y87.18 E0.036
G1 X71.55 E0.055
G1 X72.48 Y88.02 E0.039
G1 X74.22 E0.054
G1 X73.47 Y87.18 E0.035
G1 X75.24 E0.055
G1 X76.14 Y88.02 E0.038
G1 X77.91 E0.055
G1 X77.13 Y87.18 E0.036
G1 X78.9 E0.055
G1 X79.83 Y88.02 E0.039
G1 X81.6 E0.055
G1 X80.82 Y87.18 E0.036
G1 X82.59 E0.055
G1 X83.49 Y88.02 E0.038
G1 X85.26 E0.055
G1 X84.51 Y87.18 E0.035
G1 X86.25 E0.054
G1 X87.18 Y88.02 E0.039
G1 X88.95 E0.055
G1 X88.02 Y87.0 E0.043
G1 X88.2 Y86.64 E0.013
G1 X88.23 Y85.47 E0.036
G1 X89.07 Y86.25 E0.036
G1 Y84.48 E0.055
G1 X88.23 Y83.55 E0.039
G1 Y81.81 E0.054
G1 X89.07 Y82.56 E0.035
G1 Y80.79 E0.055
G1 X88.23 Y79.89 E0.038
G1 Y78.12 E0.055
G1 X89.07 Y78.87 E0.035
G1 Y77.13 E0.054
G1 X88.23 Y76.2 E0.039
G1 Y74.43 E0.055
G1 X89.07 Y75.21 E0.036
G1 Y73.44 E0.055
G1 X88.23 Y72.54 E0.038
G1 Y70.77 E0.055
G1 X89.07 Y71.52 E0.035
G1 Y69.78 E0.054
G1 X88.23 Y68.85 E0.039
G1 Y67.08 E0.055
G1 X89.07 Y67.86 E0.036
G1 Y66.09 E0.055
G1 X88.23 Y65.16 E0.039
G1 Y63.42 E0.054
G1 X89.07 Y64.17 E0.035
G1 Y62.4 E0.055
G1 X88.23 Y61.5 E0.038
G1 Y59.73 E0.055
G1 X89.07 Y60.51 E0.036
G1 Y58.74 E0.055
G1 X88.23 Y57.81 E0.039
G1 Y56.07 E0.054
G1 X89.07 Y56.82 E0.035
G1 Y55.05 E0.055
G1 X88.23 Y54.15 E0.038
G1 Y52.38 E0.055
G1 X89.07 Y53.13 E0.035
G1 Y51.39 E0.054
G1 X87.63 Y50.01 E0.062
G1 X85.86 E0.055
G1 X86.61 Y50.82 E0.034
G1 X84.84 E0.055
G1 X83.97 Y50.01 E0.037
G1 X82.2 E0.055
G1 X82.92 Y50.82 E0.034
G1 X81.18 E0.054
G1 X80.25 Y49.98 E0.039
G1 X78.48 E0.055
G1 X79.26 Y50.82 E0.036
G1 X77.49 E0.055
G1 X76.59 Y49.98 E0.038
G1 X74.82 E0.055
G1 X75.57 Y50.82 E0.035
G1 X73.83 E0.054
G1 X72.96 Y49.98 E0.038
G1 F5612.6
G1 E-3.118
G1 F2500.0
;#!LAYER: 5/23
G92 E0
G1 Z1.25 F200.0
G1 X56.25 Y50.94 F15000.0
T0
G1 F5612.6
G1 E3.118
G1 F2500.0
G1 F78.0
G1 E0.065
G1 F2500.0
G1 X55.98 Y51.15 E0.011 F2250.0
G1 X55.86 Y51.69 E0.017
G1 Y86.58 E1.088
G1 X55.95 Y86.85 E0.009
G1 X56.13 Y87.0 E0.007
G1 X56.4 Y87.09 E0.009
G1 X87.72 E0.977
G1 X87.96 Y86.94 E0.009
G1 X88.14 Y86.37 E0.019
G1 Y51.42 E1.09
G1 X88.05 Y51.15 E0.009
G1 X87.87 Y51.0 E0.007
G1 X87.6 Y50.91 E0.009
G1 X72.63 E0.467
G1 X72.66 Y49.89 E0.032
G1 X89.16 Y49.95 E0.514
G1 Y88.11 E1.19
G1 X54.84 E1.07
G1 Y49.89 E1.192
G1 X57.66 Y49.92 E0.088
G1 X57.63 Y50.91 E0.031
G1 X56.25 Y50.94 E0.043
G1 X56.31 Y51.21 E0.009
G1 X56.16 Y51.63 E0.014
G1 Y86.58 E1.09
G1 X56.28 Y86.76 E0.007
G1 X87.72 E0.98
G1 X87.84 Y86.37 E0.013
G1 Y51.42 E1.09
G1 X87.72 Y51.24 E0.007
G1 X72.33 Y51.18 E0.48
G1 Y49.59 E0.05
G1 X89.46 Y49.62 E0.534
G1 Y88.41 E1.21
G1 X54.54 Y88.38 E1.089
G1 Y49.59 E1.21
G1 X57.96 Y49.62 E0.107
G1 X57.93 Y51.21 E0.05
G1 X56.31 E0.051
G1 F5612.6
G1 E-3.118
G1 F2500.0
G1 X56.25 Y50.94
G1 X67.62 Y50.91 F15000.0
G1 F5612.6
G1 E3.118
G1 F2500.0
G1 F78.0
G1 E0.065
G1 F2500.0
G1 X62.64 Y50.85 E0.155 F2250.0
G1 Y49.89 E0.03
G1 X67.65 Y49.92 E0.156
G1 X67.62 Y50.91 E0.031
G1 X67.92 Y51.21 E0.013
G1 X62.34 Y51.18 E0.174
G1 Y49.59 E0.05
G1 X67.95 Y49.62 E0.175
G1 X67.92 Y51.21 E0.05
G1 F5612.6
G1 E-3.118
G1 F2500.0
G1 X67.62 Y50.91
G1 X66.72 Y50.01 F15000.0
G1 F5612.6
G1 E3.118
G1 F2500.0
G1 F78.0
G1 E0.065
G1 F2500.0
G1 X65.85 Y50.82 E0.037
G1 X64.14 Y50.79 E0.053
G1 X64.86 Y49.98 E0.034
G1 X63.09 E0.055
G1 X62.73 Y50.34 E0.016
G1 F5612.6
G1 E-3.118
G1 F2500.0
G1 X57.54 Y50.01 F15000.0
G1 F5612.6
G1 E3.118
G1 F2500.0
G1 F78.0
G1 E0.065
G1 F2500.0
G1 X56.67 Y50.82 E0.037
G1 X56.16 Y50.85 E0.016
G1 X55.83 Y51.21 E0.015
G1 X55.77 Y51.78 E0.018
G1 X54.93 Y52.71 E0.039
G1 Y54.45 E0.054
G1 X55.77 Y53.7 E0.035
G1 Y55.47 E0.055
G1 X54.93 Y56.37 E0.038
G1 Y58.14 E0.055
G1 X55.77 Y57.36 E0.036
G1 Y59.13 E0.055
G1 X54.93 Y60.06 E0.039
G1 Y61.8 E0.054
G1 X55.77 Y61.05 E0.035
G1 Y62.82 E0.055
G1 X54.93 Y63.72 E0.038
G1 Y65.49 E0.055
G1 X55.77 Y64.74 E0.035
G1 Y66.48 E0.054
G1 X54.93 Y67.41 E0.039
G1 Y69.18 E0.055
G1 X55.77 Y68.4 E0.036
G1 Y70.17 E0.055
G1 X54.93 Y71.07 E0.038
G1 Y72.84 E0.055
G1 X55.77 Y72.09 E0.035
G1 Y73.83 E0.054
G1 X54.93 Y74.76 E0.039
G1 Y76.53 E0.055
G1 X55.77 Y75.75 E0.036
G1 Y77.52 E0.055
G1 X54.93 Y78.42 E0.038
G1 Y80.19 E0.055
G1 X55.77 Y79.44 E0.035
G1 Y81.21 E0.055
G1 X54.93 Y82.11 E0.038
G1 Y83.88 E0.055
G1 X55.77 Y83.1 E0.036
G1 Y84.87 E0.055
G1 X54.93 Y85.8 E0.039
G1 Y87.54 E0.054
G1 X55.8 Y86.76 E0.036
G1 X56.16 Y87.12 E0.016
G1 X56.76 Y87.18 E0.019
G1 X57.15 E0.012
G1 X56.37 Y88.02 E0.036
G1 X58.14 E0.055
G1 X59.04 Y87.18 E0.038
G1 X60.81 E0.055
G1 X60.06 Y88.02 E0.035
G1 X61.83 E0.055
G1 X62.73 Y87.18 E0.038
G1 X64.5 E0.055
G1 X63.72 Y88.02 E0.036
G1 X65.49 E0.055
G1 X66.42 Y87.18 E0.039
G1 X68.16 E0.054
G1 X67.41 Y88.02 E0.035
G1 X69.18 E0.055
G1 X70.08 Y87.18 E0.038
G1 X71.85 E0.055
G1 X71.07 Y88.02 E0.036
G1 X72.84 E0.055
G1 X73.77 Y87.18 E0.039
G1 X75.54 E0.055
G1 X74.76 Y88.02 E0.036
G1 X76.53 E0.055
G1 X77.43 Y87.18 E0.038
G1 X79.2 E0.055
G1 X78.45 Y88.02 E0.035
G1 X80.19 E0.054
G1 X81.12 Y87.18 E0.039
G1 X82.89 E0.055
G1 X82.11 Y88.02 E0.036
G1 X83.88 E0.055
G1 X84.78 Y87.18 E0.038
G1 X86.55 E0.055
G1 X85.8 Y88.02 E0.035
G1 X87.54 E0.054
G1 X89.07 Y86.43 E0.069
G1 Y84.66 E0.055
G1 X88.23 Y85.44 E0.036
G1 Y83.67 E0.055
G1 X89.07 Y82.77 E0.038
G1 Y81.0 E0.055
G1 X88.23 Y81.78 E0.036
G1 Y80.01 E0.055
G1 X89.07 Y79.08 E0.039
G1 Y77.34 E0.054
G1 X88.23 Y78.09 E0.035
G1 Y76.32 E0.055
G1 X89.07 Y75.42 E0.038
G1 Y73.65 E0.055
G1 X88.23 Y74.43 E0.036
G1 Y72.66 E0.055
G1 X89.07 Y71.73 E0.039
G1 Y69.96 E0.055
G1 X88.23 Y70.74 E0.036
G1 Y68.97 E0.055
G1 X89.07 Y68.07 E0.038
G1 Y66.3 E0.055
G1 X88.23 Y67.05 E0.035
G1 Y65.31 E0.054
G1 X89.07 Y64.38 E0.039
G1 Y62.61 E0.055
G1 X88.23 Y63.39 E0.036
G1 Y61.62 E0.055
G1 X89.07 Y60.72 E0.038
G1 Y58.95 E0.055
G1 X88.23 Y59.7 E0.035
G1 Y57.93 E0.055
G1 X89.07 Y57.03 E0.038
G1 Y55.26 E0.055
G1 X88.23 Y56.04 E0.036
G1 Y54.27 E0.055
G1 X89.07 Y53.34 E0.039
G1 Y51.6 E0.054
G1 X88.23 Y52.35 E0.035
G1 X88.2 Y51.24 E0.035
G1 X87.9 Y50.91 E0.014
G1 X88.74 Y50.01 E0.038
G1 X86.97 E0.055
G1 X86.1 Y50.82 E0.037
G1 X84.33 E0.055
G1 X85.05 Y50.01 E0.034
G1 X83.28 E0.055
G1 X82.41 Y50.82 E0.037
G1 X80.64 E0.055
G1 X81.39 Y50.01 E0.034
G1 X79.65 Y49.98 E0.054
G1 X78.72 Y50.82 E0.039
G1 X76.98 E0.054
G1 X77.73 Y49.98 E0.035
G1 X75.96 E0.055
G1 X75.06 Y50.82 E0.038
G1 X73.29 E0.055
G1 X74.13 Y49.98 E0.037
G1 F5612.6
G1 E-3.118
G1 F2500.0
;#!LAYER: 6/23
G92 E0
G1 Z1.5 F200.0
G1 X56.25 Y50.94 F15000.0
T0
G1 F5612.6
G1 E3.118
G1 F2500.0
G1 F78.0
G1 E0.065
G1 F2500.0
G1 X55.98 Y51.15 E0.011 F2250.0
G1 X55.86 Y51.69 E0.017
G1 Y86.58 E1.088
G1 X55.95 Y86.85 E0.009
G1 X56.13 Y87.0 E0.007
G1 X56.4 Y87.09 E0.009
G1 X87.72 E0.977
G1 X87.96 Y86.94 E0.009
G1 X88.14 Y86.37 E0.019
G1 Y51.42 E1.09
G1 X88.05 Y51.15 E0.009
G1 X87.87 Y51.0 E0.007
G1 X87.6 Y50.91 E0.009
G1 X72.63 E0.467
G1 X72.66 Y49.89 E0.032
G1 X89.16 Y49.95 E0.514
G1 Y88.11 E1.19
G1 X54.84 E1.07
G1 Y49.89 E1.192
G1 X57.66 Y49.92 E0.088
G1 X57.63 Y50.91 E0.031
G1 X56.25 Y50.94 E0.043
G1 X56.31 Y51.21 E0.009
G1 X56.16 Y51.63 E0.014
G1 Y86.58 E1.09
G1 X56.28 Y86.76 E0.007
G1 X87.72 E0.98
G1 X87.84 Y86.37 E0.013
G1 Y51.42 E1.09
G1 X87.72 Y51.24 E0.007
G1 X72.33 Y51.18 E0.48
G1 Y49.59 E0.05
G1 X89.46 Y49.62 E0.534
G1 Y88.41 E1.21
G1 X54.54 Y88.38 E1.089
G1 Y49.59 E1.21
G1 X57.96 Y49.62 E0.107
G1 X57.93 Y51.21 E0.05
G1 X56.31 E0.051
G1 F5612.6
G1 E-3.118
G1 F2500.0
G1 X56.25 Y50.94
G1 X67.62 Y50.91 F15000.0
G1 F5612.6
G1 E3.118
G1 F2500.0
G1 F78.0
G1 E0.065
G1 F2500.0
G1 X62.64 Y50.85 E0.155 F2250.0
G1 Y49.89 E0.03
G1 X67.65 Y49.92 E0.156
G1 X67.62 Y50.91 E0.031
G1 X67.92 Y51.21 E0.013
G1 X62.34 Y51.18 E0.174
G1 Y49.59 E0.05
G1 X67.95 Y49.62 E0.175
G1 X67.92 Y51.21 E0.05
G1 F5612.6
G1 E-3.118
G1 F2500.0
G1 X67.62 Y50.91
G1 X66.57 Y50.01 F15000.0
G1 F5612.6
G1 E3.118
G1 F2500.0
G1 F78.0
G1 E0.065
G1 F2500.0
G1 X67.32 Y50.82 E0.034
G1 X65.55 E0.055
G1 X64.62 Y49.98 E0.039
G1 X62.85 E0.055
G1 X63.66 Y50.79 E0.036
G1 F5612.6
G1 E-3.118
G1 F2500.0
G1 X57.36 Y50.01 F15000.0
G1 F5612.6
G1 E3.118
G1 F2500.0
G1 F78.0
G1 E0.065
G1 F2500.0
G1 X57.57 Y50.28 E0.011
G1 X57.54 Y50.82 E0.017
G1 X56.34 E0.037
G1 X55.44 Y49.98 E0.038
G1 X54.93 Y50.01 E0.016
G1 Y51.24 E0.038
G1 X55.77 Y52.14 E0.038
G1 Y53.91 E0.055
G1 X54.93 Y53.16 E0.035
G1 Y54.93 E0.055
G1 X55.77 Y55.83 E0.038
G1 Y57.6 E0.055
G1 X54.93 Y56.82 E0.036
G1 Y58.59 E0.055
G1 X55.77 Y59.52 E0.039
G1 Y61.26 E0.054
G1 X54.93 Y60.51 E0.035
G1 Y62.28 E0.055
G1 X55.77 Y63.18 E0.038
G1 Y64.95 E0.055
G1 X54.93 Y64.17 E0.036
G1 Y65.94 E0.055
G1 X55.77 Y66.87 E0.039
G1 Y68.61 E0.054
G1 X54.93 Y67.86 E0.035
G1 Y69.63 E0.055
G1 X55.77 Y70.53 E0.038
G1 Y72.3 E0.055
G1 X54.93 Y71.55 E0.035
G1 Y73.29 E0.054
G1 X55.77 Y74.22 E0.039
G1 Y75.99 E0.055
G1 X54.93 Y75.21 E0.036
G1 Y76.98 E0.055
G1 X55.77 Y77.88 E0.038
G1 Y79.65 E0.055
G1 X54.93 Y78.9 E0.035
G1 Y80.64 E0.054
G1 X55.77 Y81.57 E0.039
G1 Y83.34 E0.055
G1 X54.93 Y82.5 E0.037
G1 F5612.6
G1 E-3.118
G1 F2500.0
G1 Y88.02 F15000.0
G1 F5612.6
G1 E3.118
G1 F2500.0
G1 F78.0
G1 E0.065
G1 F2500.0
G1 X56.7 E0.055
G1 X54.93 Y86.16 E0.08
G1 Y84.42 E0.054
G1 X55.77 Y85.2 E0.036
G1 Y86.28 E0.034
G1 X55.86 Y86.88 E0.019
G1 X56.22 Y87.15 E0.014
G1 X57.69 Y87.18 E0.046
G1 X58.62 Y88.02 E0.039
G1 X60.39 E0.055
G1 X59.61 Y87.18 E0.036
G1 X61.38 E0.055
G1 X62.31 Y88.02 E0.039
G1 X64.05 E0.054
G1 X63.3 Y87.18 E0.035
G1 X65.07 E0.055
G1 X65.97 Y88.02 E0.038
G1 X67.74 E0.055
G1 X66.96 Y87.18 E0.036
G1 X68.73 E0.055
G1 X69.66 Y88.02 E0.039
G1 X71.4 E0.054
G1 X70.65 Y87.18 E0.035
G1 X72.42 E0.055
G1 X73.32 Y88.02 E0.038
G1 X75.09 E0.055
G1 X74.34 Y87.18 E0.035
G1 X76.08 E0.054
G1 X77.01 Y88.02 E0.039
G1 X78.78 E0.055
G1 X78.0 Y87.18 E0.036
G1 X79.77 E0.055
G1 X80.67 Y88.02 E0.038
G1 X82.44 E0.055
G1 X81.69 Y87.18 E0.035
G1 X83.43 E0.054
G1 X84.36 Y88.02 E0.039
G1 X86.13 E0.055
G1 X85.35 Y87.18 E0.036
G1 X87.12 E0.055
G1 X88.02 Y88.02 E0.038
G1 X89.04 E0.032
G1 X89.07 Y87.3 E0.022
G1 X88.23 Y86.37 E0.039
G1 Y84.6 E0.055
G1 X89.07 Y85.38 E0.036
G1 Y83.61 E0.055
G1 X88.23 Y82.71 E0.038
G1 Y80.94 E0.055
G1 X89.07 Y81.69 E0.035
G1 Y79.95 E0.054
G1 X88.23 Y79.02 E0.039
G1 Y77.25 E0.055
G1 X89.07 Y78.03 E0.036
G1 Y76.26 E0.055
G1 X88.23 Y75.36 E0.038
G1 Y73.59 E0.055
G1 X89.07 Y74.34 E0.035
G1 Y72.57 E0.055
G1 X88.23 Y71.67 E0.038
G1 Y69.9 E0.055
G1 X89.07 Y70.68 E0.036
G1 Y68.91 E0.055
G1 X88.23 Y67.98 E0.039
G1 Y66.24 E0.054
G1 X89.07 Y66.99 E0.035
G1 Y65.22 E0.055
G1 X88.23 Y64.32 E0.038
G1 Y62.55 E0.055
G1 X89.07 Y63.33 E0.036
G1 Y61.56 E0.055
G1 X88.23 Y60.63 E0.039
G1 Y58.86 E0.055
G1 X89.07 Y59.64 E0.036
G1 Y57.87 E0.055
G1 X88.23 Y56.97 E0.038
G1 Y55.2 E0.055
G1 X89.07 Y55.95 E0.035
G1 Y54.21 E0.054
G1 X88.23 Y53.28 E0.039
G1 Y51.51 E0.055
G1 X89.07 Y52.29 E0.036
G1 Y50.52 E0.055
G1 X88.62 Y50.01 E0.021
G1 X86.85 E0.055
G1 X87.6 Y50.82 E0.034
G1 X85.83 E0.055
G1 X84.93 Y50.01 E0.038
G1 X83.19 E0.054
G1 X83.91 Y50.82 E0.034
G1 X82.14 E0.055
G1 X81.27 Y50.01 E0.037
G1 X79.47 Y49.98 E0.056
G1 X80.25 Y50.82 E0.036
G1 X78.48 E0.055
G1 X77.55 Y49.98 E0.039
G1 X75.78 E0.055
G1 X76.56 Y50.82 E0.036
G1 X74.79 E0.055
G1 X73.89 Y49.98 E0.038
G1 X72.75 E0.036
G1 X72.72 Y50.55 E0.018
G1 X72.87 Y50.82 E0.01
G1 F5612.6
G1 E-3.118
G1 F2500.0
;#!LAYER: 7/23
G92 E0
G1 Z1.75 F200.0
G1 X56.25 Y50.94 F15000.0
T0
G1 F5612.6
G1 E3.118
G1 F2500.0
G1 F78.0
G1 E0.065
G1 F2500.0
G1 X55.98 Y51.15 E0.011 F2250.0
G1 X55.86 Y51.69 E0.017
G1 Y86.58 E1.088
G1 X55.95 Y86.85 E0.009
G1 X56.13 Y87.0 E0.007
G1 X56.4 Y87.09 E0.009
G1 X87.72 E0.977
G1 X87.96 Y86.94 E0.009
G1 X88.14 Y86.37 E0.019
G1 Y51.42 E1.09
G1 X88.05 Y51.15 E0.009
G1 X87.87 Y51.0 E0.007
G1 X87.6 Y50.91 E0.009
G1 X72.63 E0.467
G1 X72.66 Y49.89 E0.032
G1 X89.16 Y49.95 E0.514
G1 Y88.11 E1.19
G1 X54.84 E1.07
G1 Y49.89 E1.192
G1 X57.66 Y49.92 E0.088
G1 X57.63 Y50.91 E0.031
G1 X56.25 Y50.94 E0.043
G1 X56.31 Y51.21 E0.009
G1 X56.16 Y51.63 E0.014
G1 Y86.58 E1.09
G1 X56.28 Y86.76 E0.007
G1 X87.72 E0.98
G1 X87.84 Y86.37 E0.013
G1 Y51.42 E1.09
G1 X87.72 Y51.24 E0.007
G1 X72.33 Y51.18 E0.48
G1 Y49.59 E0.05
G1 X89.46 Y49.62 E0.534
G1 Y88.41 E1.21
G1 X54.54 Y88.38 E1.089
G1 Y49.59 E1.21
G1 X57.96 Y49.62 E0.107
G1 X57.93 Y51.21 E0.05
G1 X56.31 E0.051
G1 F5612.6
G1 E-3.118
G1 F2500.0
G1 X56.25 Y50.94
G1 X67.62 Y50.91 F15000.0
G1 F5612.6
G1 E3.118
G1 F2500.0
G1 F78.0
G1 E0.065
G1 F2500.0
G1 X62.64 Y50.85 E0.155 F2250.0
G1 Y49.89 E0.03
G1 X67.65 Y49.92 E0.156
G1 X67.62 Y50.91 E0.031
G1 X67.92 Y51.21 E0.013
G1 X62.34 Y51.18 E0.174
G1 Y49.59 E0.05
G1 X67.95 Y49.62 E0.175
G1 X67.92 Y51.21 E0.05
G1 F5612.6
G1 E-3.118
G1 F2500.0
G1 X67.62 Y50.91
G1 X67.56 Y50.1 F15000.0
G1 F5612.6
G1 E3.118
G1 F2500.0
G1 F78.0
G1 E0.065
G1 F2500.0
G1 X66.78 Y50.82 E0.033
G1 X65.04 Y50.79 E0.054
G1 X65.76 Y50.01 E0.033
G1 X64.02 Y49.98 E0.054
G1 X63.21 Y50.79 E0.036
G1 F5612.6
G1 E-3.118
G1 F2500.0
G1 X54.93 Y51.69 F15000.0
G1 F5612.6
G1 E3.118
G1 F2500.0
G1 F78.0
G1 E0.065
G1 F2500.0
G1 X56.7 Y50.01 E0.076
G1 X57.57 Y50.04 E0.027
G1 X57.54 Y50.82 E0.024
G1 X56.16 Y50.85 E0.043
G1 X55.83 Y51.21 E0.015
G1 X55.77 Y52.41 E0.037
G1 Y52.71 E0.009
G1 X54.93 Y53.61 E0.038
G1 Y55.38 E0.055
G1 X55.77 Y54.6 E0.036
G1 Y56.37 E0.055
G1 X54.93 Y57.3 E0.039
G1 Y59.07 E0.055
G1 X55.77 Y58.29 E0.036
G1 Y60.06 E0.055
G1 X54.93 Y60.96 E0.038
G1 Y62.73 E0.055
G1 X55.77 Y61.98 E0.035
G1 Y63.72 E0.054
G1 X54.93 Y64.65 E0.039
G1 Y66.42 E0.055
G1 X55.77 Y65.64 E0.036
G1 Y67.41 E0.055
G1 X54.93 Y68.31 E0.038
G1 Y70.08 E0.055
G1 X55.77 Y69.33 E0.035
G1 Y71.07 E0.054
G1 X54.93 Y72.0 E0.039
G1 Y73.77 E0.055
G1 X55.77 Y72.99 E0.036
G1 Y74.76 E0.055
G1 X54.93 Y75.69 E0.039
G1 Y77.43 E0.054
G1 X55.77 Y76.68 E0.035
G1 Y78.45 E0.055
G1 X54.93 Y79.35 E0.038
G1 Y81.12 E0.055
G1 X55.77 Y80.34 E0.036
G1 Y82.11 E0.055
G1 X54.93 Y83.04 E0.039
G1 Y84.78 E0.054
G1 X55.77 Y84.03 E0.035
G1 Y85.8 E0.055
G1 X54.93 Y86.7 E0.038
G1 X54.96 Y88.02 E0.041
G1 X55.38 E0.013
G1 X56.31 Y87.18 E0.039
G1 X58.05 E0.054
G1 X57.3 Y88.02 E0.035
G1 X59.07 E0.055
G1 X59.97 Y87.18 E0.038
G1 X61.74 E0.055
G1 X60.96 Y88.02 E0.036
G1 X62.73 E0.055
G1 X63.66 Y87.18 E0.039
G1 X65.4 E0.054
G1 X64.65 Y88.02 E0.035
G1 X66.42 E0.055
G1 X67.32 Y87.18 E0.038
G1 X69.09 E0.055
G1 X68.34 Y88.02 E0.035
G1 X70.08 E0.054
G1 X71.01 Y87.18 E0.039
G1 X72.78 E0.055
G1 X72.0 Y88.02 E0.036
G1 X73.77 E0.055
G1 X74.67 Y87.18 E0.038
G1 X76.44 E0.055
G1 X75.69 Y88.02 E0.035
G1 X77.43 E0.054
G1 X78.36 Y87.18 E0.039
G1 X80.13 E0.055
G1 X79.35 Y88.02 E0.036
G1 X81.12 E0.055
G1 X82.02 Y87.18 E0.038
G1 X83.79 E0.055
G1 X83.04 Y88.02 E0.035
G1 X84.81 E0.055
G1 X85.71 Y87.18 E0.038
G1 X87.48 E0.055
G1 X86.7 Y88.02 E0.036
G1 X88.47 E0.055
G1 X89.07 Y87.36 E0.028
G1 Y85.59 E0.055
G1 X88.23 Y86.37 E0.036
G1 Y84.6 E0.055
G1 X89.07 Y83.7 E0.038
G1 Y81.93 E0.055
G1 X88.23 Y82.68 E0.035
G1 Y80.91 E0.055
G1 X89.07 Y80.01 E0.038
G1 Y78.24 E0.055
G1 X88.23 Y79.02 E0.036
G1 Y77.25 E0.055
G1 X89.07 Y76.32 E0.039
G1 Y74.58 E0.054
G1 X88.23 Y75.33 E0.035
G1 Y73.56 E0.055
G1 X89.07 Y72.66 E0.038
G1 Y70.89 E0.055
G1 X88.23 Y71.67 E0.036
G1 Y69.9 E0.055
G1 X89.07 Y68.97 E0.039
G1 Y67.23 E0.054
G1 X88.23 Y67.98 E0.035
G1 Y66.21 E0.055
G1 X89.07 Y65.31 E0.038
G1 Y63.54 E0.055
G1 X88.23 Y64.29 E0.035
G1 Y62.55 E0.054
G1 X89.07 Y61.62 E0.039
G1 Y59.85 E0.055
G1 X88.23 Y60.63 E0.036
G1 Y58.86 E0.055
G1 X89.07 Y57.96 E0.038
G1 Y56.19 E0.055
G1 X88.23 Y56.94 E0.035
G1 Y55.2 E0.054
G1 X89.07 Y54.27 E0.039
G1 Y52.5 E0.055
G1 X88.23 Y53.28 E0.036
G1 Y51.51 E0.055
G1 X89.07 Y50.58 E0.039
G1 X89.04 Y50.01 E0.018
G1 X87.9 E0.036
G1 X87.0 Y50.82 E0.038
G1 X85.23 E0.055
G1 X85.98 Y50.01 E0.034
G1 X84.21 E0.055
G1 X83.34 Y50.82 E0.037
G1 X81.57 E0.055
G1 X82.29 Y50.01 E0.034
G1 X80.58 Y49.98 E0.053
G1 X79.65 Y50.82 E0.039
G1 X77.88 E0.055
G1 X78.66 Y49.98 E0.036
G1 X76.89 E0.055
G1 X75.96 Y50.82 E0.039
G1 X74.22 E0.054
G1 X74.97 Y49.98 E0.035
G1 X73.2 E0.055
G1 X72.72 Y50.46 E0.021
G1 F5612.6
G1 E-3.118
G1 F2500.0
;#!LAYER: 8/23
G92 E0
G1 Z2.0 F200.0
G1 X56.25 Y50.94 F15000.0
T0
G1 F5612.6
G1 E3.118
G1 F2500.0
G1 F78.0
G1 E0.065
G1 F2500.0
G1 X55.98 Y51.15 E0.011 F2250.0
G1 X55.86 Y51.69 E0.017
G1 Y86.58 E1.088
G1 X55.95 Y86.85 E0.009
G1 X56.13 Y87.0 E0.007
G1 X56.4 Y87.09 E0.009
G1 X87.72 E0.977
G1 X87.96 Y86.94 E0.009
G1 X88.14 Y86.37 E0.019
G1 Y51.42 E1.09
G1 X88.05 Y51.15 E0.009
G1 X87.87 Y51.0 E0.007
G1 X87.6 Y50.91 E0.009
G1 X72.63 E0.467
G1 X72.66 Y49.89 E0.032
G1 X89.16 Y49.95 E0.514
G1 Y88.11 E1.19
G1 X54.84 E1.07
G1 Y49.89 E1.192
G1 X57.66 Y49.92 E0.088
G1 X57.63 Y50.91 E0.031
G1 X56.25 Y50.94 E0.043
G1 X56.31 Y51.21 E0.009
G1 X56.16 Y51.63 E0.014
G1 Y86.58 E1.09
G1 X56.28 Y86.76 E0.007
G1 X87.72 E0.98
G1 X87.84 Y86.37 E0.013
G1 Y51.42 E1.09
G1 X87.72 Y51.24 E0.007
G1 X72.33 Y51.18 E0.48
G1 Y49.59 E0.05
G1 X89.46 Y49.62 E0.534
G1 Y88.41 E1.21
G1 X54.54 Y88.38 E1.089
G1 Y49.59 E1.21
G1 X57.96 Y49.62 E0.107
G1 X57.93 Y51.21 E0.05
G1 X56.31 E0.051
G1 F5612.6
G1 E-3.118
G1 F2500.0
G1 X56.25 Y50.94
G1 X67.62 Y50.91 F15000.0
G1 F5612.6
G1 E3.118
G1 F2500.0
G1 F78.0
G1 E0.065
G1 F2500.0
G1 X62.64 Y50.85 E0.155 F2250.0
G1 Y49.89 E0.03
G1 X67.65 Y49.92 E0.156
G1 X67.62 Y50.91 E0.031
G1 X67.92 Y51.21 E0.013
G1 X62.34 Y51.18 E0.174
G1 Y49.59 E0.05
G1 X67.95 Y49.62 E0.175
G1 X67.92 Y51.21 E0.05
G1 F5612.6
G1 E-3.118
G1 F2500.0
G1 X67.62 Y50.91
G1 X67.47 Y50.01 F15000.0
G1 F5612.6
G1 E3.118
G1 F2500.0
G1 F78.0
G1 E0.065
G1 F2500.0
G1 X67.56 Y50.19 E0.006
G1 X67.53 Y50.82 E0.02
G1 X66.45 E0.034
G1 X65.58 Y50.01 E0.037
G1 X63.78 Y49.98 E0.056
G1 X64.53 Y50.79 E0.034
G1 X62.73 E0.056
G1 F5612.6
G1 E-3.118
G1 F2500.0
G1 X56.43 Y50.01 F15000.0
G1 F5612.6
G1 E3.118
G1 F2500.0
G1 F78.0
G1 E0.065
G1 F2500.0
G1 X57.18 Y50.82 E0.034
G1 X56.16 Y50.85 E0.032
G1 X55.83 Y51.21 E0.015
G1 X54.93 Y50.4 E0.038
G1 Y52.17 E0.055
G1 X55.77 Y53.07 E0.038
G1 Y54.84 E0.055
G1 X54.93 Y54.06 E0.036
G1 Y55.83 E0.055
G1 X55.77 Y56.76 E0.039
G1 Y58.5 E0.054
G1 X54.93 Y57.75 E0.035
G1 Y59.52 E0.055
G1 X55.77 Y60.42 E0.038
G1 Y62.19 E0.055
G1 X54.93 Y61.41 E0.036
G1 Y63.18 E0.055
G1 X55.77 Y64.11 E0.039
G1 Y65.88 E0.055
G1 X54.93 Y65.1 E0.036
G1 Y66.87 E0.055
G1 X55.77 Y67.77 E0.038
G1 Y69.54 E0.055
G1 X54.93 Y68.79 E0.035
G1 Y70.53 E0.054
G1 X55.77 Y71.46 E0.039
G1 Y73.23 E0.055
G1 X54.93 Y72.45 E0.036
G1 Y74.22 E0.055
G1 X55.77 Y75.12 E0.038
G1 Y76.89 E0.055
G1 X54.93 Y76.14 E0.035
G1 Y77.91 E0.055
G1 X55.77 Y78.81 E0.038
G1 Y80.58 E0.055
G1 X54.93 Y79.8 E0.036
G1 Y81.57 E0.055
G1 X55.77 Y82.5 E0.039
G1 Y84.24 E0.054
G1 X54.93 Y83.43 E0.036
G1 F5612.6
G1 E-3.118
G1 F2500.0
G1 X55.86 Y88.02 F15000.0
G1 F5612.6
G1 E3.118
G1 F2500.0
G1 F78.0
G1 E0.065
G1 F2500.0
G1 X54.93 Y87.03 E0.042
G1 Y85.26 E0.055
G1 X55.77 Y86.19 E0.039
G1 X55.83 Y86.82 E0.02
G1 X56.16 Y87.12 E0.014
G1 X56.76 Y87.18 E0.019
G1 X56.85 E0.003
G1 X57.75 Y88.02 E0.038
G1 X59.52 E0.055
G1 X58.77 Y87.18 E0.035
G1 X60.51 E0.054
G1 X61.44 Y88.02 E0.039
G1 X63.21 E0.055
G1 X62.43 Y87.18 E0.036
G1 X64.2 E0.055
G1 X65.1 Y88.02 E0.038
G1 X66.87 E0.055
G1 X66.12 Y87.18 E0.035
G1 X67.89 E0.055
G1 X68.79 Y88.02 E0.038
G1 X70.56 E0.055
G1 X69.78 Y87.18 E0.036
G1 X71.55 E0.055
G1 X72.48 Y88.02 E0.039
G1 X74.22 E0.054
G1 X73.47 Y87.18 E0.035
G1 X75.24 E0.055
G1 X76.14 Y88.02 E0.038
G1 X77.91 E0.055
G1 X77.13 Y87.18 E0.036
G1 X78.9 E0.055
G1 X79.83 Y88.02 E0.039
G1 X81.6 E0.055
G1 X80.82 Y87.18 E0.036
G1 X82.59 E0.055
G1 X83.49 Y88.02 E0.038
G1 X85.26 E0.055
G1 X84.51 Y87.18 E0.035
G1 X86.25 E0.054
G1 X87.18 Y88.02 E0.039
G1 X88.95 E0.055
G1 X88.02 Y87.0 E0.043
G1 X88.2 Y86.64 E0.013
G1 X88.23 Y85.47 E0.036
G1 X89.07 Y86.25 E0.036
G1 Y84.48 E0.055
G1 X88.23 Y83.55 E0.039
G1 Y81.81 E0.054
G1 X89.07 Y82.56 E0.035
G1 Y80.79 E0.055
G1 X88.23 Y79.89 E0.038
G1 Y78.12 E0.055
G1 X89.07 Y78.87 E0.035
G1 Y77.13 E0.054
G1 X88.23 Y76.2 E0.039
G1 Y74.43 E0.055
G1 X89.07 Y75.21 E0.036
G1 Y73.44 E0.055
G1 X88.23 Y72.54 E0.038
G1 Y70.77 E0.055
G1 X89.07 Y71.52 E0.035
G1 Y69.78 E0.054
G1 X88.23 Y68.85 E0.039
G1 Y67.08 E0.055
G1 X89.07 Y67.86 E0.036
G1 Y66.09 E0.055
G1 X88.23 Y65.16 E0.039
G1 Y63.42 E0.054
G1 X89.07 Y64.17 E0.035
G1 Y62.4 E0.055
G1 X88.23 Y61.5 E0.038
G1 Y59.73 E0.055
G1 X89.07 Y60.51 E0.036
G1 Y58.74 E0.055
G1 X88.23 Y57.81 E0.039
G1 Y56.07 E0.054
G1 X89.07 Y56.82 E0.035
G1 Y55.05 E0.055
G1 X88.23 Y54.15 E0.038
G1 Y52.38 E0.055
G1 X89.07 Y53.13 E0.035
G1 Y51.39 E0.054
G1 X87.63 Y50.01 E0.062
G1 X85.86 E0.055
G1 X86.61 Y50.82 E0.034
G1 X84.84 E0.055
G1 X83.97 Y50.01 E0.037
G1 X82.2 E0.055
G1 X82.92 Y50.82 E0.034
G1 X81.18 E0.054
G1 X80.25 Y49.98 E0.039
G1 X78.48 E0.055
G1 X79.26 Y50.82 E0.036
G1 X77.49 E0.055
G1 X76.59 Y49.98 E0.038
G1 X74.82 E0.055
G1 X75.57 Y50.82 E0.035
G1 X73.83 E0.054
G1 X72.96 Y49.98 E0.038
G1 F5612.6
G1 E-3.118
G1 F2500.0
;#!LAYER: 9/23
G92 E0
G1 Z2.25 F200.0
G1 X56.25 Y50.94 F15000.0
T0
G1 F5612.6
G1 E3.118
G1 F2500.0
G1 F78.0
G1 E0.065
G1 F2500.0
G1 X55.98 Y51.15 E0.011 F2250.0
G1 X55.86 Y51.69 E0.017
G1 Y86.58 E1.088
G1 X55.95 Y86.85 E0.009
G1 X56.13 Y87.0 E0.007
G1 X56.4 Y87.09 E0.009
G1 X87.72 E0.977
G1 X87.96 Y86.94 E0.009
G1 X88.14 Y86.37 E0.019
G1 Y51.42 E1.09
G1 X88.05 Y51.15 E0.009
G1 X87.87 Y51.0 E0.007
G1 X87.6 Y50.91 E0.009
G1 X72.63 E0.467
G1 X72.66 Y49.89 E0.032
G1 X89.16 Y49.95 E0.514
G1 Y88.11 E1.19
G1 X54.84 E1.07
G1 Y49.89 E1.192
G1 X57.66 Y49.92 E0.088
G1 X57.63 Y50.91 E0.031
G1 X56.25 Y50.94 E0.043
G1 X56.31 Y51.21 E0.009
G1 X56.16 Y51.63 E0.014
G1 Y86.58 E1.09
G1 X56.28 Y86.76 E0.007
G1 X87.72 E0.98
G1 X87.84 Y86.37 E0.013
G1 Y51.42 E1.09
G1 X87.72 Y51.24 E0.007
G1 X72.33 Y51.18 E0.48
G1 Y49.59 E0.05
G1 X89.46 Y49.62 E0.534
G1 Y88.41 E1.21
G1 X54.54 Y88.38 E1.089
G1 Y49.59 E1.21
G1 X57.96 Y49.62 E0.107
G1 X57.93 Y51.21 E0.05
G1 X56.31 E0.051
G1 F5612.6
G1 E-3.118
G1 F2500.0
G1 X56.25 Y50.94
G1 X67.62 Y50.91 F15000.0
G1 F5612.6
G1 E3.118
G1 F2500.0
G1 F78.0
G1 E0.065
G1 F2500.0
G1 X62.64 Y50.85 E0.155 F2250.0
G1 Y49.89 E0.03
G1 X67.65 Y49.92 E0.156
G1 X67.62 Y50.91 E0.031
G1 X67.92 Y51.21 E0.013
G1 X62.34 Y51.18 E0.174
G1 Y49.59 E0.05
G1 X67.95 Y49.62 E0.175
G1 X67.92 Y51.21 E0.05
G1 F5612.6
G1 E-3.118
G1 F2500.0
G1 X67.62 Y50.91
G1 X66.72 Y50.01 F15000.0
G1 F5612.6
G1 E3.118
G1 F2500.0
G1 F78.0
G1 E0.065
G1 F2500.0
G1 X65.85 Y50.82 E0.037
G1 X64.14 Y50.79 E0.053
G1 X64.86 Y49.98 E0.034
G1 X63.09 E0.055
G1 X62.73 Y50.34 E0.016
G1 F5612.6
G1 E-3.118
G1 F2500.0
G1 X57.54 Y50.01 F15000.0
G1 F5612.6
G1 E3.118
G1 F2500.0
G1 F78.0
G1 E0.065
G1 F2500.0
G1 X56.67 Y50.82 E0.037
G1 X56.16 Y50.85 E0.016
G1 X55.83 Y51.21 E0.015
G1 X55.77 Y51.78 E0.018
G1 X54.93 Y52.71 E0.039
G1 Y54.45 E0.054
G1 X55.77 Y53.7 E0.035
G1 Y55.47 E0.055
G1 X54.93 Y56.37 E0.038
G1 Y58.14 E0.055
G1 X55.77 Y57.36 E0.036
G1 Y59.13 E0.055
G1 X54.93 Y60.06 E0.039
G1 Y61.8 E0.054
G1 X55.77 Y61.05 E0.035
G1 Y62.82 E0.055
G1 X54.93 Y63.72 E0.038
G1 Y65.49 E0.055
G1 X55.77 Y64.74 E0.035
G1 Y66.48 E0.054
G1 X54.93 Y67.41 E0.039
G1 Y69.18 E0.055
G1 X55.77 Y68.4 E0.036
G1 Y70.17 E0.055
G1 X54.93 Y71.07 E0.038
G1 Y72.84 E0.055
G1 X55.77 Y72.09 E0.035
G1 Y73.83 E0.054
G1 X54.93 Y74.76 E0.039
G1 Y76.53 E0.055
G1 X55.77 Y75.75 E0.036
G1 Y77.52 E0.055
G1 X54.93 Y78.42 E0.038
G1 Y80.19 E0.055
G1 X55.77 Y79.44 E0.035
G1 Y81.21 E0.055
G1 X54.93 Y82.11 E0.038
G1 Y83.88 E0.055
G1 X55.77 Y83.1 E0.036
G1 Y84.87 E0.055
G1 X54.93 Y85.8 E0.039
G1 Y87.54 E0.054
G1 X55.8 Y86.76 E0.036
G1 X56.16 Y87.12 E0.016
G1 X56.76 Y87.18 E0.019
G1 X57.15 E0.012
G1 X56.37 Y88.02 E0.036
G1 X58.14 E0.055
G1 X59.04 Y87.18 E0.038
G1 X60.81 E0.055
G1 X60.06 Y88.02 E0.035
G1 X61.83 E0.055
G1 X62.73 Y87.18 E0.038
G1 X64.5 E0.055
G1 X63.72 Y88.02 E0.036
G1 X65.49 E0.055
G1 X66.42 Y87.18 E0.039
G1 X68.16 E0.054
G1 X67.41 Y88.02 E0.035
G1 X69.18 E0.055
G1 X70.08 Y87.18 E0.038
G1 X71.85 E0.055
G1 X71.07 Y88.02 E0.036
G1 X72.84 E0.055
G1 X73.77 Y87.18 E0.039
G1 X75.54 E0.055
G1 X74.76 Y88.02 E0.036
G1 X76.53 E0.055
G1 X77.43 Y87.18 E0.038
G1 X79.2 E0.055
G1 X78.45 Y88.02 E0.035
G1 X80.19 E0.054
G1 X81.12 Y87.18 E0.039
G1 X82.89 E0.055
G1 X82.11 Y88.02 E0.036
G1 X83.88 E0.055
G1 X84.78 Y87.18 E0.038
G1 X86.55 E0.055
G1 X85.8 Y88.02 E0.035
G1 X87.54 E0.054
G1 X89.07 Y86.43 E0.069
G1 Y84.66 E0.055
G1 X88.23 Y85.44 E0.036
G1 Y83.67 E0.055
G1 X89.07 Y82.77 E0.038
G1 Y81.0 E0.055
G1 X88.23 Y81.78 E0.036
G1 Y80.01 E0.055
G1 X89.07 Y79.08 E0.039
G1 Y77.34 E0.054
G1 X88.23 Y78.09 E0.035
G1 Y76.32 E0.055
G1 X89.07 Y75.42 E0.038
G1 Y73.65 E0.055
G1 X88.23 Y74.43 E0.036
G1 Y72.66 E0.055
G1 X89.07 Y71.73 E0.039
G1 Y69.96 E0.055
G1 X88.23 Y70.74 E0.036
G1 Y68.97 E0.055
G1 X89.07 Y68.07 E0.038
G1 Y66.3 E0.055
G1 X88.23 Y67.05 E0.035
G1 Y65.31 E0.054
G1 X89.07 Y64.38 E0.039
G1 Y62.61 E0.055
G1 X88.23 Y63.39 E0.036
G1 Y61.62 E0.055
G1 X89.07 Y60.72 E0.038
G1 Y58.95 E0.055
G1 X88.23 Y59.7 E0.035
G1 Y57.93 E0.055
G1 X89.07 Y57.03 E0.038
G1 Y55.26 E0.055
G1 X88.23 Y56.04 E0.036
G1 Y54.27 E0.055
G1 X89.07 Y53.34 E0.039
G1 Y51.6 E0.054
G1 X88.23 Y52.35 E0.035
G1 X88.2 Y51.24 E0.035
G1 X87.9 Y50.91 E0.014
G1 X88.74 Y50.01 E0.038
G1 X86.97 E0.055
G1 X86.1 Y50.82 E0.037
G1 X84.33 E0.055
G1 X85.05 Y50.01 E0.034
G1 X83.28 E0.055
G1 X82.41 Y50.82 E0.037
G1 X80.64 E0.055
G1 X81.39 Y50.01 E0.034
G1 X79.65 Y49.98 E0.054
G1 X78.72 Y50.82 E0.039
G1 X76.98 E0.054
G1 X77.73 Y49.98 E0.035
G1 X75.96 E0.055
G1 X75.06 Y50.82 E0.038
G1 X73.29 E0.055
G1 X74.13 Y49.98 E0.037
G1 F5612.6
G1 E-3.118
G1 F2500.0
;#!LAYER: 10/23
G92 E0
G1 Z2.5 F200.0
G1 X56.25 Y50.94 F15000.0
T0
G1 F5612.6
G1 E3.118
G1 F2500.0
G1 F78.0
G1 E0.065
G1 F2500.0
G1 X55.98 Y51.15 E0.011 F2250.0
G1 X55.86 Y51.69 E0.017
G1 Y86.58 E1.088
G1 X55.95 Y86.85 E0.009
G1 X56.13 Y87.0 E0.007
G1 X56.4 Y87.09 E0.009
G1 X87.72 E0.977
G1 X87.96 Y86.94 E0.009
G1 X88.14 Y86.37 E0.019
G1 Y51.42 E1.09
G1 X88.05 Y51.15 E0.009
G1 X87.87 Y51.0 E0.007
G1 X87.6 Y50.91 E0.009
G1 X72.63 E0.467
G1 X72.66 Y49.89 E0.032
G1 X89.16 Y49.95 E0.514
G1 Y88.11 E1.19
G1 X54.84 E1.07
G1 Y49.89 E1.192
G1 X57.66 Y49.92 E0.088
G1 X57.63 Y50.91 E0.031
G1 X56.25 Y50.94 E0.043
G1 X56.31 Y51.21 E0.009
G1 X56.16 Y51.63 E0.014
G1 Y86.58 E1.09
G1 X56.28 Y86.76 E0.007
G1 X87.72 E0.98
G1 X87.84 Y86.37 E0.013
G1 Y51.42 E1.09
G1 X87.72 Y51.24 E0.007
G1 X72.33 Y51.18 E0.48
G1 Y49.59 E0.05
G1 X89.46 Y49.62 E0.534
G1 Y88.41 E1.21
G1 X54.54 Y88.38 E1.089
G1 Y49.59 E1.21
G1 X57.96 Y49.62 E0.107
G1 X57.93 Y51.21 E0.05
G1 X56.31 E0.051
G1 F5612.6
G1 E-3.118
G1 F2500.0
G1 X56.25 Y50.94
G1 X67.62 Y50.91 F15000.0
G1 F5612.6
G1 E3.118
G1 F2500.0
G1 F78.0
G1 E0.065
G1 F2500.0
G1 X62.64 Y50.85 E0.155 F2250.0
G1 Y49.89 E0.03
G1 X67.65 Y49.92 E0.156
G1 X67.62 Y50.91 E0.031
G1 X67.92 Y51.21 E0.013
G1 X62.34 Y51.18 E0.174
G1 Y49.59 E0.05
G1 X67.95 Y49.62 E0.175
G1 X67.92 Y51.21 E0.05
G1 F5612.6
G1 E-3.118
G1 F2500.0
G1 X67.62 Y50.91
G1 X66.57 Y50.01 F15000.0
G1 F5612.6
G1 E3.118
G1 F2500.0
G1 F78.0
G1 E0.065
G1 F2500.0
G1 X67.32 Y50.82 E0.034
G1 X65.55 E0.055
G1 X64.62 Y49.98 E0.039
G1 X62.85 E0.055
G1 X63.66 Y50.79 E0.036
G1 F5612.6
G1 E-3.118
G1 F2500.0
G1 X57.36 Y50.01 F15000.0
G1 F5612.6
G1 E3.118
G1 F2500.0
G1 F78.0
G1 E0.065
G1 F2500.0
G1 X57.57 Y50.28 E0.011
G1 X57.54 Y50.82 E0.017
G1 X56.34 E0.037
G1 X55.44 Y49.98 E0.038
G1 X54.93 Y50.01 E0.016
G1 Y51.24 E0.038
G1 X55.77 Y52.14 E0.038
G1 Y53.91 E0.055
G1 X54.93 Y53.16 E0.035
G1 Y54.93 E0.055
G1 X55.77 Y55.83 E0.038
G1 Y57.6 E0.055
G1 X54.93 Y56.82 E0.036
G1 Y58.59 E0.055
G1 X55.77 Y59.52 E0.039
G1 Y61.26 E0.054
G1 X54.93 Y60.51 E0.035
G1 Y62.28 E0.055
G1 X55.77 Y63.18 E0.038
G1 Y64.95 E0.055
G1 X54.93 Y64.17 E0.036
G1 Y65.94 E0.055
G1 X55.77 Y66.87 E0.039
G1 Y68.61 E0.054
G1 X54.93 Y67.86 E0.035
G1 Y69.63 E0.055
G1 X55.77 Y70.53 E0.038
G1 Y72.3 E0.055
G1 X54.93 Y71.55 E0.035
G1 Y73.29 E0.054
G1 X55.77 Y74.22 E0.039
G1 Y75.99 E0.055
G1 X54.93 Y75.21 E0.036
G1 Y76.98 E0.055
G1 X55.77 Y77.88 E0.038
G1 Y79.65 E0.055
G1 X54.93 Y78.9 E0.035
G1 Y80.64 E0.054
G1 X55.77 Y81.57 E0.039
G1 Y83.34 E0.055
G1 X54.93 Y82.5 E0.037
G1 F5612.6
G1 E-3.118
G1 F2500.0
G1 Y88.02 F15000.0
G1 F5612.6
G1 E3.118
G1 F2500.0
G1 F78.0
G1 E0.065
G1 F2500.0
G1 X56.7 E0.055
G1 X54.93 Y86.16 E0.08
G1 Y84.42 E0.054
G1 X55.77 Y85.2 E0.036
G1 Y86.28 E0.034
G1 X55.86 Y86.88 E0.019
G1 X56.22 Y87.15 E0.014
G1 X57.69 Y87.18 E0.046
G1 X58.62 Y88.02 E0.039
G1 X60.39 E0.055
G1 X59.61 Y87.18 E0.036
G1 X61.38 E0.055
G1 X62.31 Y88.02 E0.039
G1 X64.05 E0.054
G1 X63.3 Y87.18 E0.035
G1 X65.07 E0.055
G1 X65.97 Y88.02 E0.038
G1 X67.74 E0.055
G1 X66.96 Y87.18 E0.036
G1 X68.73 E0.055
G1 X69.66 Y88.02 E0.039
G1 X71.4 E0.054
G1 X70.65 Y87.18 E0.035
G1 X72.42 E0.055
G1 X73.32 Y88.02 E0.038
G1 X75.09 E0.055
G1 X74.34 Y87.18 E0.035
G1 X76.08 E0.054
G1 X77.01 Y88.02 E0.039
G1 X78.78 E0.055
G1 X78.0 Y87.18 E0.036
G1 X79.77 E0.055
G1 X80.67 Y88.02 E0.038
G1 X82.44 E0.055
G1 X81.69 Y87.18 E0.035
G1 X83.43 E0.054
G1 X84.36 Y88.02 E0.039
G1 X86.13 E0.055
G1 X85.35 Y87.18 E0.036
G1 X87.12 E0.055
G1 X88.02 Y88.02 E0.038
G1 X89.04 E0.032
G1 X89.07 Y87.3 E0.022
G1 X88.23 Y86.37 E0.039
G1 Y84.6 E0.055
G1 X89.07 Y85.38 E0.036
G1 Y83.61 E0.055
G1 X88.23 Y82.71 E0.038
G1 Y80.94 E0.055
G1 X89.07 Y81.69 E0.035
G1 Y79.95 E0.054
G1 X88.23 Y79.02 E0.039
G1 Y77.25 E0.055
G1 X89.07 Y78.03 E0.036
G1 Y76.26 E0.055
G1 X88.23 Y75.36 E0.038
G1 Y73.59 E0.055
G1 X89.07 Y74.34 E0.035
G1 Y72.57 E0.055
G1 X88.23 Y71.67 E0.038
G1 Y69.9 E0.055
G1 X89.07 Y70.68 E0.036
G1 Y68.91 E0.055
G1 X88.23 Y67.98 E0.039
G1 Y66.24 E0.054
G1 X89.07 Y66.99 E0.035
G1 Y65.22 E0.055
G1 X88.23 Y64.32 E0.038
G1 Y62.55 E0.055
G1 X89.07 Y63.33 E0.036
G1 Y61.56 E0.055
G1 X88.23 Y60.63 E0.039
G1 Y58.86 E0.055
G1 X89.07 Y59.64 E0.036
G1 Y57.87 E0.055
G1 X88.23 Y56.97 E0.038
G1 Y55.2 E0.055
G1 X89.07 Y55.95 E0.035
G1 Y54.21 E0.054
G1 X88.23 Y53.28 E0.039
G1 Y51.51 E0.055
G1 X89.07 Y52.29 E0.036
G1 Y50.52 E0.055
G1 X88.62 Y50.01 E0.021
G1 X86.85 E0.055
G1 X87.6 Y50.82 E0.034
G1 X85.83 E0.055
G1 X84.93 Y50.01 E0.038
G1 X83.19 E0.054
G1 X83.91 Y50.82 E0.034
G1 X82.14 E0.055
G1 X81.27 Y50.01 E0.037
G1 X79.47 Y49.98 E0.056
G1 X80.25 Y50.82 E0.036
G1 X78.48 E0.055
G1 X77.55 Y49.98 E0.039
G1 X75.78 E0.055
G1 X76.56 Y50.82 E0.036
G1 X74.79 E0.055
G1 X73.89 Y49.98 E0.038
G1 X72.75 E0.036
G1 X72.72 Y50.55 E0.018
G1 X72.87 Y50.82 E0.01
G1 F5612.6
G1 E-3.118
G1 F2500.0
;#!LAYER: 11/23
G92 E0
G1 Z2.75 F200.0
G1 X56.25 Y50.94 F15000.0
T0
G1 F5612.6
G1 E3.118
G1 F2500.0
G1 F78.0
G1 E0.065
G1 F2500.0
G1 X55.98 Y51.15 E0.011 F2250.0
G1 X55.86 Y51.69 E0.017
G1 Y86.58 E1.088
G1 X55.95 Y86.85 E0.009
G1 X56.13 Y87.0 E0.007
G1 X56.4 Y87.09 E0.009
G1 X87.72 E0.977
G1 X87.96 Y86.94 E0.009
G1 X88.14 Y86.37 E0.019
G1 Y51.42 E1.09
G1 X88.05 Y51.15 E0.009
G1 X87.87 Y51.0 E0.007
G1 X87.6 Y50.91 E0.009
G1 X72.63 E0.467
G1 X72.66 Y49.89 E0.032
G1 X89.16 Y49.95 E0.514
G1 Y88.11 E1.19
G1 X54.84 E1.07
G1 Y49.89 E1.192
G1 X57.66 Y49.92 E0.088
G1 X57.63 Y50.91 E0.031
G1 X56.25 Y50.94 E0.043
G1 X56.31 Y51.21 E0.009
G1 X56.16 Y51.63 E0.014
G1 Y86.58 E1.09
G1 X56.28 Y86.76 E0.007
G1 X87.72 E0.98
G1 X87.84 Y86.37 E0.013
G1 Y51.42 E1.09
G1 X87.72 Y51.24 E0.007
G1 X72.33 Y51.18 E0.48
G1 Y49.59 E0.05
G1 X89.46 Y49.62 E0.534
G1 Y88.41 E1.21
G1 X54.54 Y88.38 E1.089
G1 Y49.59 E1.21
G1 X57.96 Y49.62 E0.107
G1 X57.93 Y51.21 E0.05
G1 X56.31 E0.051
G1 F5612.6
G1 E-3.118
G1 F2500.0
G1 X56.25 Y50.94
G1 X67.62 Y50.91 F15000.0
G1 F5612.6
G1 E3.118
G1 F2500.0
G1 F78.0
G1 E0.065
G1 F2500.0
G1 X62.64 Y50.85 E0.155 F2250.0
G1 Y49.89 E0.03
G1 X67.65 Y49.92 E0.156
G1 X67.62 Y50.91 E0.031
G1 X67.92 Y51.21 E0.013
G1 X62.34 Y51.18 E0.174
G1 Y49.59 E0.05
G1 X67.95 Y49.62 E0.175
G1 X67.92 Y51.21 E0.05
G1 F5612.6
G1 E-3.118
G1 F2500.0
G1 X67.62 Y50.91
G1 X67.56 Y50.1 F15000.0
G1 F5612.6
G1 E3.118
G1 F2500.0
G1 F78.0
G1 E0.065
G1 F2500.0
G1 X66.78 Y50.82 E0.033
G1 X65.04 Y50.79 E0.054
G1 X65.76 Y50.01 E0.033
G1 X64.02 Y49.98 E0.054
G1 X63.21 Y50.79 E0.036
G1 F5612.6
G1 E-3.118
G1 F2500.0
G1 X54.93 Y51.69 F15000.0
G1 F5612.6
G1 E3.118
G1 F2500.0
G1 F78.0
G1 E0.065
G1 F2500.0
G1 X56.7 Y50.01 E0.076
G1 X57.57 Y50.04 E0.027
G1 X57.54 Y50.82 E0.024
G1 X56.16 Y50.85 E0.043
G1 X55.83 Y51.21 E0.015
G1 X55.77 Y52.41 E0.037
G1 Y52.71 E0.009
G1 X54.93 Y53.61 E0.038
G1 Y55.38 E0.055
G1 X55.77 Y54.6 E0.036
G1 Y56.37 E0.055
G1 X54.93 Y57.3 E0.039
G1 Y59.07 E0.055
G1 X55.77 Y58.29 E0.036
G1 Y60.06 E0.055
G1 X54.93 Y60.96 E0.038
G1 Y62.73 E0.055
G1 X55.77 Y61.98 E0.035
G1 Y63.72 E0.054
G1 X54.93 Y64.65 E0.039
G1 Y66.42 E0.055
G1 X55.77 Y65.64 E0.036
G1 Y67.41 E0.055
G1 X54.93 Y68.31 E0.038
G1 Y70.08 E0.055
G1 X55.77 Y69.33 E0.035
G1 Y71.07 E0.054
G1 X54.93 Y72.0 E0.039
G1 Y73.77 E0.055
G1 X55.77 Y72.99 E0.036
G1 Y74.76 E0.055
G1 X54.93 Y75.69 E0.039
G1 Y77.43 E0.054
G1 X55.77 Y76.68 E0.035
G1 Y78.45 E0.055
G1 X54.93 Y79.35 E0.038
G1 Y81.12 E0.055
G1 X55.77 Y80.34 E0.036
G1 Y82.11 E0.055
G1 X54.93 Y83.04 E0.039
G1 Y84.78 E0.054
G1 X55.77 Y84.03 E0.035
G1 Y85.8 E0.055
G1 X54.93 Y86.7 E0.038
G1 X54.96 Y88.02 E0.041
G1 X55.38 E0.013
G1 X56.31 Y87.18 E0.039
G1 X58.05 E0.054
G1 X57.3 Y88.02 E0.035
G1 X59.07 E0.055
G1 X59.97 Y87.18 E0.038
G1 X61.74 E0.055
G1 X60.96 Y88.02 E0.036
G1 X62.73 E0.055
G1 X63.66 Y87.18 E0.039
G1 X65.4 E0.054
G1 X64.65 Y88.02 E0.035
G1 X66.42 E0.055
G1 X67.32 Y87.18 E0.038
G1 X69.09 E0.055
G1 X68.34 Y88.02 E0.035
G1 X70.08 E0.054
G1 X71.01 Y87.18 E0.039
G1 X72.78 E0.055
G1 X72.0 Y88.02 E0.036
G1 X73.77 E0.055
G1 X74.67 Y87.18 E0.038
G1 X76.44 E0.055
G1 X75.69 Y88.02 E0.035
G1 X77.43 E0.054
G1 X78.36 Y87.18 E0.039
G1 X80.13 E0.055
G1 X79.35 Y88.02 E0.036
G1 X81.12 E0.055
G1 X82.02 Y87.18 E0.038
G1 X83.79 E0.055
G1 X83.04 Y88.02 E0.035
G1 X84.81 E0.055
G1 X85.71 Y87.18 E0.038
G1 X87.48 E0.055
G1 X86.7 Y88.02 E0.036
G1 X88.47 E0.055
G1 X89.07 Y87.36 E0.028
G1 Y85.59 E0.055
G1 X88.23 Y86.37 E0.036
G1 Y84.6 E0.055
G1 X89.07 Y83.7 E0.038
G1 Y81.93 E0.055
G1 X88.23 Y82.68 E0.035
G1 Y80.91 E0.055
G1 X89.07 Y80.01 E0.038
G1 Y78.24 E0.055
G1 X88.23 Y79.02 E0.036
G1 Y77.25 E0.055
G1 X89.07 Y76.32 E0.039
G1 Y74.58 E0.054
G1 X88.23 Y75.33 E0.035
G1 Y73.56 E0.055
G1 X89.07 Y72.66 E0.038
G1 Y70.89 E0.055
G1 X88.23 Y71.67 E0.036
G1 Y69.9 E0.055
G1 X89.07 Y68.97 E0.039
G1 Y67.23 E0.054
G1 X88.23 Y67.98 E0.035
G1 Y66.21 E0.055
G1 X89.07 Y65.31 E0.038
G1 Y63.54 E0.055
G1 X88.23 Y64.29 E0.035
G1 Y62.55 E0.054
G1 X89.07 Y61.62 E0.039
G1 Y59.85 E0.055
G1 X88.23 Y60.63 E0.036
G1 Y58.86 E0.055
G1 X89.07 Y57.96 E0.038
G1 Y56.19 E0.055
G1 X88.23 Y56.94 E0.035
G1 Y55.2 E0.054
G1 X89.07 Y54.27 E0.039
G1 Y52.5 E0.055
G1 X88.23 Y53.28 E0.036
G1 Y51.51 E0.055
G1 X89.07 Y50.58 E0.039
G1 X89.04 Y50.01 E0.018
G1 X87.9 E0.036
G1 X87.0 Y50.82 E0.038
G1 X85.23 E0.055
G1 X85.98 Y50.01 E0.034
G1 X84.21 E0.055
G1 X83.34 Y50.82 E0.037
G1 X81.57 E0.055
G1 X82.29 Y50.01 E0.034
G1 X80.58 Y49.98 E0.053
G1 X79.65 Y50.82 E0.039
G1 X77.88 E0.055
G1 X78.66 Y49.98 E0.036
G1 X76.89 E0.055
G1 X75.96 Y50.82 E0.039
G1 X74.22 E0.054
G1 X74.97 Y49.98 E0.035
G1 X73.2 E0.055
G1 X72.72 Y50.46 E0.021
G1 F5612.6
G1 E-3.118
G1 F2500.0
;#!LAYER: 12/23
G92 E0
G1 Z3.0 F200.0
G1 X56.25 Y50.94 F15000.0
T0
G1 F5612.6
G1 E3.118
G1 F2500.0
G1 F78.0
G1 E0.065
G1 F2500.0
G1 X55.98 Y51.15 E0.011 F2250.0
G1 X55.86 Y51.69 E0.017
G1 Y86.58 E1.088
G1 X55.95 Y86.85 E0.009
G1 X56.13 Y87.0 E0.007
G1 X56.4 Y87.09 E0.009
G1 X87.72 E0.977
G1 X87.96 Y86.94 E0.009
G1 X88.14 Y86.37 E0.019
G1 Y51.42 E1.09
G1 X88.05 Y51.15 E0.009
G1 X87.87 Y51.0 E0.007
G1 X87.6 Y50.91 E0.009
G1 X72.63 E0.467
G1 X72.66 Y49.89 E0.032
G1 X89.16 Y49.95 E0.514
G1 Y88.11 E1.19
G1 X54.84 E1.07
G1 Y49.89 E1.192
G1 X57.66 Y49.92 E0.088
G1 X57.63 Y50.91 E0.031
G1 X56.25 Y50.94 E0.043
G1 X56.31 Y51.21 E0.009
G1 X56.16 Y51.63 E0.014
G1 Y86.58 E1.09
G1 X56.28 Y86.76 E0.007
G1 X87.72 E0.98
G1 X87.84 Y86.37 E0.013
G1 Y51.42 E1.09
G1 X87.72 Y51.24 E0.007
G1 X72.33 Y51.18 E0.48
G1 Y49.59 E0.05
G1 X89.46 Y49.62 E0.534
G1 Y88.41 E1.21
G1 X54.54 Y88.38 E1.089
G1 Y49.59 E1.21
G1 X57.96 Y49.62 E0.107
G1 X57.93 Y51.21 E0.05
G1 X56.31 E0.051
G1 F5612.6
G1 E-3.118
G1 F2500.0
G1 X56.25 Y50.94
G1 X67.62 Y50.91 F15000.0
G1 F5612.6
G1 E3.118
G1 F2500.0
G1 F78.0
G1 E0.065
G1 F2500.0
G1 X62.64 Y50.85 E0.155 F2250.0
G1 Y49.89 E0.03
G1 X67.65 Y49.92 E0.156
G1 X67.62 Y50.91 E0.031
G1 X67.92 Y51.21 E0.013
G1 X62.34 Y51.18 E0.174
G1 Y49.59 E0.05
G1 X67.95 Y49.62 E0.175
G1 X67.92 Y51.21 E0.05
G1 F5612.6
G1 E-3.118
G1 F2500.0
G1 X67.62 Y50.91
G1 X67.47 Y50.01 F15000.0
G1 F5612.6
G1 E3.118
G1 F2500.0
G1 F78.0
G1 E0.065
G1 F2500.0
G1 X67.56 Y50.19 E0.006
G1 X67.53 Y50.82 E0.02
G1 X66.45 E0.034
G1 X65.58 Y50.01 E0.037
G1 X63.78 Y49.98 E0.056
G1 X64.53 Y50.79 E0.034
G1 X62.73 E0.056
G1 F5612.6
G1 E-3.118
G1 F2500.0
G1 X56.43 Y50.01 F15000.0
G1 F5612.6
G1 E3.118
G1 F2500.0
G1 F78.0
G1 E0.065
G1 F2500.0
G1 X57.18 Y50.82 E0.034
G1 X56.16 Y50.85 E0.032
G1 X55.83 Y51.21 E0.015
G1 X54.93 Y50.4 E0.038
G1 Y52.17 E0.055
G1 X55.77 Y53.07 E0.038
G1 Y54.84 E0.055
G1 X54.93 Y54.06 E0.036
G1 Y55.83 E0.055
G1 X55.77 Y56.76 E0.039
G1 Y58.5 E0.054
G1 X54.93 Y57.75 E0.035
G1 Y59.52 E0.055
G1 X55.77 Y60.42 E0.038
G1 Y62.19 E0.055
G1 X54.93 Y61.41 E0.036
G1 Y63.18 E0.055
G1 X55.77 Y64.11 E0.039
G1 Y65.88 E0.055
G1 X54.93 Y65.1 E0.036
G1 Y66.87 E0.055
G1 X55.77 Y67.77 E0.038
G1 Y69.54 E0.055
G1 X54.93 Y68.79 E0.035
G1 Y70.53 E0.054
G1 X55.77 Y71.46 E0.039
G1 Y73.23 E0.055
G1 X54.93 Y72.45 E0.036
G1 Y74.22 E0.055
G1 X55.77 Y75.12 E0.038
G1 Y76.89 E0.055
G1 X54.93 Y76.14 E0.035
G1 Y77.91 E0.055
G1 X55.77 Y78.81 E0.038
G1 Y80.58 E0.055
G1 X54.93 Y79.8 E0.036
G1 Y81.57 E0.055
G1 X55.77 Y82.5 E0.039
G1 Y84.24 E0.054
G1 X54.93 Y83.43 E0.036
G1 F5612.6
G1 E-3.118
G1 F2500.0
G1 X55.86 Y88.02 F15000.0
G1 F5612.6
G1 E3.118
G1 F2500.0
G1 F78.0
G1 E0.065
G1 F2500.0
G1 X54.93 Y87.03 E0.042
G1 Y85.26 E0.055
G1 X55.77 Y86.19 E0.039
G1 X55.83 Y86.82 E0.02
G1 X56.16 Y87.12 E0.014
G1 X56.76 Y87.18 E0.019
G1 X56.85 E0.003
G1 X57.75 Y88.02 E0.038
G1 X59.52 E0.055
G1 X58.77 Y87.18 E0.035
G1 X60.51 E0.054
G1 X61.44 Y88.02 E0.039
G1 X63.21 E0.055
G1 X62.43 Y87.18 E0.036
G1 X64.2 E0.055
G1 X65.1 Y88.02 E0.038
G1 X66.87 E0.055
G1 X66.12 Y87.18 E0.035
G1 X67.89 E0.055
G1 X68.79 Y88.02 E0.038
G1 X70.56 E0.055
G1 X69.78 Y87.18 E0.036
G1 X71.55 E0.055
G1 X72.48 Y88.02 E0.039
G1 X74.22 E0.054
G1 X73.47 Y87.18 E0.035
G1 X75.24 E0.055
G1 X76.14 Y88.02 E0.038
G1 X77.91 E0.055
G1 X77.13 Y87.18 E0.036
G1 X78.9 E0.055
G1 X79.83 Y88.02 E0.039
G1 X81.6 E0.055
G1 X80.82 Y87.18 E0.036
G1 X82.59 E0.055
G1 X83.49 Y88.02 E0.038
G1 X85.26 E0.055
G1 X84.51 Y87.18 E0.035
G1 X86.25 E0.054
G1 X87.18 Y88.02 E0.039
G1 X88.95 E0.055
G1 X88.02 Y87.0 E0.043
G1 X88.2 Y86.64 E0.013
G1 X88.23 Y85.47 E0.036
G1 X89.07 Y86.25 E0.036
G1 Y84.48 E0.055
G1 X88.23 Y83.55 E0.039
G1 Y81.81 E0.054
G1 X89.07 Y82.56 E0.035
G1 Y80.79 E0.055
G1 X88.23 Y79.89 E0.038
G1 Y78.12 E0.055
G1 X89.07 Y78.87 E0.035
G1 Y77.13 E0.054
G1 X88.23 Y76.2 E0.039
G1 Y74.43 E0.055
G1 X89.07 Y75.21 E0.036
G1 Y73.44 E0.055
G1 X88.23 Y72.54 E0.038
G1 Y70.77 E0.055
G1 X89.07 Y71.52 E0.035
G1 Y69.78 E0.054
G1 X88.23 Y68.85 E0.039
G1 Y67.08 E0.055
G1 X89.07 Y67.86 E0.036
G1 Y66.09 E0.055
G1 X88.23 Y65.16 E0.039
G1 Y63.42 E0.054
G1 X89.07 Y64.17 E0.035
G1 Y62.4 E0.055
G1 X88.23 Y61.5 E0.038
G1 Y59.73 E0.055
G1 X89.07 Y60.51 E0.036
G1 Y58.74 E0.055
G1 X88.23 Y57.81 E0.039
G1 Y56.07 E0.054
G1 X89.07 Y56.82 E0.035
G1 Y55.05 E0.055
G1 X88.23 Y54.15 E0.038
G1 Y52.38 E0.055
G1 X89.07 Y53.13 E0.035
G1 Y51.39 E0.054
G1 X87.63 Y50.01 E0.062
G1 X85.86 E0.055
G1 X86.61 Y50.82 E0.034
G1 X84.84 E0.055
G1 X83.97 Y50.01 E0.037
G1 X82.2 E0.055
G1 X82.92 Y50.82 E0.034
G1 X81.18 E0.054
G1 X80.25 Y49.98 E0.039
G1 X78.48 E0.055
G1 X79.26 Y50.82 E0.036
G1 X77.49 E0.055
G1 X76.59 Y49.98 E0.038
G1 X74.82 E0.055
G1 X75.57 Y50.82 E0.035
G1 X73.83 E0.054
G1 X72.96 Y49.98 E0.038
G1 F5612.6
G1 E-3.118
G1 F2500.0
;#!LAYER: 13/23
G92 E0
G1 Z3.25 F200.0
G1 X56.25 Y50.94 F15000.0
T0
G1 F5612.6
G1 E3.118
G1 F2500.0
G1 F78.0
G1 E0.065
G1 F2500.0
G1 X55.98 Y51.15 E0.011 F2250.0
G1 X55.86 Y51.69 E0.017
G1 Y86.58 E1.088
G1 X55.95 Y86.85 E0.009
G1 X56.13 Y87.0 E0.007
G1 X56.4 Y87.09 E0.009
G1 X87.72 E0.977
G1 X87.96 Y86.94 E0.009
G1 X88.14 Y86.37 E0.019
G1 Y51.42 E1.09
G1 X88.05 Y51.15 E0.009
G1 X87.87 Y51.0 E0.007
G1 X87.6 Y50.91 E0.009
G1 X72.63 E0.467
G1 X72.66 Y49.89 E0.032
G1 X89.16 Y49.95 E0.514
G1 Y88.11 E1.19
G1 X54.84 E1.07
G1 Y49.89 E1.192
G1 X57.66 Y49.92 E0.088
G1 X57.63 Y50.91 E0.031
G1 X56.25 Y50.94 E0.043
G1 X56.31 Y51.21 E0.009
G1 X56.16 Y51.63 E0.014
G1 Y86.58 E1.09
G1 X56.28 Y86.76 E0.007
G1 X87.72 E0.98
G1 X87.84 Y86.37 E0.013
G1 Y51.42 E1.09
G1 X87.72 Y51.24 E0.007
G1 X72.33 Y51.18 E0.48
G1 Y49.59 E0.05
G1 X89.46 Y49.62 E0.534
G1 Y88.41 E1.21
G1 X54.54 Y88.38 E1.089
G1 Y49.59 E1.21
G1 X57.96 Y49.62 E0.107
G1 X57.93 Y51.21 E0.05
G1 X56.31 E0.051
G1 F5612.6
G1 E-3.118
G1 F2500.0
G1 X56.25 Y50.94
G1 X67.62 Y50.91 F15000.0
G1 F5612.6
G1 E3.118
G1 F2500.0
G1 F78.0
G1 E0.065
G1 F2500.0
G1 X62.64 Y50.85 E0.155 F2250.0
G1 Y49.89 E0.03
G1 X67.65 Y49.92 E0.156
G1 X67.62 Y50.91 E0.031
G1 X67.92 Y51.21 E0.013
G1 X62.34 Y51.18 E0.174
G1 Y49.59 E0.05
G1 X67.95 Y49.62 E0.175
G1 X67.92 Y51.21 E0.05
G1 F5612.6
G1 E-3.118
G1 F2500.0
G1 X67.62 Y50.91
G1 X66.72 Y50.01 F15000.0
G1 F5612.6
G1 E3.118
G1 F2500.0
G1 F78.0
G1 E0.065
G1 F2500.0
G1 X65.85 Y50.82 E0.037
G1 X64.14 Y50.79 E0.053
G1 X64.86 Y49.98 E0.034
G1 X63.09 E0.055
G1 X62.73 Y50.34 E0.016
G1 F5612.6
G1 E-3.118
G1 F2500.0
G1 X57.54 Y50.01 F15000.0
G1 F5612.6
G1 E3.118
G1 F2500.0
G1 F78.0
G1 E0.065
G1 F2500.0
G1 X56.67 Y50.82 E0.037
G1 X56.16 Y50.85 E0.016
G1 X55.83 Y51.21 E0.015
G1 X55.77 Y51.78 E0.018
G1 X54.93 Y52.71 E0.039
G1 Y54.45 E0.054
G1 X55.77 Y53.7 E0.035
G1 Y55.47 E0.055
G1 X54.93 Y56.37 E0.038
G1 Y58.14 E0.055
G1 X55.77 Y57.36 E0.036
G1 Y59.13 E0.055
G1 X54.93 Y60.06 E0.039
G1 Y61.8 E0.054
G1 X55.77 Y61.05 E0.035
G1 Y62.82 E0.055
G1 X54.93 Y63.72 E0.038
G1 Y65.49 E0.055
G1 X55.77 Y64.74 E0.035
G1 Y66.48 E0.054
G1 X54.93 Y67.41 E0.039
G1 Y69.18 E0.055
G1 X55.77 Y68.4 E0.036
G1 Y70.17 E0.055
G1 X54.93 Y71.07 E0.038
G1 Y72.84 E0.055
G1 X55.77 Y72.09 E0.035
G1 Y73.83 E0.054
G1 X54.93 Y74.76 E0.039
G1 Y76.53 E0.055
G1 X55.77 Y75.75 E0.036
G1 Y77.52 E0.055
G1 X54.93 Y78.42 E0.038
G1 Y80.19 E0.055
G1 X55.77 Y79.44 E0.035
G1 Y81.21 E0.055
G1 X54.93 Y82.11 E0.038
G1 Y83.88 E0.055
G1 X55.77 Y83.1 E0.036
G1 Y84.87 E0.055
G1 X54.93 Y85.8 E0.039
G1 Y87.54 E0.054
G1 X55.8 Y86.76 E0.036
G1 X56.16 Y87.12 E0.016
G1 X56.76 Y87.18 E0.019
G1 X57.15 E0.012
G1 X56.37 Y88.02 E0.036
G1 X58.14 E0.055
G1 X59.04 Y87.18 E0.038
G1 X60.81 E0.055
G1 X60.06 Y88.02 E0.035
G1 X61.83 E0.055
G1 X62.73 Y87.18 E0.038
G1 X64.5 E0.055
G1 X63.72 Y88.02 E0.036
G1 X65.49 E0.055
G1 X66.42 Y87.18 E0.039
G1 X68.16 E0.054
G1 X67.41 Y88.02 E0.035
G1 X69.18 E0.055
G1 X70.08 Y87.18 E0.038
G1 X71.85 E0.055
G1 X71.07 Y88.02 E0.036
G1 X72.84 E0.055
G1 X73.77 Y87.18 E0.039
G1 X75.54 E0.055
G1 X74.76 Y88.02 E0.036
G1 X76.53 E0.055
G1 X77.43 Y87.18 E0.038
G1 X79.2 E0.055
G1 X78.45 Y88.02 E0.035
G1 X80.19 E0.054
G1 X81.12 Y87.18 E0.039
G1 X82.89 E0.055
G1 X82.11 Y88.02 E0.036
G1 X83.88 E0.055
G1 X84.78 Y87.18 E0.038
G1 X86.55 E0.055
G1 X85.8 Y88.02 E0.035
G1 X87.54 E0.054
G1 X89.07 Y86.43 E0.069
G1 Y84.66 E0.055
G1 X88.23 Y85.44 E0.036
G1 Y83.67 E0.055
G1 X89.07 Y82.77 E0.038
G1 Y81.0 E0.055
G1 X88.23 Y81.78 E0.036
G1 Y80.01 E0.055
G1 X89.07 Y79.08 E0.039
G1 Y77.34 E0.054
G1 X88.23 Y78.09 E0.035
G1 Y76.32 E0.055
G1 X89.07 Y75.42 E0.038
G1 Y73.65 E0.055
G1 X88.23 Y74.43 E0.036
G1 Y72.66 E0.055
G1 X89.07 Y71.73 E0.039
G1 Y69.96 E0.055
G1 X88.23 Y70.74 E0.036
G1 Y68.97 E0.055
G1 X89.07 Y68.07 E0.038
G1 Y66.3 E0.055
G1 X88.23 Y67.05 E0.035
G1 Y65.31 E0.054
G1 X89.07 Y64.38 E0.039
G1 Y62.61 E0.055
G1 X88.23 Y63.39 E0.036
G1 Y61.62 E0.055
G1 X89.07 Y60.72 E0.038
G1 Y58.95 E0.055
G1 X88.23 Y59.7 E0.035
G1 Y57.93 E0.055
G1 X89.07 Y57.03 E0.038
G1 Y55.26 E0.055
G1 X88.23 Y56.04 E0.036
G1 Y54.27 E0.055
G1 X89.07 Y53.34 E0.039
G1 Y51.6 E0.054
G1 X88.23 Y52.35 E0.035
G1 X88.2 Y51.24 E0.035
G1 X87.9 Y50.91 E0.014
G1 X88.74 Y50.01 E0.038
G1 X86.97 E0.055
G1 X86.1 Y50.82 E0.037
G1 X84.33 E0.055
G1 X85.05 Y50.01 E0.034
G1 X83.28 E0.055
G1 X82.41 Y50.82 E0.037
G1 X80.64 E0.055
G1 X81.39 Y50.01 E0.034
G1 X79.65 Y49.98 E0.054
G1 X78.72 Y50.82 E0.039
G1 X76.98 E0.054
G1 X77.73 Y49.98 E0.035
G1 X75.96 E0.055
G1 X75.06 Y50.82 E0.038
G1 X73.29 E0.055
G1 X74.13 Y49.98 E0.037
G1 F5612.6
G1 E-3.118
G1 F2500.0
;#!LAYER: 14/23
G92 E0
G1 Z3.5 F200.0
G1 X56.25 Y50.94 F15000.0
T0
G1 F5612.6
G1 E3.118
G1 F2500.0
G1 F78.0
G1 E0.065
G1 F2500.0
G1 X55.98 Y51.15 E0.011 F2250.0
G1 X55.86 Y51.69 E0.017
G1 Y86.58 E1.088
G1 X55.95 Y86.85 E0.009
G1 X56.13 Y87.0 E0.007
G1 X56.4 Y87.09 E0.009
G1 X87.72 E0.977
G1 X87.96 Y86.94 E0.009
G1 X88.14 Y86.37 E0.019
G1 Y51.42 E1.09
G1 X88.05 Y51.15 E0.009
G1 X87.87 Y51.0 E0.007
G1 X87.6 Y50.91 E0.009
G1 X72.63 E0.467
G1 X72.66 Y49.89 E0.032
G1 X89.16 Y49.95 E0.514
G1 Y88.11 E1.19
G1 X54.84 E1.07
G1 Y49.89 E1.192
G1 X57.66 Y49.92 E0.088
G1 X57.63 Y50.91 E0.031
G1 X56.25 Y50.94 E0.043
G1 X56.31 Y51.21 E0.009
G1 X56.16 Y51.63 E0.014
G1 Y86.58 E1.09
G1 X56.28 Y86.76 E0.007
G1 X87.72 E0.98
G1 X87.84 Y86.37 E0.013
G1 Y51.42 E1.09
G1 X87.72 Y51.24 E0.007
G1 X72.33 Y51.18 E0.48
G1 Y49.59 E0.05
G1 X89.46 Y49.62 E0.534
G1 Y88.41 E1.21
G1 X54.54 Y88.38 E1.089
G1 Y49.59 E1.21
G1 X57.96 Y49.62 E0.107
G1 X57.93 Y51.21 E0.05
G1 X56.31 E0.051
G1 F5612.6
G1 E-3.118
G1 F2500.0
G1 X56.25 Y50.94
G1 X67.62 Y50.91 F15000.0
G1 F5612.6
G1 E3.118
G1 F2500.0
G1 F78.0
G1 E0.065
G1 F2500.0
G1 X62.64 Y50.85 E0.155 F2250.0
G1 Y49.89 E0.03
G1 X67.65 Y49.92 E0.156
G1 X67.62 Y50.91 E0.031
G1 X67.92 Y51.21 E0.013
G1 X62.34 Y51.18 E0.174
G1 Y49.59 E0.05
G1 X67.95 Y49.62 E0.175
G1 X67.92 Y51.21 E0.05
G1 F5612.6
G1 E-3.118
G1 F2500.0
G1 X67.62 Y50.91
G1 X66.57 Y50.01 F15000.0
G1 F5612.6
G1 E3.118
G1 F2500.0
G1 F78.0
G1 E0.065
G1 F2500.0
G1 X67.32 Y50.82 E0.034
G1 X65.55 E0.055
G1 X64.62 Y49.98 E0.039
G1 X62.85 E0.055
G1 X63.66 Y50.79 E0.036
G1 F5612.6
G1 E-3.118
G1 F2500.0
G1 X57.36 Y50.01 F15000.0
G1 F5612.6
G1 E3.118
G1 F2500.0
G1 F78.0
G1 E0.065
G1 F2500.0
G1 X57.57 Y50.28 E0.011
G1 X57.54 Y50.82 E0.017
G1 X56.34 E0.037
G1 X55.44 Y49.98 E0.038
G1 X54.93 Y50.01 E0.016
G1 Y51.24 E0.038
G1 X55.77 Y52.14 E0.038
G1 Y53.91 E0.055
G1 X54.93 Y53.16 E0.035
G1 Y54.93 E0.055
G1 X55.77 Y55.83 E0.038
G1 Y57.6 E0.055
G1 X54.93 Y56.82 E0.036
G1 Y58.59 E0.055
G1 X55.77 Y59.52 E0.039
G1 Y61.26 E0.054
G1 X54.93 Y60.51 E0.035
G1 Y62.28 E0.055
G1 X55.77 Y63.18 E0.038
G1 Y64.95 E0.055
G1 X54.93 Y64.17 E0.036
G1 Y65.94 E0.055
G1 X55.77 Y66.87 E0.039
G1 Y68.61 E0.054
G1 X54.93 Y67.86 E0.035
G1 Y69.63 E0.055
G1 X55.77 Y70.53 E0.038
G1 Y72.3 E0.055
G1 X54.93 Y71.55 E0.035
G1 Y73.29 E0.054
G1 X55.77 Y74.22 E0.039
G1 Y75.99 E0.055
G1 X54.93 Y75.21 E0.036
G1 Y76.98 E0.055
G1 X55.77 Y77.88 E0.038
G1 Y79.65 E0.055
G1 X54.93 Y78.9 E0.035
G1 Y80.64 E0.054
G1 X55.77 Y81.57 E0.039
G1 Y83.34 E0.055
G1 X54.93 Y82.5 E0.037
G1 F5612.6
G1 E-3.118
G1 F2500.0
G1 Y88.02 F15000.0
G1 F5612.6
G1 E3.118
G1 F2500.0
G1 F78.0
G1 E0.065
G1 F2500.0
G1 X56.7 E0.055
G1 X54.93 Y86.16 E0.08
G1 Y84.42 E0.054
G1 X55.77 Y85.2 E0.036
G1 Y86.28 E0.034
G1 X55.86 Y86.88 E0.019
G1 X56.22 Y87.15 E0.014
G1 X57.69 Y87.18 E0.046
G1 X58.62 Y88.02 E0.039
G1 X60.39 E0.055
G1 X59.61 Y87.18 E0.036
G1 X61.38 E0.055
G1 X62.31 Y88.02 E0.039
G1 X64.05 E0.054
G1 X63.3 Y87.18 E0.035
G1 X65.07 E0.055
G1 X65.97 Y88.02 E0.038
G1 X67.74 E0.055
G1 X66.96 Y87.18 E0.036
G1 X68.73 E0.055
G1 X69.66 Y88.02 E0.039
G1 X71.4 E0.054
G1 X70.65 Y87.18 E0.035
G1 X72.42 E0.055
G1 X73.32 Y88.02 E0.038
G1 X75.09 E0.055
G1 X74.34 Y87.18 E0.035
G1 X76.08 E0.054
G1 X77.01 Y88.02 E0.039
G1 X78.78 E0.055
G1 X78.0 Y87.18 E0.036
G1 X79.77 E0.055
G1 X80.67 Y88.02 E0.038
G1 X82.44 E0.055
G1 X81.69 Y87.18 E0.035
G1 X83.43 E0.054
G1 X84.36 Y88.02 E0.039
G1 X86.13 E0.055
G1 X85.35 Y87.18 E0.036
G1 X87.12 E0.055
G1 X88.02 Y88.02 E0.038
G1 X89.04 E0.032
G1 X89.07 Y87.3 E0.022
G1 X88.23 Y86.37 E0.039
G1 Y84.6 E0.055
G1 X89.07 Y85.38 E0.036
G1 Y83.61 E0.055
G1 X88.23 Y82.71 E0.038
G1 Y80.94 E0.055
G1 X89.07 Y81.69 E0.035
G1 Y79.95 E0.054
G1 X88.23 Y79.02 E0.039
G1 Y77.25 E0.055
G1 X89.07 Y78.03 E0.036
G1 Y76.26 E0.055
G1 X88.23 Y75.36 E0.038
G1 Y73.59 E0.055
G1 X89.07 Y74.34 E0.035
G1 Y72.57 E0.055
G1 X88.23 Y71.67 E0.038
G1 Y69.9 E0.055
G1 X89.07 Y70.68 E0.036
G1 Y68.91 E0.055
G1 X88.23 Y67.98 E0.039
G1 Y66.24 E0.054
G1 X89.07 Y66.99 E0.035
G1 Y65.22 E0.055
G1 X88.23 Y64.32 E0.038
G1 Y62.55 E0.055
G1 X89.07 Y63.33 E0.036
G1 Y61.56 E0.055
G1 X88.23 Y60.63 E0.039
G1 Y58.86 E0.055
G1 X89.07 Y59.64 E0.036
G1 Y57.87 E0.055
G1 X88.23 Y56.97 E0.038
G1 Y55.2 E0.055
G1 X89.07 Y55.95 E0.035
G1 Y54.21 E0.054
G1 X88.23 Y53.28 E0.039
G1 Y51.51 E0.055
G1 X89.07 Y52.29 E0.036
G1 Y50.52 E0.055
G1 X88.62 Y50.01 E0.021
G1 X86.85 E0.055
G1 X87.6 Y50.82 E0.034
G1 X85.83 E0.055
G1 X84.93 Y50.01 E0.038
G1 X83.19 E0.054
G1 X83.91 Y50.82 E0.034
G1 X82.14 E0.055
G1 X81.27 Y50.01 E0.037
G1 X79.47 Y49.98 E0.056
G1 X80.25 Y50.82 E0.036
G1 X78.48 E0.055
G1 X77.55 Y49.98 E0.039
G1 X75.78 E0.055
G1 X76.56 Y50.82 E0.036
G1 X74.79 E0.055
G1 X73.89 Y49.98 E0.038
G1 X72.75 E0.036
G1 X72.72 Y50.55 E0.018
G1 X72.87 Y50.82 E0.01
G1 F5612.6
G1 E-3.118
G1 F2500.0
;#!LAYER: 15/23
G92 E0
G1 Z3.75 F200.0
G1 X56.25 Y50.94 F15000.0
T0
G1 F5612.6
G1 E3.118
G1 F2500.0
G1 F78.0
G1 E0.065
G1 F2500.0
G1 X55.98 Y51.15 E0.011 F2250.0
G1 X55.86 Y51.69 E0.017
G1 Y86.58 E1.088
G1 X55.95 Y86.85 E0.009
G1 X56.13 Y87.0 E0.007
G1 X56.4 Y87.09 E0.009
G1 X87.72 E0.977
G1 X87.96 Y86.94 E0.009
G1 X88.14 Y86.37 E0.019
G1 Y51.42 E1.09
G1 X88.05 Y51.15 E0.009
G1 X87.87 Y51.0 E0.007
G1 X87.6 Y50.91 E0.009
G1 X72.63 E0.467
G1 X72.66 Y49.89 E0.032
G1 X89.16 Y49.95 E0.514
G1 Y88.11 E1.19
G1 X54.84 E1.07
G1 Y49.89 E1.192
G1 X57.66 Y49.92 E0.088
G1 X57.63 Y50.91 E0.031
G1 X56.25 Y50.94 E0.043
G1 X56.31 Y51.21 E0.009
G1 X56.16 Y51.63 E0.014
G1 Y86.58 E1.09
G1 X56.28 Y86.76 E0.007
G1 X87.72 E0.98
G1 X87.84 Y86.37 E0.013
G1 Y51.42 E1.09
G1 X87.72 Y51.24 E0.007
G1 X72.33 Y51.18 E0.48
G1 Y49.59 E0.05
G1 X89.46 Y49.62 E0.534
G1 Y88.41 E1.21
G1 X54.54 Y88.38 E1.089
G1 Y49.59 E1.21
G1 X57.96 Y49.62 E0.107
G1 X57.93 Y51.21 E0.05
G1 X56.31 E0.051
G1 F5612.6
G1 E-3.118
G1 F2500.0
G1 X56.25 Y50.94
G1 X67.62 Y50.91 F15000.0
G1 F5612.6
G1 E3.118
G1 F2500.0
G1 F78.0
G1 E0.065
G1 F2500.0
G1 X62.64 Y50.85 E0.155 F2250.0
G1 Y49.89 E0.03
G1 X67.65 Y49.92 E0.156
G1 X67.62 Y50.91 E0.031
G1 X67.92 Y51.21 E0.013
G1 X62.34 Y51.18 E0.174
G1 Y49.59 E0.05
G1 X67.95 Y49.62 E0.175
G1 X67.92 Y51.21 E0.05
G1 F5612.6
G1 E-3.118
G1 F2500.0
G1 X67.62 Y50.91
G1 X67.56 Y50.1 F15000.0
G1 F5612.6
G1 E3.118
G1 F2500.0
G1 F78.0
G1 E0.065
G1 F2500.0
G1 X66.78 Y50.82 E0.033
G1 X65.04 Y50.79 E0.054
G1 X65.76 Y50.01 E0.033
G1 X64.02 Y49.98 E0.054
G1 X63.21 Y50.79 E0.036
G1 F5612.6
G1 E-3.118
G1 F2500.0
G1 X54.93 Y51.69 F15000.0
G1 F5612.6
G1 E3.118
G1 F2500.0
G1 F78.0
G1 E0.065
G1 F2500.0
G1 X56.7 Y50.01 E0.076
G1 X57.57 Y50.04 E0.027
G1 X57.54 Y50.82 E0.024
G1 X56.16 Y50.85 E0.043
G1 X55.83 Y51.21 E0.015
G1 X55.77 Y52.41 E0.037
G1 Y52.71 E0.009
G1 X54.93 Y53.61 E0.038
G1 Y55.38 E0.055
G1 X55.77 Y54.6 E0.036
G1 Y56.37 E0.055
G1 X54.93 Y57.3 E0.039
G1 Y59.07 E0.055
G1 X55.77 Y58.29 E0.036
G1 Y60.06 E0.055
G1 X54.93 Y60.96 E0.038
G1 Y62.73 E0.055
G1 X55.77 Y61.98 E0.035
G1 Y63.72 E0.054
G1 X54.93 Y64.65 E0.039
G1 Y66.42 E0.055
G1 X55.77 Y65.64 E0.036
G1 Y67.41 E0.055
G1 X54.93 Y68.31 E0.038
G1 Y70.08 E0.055
G1 X55.77 Y69.33 E0.035
G1 Y71.07 E0.054
G1 X54.93 Y72.0 E0.039
G1 Y73.77 E0.055
G1 X55.77 Y72.99 E0.036
G1 Y74.76 E0.055
G1 X54.93 Y75.69 E0.039
G1 Y77.43 E0.054
G1 X55.77 Y76.68 E0.035
G1 Y78.45 E0.055
G1 X54.93 Y79.35 E0.038
G1 Y81.12 E0.055
G1 X55.77 Y80.34 E0.036
G1 Y82.11 E0.055
G1 X54.93 Y83.04 E0.039
G1 Y84.78 E0.054
G1 X55.77 Y84.03 E0.035
G1 Y85.8 E0.055
G1 X54.93 Y86.7 E0.038
G1 X54.96 Y88.02 E0.041
G1 X55.38 E0.013
G1 X56.31 Y87.18 E0.039
G1 X58.05 E0.054
G1 X57.3 Y88.02 E0.035
G1 X59.07 E0.055
G1 X59.97 Y87.18 E0.038
G1 X61.74 E0.055
G1 X60.96 Y88.02 E0.036
G1 X62.73 E0.055
G1 X63.66 Y87.18 E0.039
G1 X65.4 E0.054
G1 X64.65 Y88.02 E0.035
G1 X66.42 E0.055
G1 X67.32 Y87.18 E0.038
G1 X69.09 E0.055
G1 X68.34 Y88.02 E0.035
G1 X70.08 E0.054
G1 X71.01 Y87.18 E0.039
G1 X72.78 E0.055
G1 X72.0 Y88.02 E0.036
G1 X73.77 E0.055
G1 X74.67 Y87.18 E0.038
G1 X76.44 E0.055
G1 X75.69 Y88.02 E0.035
G1 X77.43 E0.054
G1 X78.36 Y87.18 E0.039
G1 X80.13 E0.055
G1 X79.35 Y88.02 E0.036
G1 X81.12 E0.055
G1 X82.02 Y87.18 E0.038
G1 X83.79 E0.055
G1 X83.04 Y88.02 E0.035
G1 X84.81 E0.055
G1 X85.71 Y87.18 E0.038
G1 X87.48 E0.055
G1 X86.7 Y88.02 E0.036
G1 X88.47 E0.055
G1 X89.07 Y87.36 E0.028
G1 Y85.59 E0.055
G1 X88.23 Y86.37 E0.036
G1 Y84.6 E0.055
G1 X89.07 Y83.7 E0.038
G1 Y81.93 E0.055
G1 X88.23 Y82.68 E0.035
G1 Y80.91 E0.055
G1 X89.07 Y80.01 E0.038
G1 Y78.24 E0.055
G1 X88.23 Y79.02 E0.036
G1 Y77.25 E0.055
G1 X89.07 Y76.32 E0.039
G1 Y74.58 E0.054
G1 X88.23 Y75.33 E0.035
G1 Y73.56 E0.055
G1 X89.07 Y72.66 E0.038
G1 Y70.89 E0.055
G1 X88.23 Y71.67 E0.036
G1 Y69.9 E0.055
G1 X89.07 Y68.97 E0.039
G1 Y67.23 E0.054
G1 X88.23 Y67.98 E0.035
G1 Y66.21 E0.055
G1 X89.07 Y65.31 E0.038
G1 Y63.54 E0.055
G1 X88.23 Y64.29 E0.035
G1 Y62.55 E0.054
G1 X89.07 Y61.62 E0.039
G1 Y59.85 E0.055
G1 X88.23 Y60.63 E0.036
G1 Y58.86 E0.055
G1 X89.07 Y57.96 E0.038
G1 Y56.19 E0.055
G1 X88.23 Y56.94 E0.035
G1 Y55.2 E0.054
G1 X89.07 Y54.27 E0.039
G1 Y52.5 E0.055
G1 X88.23 Y53.28 E0.036
G1 Y51.51 E0.055
G1 X89.07 Y50.58 E0.039
G1 X89.04 Y50.01 E0.018
G1 X87.9 E0.036
G1 X87.0 Y50.82 E0.038
G1 X85.23 E0.055
G1 X85.98 Y50.01 E0.034
G1 X84.21 E0.055
G1 X83.34 Y50.82 E0.037
G1 X81.57 E0.055
G1 X82.29 Y50.01 E0.034
G1 X80.58 Y49.98 E0.053
G1 X79.65 Y50.82 E0.039
G1 X77.88 E0.055
G1 X78.66 Y49.98 E0.036
G1 X76.89 E0.055
G1 X75.96 Y50.82 E0.039
G1 X74.22 E0.054
G1 X74.97 Y49.98 E0.035
G1 X73.2 E0.055
G1 X72.72 Y50.46 E0.021
G1 F5612.6
G1 E-3.118
G1 F2500.0
;#!LAYER: 16/23
G92 E0
G1 Z4.0 F200.0
G1 X87.93 Y51.03 F15000.0
T0
G1 F5612.6
G1 E3.118
G1 F2500.0
G1 F78.0
G1 E0.065
G1 F2500.0
G1 X87.51 Y50.91 E0.014 F2250.0
G1 X56.25 Y50.94 E0.975
G1 X56.04 Y51.06 E0.008
G1 X55.89 Y51.45 E0.013
G1 X55.95 Y86.82 E1.103
G1 X56.1 Y87.0 E0.007
G1 X56.31 Y87.09 E0.007
G1 X87.72 E0.979
G1 X87.96 Y86.94 E0.009
G1 X88.11 Y86.58 E0.012
G1 X88.08 Y51.21 E1.103
G1 X87.93 Y51.03 E0.007
G1 X87.75 Y51.27 E0.009
G1 X87.51 Y51.21 E0.008
G1 X56.28 Y51.24 E0.974
G1 X56.19 Y51.48 E0.008
G1 X56.22 Y86.64 E1.096
G1 X56.37 Y86.79 E0.007
G1 X87.69 E0.977
G1 X87.84 Y86.37 E0.014
G1 X87.81 Y51.39 E1.091
G1 X87.75 Y51.27 E0.004
G1 F5612.6
G1 E-3.118
G1 F2500.0
G1 X87.93 Y51.03
G1 X54.84 Y88.08 F15000.0
G1 F5612.6
G1 E3.118
G1 F2500.0
G1 F78.0
G1 E0.065
G1 F2500.0
G1 Y49.89 E1.191 F2250.0
G1 X89.16 E1.07
G1 Y88.11 E1.192
G1 X54.84 Y88.08 E1.07
G1 X54.54 Y88.35 E0.013
G1 Y49.59 E1.209
G1 X89.46 Y49.62 E1.089
G1 Y88.41 E1.21
G1 X54.54 Y88.35 E1.089
G1 F5612.6
G1 E-3.118
G1 F2500.0
G1 X54.84 Y88.08
G1 X55.83 Y87.99 F15000.0
G1 F5612.6
G1 E3.118
G1 F2500.0
G1 F78.0
G1 E0.065
G1 F2500.0
G1 X54.93 Y87.03 E0.041
G1 Y85.26 E0.055
G1 X55.77 Y86.19 E0.039
G1 X55.83 Y86.82 E0.02
G1 X56.16 Y87.12 E0.014
G1 X56.76 Y87.18 E0.019
G1 X56.85 E0.003
G1 X57.72 Y87.99 E0.037
G1 X59.49 E0.055
G1 X58.77 Y87.18 E0.034
G1 X60.51 E0.054
G1 X61.41 Y87.99 E0.038
G1 X63.18 E0.055
G1 X62.43 Y87.18 E0.034
G1 X64.2 E0.055
G1 X65.07 Y87.99 E0.037
G1 X66.84 E0.055
G1 X66.12 Y87.18 E0.034
G1 X67.89 E0.055
G1 X68.76 Y87.99 E0.037
G1 X70.53 E0.055
G1 X69.78 Y87.18 E0.034
G1 X71.55 E0.055
G1 X72.48 Y88.02 E0.039
G1 X74.22 E0.054
G1 X73.47 Y87.18 E0.035
G1 X75.24 E0.055
G1 X76.14 Y88.02 E0.038
G1 X77.91 E0.055
G1 X77.13 Y87.18 E0.036
G1 X78.9 E0.055
G1 X79.83 Y88.02 E0.039
G1 X81.6 E0.055
G1 X80.82 Y87.18 E0.036
G1 X82.59 E0.055
G1 X83.49 Y88.02 E0.038
G1 X85.26 E0.055
G1 X84.51 Y87.18 E0.035
G1 X86.25 E0.054
G1 X87.18 Y88.02 E0.039
G1 X88.95 E0.055
G1 X88.02 Y87.0 E0.043
G1 X88.2 Y86.64 E0.013
G1 X88.23 Y85.47 E0.036
G1 X89.07 Y86.25 E0.036
G1 Y84.48 E0.055
G1 X88.23 Y83.55 E0.039
G1 Y81.81 E0.054
G1 X89.07 Y82.56 E0.035
G1 Y80.79 E0.055
G1 X88.23 Y79.89 E0.038
G1 Y78.12 E0.055
G1 X89.07 Y78.87 E0.035
G1 Y77.13 E0.054
G1 X88.23 Y76.2 E0.039
G1 Y74.43 E0.055
G1 X89.07 Y75.21 E0.036
G1 Y73.44 E0.055
G1 X88.23 Y72.54 E0.038
G1 Y70.77 E0.055
G1 X89.07 Y71.52 E0.035
G1 Y69.78 E0.054
G1 X88.23 Y68.85 E0.039
G1 Y67.08 E0.055
G1 X89.07 Y67.86 E0.036
G1 Y66.09 E0.055
G1 X88.23 Y65.16 E0.039
G1 Y63.42 E0.054
G1 X89.07 Y64.17 E0.035
G1 Y62.4 E0.055
G1 X88.23 Y61.5 E0.038
G1 Y59.73 E0.055
G1 X89.07 Y60.51 E0.036
G1 Y58.74 E0.055
G1 X88.23 Y57.81 E0.039
G1 Y56.07 E0.054
G1 X89.07 Y56.82 E0.035
G1 Y55.05 E0.055
G1 X88.23 Y54.15 E0.038
G1 Y52.38 E0.055
G1 X89.07 Y53.13 E0.035
G1 Y51.39 E0.054
G1 X87.6 Y49.98 E0.064
G1 X85.83 E0.055
G1 X86.61 Y50.82 E0.036
G1 X84.84 E0.055
G1 X83.94 Y49.98 E0.038
G1 X82.17 E0.055
G1 X82.92 Y50.82 E0.035
G1 X81.18 E0.054
G1 X80.25 Y49.98 E0.039
G1 X78.48 E0.055
G1 X79.26 Y50.82 E0.036
G1 X77.49 E0.055
G1 X76.59 Y49.98 E0.038
G1 X74.82 E0.055
G1 X75.57 Y50.82 E0.035
G1 X73.77 Y50.79 E0.056
G1 F5612.6
G1 E-3.118
G1 F2500.0
G1 X73.56 Y50.01 F15000.0
G1 F5612.6
G1 E3.118
G1 F2500.0
G1 F78.0
G1 E0.065
G1 F2500.0
G1 X73.74 Y50.25 E0.009
G1 Y50.61 E0.011
G1 X73.08 Y50.01 E0.028
G1 X72.72 E0.011
G1 X73.47 Y50.82 E0.034
G1 X73.11 E0.011
G1 X72.21 Y50.01 E0.038
G1 X71.88 E0.01
G1 X72.6 Y50.82 E0.034
G1 X72.27 E0.01
G1 X71.37 Y50.01 E0.038
G1 X71.04 E0.01
G1 X71.76 Y50.82 E0.034
G1 X71.4 E0.011
G1 X70.53 Y50.01 E0.037
G1 X70.17 E0.011
G1 X70.92 Y50.82 E0.034
G1 X70.56 E0.011
G1 X69.66 Y49.98 E0.038
G1 X69.3 E0.011
G1 X70.05 Y50.82 E0.035
G1 X69.72 E0.01
G1 X68.79 Y49.98 E0.039
G1 X68.46 E0.01
G1 X69.21 Y50.82 E0.035
G1 X68.88 E0.01
G1 X67.95 Y49.98 E0.039
G1 X67.59 E0.011
G1 X68.37 Y50.82 E0.036
G1 X68.01 E0.011
G1 X67.11 Y49.98 E0.038
G1 X66.75 E0.011
G1 X67.53 Y50.82 E0.036
G1 X67.17 E0.011
G1 X66.48 Y50.19 E0.029
G1 Y50.55 E0.011
G1 X66.72 Y50.82 E0.011
G1 F5612.6
G1 E-3.118
G1 F2500.0
G1 X65.61 Y49.98 F15000.0
G1 F5612.6
G1 E3.118
G1 F2500.0
G1 F78.0
G1 E0.065
G1 F2500.0
G1 X66.39 Y50.82 E0.036
G1 X64.59 Y50.79 E0.056
G1 X63.78 Y49.98 E0.036
G1 X63.36 Y50.01 E0.013
G1 X63.75 Y50.46 E0.019
G1 Y50.79 E0.01
G1 X62.88 Y50.01 E0.036
G1 X62.55 E0.01
G1 X63.27 Y50.82 E0.034
G1 X62.94 E0.01
G1 X62.04 Y50.01 E0.038
G1 X61.68 E0.011
G1 X62.43 Y50.82 E0.034
G1 X62.07 E0.011
G1 X61.2 Y50.01 E0.037
G1 X60.84 E0.011
G1 X61.59 Y50.82 E0.034
G1 X61.23 E0.011
G1 X60.33 Y50.01 E0.038
G1 X59.97 Y49.98 E0.011
G1 X60.72 Y50.82 E0.035
G1 X60.39 E0.01
G1 X59.46 Y49.98 E0.039
G1 X59.13 E0.01
G1 X59.88 Y50.82 E0.035
G1 X59.52 E0.011
G1 X58.62 Y49.98 E0.038
G1 X58.26 E0.011
G1 X59.04 Y50.82 E0.036
G1 X58.68 E0.011
G1 X57.78 Y49.98 E0.038
G1 X57.42 E0.011
G1 X58.17 Y50.82 E0.035
G1 X57.84 E0.01
G1 X56.91 Y49.98 E0.039
G1 X56.58 E0.01
G1 X57.33 Y50.82 E0.035
G1 X57.0 E0.01
G1 X56.49 Y50.37 E0.021
G1 Y50.76 E0.012
G1 X56.55 Y50.82 E0.003
G1 F5612.6
G1 E-3.118
G1 F2500.0
G1 X56.4 Y49.98 F15000.0
G1 F5612.6
G1 E3.118
G1 F2500.0
G1 F78.0
G1 E0.065
G1 F2500.0
G1 X56.46 Y50.22 E0.008
G1 X56.43 Y50.85 E0.02
G1 X56.07 Y50.91 E0.011
G1 X55.83 Y51.21 E0.012
G1 X54.93 Y50.4 E0.038
G1 Y52.17 E0.055
G1 X55.77 Y53.07 E0.038
G1 Y54.84 E0.055
G1 X54.93 Y54.06 E0.036
G1 Y55.83 E0.055
G1 X55.77 Y56.76 E0.039
G1 Y58.5 E0.054
G1 X54.93 Y57.75 E0.035
G1 Y59.52 E0.055
G1 X55.77 Y60.42 E0.038
G1 Y62.19 E0.055
G1 X54.93 Y61.41 E0.036
G1 Y63.18 E0.055
G1 X55.77 Y64.11 E0.039
G1 Y65.88 E0.055
G1 X54.93 Y65.1 E0.036
G1 Y66.87 E0.055
G1 X55.77 Y67.77 E0.038
G1 Y69.54 E0.055
G1 X54.93 Y68.79 E0.035
G1 Y70.53 E0.054
G1 X55.77 Y71.46 E0.039
G1 Y73.23 E0.055
G1 X54.93 Y72.45 E0.036
G1 Y74.22 E0.055
G1 X55.77 Y75.12 E0.038
G1 Y76.89 E0.055
G1 X54.93 Y76.14 E0.035
G1 Y77.91 E0.055
G1 X55.77 Y78.81 E0.038
G1 Y80.58 E0.055
G1 X54.93 Y79.8 E0.036
G1 Y81.57 E0.055
G1 X55.77 Y82.5 E0.039
G1 Y84.24 E0.054
G1 X54.93 Y83.43 E0.036
G1 F5612.6
G1 E-3.118
G1 F2500.0
;#!LAYER: 17/23
G92 E0
G1 Z4.25 F200.0
G1 X87.93 Y51.03 F15000.0
T0
G1 F5612.6
G1 E3.118
G1 F2500.0
G1 F78.0
G1 E0.065
G1 F2500.0
G1 X87.51 Y50.91 E0.014 F2250.0
G1 X56.25 Y50.94 E0.975
G1 X56.04 Y51.06 E0.008
G1 X55.89 Y51.45 E0.013
G1 X55.95 Y86.82 E1.103
G1 X56.1 Y87.0 E0.007
G1 X56.31 Y87.09 E0.007
G1 X87.72 E0.979
G1 X87.96 Y86.94 E0.009
G1 X88.11 Y86.58 E0.012
G1 X88.08 Y51.21 E1.103
G1 X87.93 Y51.03 E0.007
G1 X87.75 Y51.27 E0.009
G1 X87.51 Y51.21 E0.008
G1 X56.28 Y51.24 E0.974
G1 X56.19 Y51.48 E0.008
G1 X56.22 Y86.64 E1.096
G1 X56.37 Y86.79 E0.007
G1 X87.69 E0.977
G1 X87.84 Y86.37 E0.014
G1 X87.81 Y51.39 E1.091
G1 X87.75 Y51.27 E0.004
G1 F5612.6
G1 E-3.118
G1 F2500.0
G1 X87.93 Y51.03
G1 X54.84 Y88.08 F15000.0
G1 F5612.6
G1 E3.118
G1 F2500.0
G1 F78.0
G1 E0.065
G1 F2500.0
G1 Y49.89 E1.191 F2250.0
G1 X89.16 E1.07
G1 Y88.11 E1.192
G1 X54.84 Y88.08 E1.07
G1 X54.54 Y88.35 E0.013
G1 Y49.59 E1.209
G1 X89.46 Y49.62 E1.089
G1 Y88.41 E1.21
G1 X54.54 Y88.35 E1.089
G1 F5612.6
G1 E-3.118
G1 F2500.0
G1 X54.84 Y88.08
G1 X54.93 Y50.79 F15000.0
G1 F5612.6
G1 E3.118
G1 F2500.0
G1 F78.0
G1 E0.065
G1 F2500.0
G1 X55.8 Y49.98 E0.037
G1 X56.46 Y50.01 E0.021
G1 X56.43 Y50.85 E0.026
G1 X56.07 Y50.91 E0.011
G1 X55.8 Y51.27 E0.014
G1 X55.77 Y51.78 E0.016
G1 X54.93 Y52.71 E0.039
G1 Y54.45 E0.054
G1 X55.77 Y53.7 E0.035
G1 Y55.47 E0.055
G1 X54.93 Y56.37 E0.038
G1 Y58.14 E0.055
G1 X55.77 Y57.36 E0.036
G1 Y59.13 E0.055
G1 X54.93 Y60.06 E0.039
G1 Y61.8 E0.054
G1 X55.77 Y61.05 E0.035
G1 Y62.82 E0.055
G1 X54.93 Y63.72 E0.038
G1 Y65.49 E0.055
G1 X55.77 Y64.74 E0.035
G1 Y66.48 E0.054
G1 X54.93 Y67.41 E0.039
G1 Y69.18 E0.055
G1 X55.77 Y68.4 E0.036
G1 Y70.17 E0.055
G1 X54.93 Y71.07 E0.038
G1 Y72.84 E0.055
G1 X55.77 Y72.09 E0.035
G1 Y73.83 E0.054
G1 X54.93 Y74.76 E0.039
G1 Y76.53 E0.055
G1 X55.77 Y75.75 E0.036
G1 Y77.52 E0.055
G1 X54.93 Y78.42 E0.038
G1 Y80.19 E0.055
G1 X55.77 Y79.44 E0.035
G1 Y81.21 E0.055
G1 X54.93 Y82.11 E0.038
G1 Y83.88 E0.055
G1 X55.77 Y83.1 E0.036
G1 Y84.87 E0.055
G1 X54.93 Y85.8 E0.039
G1 Y87.54 E0.054
G1 X55.8 Y86.76 E0.036
G1 X56.16 Y87.12 E0.016
G1 X56.76 Y87.18 E0.019
G1 X57.15 E0.012
G1 X56.4 Y87.99 E0.034
G1 X58.17 E0.055
G1 X59.04 Y87.18 E0.037
G1 X60.81 E0.055
G1 X60.09 Y87.99 E0.034
G1 X61.86 E0.055
G1 X62.73 Y87.18 E0.037
G1 X64.5 E0.055
G1 X63.75 Y87.99 E0.034
G1 X65.52 E0.055
G1 X66.42 Y87.18 E0.038
G1 X68.16 E0.054
G1 X67.44 Y87.99 E0.034
G1 X69.21 E0.055
G1 X70.08 Y87.18 E0.037
G1 X71.85 E0.055
G1 X71.1 Y87.99 E0.034
G1 X72.84 Y88.02 E0.054
G1 X73.77 Y87.18 E0.039
G1 X75.54 E0.055
G1 X74.76 Y88.02 E0.036
G1 X76.53 E0.055
G1 X77.43 Y87.18 E0.038
G1 X79.2 E0.055
G1 X78.45 Y88.02 E0.035
G1 X80.19 E0.054
G1 X81.12 Y87.18 E0.039
G1 X82.89 E0.055
G1 X82.11 Y88.02 E0.036
G1 X83.88 E0.055
G1 X84.78 Y87.18 E0.038
G1 X86.55 E0.055
G1 X85.8 Y88.02 E0.035
G1 X87.54 E0.054
G1 X89.07 Y86.43 E0.069
G1 Y84.66 E0.055
G1 X88.23 Y85.44 E0.036
G1 Y83.67 E0.055
G1 X89.07 Y82.77 E0.038
G1 Y81.0 E0.055
G1 X88.23 Y81.78 E0.036
G1 Y80.01 E0.055
G1 X89.07 Y79.08 E0.039
G1 Y77.34 E0.054
G1 X88.23 Y78.09 E0.035
G1 Y76.32 E0.055
G1 X89.07 Y75.42 E0.038
G1 Y73.65 E0.055
G1 X88.23 Y74.43 E0.036
G1 Y72.66 E0.055
G1 X89.07 Y71.73 E0.039
G1 Y69.96 E0.055
G1 X88.23 Y70.74 E0.036
G1 Y68.97 E0.055
G1 X89.07 Y68.07 E0.038
G1 Y66.3 E0.055
G1 X88.23 Y67.05 E0.035
G1 Y65.31 E0.054
G1 X89.07 Y64.38 E0.039
G1 Y62.61 E0.055
G1 X88.23 Y63.39 E0.036
G1 Y61.62 E0.055
G1 X89.07 Y60.72 E0.038
G1 Y58.95 E0.055
G1 X88.23 Y59.7 E0.035
G1 Y57.93 E0.055
G1 X89.07 Y57.03 E0.038
G1 Y55.26 E0.055
G1 X88.23 Y56.04 E0.036
G1 Y54.27 E0.055
G1 X89.07 Y53.34 E0.039
G1 Y51.6 E0.054
G1 X88.23 Y52.35 E0.035
G1 X88.2 Y51.24 E0.035
G1 X87.9 Y50.91 E0.014
G1 X88.77 Y49.98 E0.04
G1 X87.0 E0.055
G1 X86.1 Y50.82 E0.038
G1 X84.33 E0.055
G1 X85.08 Y49.98 E0.035
G1 X83.31 E0.055
G1 X82.41 Y50.82 E0.038
G1 X80.64 E0.055
G1 X81.42 Y49.98 E0.036
G1 X79.65 E0.055
G1 X78.72 Y50.82 E0.039
G1 X76.98 E0.054
G1 X77.73 Y49.98 E0.035
G1 X75.96 E0.055
G1 X75.06 Y50.82 E0.038
G1 X73.77 Y50.79 E0.04
G1 Y50.34 E0.014
G1 X74.13 Y49.98 E0.016
G1 F5612.6
G1 E-3.118
G1 F2500.0
G1 X73.74 Y50.79 F15000.0
G1 F5612.6
G1 E3.118
G1 F2500.0
G1 F78.0
G1 E0.065
G1 F2500.0
G1 Y50.37 E0.013
G1 X73.23 Y50.82 E0.021
G1 X72.87 E0.011
G1 X73.59 Y50.01 E0.034
G1 X73.26 E0.01
G1 X72.36 Y50.82 E0.038
G1 X72.03 E0.01
G1 X72.75 Y50.01 E0.034
G1 X72.42 E0.01
G1 X71.52 Y50.82 E0.038
G1 X71.16 E0.011
G1 X71.91 Y50.01 E0.034
G1 X71.55 E0.011
G1 X70.68 Y50.82 E0.037
G1 X70.32 E0.011
G1 X71.07 Y50.01 E0.034
G1 X70.71 E0.011
G1 X69.81 Y50.82 E0.038
G1 X69.48 E0.01
G1 X70.2 Y50.01 E0.034
G1 X69.9 Y49.98 E0.009
G1 X68.97 Y50.82 E0.039
G1 X68.64 E0.01
G1 X69.39 Y49.98 E0.035
G1 X69.03 E0.011
G1 X68.13 Y50.82 E0.038
G1 X67.77 E0.011
G1 X68.55 Y49.98 E0.036
G1 X68.19 E0.011
G1 X67.29 Y50.82 E0.038
G1 X66.93 E0.011
G1 X67.68 Y49.98 E0.035
G1 X67.35 E0.01
G1 X66.48 Y50.76 E0.036
G1 Y50.43 E0.01
G1 X66.87 Y49.98 E0.019
G1 X66.48 E0.012
G1 F5612.6
G1 E-3.118
G1 F2500.0
G1 X63.75 Y50.58 F15000.0
G1 F5612.6
G1 E3.118
G1 F2500.0
G1 F78.0
G1 E0.065
G1 F2500.0
G1 X63.45 Y50.82 E0.012
G1 X63.12 E0.01
G1 X63.75 Y50.1 E0.03
G1 X63.72 Y50.01 E0.003
G1 X63.51 E0.007
G1 X62.61 Y50.82 E0.038
G1 X62.25 E0.011
G1 X63.0 Y50.01 E0.034
G1 X62.64 E0.011
G1 X61.77 Y50.82 E0.037
G1 X61.41 E0.011
G1 X62.16 Y50.01 E0.034
G1 X61.8 E0.011
G1 X60.9 Y50.82 E0.038
G1 X60.57 E0.01
G1 X61.29 Y50.01 E0.034
G1 X60.96 E0.01
G1 X60.06 Y50.82 E0.038
G1 X59.73 E0.01
G1 X60.45 Y50.01 E0.034
G1 X60.12 E0.01
G1 X59.22 Y50.82 E0.038
G1 X58.86 E0.011
G1 X59.64 Y49.98 E0.036
G1 X59.28 E0.011
G1 X58.38 Y50.82 E0.038
G1 X58.02 E0.011
G1 X58.77 Y49.98 E0.035
G1 X58.44 E0.01
G1 X57.51 Y50.82 E0.039
G1 X57.18 E0.01
G1 X57.93 Y49.98 E0.035
G1 X57.6 E0.01
G1 X56.67 Y50.82 E0.039
G1 X56.49 Y50.79 E0.006
G1 Y50.64 E0.005
G1 X57.09 Y49.98 E0.028
G1 X56.73 E0.011
G1 X56.49 Y50.22 E0.011
G1 F5612.6
G1 E-3.118
G1 F2500.0
;#!LAYER: 18/23
G92 E0
G1 Z4.5 F200.0
G1 X87.93 Y51.03 F15000.0
T0
G1 F5612.6
G1 E3.118
G1 F2500.0
G1 F78.0
G1 E0.065
G1 F2500.0
G1 X87.51 Y50.91 E0.014 F2250.0
G1 X56.25 Y50.94 E0.975
G1 X56.04 Y51.06 E0.008
G1 X55.89 Y51.45 E0.013
G1 X55.95 Y86.82 E1.103
G1 X56.1 Y87.0 E0.007
G1 X56.31 Y87.09 E0.007
G1 X87.72 E0.979
G1 X87.96 Y86.94 E0.009
G1 X88.11 Y86.58 E0.012
G1 X88.08 Y51.21 E1.103
G1 X87.93 Y51.03 E0.007
G1 X87.75 Y51.27 E0.009
G1 X87.51 Y51.21 E0.008
G1 X56.28 Y51.24 E0.974
G1 X56.19 Y51.48 E0.008
G1 X56.22 Y86.64 E1.096
G1 X56.37 Y86.79 E0.007
G1 X87.69 E0.977
G1 X87.84 Y86.37 E0.014
G1 X87.81 Y51.39 E1.091
G1 X87.75 Y51.27 E0.004
G1 F5612.6
G1 E-3.118
G1 F2500.0
G1 X87.93 Y51.03
G1 X54.84 Y88.08 F15000.0
G1 F5612.6
G1 E3.118
G1 F2500.0
G1 F78.0
G1 E0.065
G1 F2500.0
G1 Y49.89 E1.191 F2250.0
G1 X89.16 E1.07
G1 Y88.11 E1.192
G1 X54.84 Y88.08 E1.07
G1 X54.54 Y88.35 E0.013
G1 Y49.59 E1.209
G1 X89.46 Y49.62 E1.089
G1 Y88.41 E1.21
G1 X54.54 Y88.35 E1.089
G1 F5612.6
G1 E-3.118
G1 F2500.0
G1 X54.84 Y88.08
G1 X56.73 Y87.99 F15000.0
G1 F5612.6
G1 E3.118
G1 F2500.0
G1 F78.0
G1 E0.065
G1 F2500.0
G1 X54.93 Y86.1 E0.081
G1 Y84.36 E0.054
G1 X55.8 Y85.29 E0.04
G1 X55.83 Y86.79 E0.047
G1 X56.19 Y87.15 E0.016
G1 X57.75 Y87.18 E0.049
G1 X58.65 Y87.99 E0.038
G1 X60.42 E0.055
G1 X59.67 Y87.18 E0.034
G1 X61.44 E0.055
G1 X62.34 Y87.99 E0.038
G1 X64.08 E0.054
G1 X63.36 Y87.18 E0.034
G1 X65.13 E0.055
G1 X66.0 Y87.99 E0.037
G1 X67.77 E0.055
G1 X67.02 Y87.18 E0.034
G1 X68.79 E0.055
G1 X69.69 Y87.99 E0.038
G1 X71.43 E0.054
G1 X70.71 Y87.18 E0.034
G1 X72.48 E0.055
G1 X73.38 Y88.02 E0.038
G1 X75.15 E0.055
G1 X74.4 Y87.18 E0.035
G1 X76.14 E0.054
G1 X77.07 Y88.02 E0.039
G1 X78.84 E0.055
G1 X78.06 Y87.18 E0.036
G1 X79.83 E0.055
G1 X80.73 Y88.02 E0.038
G1 X82.5 E0.055
G1 X81.75 Y87.18 E0.035
G1 X83.49 E0.054
G1 X84.42 Y88.02 E0.039
G1 X86.19 E0.055
G1 X85.41 Y87.18 E0.036
G1 X87.18 E0.055
G1 X88.08 Y88.02 E0.038
G1 X89.07 Y87.99 E0.031
G1 Y87.24 E0.023
G1 X88.23 Y86.31 E0.039
G1 Y84.54 E0.055
G1 X89.07 Y85.32 E0.036
G1 Y83.55 E0.055
G1 X88.23 Y82.65 E0.038
G1 Y80.88 E0.055
G1 X89.07 Y81.63 E0.035
G1 Y79.89 E0.054
G1 X88.23 Y78.96 E0.039
G1 Y77.19 E0.055
G1 X89.07 Y77.97 E0.036
G1 Y76.2 E0.055
G1 X88.23 Y75.3 E0.038
G1 Y73.53 E0.055
G1 X89.07 Y74.28 E0.035
G1 Y72.51 E0.055
G1 X88.23 Y71.61 E0.038
G1 Y69.84 E0.055
G1 X89.07 Y70.62 E0.036
G1 Y68.85 E0.055
G1 X88.23 Y67.92 E0.039
G1 Y66.18 E0.054
G1 X89.07 Y66.93 E0.035
G1 Y65.16 E0.055
G1 X88.23 Y64.26 E0.038
G1 Y62.49 E0.055
G1 X89.07 Y63.27 E0.036
G1 Y61.5 E0.055
G1 X88.23 Y60.57 E0.039
G1 Y58.8 E0.055
G1 X89.07 Y59.58 E0.036
G1 Y57.81 E0.055
G1 X88.23 Y56.91 E0.038
G1 Y55.14 E0.055
G1 X89.07 Y55.89 E0.035
G1 Y54.15 E0.054
G1 X88.23 Y53.22 E0.039
G1 Y51.45 E0.055
G1 X89.07 Y52.23 E0.036
G1 Y50.46 E0.055
G1 X88.53 Y49.98 E0.023
G1 X86.76 E0.055
G1 X87.54 Y50.82 E0.036
G1 X85.77 E0.055
G1 X84.84 Y49.98 E0.039
G1 X83.1 E0.054
G1 X83.85 Y50.82 E0.035
G1 X82.08 E0.055
G1 X81.18 Y49.98 E0.038
G1 X79.41 E0.055
G1 X80.19 Y50.82 E0.036
G1 X78.42 E0.055
G1 X77.49 Y49.98 E0.039
G1 X75.72 E0.055
G1 X76.5 Y50.82 E0.036
G1 X74.73 E0.055
G1 X73.83 Y49.98 E0.038
G1 X72.06 E0.055
G1 X72.81 Y50.82 E0.035
G1 X71.07 E0.054
G1 X70.14 Y49.98 E0.039
G1 X68.37 E0.055
G1 X69.15 Y50.82 E0.036
G1 X67.38 E0.055
G1 X66.48 Y49.98 E0.038
G1 X64.71 E0.055
G1 X65.46 Y50.82 E0.035
G1 X63.69 E0.055
G1 X62.79 Y49.98 E0.038
G1 X61.02 E0.055
G1 X61.8 Y50.82 E0.036
G1 X60.03 E0.055
G1 X59.1 Y49.98 E0.039
G1 X57.36 E0.054
G1 X58.11 Y50.82 E0.035
G1 X56.34 E0.055
G1 X55.44 Y49.98 E0.038
G1 X54.93 Y50.01 E0.016
G1 Y51.24 E0.038
G1 X55.8 Y52.17 E0.04
G1 Y53.94 E0.055
G1 X54.93 Y53.16 E0.036
G1 Y54.93 E0.055
G1 X55.8 Y55.86 E0.04
G1 Y57.63 E0.055
G1 X54.93 Y56.82 E0.037
G1 Y58.59 E0.055
G1 X55.8 Y59.55 E0.04
G1 Y61.29 E0.054
G1 X54.93 Y60.51 E0.036
G1 Y62.28 E0.055
G1 X55.8 Y63.21 E0.04
G1 Y64.98 E0.055
G1 X54.93 Y64.17 E0.037
G1 Y65.94 E0.055
G1 X55.8 Y66.9 E0.04
G1 Y68.64 E0.054
G1 X54.93 Y67.86 E0.036
G1 Y69.63 E0.055
G1 X55.8 Y70.56 E0.04
G1 Y72.33 E0.055
G1 X54.93 Y71.55 E0.036
G1 Y73.29 E0.054
G1 X55.8 Y74.25 E0.04
G1 Y76.02 E0.055
G1 X54.93 Y75.21 E0.037
G1 Y76.98 E0.055
G1 X55.8 Y77.91 E0.04
G1 Y79.68 E0.055
G1 X54.93 Y78.9 E0.036
G1 Y80.64 E0.054
G1 X55.8 Y81.6 E0.04
G1 Y83.37 E0.055
G1 X54.93 Y82.5 E0.038
G1 F5612.6
G1 E-3.118
G1 F2500.0
;#!LAYER: 19/23
G92 E0
G1 Z4.75 F200.0
G1 X87.93 Y51.03 F15000.0
T0
G1 F5612.6
G1 E3.118
G1 F2500.0
G1 F78.0
G1 E0.065
G1 F2500.0
G1 X87.51 Y50.91 E0.014 F2250.0
G1 X56.25 Y50.94 E0.975
G1 X56.04 Y51.06 E0.008
G1 X55.89 Y51.45 E0.013
G1 X55.95 Y86.82 E1.103
G1 X56.1 Y87.0 E0.007
G1 X56.31 Y87.09 E0.007
G1 X87.72 E0.979
G1 X87.96 Y86.94 E0.009
G1 X88.11 Y86.58 E0.012
G1 X88.08 Y51.21 E1.103
G1 X87.93 Y51.03 E0.007
G1 X87.75 Y51.27 E0.009
G1 X87.51 Y51.21 E0.008
G1 X56.28 Y51.24 E0.974
G1 X56.19 Y51.48 E0.008
G1 X56.22 Y86.64 E1.096
G1 X56.37 Y86.79 E0.007
G1 X87.69 E0.977
G1 X87.84 Y86.37 E0.014
G1 X87.81 Y51.39 E1.091
G1 X87.75 Y51.27 E0.004
G1 F5612.6
G1 E-3.118
G1 F2500.0
G1 X87.93 Y51.03
G1 X54.84 Y88.08 F15000.0
G1 F5612.6
G1 E3.118
G1 F2500.0
G1 F78.0
G1 E0.065
G1 F2500.0
G1 Y49.89 E1.191 F2250.0
G1 X89.16 E1.07
G1 Y88.11 E1.192
G1 X54.84 Y88.08 E1.07
G1 X54.54 Y88.35 E0.013
G1 Y49.59 E1.209
G1 X89.46 Y49.62 E1.089
G1 Y88.41 E1.21
G1 X54.54 Y88.35 E1.089
G1 F5612.6
G1 E-3.118
G1 F2500.0
G1 X54.84 Y88.08
G1 X54.93 Y51.69 F15000.0
G1 F5612.6
G1 E3.118
G1 F2500.0
G1 F78.0
G1 E0.065
G1 F2500.0
G1 X56.73 Y49.98 E0.077
G1 X58.5 E0.055
G1 X57.57 Y50.82 E0.039
G1 X56.16 Y50.85 E0.044
G1 X55.83 Y51.21 E0.015
G1 X55.8 Y51.81 E0.019
G1 Y52.68 E0.027
G1 X54.93 Y53.61 E0.04
G1 Y55.38 E0.055
G1 X55.8 Y54.57 E0.037
G1 Y56.34 E0.055
G1 X54.93 Y57.3 E0.04
G1 Y59.07 E0.055
G1 X55.8 Y58.26 E0.037
G1 Y60.03 E0.055
G1 X54.93 Y60.96 E0.04
G1 Y62.73 E0.055
G1 X55.8 Y61.95 E0.036
G1 Y63.69 E0.054
G1 X54.93 Y64.65 E0.04
G1 Y66.42 E0.055
G1 X55.8 Y65.61 E0.037
G1 Y67.38 E0.055
G1 X54.93 Y68.31 E0.04
G1 Y70.08 E0.055
G1 X55.8 Y69.3 E0.036
G1 Y71.04 E0.054
G1 X54.93 Y72.0 E0.04
G1 Y73.77 E0.055
G1 X55.8 Y72.96 E0.037
G1 Y74.73 E0.055
G1 X54.93 Y75.69 E0.04
G1 Y77.43 E0.054
