; generated by Slic3r 1.2.9 on 2018-04-26 at 10:34:13

; external perimeters extrusion width = 0.40mm
; perimeters extrusion width = 0.40mm
; infill extrusion width = 0.40mm
; solid infill extrusion width = 0.40mm
; top infill extrusion width = 0.40mm

M107
M83
T0
M116
G21 ; set units to millimeters
G90 ; use absolute coordinates
M83 ; use relative distances for extrusion
G1 E-3.50000 F1500.00000
G1 Z0.400 F15000.000
G1 X27.336 Y0.000 F15000.000
G1 Z0.300 F15000.000
G1 E3.50000 F1500.00000
G1 X27.336 Y16.979 E1.30852 F960.000
G1 X26.941 Y18.626 E0.13052
G1 X26.271 Y19.550 E0.08796
G1 X16.300 Y29.521 E1.08668
G1 X14.856 Y30.406 E0.13052
G1 X13.729 Y30.586 E0.08796
G1 X-13.749 Y30.586 E2.11760
G1 X-15.068 Y30.517 E0.10181
G1 X-15.473 Y30.472 E0.03142
G1 X-16.573 Y30.285 E0.08599
G1 X-16.971 Y30.194 E0.03142
G1 X-18.043 Y29.885 E0.08599
G1 X-18.428 Y29.750 E0.03142
G1 X-19.458 Y29.323 E0.08599
G1 X-19.826 Y29.147 E0.03142
G1 X-20.802 Y28.607 E0.08599
G1 X-21.148 Y28.390 E0.03142
G1 X-22.058 Y27.744 E0.08599
G1 X-22.376 Y27.490 E0.03142
G1 X-23.208 Y26.747 E0.08599
G1 X-23.497 Y26.458 E0.03142
G1 X-24.240 Y25.626 E0.08599
G1 X-24.494 Y25.307 E0.03142
G1 X-25.140 Y24.398 E0.08599
G1 X-25.357 Y24.052 E0.03142
G1 X-25.897 Y23.076 E0.08599
G1 X-26.073 Y22.708 E0.03142
G1 X-26.500 Y21.678 E0.08599
G1 X-26.635 Y21.293 E0.03142
G1 X-26.944 Y20.221 E0.08599
G1 X-27.035 Y19.823 E0.03142
G1 X-27.222 Y18.723 E0.08599
G1 X-27.267 Y18.318 E0.03142
G1 X-27.336 Y16.999 E0.10181
G1 X-27.336 Y-26.950 E3.38692
G1 X-26.941 Y-28.597 E0.13052
G1 X-25.843 Y-29.887 E0.13052
G1 X-23.700 Y-30.586 E0.17373
G1 X23.700 Y-30.586 E3.65290
G1 X25.347 Y-30.191 E0.13052
G1 X26.637 Y-29.093 E0.13052 F960.000
G1 X27.336 Y-26.950 E0.17373
G1 X27.336 Y-0.060 E2.07229
G1 X25.925 Y-0.060 F15000.000
G1 X25.925 Y17.422 E1.34724 F960.000
G1 X25.586 Y18.239 E0.06821
G1 X14.989 Y28.836 E1.15488
G1 X14.172 Y29.175 E0.06821
G1 X-13.780 Y29.175 E2.15410
G1 X-15.175 Y29.091 E0.10773
G1 X-16.520 Y28.855 E0.10522
G1 X-17.830 Y28.471 E0.10522
G1 X-18.976 Y27.996 E0.09561
G1 X-20.174 Y27.342 E0.10522
G1 X-21.292 Y26.557 E0.10522
G1 X-22.315 Y25.653 E0.10522
G1 X-23.230 Y24.640 E0.10522
G1 X-24.025 Y23.530 E0.10522
G1 X-24.746 Y22.226 E0.11482
G1 X-25.262 Y20.962 E0.10522
G1 X-25.633 Y19.648 E0.10522
G1 X-25.855 Y18.301 E0.10522
G1 X-25.925 Y17.030 E0.09812
G1 X-25.925 Y-27.871 E3.46034
G1 X-24.621 Y-29.175 E0.14203
G1 X24.621 Y-29.175 E3.79493
G1 X25.925 Y-27.871 E0.14203
G1 X25.925 Y-0.120 E2.13868 F960.000
G1 X25.289 Y-0.120 F15000.000
G1 X25.289 Y17.295 E1.34212 F960.000
G1 X25.047 Y17.879 E0.04872
G1 X14.629 Y28.297 E1.13540
G1 X14.045 Y28.539 E0.04872
G1 X-13.771 Y28.539 E2.14367
G1 X-15.086 Y28.461 E0.10155
G1 X-16.361 Y28.240 E0.09972
G1 X-17.603 Y27.877 E0.09972
G1 X-18.716 Y27.416 E0.09286
G1 X-19.851 Y26.794 E0.09972
G1 X-20.910 Y26.049 E0.09972
G1 X-21.878 Y25.191 E0.09972
G1 X-22.744 Y24.229 E0.09972
G1 X-23.497 Y23.177 E0.09972
G1 X-24.166 Y21.966 E0.10658
G1 X-24.656 Y20.769 E0.09972
G1 X-25.010 Y19.524 E0.09972
G1 X-25.221 Y18.248 E0.09972
G1 X-25.289 Y17.021 E0.09468
G1 X-25.289 Y-27.608 E3.43936
G1 X-24.358 Y-28.539 E0.10145
G1 X24.358 Y-28.539 E3.75435
G1 X25.289 Y-27.608 E0.10145 F960.000
G1 X25.289 Y-0.180 E2.11377
G1 X24.653 Y-0.180 F15000.000
G1 X24.653 Y17.169 E1.33700 F960.000
G1 X24.508 Y17.519 E0.02923
G1 X14.269 Y27.758 E1.11591
G1 X13.919 Y27.903 E0.02923
G1 X-13.762 Y27.903 E2.13324
G1 X-14.997 Y27.832 E0.09537
G1 X-16.202 Y27.624 E0.09423
G1 X-17.376 Y27.283 E0.09423
G1 X-18.457 Y26.835 E0.09011
G1 X-19.528 Y26.246 E0.09423
G1 X-20.527 Y25.541 E0.09423
G1 X-21.441 Y24.729 E0.09423
G1 X-22.258 Y23.819 E0.09423
G1 X-22.968 Y22.824 E0.09423
G1 X-23.585 Y21.707 E0.09835
G1 X-24.050 Y20.576 E0.09423
G1 X-24.386 Y19.400 E0.09423
G1 X-24.588 Y18.194 E0.09423
G1 X-24.653 Y17.012 E0.09125
G1 X-24.653 Y-27.345 E3.41839
G1 X-24.095 Y-27.903 E0.06087
G1 X24.095 Y-27.903 E3.71377
G1 X24.653 Y-27.345 E0.06087
G1 X24.653 Y-0.240 E2.08885 F960.000
G1 X24.018 Y-0.240 F15000.000
G1 X24.018 Y17.043 E1.33188 F960.000
G1 X23.969 Y17.159 E0.00974
G1 X13.909 Y27.219 E1.09642
G1 X13.793 Y27.268 E0.00974
G1 X-13.753 Y27.268 E2.12281
G1 X-14.908 Y27.202 E0.08919
G1 X-16.043 Y27.008 E0.08874
G1 X-17.150 Y26.689 E0.08874
G1 X-18.213 Y26.247 E0.08874
G1 X-19.220 Y25.689 E0.08874
G1 X-20.145 Y25.033 E0.08736
G1 X-21.004 Y24.267 E0.08874
G1 X-21.783 Y23.395 E0.09011
G1 X-22.449 Y22.455 E0.08874
G1 X-23.005 Y21.447 E0.08874
G1 X-23.444 Y20.383 E0.08874
G1 X-23.762 Y19.276 E0.08874
G1 X-23.954 Y18.141 E0.08874
G1 X-24.018 Y17.003 E0.08781
G1 X-24.018 Y-27.082 E3.39741
G1 X-23.832 Y-27.268 E0.02029
G1 X23.832 Y-27.268 E3.67319
G1 X24.018 Y-27.082 E0.02029 F960.000
G1 X24.018 Y-0.300 E2.06394
G1 E-3.50000 F1500.00000
G1 Z0.700 F15000.000
G1 X0.279 Y7.413 F15000.000
G1 Z0.300 F15000.000
G1 E3.50000 F1500.00000
G1 X0.495 Y8.076 E0.05370 F720.000
G1 X0.677 Y9.030 E0.07488
G1 X0.738 Y10.000 E0.07488
G1 X0.677 Y10.970 E0.07488
G1 X0.495 Y11.924 E0.07488
G1 X0.194 Y12.848 E0.07489
G1 X-0.219 Y13.728 E0.07488
G1 X-0.740 Y14.548 E0.07488
G1 X-1.359 Y15.297 E0.07488
G1 X-2.068 Y15.962 E0.07488
G1 X-2.854 Y16.533 E0.07488
G1 X-3.705 Y17.001 E0.07488
G1 X-4.609 Y17.359 E0.07488
G1 X-5.550 Y17.601 E0.07488
G1 X-6.514 Y17.722 E0.07489
G1 X-7.486 Y17.722 E0.07488
G1 X-8.450 Y17.601 E0.07488
G1 X-9.391 Y17.359 E0.07489
G1 X-10.295 Y17.001 E0.07488
G1 X-11.146 Y16.533 E0.07488
G1 X-11.932 Y15.962 E0.07488
G1 X-12.641 Y15.297 E0.07488
G1 X-13.260 Y14.548 E0.07489
G1 X-13.781 Y13.728 E0.07489
G1 X-14.194 Y12.848 E0.07488
G1 X-14.931 Y10.580 E0.18379
G1 X-14.701 Y10.580 E0.01773
G1 X-14.736 Y10.020 E0.04325
G1 X-14.677 Y9.032 E0.07633
G1 X-14.495 Y8.076 E0.07499
G1 X-14.194 Y7.150 E0.07499
G1 X-13.770 Y6.255 E0.07633
G1 X-13.260 Y5.452 E0.07332
G1 X-12.641 Y4.703 E0.07488
G1 X-11.932 Y4.038 E0.07488
G1 X-11.146 Y3.467 E0.07488
G1 X-10.295 Y2.999 E0.07489
G1 X-9.391 Y2.641 E0.07488
G1 X-8.450 Y2.399 E0.07489
G1 X-7.486 Y2.278 E0.07488
G1 X-6.514 Y2.278 E0.07488 F720.000
G1 X-5.550 Y2.399 E0.07488
G1 X-4.608 Y2.641 E0.07499
G1 X-3.688 Y3.009 E0.07633
G1 X-2.854 Y3.467 E0.07332
G1 X-2.068 Y4.038 E0.07488
G1 X-1.359 Y4.703 E0.07489
G1 X-0.740 Y5.452 E0.07488
G1 X-0.219 Y6.272 E0.07488
G1 X0.194 Y7.152 E0.07488
G1 X0.261 Y7.356 E0.01656
G1 X-0.344 Y7.552 F15000.000
G1 X-0.122 Y8.234 E0.05524 F720.000
G1 X0.045 Y9.110 E0.06872
G1 X0.101 Y10.000 E0.06872
G1 X0.045 Y10.890 E0.06872
G1 X-0.122 Y11.766 E0.06872
G1 X-0.398 Y12.614 E0.06872
G1 X-0.778 Y13.421 E0.06872
G1 X-1.255 Y14.174 E0.06872
G1 X-1.824 Y14.861 E0.06872
G1 X-2.474 Y15.471 E0.06872
G1 X-3.195 Y15.995 E0.06872
G1 X-3.977 Y16.425 E0.06872
G1 X-4.806 Y16.753 E0.06872
G1 X-5.669 Y16.975 E0.06872
G1 X-6.554 Y17.087 E0.06872
G1 X-7.446 Y17.087 E0.06872
G1 X-8.331 Y16.975 E0.06872
G1 X-9.194 Y16.753 E0.06872
G1 X-10.023 Y16.425 E0.06872
G1 X-10.805 Y15.995 E0.06872
G1 X-11.526 Y15.471 E0.06872
G1 X-12.176 Y14.861 E0.06872
G1 X-12.745 Y14.174 E0.06872
G1 X-13.222 Y13.421 E0.06872
G1 X-13.602 Y12.614 E0.06872
G1 X-14.056 Y11.216 E0.11329
G1 X-13.983 Y11.216 E0.00569
G1 X-14.045 Y10.890 E0.02557
G1 X-14.100 Y10.019 E0.06723
G1 X-14.045 Y9.111 E0.07017
G1 X-13.878 Y8.234 E0.06876
G1 X-13.602 Y7.386 E0.06876
G1 X-13.212 Y6.563 E0.07017
G1 X-12.745 Y5.826 E0.06723
G1 X-12.176 Y5.139 E0.06872
G1 X-11.526 Y4.529 E0.06872
G1 X-10.805 Y4.005 E0.06872
G1 X-10.023 Y3.575 E0.06872
G1 X-9.194 Y3.247 E0.06872
G1 X-8.331 Y3.025 E0.06872
G1 X-7.446 Y2.913 E0.06872
G1 X-6.554 Y2.913 E0.06872 F720.000
G1 X-5.669 Y3.025 E0.06872
G1 X-4.805 Y3.247 E0.06876
G1 X-3.960 Y3.584 E0.07017
G1 X-3.195 Y4.005 E0.06723
G1 X-2.474 Y4.529 E0.06872
G1 X-1.824 Y5.139 E0.06872
G1 X-1.255 Y5.826 E0.06872
G1 X-0.778 Y6.579 E0.06872
G1 X-0.398 Y7.386 E0.06872
G1 X-0.362 Y7.495 E0.00886
G1 X0.047 Y7.636 F15000.000
G1 X1.824 Y25.964 F15000.000
G1 X-13.721 Y25.964 E1.19802 F720.000
G1 X-14.754 Y25.906 E0.07970
G1 X-15.744 Y25.738 E0.07746
G1 X-16.710 Y25.460 E0.07746
G1 X-17.639 Y25.075 E0.07746
G1 X-18.518 Y24.589 E0.07746
G1 X-19.338 Y24.007 E0.07746
G1 X-20.088 Y23.338 E0.07746
G1 X-20.757 Y22.588 E0.07746
G1 X-21.339 Y21.768 E0.07746
G1 X-21.825 Y20.889 E0.07746
G1 X-22.210 Y19.960 E0.07746
G1 X-22.488 Y18.994 E0.07746
G1 X-22.656 Y18.004 E0.07746
G1 X-22.714 Y16.971 E0.07970
G1 X-22.714 Y-25.964 E3.30883
G1 X22.714 Y-25.964 E3.50099
G1 X22.714 Y16.571 E3.27801
G1 X13.321 Y25.964 E1.02375 F720.000
G1 X1.884 Y25.964 E0.88136
G1 X1.884 Y26.600 F15000.000
G1 X-13.739 Y26.600 E1.20401 F720.000
G1 X-14.825 Y26.539 E0.08383
G1 X-15.886 Y26.359 E0.08296
G1 X-16.920 Y26.061 E0.08296
G1 X-17.915 Y25.649 E0.08296
G1 X-18.857 Y25.128 E0.08296
G1 X-19.735 Y24.505 E0.08296
G1 X-20.538 Y23.788 E0.08296
G1 X-21.255 Y22.985 E0.08296
G1 X-21.878 Y22.107 E0.08296
G1 X-22.399 Y21.165 E0.08296
G1 X-22.811 Y20.170 E0.08296
G1 X-23.109 Y19.136 E0.08296
G1 X-23.289 Y18.075 E0.08296
G1 X-23.350 Y16.989 E0.08383
G1 X-23.350 Y-26.600 E3.35919
G1 X23.350 Y-26.600 E3.59896
G1 X23.350 Y16.834 E3.34729
G1 X13.584 Y26.600 E1.06433 F720.000
G1 X1.944 Y26.600 E0.89703
G1 X1.684 Y26.254 F15000.000
G1 X-4.445 Y25.579 F15000.000
G1 X-22.329 Y7.695 E1.95711 F960.000
G1 X-22.329 Y8.598 E0.06984
G1 X-5.348 Y25.579 E1.85834
G1 X-6.250 Y25.579 E0.06984
G1 X-22.329 Y9.500 E1.75956
G1 X-22.329 Y10.403 E0.06984
G1 X-7.153 Y25.579 E1.66079
G1 X-8.055 Y25.579 E0.06984
G1 X-22.329 Y11.305 E1.56202
G1 X-22.329 Y12.208 E0.06984
G1 X-8.958 Y25.579 E1.46325
G1 X-9.860 Y25.579 E0.06984
G1 X-22.329 Y13.110 E1.36447
G1 X-22.329 Y14.013 E0.06984
G1 X-10.763 Y25.579 E1.26570
G1 X-11.666 Y25.579 E0.06984
G1 X-22.329 Y14.916 E1.16693
G1 X-22.329 Y15.818 E0.06984
G1 X-12.568 Y25.579 E1.06815
G1 X-13.471 Y25.579 E0.06984
G1 X-22.329 Y16.721 E0.96938
G1 X-22.281 Y17.671 E0.07363
G1 X-14.421 Y25.531 E0.86017
G1 X-15.489 Y25.366 E0.08365
G1 X-22.116 Y18.739 E0.72514
G1 X-21.675 Y20.082 E0.10938
G1 X-16.832 Y24.925 E0.52994
G1 X-19.319 Y23.341 F15000.000
G1 X-20.091 Y22.569 E0.08458 F960.000
G1 X-14.098 Y14.121 F15000.000
G1 X-22.329 Y5.890 E0.90074 F960.000
G1 X-22.329 Y6.792 E0.06984
G1 X-3.542 Y25.579 E2.05588
G1 X-2.640 Y25.579 E0.06984
G1 X-11.161 Y17.058 E0.93247
G1 X-9.565 Y17.751 F15000.000
G1 X-1.737 Y25.579 E0.85661 F960.000
G1 X-0.835 Y25.579 E0.06984
G1 X-8.400 Y18.013 E0.82791
G1 X-7.403 Y18.108 E0.07749
G1 X0.068 Y25.579 E0.81759
G1 X0.971 Y25.579 E0.06984
G1 X-6.514 Y18.095 E0.81901
G1 X-5.712 Y17.994 E0.06250
G1 X1.873 Y25.579 E0.83009
G1 X2.776 Y25.579 E0.06984
G1 X-4.981 Y17.822 E0.84885
G1 X-4.295 Y17.606 E0.05568
G1 X3.678 Y25.579 E0.87252
G1 X4.581 Y25.579 E0.06984
G1 X-3.648 Y17.350 E0.90053
G1 X-3.063 Y17.033 E0.05152
G1 X5.483 Y25.579 E0.93525
G1 X6.386 Y25.579 E0.06984
G1 X-2.504 Y16.689 E0.97285
G1 X-1.981 Y16.309 E0.05000
G1 X7.289 Y25.579 E1.01442
G1 X8.191 Y25.579 E0.06984
G1 X-1.503 Y15.884 E1.06093
G1 X-1.047 Y15.438 E0.04939
G1 X9.094 Y25.579 E1.10978
G1 X9.996 Y25.579 E0.06984
G1 X-0.639 Y14.944 E1.16383
G1 X-0.262 Y14.418 E0.05005
G1 X10.899 Y25.579 E1.22137
G1 X11.802 Y25.579 E0.06984
G1 X0.089 Y13.866 E1.28179
G1 X0.380 Y13.255 E0.05240
G1 X12.704 Y25.579 E1.34869
G1 X13.409 Y25.382 E0.05667
G1 X0.640 Y12.612 E1.39745
G1 X0.861 Y11.931 E0.05543
G1 X13.861 Y24.930 E1.42261
G1 X14.312 Y24.479 E0.04939
G1 X1.007 Y11.174 E1.45603
G1 X1.093 Y10.358 E0.06351
G1 X14.763 Y24.028 E1.49597
G1 X15.215 Y23.576 E0.04939
G1 X1.099 Y9.461 E1.54475
G1 X0.986 Y8.445 E0.07908
G1 X15.666 Y23.125 E1.60652
G1 X16.117 Y22.674 E0.04939
G1 X0.677 Y7.234 E1.68967
G1 X-0.123 Y5.531 F15000.000
G1 X16.568 Y22.223 E1.82657 F960.000
G1 X-2.557 Y3.097 F15000.000
G1 X-22.329 Y-16.675 E2.16371 F960.000
G1 X-22.329 Y-17.577 E0.06984
G1 X17.020 Y21.771 E4.30606
G1 X17.471 Y21.320 E0.04939
G1 X-22.329 Y-18.480 E4.35545
G1 X-22.329 Y-19.383 E0.06984
G1 X17.922 Y20.869 E4.40484
G1 X18.374 Y20.417 E0.04939
G1 X-22.329 Y-20.285 E4.45422
G1 X-22.329 Y-21.188 E0.06984
G1 X18.825 Y19.966 E4.50361
G1 X19.276 Y19.515 E0.04939
G1 X-22.329 Y-22.090 E4.55299
G1 X-22.329 Y-22.993 E0.06984
G1 X19.727 Y19.064 E4.60238
G1 X20.179 Y18.612 E0.04939
G1 X-22.329 Y-23.895 E4.65177
G1 X-22.329 Y-24.798 E0.06984
G1 X20.630 Y18.161 E4.70115
G1 X21.081 Y17.710 E0.04939
G1 X-22.207 Y-25.579 E4.73723
G1 X-21.305 Y-25.579 E0.06984
G1 X21.533 Y17.258 E4.68784
G1 X21.984 Y16.807 E0.04939
G1 X-20.402 Y-25.579 E4.63845
G1 X-19.500 Y-25.579 E0.06984
G1 X22.329 Y16.250 E4.57744
G1 X22.329 Y15.347 E0.06984
G1 X-18.597 Y-25.579 E4.47866
G1 X-17.694 Y-25.579 E0.06984
G1 X22.329 Y14.444 E4.37989
G1 X22.329 Y13.542 E0.06984
G1 X-16.792 Y-25.579 E4.28112
G1 X-15.889 Y-25.579 E0.06984
G1 X22.329 Y12.639 E4.18234
G1 X22.329 Y11.737 E0.06984
G1 X-14.987 Y-25.579 E4.08357
G1 X-14.084 Y-25.579 E0.06984
G1 X22.329 Y10.834 E3.98480
G1 X22.329 Y9.931 E0.06984
G1 X-13.181 Y-25.579 E3.88603
G1 X-12.279 Y-25.579 E0.06984
G1 X22.329 Y9.029 E3.78725
G1 X22.329 Y8.126 E0.06984
G1 X-11.376 Y-25.579 E3.68848
G1 X-10.474 Y-25.579 E0.06984
G1 X22.329 Y7.224 E3.58971
G1 X22.329 Y6.321 E0.06984
G1 X-9.571 Y-25.579 E3.49094
G1 X-8.669 Y-25.579 E0.06984
G1 X22.329 Y5.419 E3.39216
G1 X22.329 Y4.516 E0.06984
G1 X-7.766 Y-25.579 E3.29339
G1 X-6.863 Y-25.579 E0.06984
G1 X22.329 Y3.613 E3.19462
G1 X22.329 Y2.711 E0.06984
G1 X-5.961 Y-25.579 E3.09584
G1 X-5.058 Y-25.579 E0.06984
G1 X22.329 Y1.808 E2.99707
G1 X22.329 Y0.906 E0.06984
G1 X-4.156 Y-25.579 E2.89830
G1 X-3.253 Y-25.579 E0.06984
G1 X22.329 Y0.003 E2.79953
G1 X22.329 Y-0.900 E0.06984
G1 X-2.350 Y-25.579 E2.70075
G1 X-1.448 Y-25.579 E0.06984
G1 X22.329 Y-1.802 E2.60198
G1 X22.329 Y-2.705 E0.06984
G1 X-0.545 Y-25.579 E2.50321
G1 X0.357 Y-25.579 E0.06984
G1 X22.329 Y-3.607 E2.40443
G1 X22.329 Y-4.510 E0.06984
G1 X1.260 Y-25.579 E2.30566
G1 X2.162 Y-25.579 E0.06984
G1 X22.329 Y-5.412 E2.20689
G1 X22.329 Y-6.315 E0.06984
G1 X3.065 Y-25.579 E2.10812
G1 X3.968 Y-25.579 E0.06984
G1 X22.329 Y-7.218 E2.00934
G1 X22.329 Y-8.120 E0.06984
G1 X4.870 Y-25.579 E1.91057
G1 X5.773 Y-25.579 E0.06984
G1 X22.329 Y-9.023 E1.81180
G1 X22.329 Y-9.925 E0.06984
G1 X6.675 Y-25.579 E1.71303
G1 X7.578 Y-25.579 E0.06984
G1 X22.329 Y-10.828 E1.61425
G1 X22.329 Y-11.731 E0.06984
G1 X8.481 Y-25.579 E1.51548
G1 X9.383 Y-25.579 E0.06984
G1 X22.329 Y-12.633 E1.41671
G1 X22.329 Y-13.536 E0.06984
G1 X10.286 Y-25.579 E1.31793
G1 X11.188 Y-25.579 E0.06984
G1 X22.329 Y-14.438 E1.21916
G1 X22.329 Y-15.341 E0.06984
G1 X12.091 Y-25.579 E1.12039
G1 X12.993 Y-25.579 E0.06984
G1 X22.329 Y-16.243 E1.02162
G1 X22.329 Y-17.146 E0.06984
G1 X13.896 Y-25.579 E0.92284
G1 X14.799 Y-25.579 E0.06984
G1 X22.329 Y-18.049 E0.82407
G1 X22.329 Y-18.951 E0.06984
G1 X15.701 Y-25.579 E0.72530
G1 X16.604 Y-25.579 E0.06984
G1 X22.329 Y-19.854 E0.62653
G1 X22.329 Y-20.756 E0.06984
G1 X17.506 Y-25.579 E0.52775
G1 X18.409 Y-25.579 E0.06984
G1 X22.329 Y-21.659 E0.42898
G1 X22.329 Y-22.562 E0.06984
G1 X19.312 Y-25.579 E0.33021
G1 X20.214 Y-25.579 E0.06984
G1 X22.329 Y-23.464 E0.23143
G1 X22.329 Y-24.367 E0.06984
G1 X21.117 Y-25.579 E0.13266
G1 X22.019 Y-25.579 E0.06984
G1 X22.329 Y-25.269 E0.03389
G1 X-4.253 Y2.304 F15000.000
G1 X-22.329 Y-15.772 E1.97812 F960.000
G1 X-22.329 Y-14.870 E0.06984
G1 X-5.454 Y2.005 E1.84664
G1 X-6.470 Y1.892 E0.07905
G1 X-22.329 Y-13.967 E1.73553
G1 X-22.329 Y-13.064 E0.06984
G1 X-7.372 Y1.892 E1.63676
G1 X-8.175 Y1.992 E0.06259
G1 X-22.329 Y-12.162 E1.54892
G1 X-22.329 Y-11.259 E0.06984
G1 X-8.918 Y2.152 E1.46763
G1 X-9.614 Y2.358 E0.05620
G1 X-22.329 Y-10.357 E1.39142
G1 X-22.329 Y-9.454 E0.06984
G1 X-10.261 Y2.614 E1.32066
G1 X-10.855 Y2.922 E0.05181
G1 X-22.329 Y-8.552 E1.25562
G1 X-22.329 Y-7.649 E0.06984
G1 X-11.423 Y3.257 E1.19353
G1 X-11.945 Y3.637 E0.05000
G1 X-22.329 Y-6.746 E1.13632
G1 X-22.329 Y-5.844 E0.06984
G1 X-12.431 Y4.054 E1.08317
G1 X-12.895 Y4.493 E0.04941
G1 X-22.329 Y-4.941 E1.03238
G1 X-22.329 Y-4.039 E0.06984
G1 X-13.304 Y4.987 E0.98766
G1 X-13.689 Y5.504 E0.04992
G1 X-22.329 Y-3.136 E0.94552
G1 X-22.329 Y-2.233 E0.06984
G1 X-14.039 Y6.056 E0.90717
G1 X-14.338 Y6.660 E0.05212
G1 X-22.329 Y-1.331 E0.87444
G1 X-22.329 Y-0.428 E0.06984
