; generated by Slic3r 1.2.9 on 2019-04-08 at 17:33:32

; external perimeters extrusion width = 0.40mm
; perimeters extrusion width = 0.40mm
; infill extrusion width = 0.40mm
; solid infill extrusion width = 0.40mm
; top infill extrusion width = 0.40mm

M107
M83
T0
M116
G21 ; set units to millimeters
G90 ; use absolute coordinates
M83 ; use relative distances for extrusion
G1 E-3.50000 F1500.00000
G1 Z0.400 F15000.000
G1 X30.606 Y-1.846 F15000.000
G1 Z0.300 F15000.000
G1 E3.50000 F1500.00000
G1 X30.704 Y-0.219 E0.12563 F960.000
G1 X30.704 Y0.219 E0.03374
G1 X30.508 Y3.476 E0.25147
G1 X30.455 Y3.911 E0.03374
G1 X29.869 Y7.120 E0.25146
G1 X29.769 Y7.529 E0.03238
G1 X28.795 Y10.665 E0.25306
G1 X28.641 Y11.071 E0.03350
G1 X27.306 Y14.048 E0.25146
G1 X27.103 Y14.436 E0.03374
G1 X25.419 Y17.231 E0.25146
G1 X25.171 Y17.592 E0.03374
G1 X23.164 Y20.164 E0.25146
G1 X22.874 Y20.493 E0.03374
G1 X20.572 Y22.805 E0.25146
G1 X19.902 Y23.375 E0.06777
G1 X17.674 Y25.121 E0.21814
G1 X17.322 Y25.365 E0.03301
G1 X14.535 Y27.061 E0.25146
G1 X14.148 Y27.266 E0.03374
G1 X11.177 Y28.615 E0.25146
G1 X10.768 Y28.771 E0.03374
G1 X7.656 Y29.753 E0.25146
G1 X7.232 Y29.860 E0.03374
G1 X4.025 Y30.460 E0.25145
G1 X3.082 Y30.560 E0.07305
G1 X0.319 Y30.727 E0.21335
G1 X-0.009 Y30.732 E0.02522
G1 X-0.615 Y30.712 E0.04674
G1 X-3.378 Y30.545 E0.21335
G1 X-3.695 Y30.512 E0.02458
G1 X-4.303 Y30.419 E0.04738
G1 X-7.026 Y29.920 E0.21335
G1 X-7.930 Y29.685 E0.07194
G1 X-10.857 Y28.759 E0.23664
G1 X-11.441 Y28.520 E0.04865
G1 X-13.966 Y27.384 E0.21335
G1 X-14.788 Y26.941 E0.07195
G1 X-17.396 Y25.351 E0.23537
G1 X-17.920 Y24.971 E0.04993
G1 X-20.099 Y23.263 E0.21335
G1 X-20.676 Y22.750 E0.05950
G1 X-22.751 Y20.681 E0.22580
G1 X-23.365 Y19.978 E0.07195
G1 X-25.225 Y17.587 E0.23345
G1 X-25.598 Y17.027 E0.05185
G1 X-27.030 Y14.658 E0.21335
G1 X-27.460 Y13.829 E0.07195
G1 X-28.689 Y11.078 E0.23218
G1 X-28.924 Y10.430 E0.05312
G1 X-29.747 Y7.787 E0.21335
G1 X-29.926 Y7.079 E0.05631
G1 X-30.468 Y4.157 E0.22899
G1 X-30.579 Y3.230 E0.07195
G1 X-30.753 Y0.247 E0.23027
G1 X-30.746 Y-0.467 E0.05504
G1 X-30.579 Y-3.230 E0.21335
G1 X-30.468 Y-4.157 E0.07195
G1 X-29.926 Y-7.079 E0.22899
G1 X-29.747 Y-7.787 E0.05631
G1 X-28.924 Y-10.430 E0.21335
G1 X-28.689 Y-11.078 E0.05312
G1 X-27.460 Y-13.829 E0.23218
G1 X-27.030 Y-14.658 E0.07195
G1 X-25.598 Y-17.027 E0.21335
G1 X-25.225 Y-17.587 E0.05185
G1 X-23.365 Y-19.978 E0.23345
G1 X-22.751 Y-20.681 E0.07195
G1 X-20.793 Y-22.638 E0.21335
G1 X-20.311 Y-23.084 E0.05057
G1 X-17.920 Y-24.971 E0.23473
G1 X-17.396 Y-25.351 E0.04993
G1 X-14.788 Y-26.941 E0.23536
G1 X-13.966 Y-27.384 E0.07195
G1 X-11.441 Y-28.520 E0.21335
G1 X-10.857 Y-28.759 E0.04865
G1 X-7.930 Y-29.685 E0.23664
G1 X-7.026 Y-29.920 E0.07194
G1 X-4.303 Y-30.419 E0.21335
G1 X-3.695 Y-30.512 E0.04738
G1 X-3.378 Y-30.545 E0.02458
G1 X-0.615 Y-30.712 E0.21335
G1 X0.319 Y-30.727 E0.07194
G1 X3.082 Y-30.560 E0.21335 F960.000
G1 X3.678 Y-30.508 E0.04610
G1 X4.025 Y-30.460 E0.02697
G1 X7.232 Y-29.860 E0.25145
G1 X7.656 Y-29.753 E0.03374
G1 X10.768 Y-28.771 E0.25146
G1 X11.177 Y-28.615 E0.03374
G1 X14.148 Y-27.266 E0.25146
G1 X14.535 Y-27.061 E0.03374
G1 X17.322 Y-25.365 E0.25146
G1 X17.674 Y-25.121 E0.03301
G1 X19.854 Y-23.414 E0.21335
G1 X20.572 Y-22.805 E0.07256
G1 X22.874 Y-20.493 E0.25146
G1 X23.164 Y-20.164 E0.03374
G1 X25.171 Y-17.592 E0.25146
G1 X25.419 Y-17.231 E0.03374
G1 X27.103 Y-14.436 E0.25146
G1 X27.306 Y-14.048 E0.03374
G1 X28.641 Y-11.071 E0.25146
G1 X28.795 Y-10.665 E0.03350
G1 X29.769 Y-7.529 E0.25306
G1 X29.869 Y-7.120 E0.03238
G1 X30.455 Y-3.911 E0.25146
G1 X30.508 Y-3.476 E0.03374
G1 X30.603 Y-1.906 E0.12122
G1 E-3.50000 F1500.00000
G1 Z0.700 F15000.000
G1 X24.621 Y8.526 F15000.000
G1 Z0.300 F15000.000
G1 E3.50000 F1500.00000
G1 X24.401 Y9.233 E0.05714 F720.000
G1 X23.114 Y12.103 E0.24233
G1 X21.491 Y14.796 E0.24230
G1 X19.557 Y17.274 E0.24230
G1 X17.334 Y19.508 E0.24285
G1 X14.870 Y21.447 E0.24165
G1 X12.183 Y23.082 E0.24240
G1 X9.320 Y24.382 E0.24229
G1 X6.322 Y25.328 E0.24229
G1 X3.220 Y25.910 E0.24321
G1 X0.084 Y26.112 E0.24221
G1 X-3.056 Y25.935 E0.24236
G1 X-3.486 Y25.871 E0.03353
G1 X-6.152 Y25.382 E0.20884
G1 X-6.571 Y25.268 E0.03353
G1 X-9.159 Y24.461 E0.20884
G1 X-9.562 Y24.298 E0.03353
G1 X-12.033 Y23.186 E0.20884
G1 X-12.414 Y22.976 E0.03353
G1 X-14.733 Y21.574 E0.20884
G1 X-15.087 Y21.320 E0.03353
G1 X-17.220 Y19.649 E0.20884
G1 X-17.541 Y19.355 E0.03353
G1 X-19.457 Y17.439 E0.20885
G1 X-19.741 Y17.109 E0.03353
G1 X-21.412 Y14.976 E0.20884
G1 X-21.655 Y14.615 E0.03353
G1 X-23.057 Y12.296 E0.20885
G1 X-23.256 Y11.909 E0.03353
G1 X-24.368 Y9.438 E0.20884
G1 X-24.520 Y9.030 E0.03353
G1 X-25.326 Y6.443 E0.20885
G1 X-25.428 Y6.020 E0.03353
G1 X-25.917 Y3.355 E0.20884
G1 X-25.968 Y2.923 E0.03353
G1 X-26.132 Y0.218 E0.20885
G1 X-26.132 Y-0.218 E0.03353
G1 X-25.968 Y-2.923 E0.20885
G1 X-25.917 Y-3.355 E0.03353
G1 X-25.428 Y-6.020 E0.20885
G1 X-25.326 Y-6.443 E0.03353
G1 X-24.520 Y-9.030 E0.20884
G1 X-24.368 Y-9.438 E0.03353
G1 X-23.256 Y-11.909 E0.20884
G1 X-23.057 Y-12.296 E0.03353
G1 X-21.655 Y-14.615 E0.20884
G1 X-21.412 Y-14.976 E0.03353
G1 X-19.741 Y-17.109 E0.20884
G1 X-19.457 Y-17.439 E0.03353
G1 X-17.541 Y-19.355 E0.20884
G1 X-17.220 Y-19.649 E0.03353
G1 X-15.087 Y-21.320 E0.20884
G1 X-14.733 Y-21.574 E0.03353
G1 X-12.414 Y-22.976 E0.20884
G1 X-12.033 Y-23.186 E0.03353
G1 X-9.562 Y-24.298 E0.20884
G1 X-9.159 Y-24.461 E0.03353
G1 X-6.571 Y-25.268 E0.20884
G1 X-6.152 Y-25.382 E0.03353
G1 X-3.056 Y-25.935 E0.24235
G1 X0.084 Y-26.112 E0.24236
G1 X2.789 Y-25.948 E0.20884
G1 X3.220 Y-25.910 E0.03337 F720.000
G1 X6.322 Y-25.328 E0.24321
G1 X9.320 Y-24.382 E0.24229
G1 X12.183 Y-23.082 E0.24229
G1 X14.870 Y-21.447 E0.24240
G1 X17.334 Y-19.508 E0.24165
G1 X19.557 Y-17.274 E0.24285
G1 X21.491 Y-14.796 E0.24230
G1 X23.114 Y-12.103 E0.24230
G1 X24.401 Y-9.233 E0.24233
G1 X25.333 Y-6.234 E0.24209
G1 X25.899 Y-3.138 E0.24249
G1 X26.088 Y-0.000 E0.24230
G1 X25.899 Y3.138 E0.24230
G1 X25.333 Y6.234 E0.24249
G1 X24.639 Y8.468 E0.18032
G1 X25.246 Y8.657 F15000.000
G1 X24.996 Y9.459 E0.06470 F720.000
G1 X23.678 Y12.398 E0.24822
G1 X22.016 Y15.157 E0.24821
G1 X20.035 Y17.696 E0.24821
G1 X17.761 Y19.980 E0.24840
G1 X15.233 Y21.971 E0.24798
G1 X12.481 Y23.645 E0.24824
G1 X9.548 Y24.977 E0.24820
G1 X6.477 Y25.946 E0.24820
G1 X3.307 Y26.540 E0.24853
G1 X0.094 Y26.748 E0.24817
G1 X-3.122 Y26.568 E0.24822
G1 X-3.590 Y26.498 E0.03649
G1 X-6.293 Y26.003 E0.21175
G1 X-6.750 Y25.878 E0.03649
G1 X-9.373 Y25.060 E0.21175
G1 X-9.812 Y24.883 E0.03649
G1 X-12.317 Y23.755 E0.21175
G1 X-12.732 Y23.526 E0.03649
G1 X-15.083 Y22.105 E0.21175
G1 X-15.468 Y21.829 E0.03649
G1 X-17.631 Y20.134 E0.21175
G1 X-17.980 Y19.815 E0.03649
G1 X-19.923 Y17.872 E0.21175
G1 X-20.232 Y17.513 E0.03649
G1 X-21.927 Y15.350 E0.21175
G1 X-22.191 Y14.958 E0.03649
G1 X-23.613 Y12.606 E0.21175
G1 X-23.829 Y12.185 E0.03649
G1 X-24.957 Y9.679 E0.21175
G1 X-25.121 Y9.236 E0.03649
G1 X-25.939 Y6.612 E0.21175
G1 X-26.050 Y6.152 E0.03649
G1 X-26.545 Y3.449 E0.21175
G1 X-26.601 Y2.979 E0.03649
G1 X-26.767 Y0.237 E0.21175
G1 X-26.767 Y-0.237 E0.03649
G1 X-26.601 Y-2.979 E0.21175
G1 X-26.545 Y-3.449 E0.03649
G1 X-26.050 Y-6.152 E0.21175
G1 X-25.939 Y-6.612 E0.03649
G1 X-25.121 Y-9.236 E0.21175
G1 X-24.957 Y-9.679 E0.03649
G1 X-23.829 Y-12.185 E0.21175
G1 X-23.613 Y-12.606 E0.03649
G1 X-22.191 Y-14.958 E0.21175
G1 X-21.927 Y-15.350 E0.03649
G1 X-20.232 Y-17.513 E0.21175
G1 X-19.923 Y-17.872 E0.03649
G1 X-17.980 Y-19.815 E0.21175
G1 X-17.631 Y-20.134 E0.03649
G1 X-15.468 Y-21.829 E0.21175
G1 X-15.083 Y-22.105 E0.03649
G1 X-12.732 Y-23.526 E0.21175
G1 X-12.317 Y-23.755 E0.03649
G1 X-9.812 Y-24.883 E0.21175
G1 X-9.373 Y-25.060 E0.03649
G1 X-6.750 Y-25.878 E0.21175
G1 X-6.293 Y-26.003 E0.03649
G1 X-3.590 Y-26.498 E0.21175
G1 X-3.122 Y-26.568 E0.03649
G1 X0.094 Y-26.748 E0.24822
G1 X2.836 Y-26.582 E0.21175
G1 X3.307 Y-26.540 E0.03643 F720.000
G1 X6.477 Y-25.946 E0.24853
G1 X9.548 Y-24.977 E0.24820
G1 X12.481 Y-23.645 E0.24820
G1 X15.233 Y-21.971 E0.24824
G1 X17.761 Y-19.980 E0.24798
G1 X20.035 Y-17.696 E0.24840
G1 X22.016 Y-15.157 E0.24821
G1 X23.678 Y-12.398 E0.24821
G1 X24.996 Y-9.459 E0.24822
G1 X25.952 Y-6.384 E0.24813
G1 X26.531 Y-3.215 E0.24828
G1 X26.725 Y0.000 E0.24821
G1 X26.531 Y3.215 E0.24821
G1 X25.952 Y6.384 E0.24828
G1 X25.264 Y8.600 E0.17881
G1 X24.856 Y8.745 F15000.000
G1 X24.273 Y-8.194 F15000.000
G1 X8.177 Y-24.290 E1.76143 F960.000
G1 X6.858 Y-24.706 E0.10702
G1 X24.681 Y-6.883 E1.95048
G1 X25.023 Y-5.639 E0.09988
G1 X5.622 Y-25.040 E2.12323
G1 X4.511 Y-25.248 E0.08745
G1 X25.225 Y-4.534 E2.26687
G1 X25.427 Y-3.430 E0.08688
G1 X3.400 Y-25.456 E2.41051
G1 X2.375 Y-25.578 E0.07989
G1 X25.548 Y-2.405 E2.53600
G1 X25.606 Y-1.445 E0.07447
G1 X1.415 Y-25.637 E2.64748
G1 X0.454 Y-25.695 E0.07448
G1 X25.664 Y-0.484 E2.75896
G1 X25.683 Y0.437 E0.07134
G1 X-0.457 Y-25.703 E2.86069
G1 X-1.311 Y-25.655 E0.06623
G1 X25.632 Y1.289 E2.94859
G1 X25.581 Y2.140 E0.06599
G1 X-2.166 Y-25.606 E3.03650
G1 X-3.020 Y-25.558 E0.06623
G1 X25.529 Y2.991 E3.12440
G1 X25.413 Y3.777 E0.06148
G1 X-3.798 Y-25.433 E3.19669
G1 X-4.564 Y-25.296 E0.06020
G1 X25.273 Y4.540 E3.26524
G1 X25.134 Y5.303 E0.06004
G1 X-5.329 Y-25.160 E3.33380
G1 X-6.095 Y-25.023 E0.06020
G1 X24.994 Y6.067 E3.40236
G1 X24.799 Y6.774 E0.05680
G1 X-6.803 Y-24.828 E3.45842
G1 X-7.491 Y-24.613 E0.05578
G1 X24.585 Y7.462 E3.51026
G1 X24.370 Y8.150 E0.05578
G1 X-8.179 Y-24.399 E3.56211
G1 X-8.867 Y-24.184 E0.05578
G1 X24.156 Y8.839 E3.61395
G1 X23.909 Y9.494 E0.05422
G1 X-9.525 Y-23.940 E3.65893
G1 X-10.147 Y-23.659 E0.05282
G1 X23.629 Y10.117 E3.69646
G1 X23.350 Y10.741 E0.05285
G1 X-10.770 Y-23.379 E3.73399
G1 X-11.392 Y-23.099 E0.05282
G1 X23.070 Y11.364 E3.77152
G1 X22.791 Y11.987 E0.05285
G1 X-12.010 Y-22.814 E3.80848
G1 X-12.581 Y-22.483 E0.05112
G1 X22.452 Y12.551 E3.83402
G1 X22.113 Y13.114 E0.05089
G1 X-13.144 Y-22.143 E3.85845
G1 X-13.707 Y-21.803 E0.05087
G1 X21.774 Y13.678 E3.88288
G1 X21.434 Y14.241 E0.05089
G1 X-14.269 Y-21.463 E3.90731
G1 X-14.815 Y-21.106 E0.05047
G1 X21.078 Y14.787 E3.92808
G1 X20.683 Y15.294 E0.04976
G1 X-15.325 Y-20.713 E3.94055
G1 X-15.831 Y-20.317 E0.04975
G1 X20.287 Y15.801 E3.95264
G1 X19.891 Y16.308 E0.04976
G1 X-16.337 Y-19.920 E3.96473
G1 X-16.843 Y-19.524 E0.04975
G1 X19.496 Y16.815 E3.97682
G1 X19.062 Y17.285 E0.04943
G1 X-17.312 Y-19.090 E3.98072
G1 X-17.763 Y-18.638 E0.04939
G1 X18.611 Y17.736 E3.98072
G1 X18.160 Y18.187 E0.04939
G1 X-18.215 Y-18.187 E3.98072
G1 X-18.666 Y-17.736 E0.04939
G1 X17.709 Y18.638 E3.98072
G1 X17.257 Y19.090 E0.04939
G1 X-19.117 Y-17.285 E3.98072
G1 X-19.551 Y-16.816 E0.04943
G1 X16.789 Y19.524 E3.97690
G1 X16.282 Y19.920 E0.04975
G1 X-19.947 Y-16.309 E3.96490
G1 X-20.344 Y-15.803 E0.04975
G1 X15.776 Y20.317 E3.95291
G1 X15.270 Y20.713 E0.04975
G1 X-20.740 Y-15.297 E3.94091
G1 X-21.136 Y-14.790 E0.04976
G1 X14.764 Y21.110 E3.92882
G1 X14.209 Y21.457 E0.05068
G1 X-21.490 Y-14.241 E3.90680
G1 X-21.830 Y-13.679 E0.05087
G1 X13.648 Y21.799 E3.88261
G1 X13.087 Y22.140 E0.05083
G1 X-22.170 Y-13.116 E3.85841
G1 X-22.510 Y-12.554 E0.05087
G1 X12.526 Y22.482 E3.83422
G1 X11.953 Y22.812 E0.05115
G1 X-22.839 Y-11.980 E3.80752
G1 X-23.126 Y-11.365 E0.05255
G1 X11.332 Y23.093 E3.77101
G1 X10.711 Y23.375 E0.05276
G1 X-23.406 Y-10.742 E3.73374
G1 X-23.686 Y-10.120 E0.05282
G1 X10.091 Y23.657 E3.69646
G1 X9.470 Y23.939 E0.05276
G1 X-23.966 Y-9.497 E3.65918
G1 X-24.211 Y-8.839 E0.05433
G1 X8.805 Y24.177 E3.61318
G1 X8.119 Y24.393 E0.05567
G1 X-24.426 Y-8.151 E3.56156
G1 X-24.640 Y-7.463 E0.05578
G1 X7.433 Y24.610 E3.50995
G1 X6.747 Y24.826 E0.05567
G1 X-24.854 Y-6.775 E3.45833
G1 X-25.049 Y-6.067 E0.05682
G1 X6.031 Y25.014 E3.40135
G1 X5.271 Y25.156 E0.05985
G1 X-25.190 Y-5.305 E3.33356
G1 X-25.330 Y-4.542 E0.06001
G1 X4.511 Y25.298 E3.26567
G1 X3.751 Y25.441 E0.05985
G1 X-25.469 Y-3.779 E3.19777
G1 X-25.586 Y-2.993 E0.06152
G1 X2.964 Y25.557 E3.12440
G1 X2.115 Y25.611 E0.06583
G1 X-25.637 Y-2.142 E3.03712
G1 X-25.688 Y-1.290 E0.06598
G1 X1.264 Y25.662 E2.94961
G1 X0.413 Y25.713 E0.06598
G1 X-25.740 Y-0.439 E2.86210
G1 X-25.721 Y0.482 E0.07133
G1 X-0.519 Y25.684 E2.75801
G1 X-1.476 Y25.630 E0.07413
G1 X-25.663 Y1.443 E2.64698
G1 X-25.605 Y2.404 E0.07448
G1 X-2.432 Y25.576 E2.53596
G1 X-3.467 Y25.444 E0.08075
G1 X-25.485 Y3.427 E2.40953
G1 X-25.282 Y4.532 E0.08694
G1 X-4.566 Y25.248 E2.26711
G1 X-5.665 Y25.052 E0.08637
G1 X-25.079 Y5.637 E2.12470
G1 X-24.737 Y6.882 E0.09994
G1 X-6.908 Y24.711 E1.95111
G1 X-8.220 Y24.302 E0.10628
G1 X-24.328 Y8.193 E1.76290
G1 X-23.778 Y9.646 F15000.000
G1 X-9.672 Y23.752 E1.54371 F960.000
G1 X-11.314 Y23.013 F15000.000
G1 X-23.039 Y11.287 E1.28325 F960.000
G1 X-21.845 Y13.385 F15000.000
G1 X-13.411 Y21.818 E0.92296 F960.000
G1 X-16.735 Y19.397 F15000.000
G1 X-19.386 Y16.746 E0.29013 F960.000
G1 X9.622 Y-23.747 F15000.000
G1 X23.717 Y-9.652 E1.54252 F960.000
G1 X22.983 Y-11.289 F15000.000
G1 X11.275 Y-22.997 E1.28123 F960.000
G1 X13.372 Y-21.803 F15000.000
G1 X21.784 Y-13.391 E0.92058 F960.000
G1 X19.367 Y-16.711 F15000.000
G1 X16.700 Y-19.378 E0.29187 F960.000
G1 E-3.50000 F1500.00000
G1 Z0.700 F15000.000
G1 X-26.344 Y-4.852 F15000.000
G1 Z0.500 F15000.000
G1 E3.50000 F1500.00000
G1 X-26.183 Y-5.732 E0.02581 F3600.000
G1 X-25.880 Y-6.986 E0.03724
G1 X-25.309 Y-8.819 E0.05542
G1 X-24.860 Y-10.029 E0.03724
G1 X-24.071 Y-11.780 E0.05542
G1 X-23.482 Y-12.928 E0.03724
G1 X-22.489 Y-14.571 E0.05542
G1 X-21.768 Y-15.642 E0.03724
G1 X-20.584 Y-17.153 E0.05542
G1 X-19.741 Y-18.131 E0.03724
G1 X-18.384 Y-19.488 E0.05542
G1 X-17.432 Y-20.359 E0.03724
G1 X-15.920 Y-21.544 E0.05542
G1 X-14.872 Y-22.296 E0.03724
G1 X-13.228 Y-23.289 E0.05542
G1 X-12.098 Y-23.912 E0.03724
G1 X-10.347 Y-24.700 E0.05542
G1 X-9.151 Y-25.185 E0.03724
G1 X-7.318 Y-25.757 E0.05542
G1 X-6.073 Y-26.097 E0.03724
G1 X-4.185 Y-26.443 E0.05542
G1 X-2.909 Y-26.633 E0.03724
G1 X-0.992 Y-26.749 E0.05542
G1 X0.298 Y-26.787 E0.03724
G1 X2.215 Y-26.672 E0.05542
G1 X3.500 Y-26.557 E0.03724 F3600.000
G1 X5.389 Y-26.211 E0.05542
G1 X6.651 Y-25.945 E0.03724
G1 X8.485 Y-25.374 E0.05542
G1 X9.707 Y-24.961 E0.03724
G1 X11.458 Y-24.172 E0.05542
G1 X12.623 Y-23.618 E0.03724
G1 X14.266 Y-22.624 E0.05542
G1 X15.357 Y-21.935 E0.03724
G1 X16.869 Y-20.751 E0.05542
G1 X17.870 Y-19.939 E0.03719
G1 X20.128 Y-17.654 E0.09274
G1 X22.095 Y-15.116 E0.09266
G1 X23.744 Y-12.362 E0.09266
G1 X25.053 Y-9.430 E0.09268
G1 X26.000 Y-6.364 E0.09261
G1 X26.575 Y-3.205 E0.09269
G1 X26.767 Y0.000 E0.09266
G1 X26.575 Y3.205 E0.09266
G1 X26.000 Y6.364 E0.09269
G1 X25.053 Y9.430 E0.09261
G1 X23.744 Y12.362 E0.09268
G1 X22.095 Y15.116 E0.09266
G1 X20.128 Y17.654 E0.09266
G1 X17.870 Y19.939 E0.09274
G1 X16.869 Y20.751 E0.03719
G1 X15.357 Y21.935 E0.05542
G1 X14.266 Y22.624 E0.03724
G1 X12.623 Y23.618 E0.05542
G1 X11.458 Y24.172 E0.03724
G1 X9.707 Y24.961 E0.05542
G1 X8.485 Y25.374 E0.03724
G1 X6.651 Y25.945 E0.05542
G1 X5.389 Y26.211 E0.03724
G1 X3.500 Y26.557 E0.05542
G1 X2.215 Y26.672 E0.03724
G1 X0.298 Y26.787 E0.05542
G1 X-0.992 Y26.749 E0.03724
G1 X-2.909 Y26.633 E0.05542
G1 X-4.185 Y26.443 E0.03724
G1 X-6.073 Y26.097 E0.05542
G1 X-7.318 Y25.757 E0.03724
G1 X-9.151 Y25.185 E0.05542
G1 X-10.347 Y24.700 E0.03724
G1 X-12.098 Y23.912 E0.05542
G1 X-13.228 Y23.289 E0.03724
G1 X-14.872 Y22.296 E0.05542
G1 X-15.920 Y21.544 E0.03724
G1 X-17.432 Y20.359 E0.05542
G1 X-18.384 Y19.488 E0.03724
G1 X-19.741 Y18.131 E0.05542
G1 X-20.584 Y17.153 E0.03724
G1 X-21.768 Y15.642 E0.05542
G1 X-22.489 Y14.571 E0.03724
G1 X-23.482 Y12.928 E0.05542
G1 X-24.071 Y11.780 E0.03724
G1 X-24.860 Y10.029 E0.05542
G1 X-25.309 Y8.819 E0.03724
G1 X-25.880 Y6.986 E0.05542
G1 X-26.183 Y5.732 E0.03724
G1 X-26.529 Y3.843 E0.05542
G1 X-26.682 Y2.562 E0.03724
G1 X-26.798 Y0.645 E0.05542
G1 X-26.798 Y-0.645 E0.03724
G1 X-26.682 Y-2.562 E0.05542
G1 X-26.529 Y-3.843 E0.03724
G1 X-26.355 Y-4.793 E0.02788
G1 X-26.706 Y-4.858 F15000.000
G1 X-26.533 Y-5.806 E0.02783 F3600.000
G1 X-26.224 Y-7.081 E0.03786
G1 X-25.647 Y-8.935 E0.05604
G1 X-25.190 Y-10.165 E0.03786
