; generated by Slic3r 1.2.9 on 2019-08-07 at 16:44:43

; external perimeters extrusion width = 0.40mm
; perimeters extrusion width = 0.40mm
; infill extrusion width = 0.40mm
; solid infill extrusion width = 0.40mm
; top infill extrusion width = 0.40mm

M107
M83
T0
M116
G21 ; set units to millimeters
G90 ; use absolute coordinates
M83 ; use relative distances for extrusion
G1 E-3.50000 F1500.00000
G1 Z0.400 F15000.000
G1 X11.121 Y-11.121 F15000.000
G1 Z0.300 F15000.000
G1 E3.50000 F1500.00000
G1 X16.107 Y-6.136 E0.54334 F960.000
G1 X16.586 Y-4.979 E0.09647
G1 X16.586 Y14.950 E1.53586
G1 X16.198 Y16.007 E0.08680
G1 X14.950 Y16.586 E0.10599
G1 X-14.950 Y16.586 E2.30426
G1 X-16.007 Y16.198 E0.08680
G1 X-16.586 Y14.950 E0.10599
G1 X-16.586 Y-14.950 E2.30426
G1 X-16.198 Y-16.007 E0.08680
G1 X-14.950 Y-16.586 E0.10599
G1 X4.979 Y-16.586 E1.53586
G1 X6.136 Y-16.107 E0.09647
G1 X11.079 Y-11.164 E0.53872 F960.000
G1 E-3.50000 F1500.00000
G1 Z0.700 F15000.000
G1 X13.964 Y8.993 F15000.000
G1 Z0.300 F15000.000
G1 E3.50000 F1500.00000
G1 X13.964 Y13.964 E0.38311 F720.000
G1 X-13.964 Y13.964 E2.15234
G1 X-13.964 Y-13.964 E2.15234
G1 X-5.722 Y-13.964 E0.63523
G1 X-5.936 Y-13.009 E0.07550
G1 X-6.027 Y-10.818 E0.16893 F720.000
G1 X-5.759 Y-8.729 E0.16237
G1 X-5.172 Y-6.923 E0.14629
G1 X-4.449 Y-5.699 E0.10959
G1 X-3.739 Y-4.975 E0.07811
G1 X-3.083 Y-4.574 E0.05932
G1 X-2.465 Y-4.383 E0.04983
G1 X-1.905 Y-4.341 E0.04325
G1 X-1.332 Y-4.429 E0.04471
G1 X-0.819 Y-4.624 E0.04235
G1 X-0.329 Y-4.928 E0.04438
G1 X0.112 Y-5.317 E0.04533
G1 X0.600 Y-5.911 E0.05921
G1 X1.064 Y-6.701 E0.07064
G1 X1.536 Y-7.892 E0.09875
G1 X1.911 Y-9.575 E0.13286
G1 X2.038 Y-11.384 E0.13972
G1 X1.897 Y-13.286 E0.14703
G1 X1.735 Y-13.964 E0.05371
G1 X4.571 Y-13.964 E0.21853
G1 X13.964 Y-4.571 E1.02375
G1 X13.964 Y-1.719 E0.21978
G1 X12.974 Y-1.938 E0.07815
G1 X10.791 Y-2.026 E0.16842
G1 X8.713 Y-1.755 E0.16143
G1 X6.926 Y-1.173 E0.14488
G1 X5.684 Y-0.438 E0.11125
G1 X4.967 Y0.270 E0.07759
G1 X4.573 Y0.921 E0.05867
G1 X4.389 Y1.504 E0.04712
G1 X4.340 Y2.094 E0.04565
G1 X4.431 Y2.673 E0.04513
G1 X4.627 Y3.188 E0.04247
G1 X4.933 Y3.677 E0.04448
G1 X5.307 Y4.103 E0.04369
G1 X5.917 Y4.603 E0.06077
G1 X6.691 Y5.059 E0.06924
G1 X7.901 Y5.538 E0.10028
G1 X9.433 Y5.890 E0.12112
G1 X11.611 Y6.036 E0.16826
G1 X13.402 Y5.878 E0.13855
G1 X13.964 Y5.741 E0.04461
G1 X13.964 Y8.933 E0.24598
G1 X14.600 Y8.933 F15000.000
G1 X14.600 Y14.600 E0.43672 F720.000
G1 X-14.600 Y14.600 E2.25031
G1 X-14.600 Y-14.600 E2.25031
G1 X-4.927 Y-14.600 E0.74543
G1 X-5.304 Y-12.925 E0.13230
G1 X-5.389 Y-10.846 E0.16037 F720.000
G1 X-5.136 Y-8.868 E0.15364
G1 X-4.589 Y-7.186 E0.13631
G1 X-3.941 Y-6.089 E0.09823
G1 X-3.341 Y-5.477 E0.06608
G1 X-2.819 Y-5.158 E0.04715
G1 X-2.346 Y-5.011 E0.03816
G1 X-1.931 Y-4.980 E0.03209
G1 X-1.495 Y-5.047 E0.03394
G1 X-1.101 Y-5.197 E0.03248
G1 X-0.709 Y-5.440 E0.03554
G1 X-0.347 Y-5.760 E0.03726
G1 X0.077 Y-6.276 E0.05144
G1 X0.491 Y-6.981 E0.06302
G1 X0.926 Y-8.080 E0.09111
G1 X1.280 Y-9.667 E0.12533
G1 X1.401 Y-11.382 E0.13251
G1 X1.266 Y-13.189 E0.13958
G1 X0.931 Y-14.600 E0.11180
G1 X4.834 Y-14.600 E0.30081
G1 X14.600 Y-4.834 E1.06433
G1 X14.600 Y-0.927 E0.30108
G1 X12.892 Y-1.305 E0.13479
G1 X10.819 Y-1.388 E0.15990
G1 X8.854 Y-1.133 E0.15273
G1 X7.189 Y-0.591 E0.13491
G1 X6.075 Y0.069 E0.09982
G1 X5.470 Y0.666 E0.06549
G1 X5.156 Y1.185 E0.04669
G1 X5.017 Y1.628 E0.03578
G1 X4.980 Y2.071 E0.03429
G1 X5.049 Y2.508 E0.03413
G1 X5.199 Y2.903 E0.03257
G1 X5.445 Y3.296 E0.03573
G1 X5.750 Y3.645 E0.03571
G1 X6.282 Y4.080 E0.05295
G1 X6.971 Y4.486 E0.06166
G1 X8.090 Y4.930 E0.09275
G1 X9.526 Y5.259 E0.11351
G1 X11.604 Y5.399 E0.16056
G1 X13.298 Y5.249 E0.13104
G1 X14.600 Y4.932 E0.10325
G1 X14.600 Y8.873 E0.30370
G1 X14.254 Y9.133 F15000.000
G1 X13.579 Y6.735 F15000.000
G1 X13.122 Y6.278 E0.05040 F960.000
G1 X12.286 Y6.352 E0.06558
G1 X13.579 Y7.645 E0.14279
G1 X13.579 Y8.556 E0.07109
G1 X11.443 Y6.420 E0.23578
G1 X10.467 Y6.355 E0.07637
G1 X13.579 Y9.467 E0.34354
G1 X13.579 Y10.377 E0.07109
G1 X9.491 Y6.290 E0.45130
G1 X8.366 Y6.075 E0.08942
G1 X13.579 Y11.288 E0.57553
G1 X13.579 Y12.198 E0.07109
G1 X7.066 Y5.686 E0.71905
G1 E-3.50000 F1500.00000
G1 Z0.700 F15000.000
G1 X13.579 Y-4.192 F15000.000
G1 Z0.300 F15000.000
G1 E3.50000 F1500.00000
G1 X4.192 Y-13.579 E1.03633 F960.000
G1 X3.282 Y-13.579 E0.07109
G1 X13.579 Y-3.282 E1.13687
G1 X13.579 Y-2.371 E0.07109
G1 X2.371 Y-13.579 E1.23740
G1 X2.337 Y-12.703 E0.06846
G1 X12.699 Y-2.341 E1.14404
G1 X11.750 Y-2.378 E0.07411
G1 X2.410 Y-11.719 E1.03123
G1 X2.377 Y-10.841 E0.06857
G1 X10.817 Y-2.401 E0.93180
G1 X10.011 Y-2.296 E0.06343
G1 X2.317 Y-9.990 E0.84946
G1 X2.196 Y-9.201 E0.06232
G1 X9.206 Y-2.192 E0.77393
G1 X8.449 Y-2.038 E0.06028
G1 X2.030 Y-8.457 E0.70873
G1 X1.844 Y-7.732 E0.05840
G1 X7.762 Y-1.814 E0.65343
G1 X7.075 Y-1.590 E0.05640
G1 X1.585 Y-7.080 E0.60611
G1 X1.305 Y-6.450 E0.05387
G1 X6.465 Y-1.290 E0.56962
G1 X5.893 Y-0.951 E0.05189
G1 X0.968 Y-5.876 E0.54367
G1 X0.574 Y-5.359 E0.05072
G1 X5.356 Y-0.577 E0.52794
G1 X4.898 Y-0.125 E0.05027
G1 X0.130 Y-4.893 E0.52639
G1 X-0.386 Y-4.498 E0.05072
G1 X4.503 Y0.390 E0.53975
G1 X4.185 Y0.983 E0.05252
G1 X-0.988 Y-4.190 E0.57113
G1 X-1.709 Y-4.000 E0.05822
G1 X3.997 Y1.705 E0.62994
G1 X4.011 Y2.631 E0.07226
G1 X-2.616 Y-3.997 E0.73175
G1 X-5.669 Y-7.050 F15000.000
G1 X-12.198 Y-13.579 E0.72086 F960.000
G1 X-13.109 Y-13.579 E0.07109
G1 X13.579 Y13.109 E2.94652
G1 X13.138 Y13.579 E0.05029
G1 X-13.579 Y-13.138 E2.94974
G1 X-13.579 Y-12.228 E0.07109
G1 X12.228 Y13.579 E2.84920
G1 X11.317 Y13.579 E0.07109
G1 X-13.579 Y-11.317 E2.74867
G1 X-13.579 Y-10.406 E0.07109
G1 X10.406 Y13.579 E2.64813
G1 X9.496 Y13.579 E0.07109
G1 X-13.579 Y-9.496 E2.54759
G1 X-13.579 Y-8.585 E0.07109
G1 X8.585 Y13.579 E2.44706
G1 X7.675 Y13.579 E0.07109
G1 X-13.579 Y-7.675 E2.34652
G1 X-13.579 Y-6.764 E0.07109
G1 X6.764 Y13.579 E2.24599
G1 X5.853 Y13.579 E0.07109
G1 X-13.579 Y-5.853 E2.14545
G1 X-13.579 Y-4.943 E0.07109
G1 X4.943 Y13.579 E2.04491
G1 X4.032 Y13.579 E0.07109
G1 X-13.579 Y-4.032 E1.94438
G1 X-13.579 Y-3.122 E0.07109
G1 X3.122 Y13.579 E1.84384
G1 X2.211 Y13.579 E0.07109
G1 X-13.579 Y-2.211 E1.74330
G1 X-13.579 Y-1.300 E0.07109
G1 X1.300 Y13.579 E1.64277
G1 X0.390 Y13.579 E0.07109
G1 X-13.579 Y-0.390 E1.54223
G1 X-13.579 Y0.521 E0.07109
G1 X-0.521 Y13.579 E1.44169
G1 X-1.431 Y13.579 E0.07109
G1 X-13.579 Y1.431 E1.34116
G1 X-13.579 Y2.342 E0.07109
G1 X-2.342 Y13.579 E1.24062
G1 X-3.253 Y13.579 E0.07109
G1 X-13.579 Y3.253 E1.14009
G1 X-13.579 Y4.163 E0.07109
G1 X-4.163 Y13.579 E1.03955
G1 X-5.074 Y13.579 E0.07109
G1 X-13.579 Y5.074 E0.93901
G1 X-13.579 Y5.984 E0.07109
G1 X-5.984 Y13.579 E0.83848
G1 X-6.895 Y13.579 E0.07109
G1 X-13.579 Y6.895 E0.73794
G1 X-13.579 Y7.806 E0.07109
G1 X-7.806 Y13.579 E0.63740
G1 X-8.716 Y13.579 E0.07109
G1 X-13.579 Y8.716 E0.53687
G1 X-13.579 Y9.627 E0.07109
G1 X-9.627 Y13.579 E0.43633
G1 X-10.538 Y13.579 E0.07109
G1 X-13.579 Y10.538 E0.33579
G1 X-13.579 Y11.448 E0.07109
G1 X-11.448 Y13.579 E0.23526
G1 X-12.359 Y13.579 E0.07109
G1 X-13.579 Y12.359 E0.13472
G1 X-13.579 Y13.269 E0.07109
G1 X-13.269 Y13.579 E0.03419
G1 X-6.108 Y-8.399 F15000.000
G1 X-11.288 Y-13.579 E0.57193 F960.000
G1 X-10.377 Y-13.579 E0.07109
G1 X-6.260 Y-9.461 E0.45460
G1 X-6.394 Y-10.506 E0.08221
G1 X-9.467 Y-13.579 E0.33928
G1 X-8.556 Y-13.579 E0.07109
G1 X-6.383 Y-11.406 E0.23994
G1 X-6.347 Y-12.280 E0.06834
G1 X-7.645 Y-13.579 E0.14338
G1 X-6.735 Y-13.579 E0.07109
G1 X-6.279 Y-13.123 E0.05034
G1 E-3.50000 F1500.00000
G1 Z0.700 F15000.000
G1 X-14.393 Y-4.733 F15000.000
G1 Z0.500 F15000.000
G1 E3.50000 F1500.00000
G1 X-14.393 Y-14.393 E0.27881 F3316.934
G1 X-5.089 Y-14.393 E0.26854
G1 X-5.511 Y-12.508 E0.05576
G1 X-5.597 Y-10.424 E0.06019 F3316.934
G1 X-5.340 Y-8.397 E0.05898
G1 X-4.776 Y-6.660 E0.05272
G1 X-4.114 Y-5.539 E0.03757
G1 X-3.484 Y-4.892 E0.02605
G1 X-2.908 Y-4.536 E0.01957
G1 X-2.369 Y-4.372 E0.01624
G1 X-1.926 Y-4.339 E0.01282
G1 X-1.428 Y-4.417 E0.01455
G1 X-1.017 Y-4.574 E0.01271
G1 X-0.578 Y-4.845 E0.01489
G1 X-0.185 Y-5.196 E0.01521
G1 X0.257 Y-5.738 E0.02018
G1 X0.682 Y-6.467 E0.02436
G1 X1.141 Y-7.641 E0.03637
G1 X1.484 Y-9.196 E0.04597
G1 X1.609 Y-10.951 E0.05077
G1 X1.461 Y-12.845 E0.05485
G1 X1.091 Y-14.393 E0.04593
G1 X4.749 Y-14.393 E0.10556
G1 X14.393 Y-4.749 E0.39366
G1 X14.393 Y-1.091 E0.10556
G1 X12.517 Y-1.510 E0.05548
G1 X10.359 Y-1.595 E0.06234
G1 X8.361 Y-1.332 E0.05815
G1 X6.666 Y-0.779 E0.05147
G1 X5.508 Y-0.090 E0.03889
G1 X4.877 Y0.533 E0.02559
G1 X4.532 Y1.102 E0.01919
G1 X4.386 Y1.565 E0.01402
G1 X4.337 Y2.077 E0.01484
G1 X4.421 Y2.580 E0.01473
G1 X4.579 Y2.994 E0.01278
G1 X4.816 Y3.377 E0.01301
G1 X5.170 Y3.792 E0.01575
G1 X5.755 Y4.266 E0.02171
G1 X6.442 Y4.670 E0.02300
G1 X7.598 Y5.129 E0.03591
G1 X9.062 Y5.465 E0.04334
G1 X11.118 Y5.607 E0.05950
G1 X12.841 Y5.461 E0.04991
G1 X14.393 Y5.091 E0.04604
G1 X14.393 Y14.393 E0.26847
G1 X-14.393 Y14.393 E0.83084
G1 X-14.393 Y-4.673 E0.55030
G1 X-14.750 Y-4.673 F15000.000
G1 X-14.750 Y-14.750 E0.29085 F3316.934
G1 X-4.578 Y-14.750 E0.29359
G1 X-4.726 Y-14.380 E0.01151
G1 X-5.156 Y-12.461 E0.05676 F3316.934
G1 X-5.239 Y-10.439 E0.05840
G1 X-4.990 Y-8.475 E0.05714
G1 X-4.448 Y-6.808 E0.05061
G1 X-3.828 Y-5.757 E0.03520
G1 X-3.259 Y-5.173 E0.02354
G1 X-2.759 Y-4.864 E0.01697
G1 X-2.303 Y-4.725 E0.01376
G1 X-1.941 Y-4.698 E0.01048
G1 X-1.521 Y-4.764 E0.01229
G1 X-1.176 Y-4.896 E0.01066
G1 X-0.792 Y-5.133 E0.01300
G1 X-0.444 Y-5.444 E0.01349
G1 X-0.038 Y-5.942 E0.01856
G1 X0.360 Y-6.623 E0.02275
G1 X0.798 Y-7.745 E0.03477
G1 X1.130 Y-9.248 E0.04442
G1 X1.251 Y-10.949 E0.04924
G1 X1.107 Y-12.790 E0.05327
G1 X0.736 Y-14.345 E0.04617
G1 X0.565 Y-14.750 E0.01267
G1 X4.896 Y-14.750 E0.12502
G1 X14.750 Y-4.896 E0.40220
G1 X14.750 Y-0.575 E0.12473
G1 X14.342 Y-0.737 E0.01268
G1 X12.471 Y-1.155 E0.05533
G1 X10.375 Y-1.237 E0.06053
G1 X8.441 Y-0.982 E0.05632
G1 X6.814 Y-0.451 E0.04937
G1 X5.727 Y0.194 E0.03649
G1 X5.159 Y0.756 E0.02306
G1 X4.860 Y1.250 E0.01667
G1 X4.738 Y1.636 E0.01169
G1 X4.697 Y2.064 E0.01241
G1 X4.768 Y2.486 E0.01236
G1 X4.900 Y2.835 E0.01076
G1 X5.105 Y3.166 E0.01124
G1 X5.421 Y3.536 E0.01402
G1 X5.959 Y3.971 E0.01999
G1 X6.599 Y4.348 E0.02143
G1 X7.704 Y4.787 E0.03433
G1 X9.114 Y5.110 E0.04174
G1 X11.115 Y5.249 E0.05790
G1 X12.784 Y5.107 E0.04835
G1 X14.349 Y4.735 E0.04641
G1 X14.750 Y4.565 E0.01258
G1 X14.750 Y14.750 E0.29398
G1 X-14.750 Y14.750 E0.85145
G1 X-14.750 Y-4.613 E0.55887
G1 X-14.404 Y-4.873 F15000.000
G1 X-14.185 Y-13.994 F15000.000
G1 X-13.994 Y-14.185 E0.00785 F4422.579
G1 X-13.486 Y-14.185 E0.01473
G1 X-14.185 Y-13.486 E0.02869
G1 X-14.185 Y-12.978 E0.01473
G1 X-12.978 Y-14.185 E0.04953
G1 X-12.471 Y-14.185 E0.01473
G1 X-14.185 Y-12.471 E0.07037
G1 X-14.185 Y-11.963 E0.01473
G1 X-11.963 Y-14.185 E0.09120
G1 X-11.455 Y-14.185 E0.01473
G1 X-14.185 Y-11.455 E0.11204
G1 X-14.185 Y-10.947 E0.01473
G1 X-10.947 Y-14.185 E0.13288
G1 X-10.440 Y-14.185 E0.01473
G1 X-14.185 Y-10.440 E0.15371
G1 X-14.185 Y-9.932 E0.01473
G1 X-9.932 Y-14.185 E0.17455
G1 X-9.424 Y-14.185 E0.01473
G1 X-14.185 Y-9.424 E0.19539
G1 X-14.185 Y-8.916 E0.01473
G1 X-8.916 Y-14.185 E0.21622
G1 X-8.409 Y-14.185 E0.01473
G1 X-14.185 Y-8.409 E0.23706
G1 X-14.185 Y-7.901 E0.01473
G1 X-7.901 Y-14.185 E0.25790
G1 X-7.393 Y-14.185 E0.01473
G1 X-14.185 Y-7.393 E0.27873
G1 X-14.185 Y-6.886 E0.01473
G1 X-6.886 Y-14.185 E0.29957
G1 X-6.378 Y-14.185 E0.01473
G1 X-14.185 Y-6.378 E0.32041
G1 X-14.185 Y-5.870 E0.01473
G1 X-5.870 Y-14.185 E0.34125
G1 X-5.369 Y-14.179 E0.01456
G1 X-14.185 Y-5.362 E0.36183
G1 X-14.185 Y-4.855 E0.01473
G1 X-5.515 Y-13.525 E0.35582
G1 X-5.662 Y-12.870 E0.01946
G1 X-14.185 Y-4.347 E0.34980
G1 X-14.185 Y-3.839 E0.01473
G1 X-5.731 Y-12.293 E0.34695
G1 X-5.753 Y-11.764 E0.01538
G1 X-14.185 Y-3.331 E0.34605
G1 X-14.185 Y-2.824 E0.01473
G1 X-5.775 Y-11.234 E0.34515
G1 X-5.797 Y-10.704 E0.01538
G1 X-14.185 Y-2.316 E0.34425
G1 X-14.185 Y-1.808 E0.01473
G1 X-5.772 Y-10.221 E0.34527
G1 X-5.715 Y-9.771 E0.01318
G1 X-14.185 Y-1.301 E0.34761
G1 X-14.185 Y-0.793 E0.01473
G1 X-5.658 Y-9.320 E0.34996
G1 X-5.601 Y-8.870 E0.01318
G1 X-14.185 Y-0.285 E0.35230
G1 X-14.185 Y0.223 E0.01473
G1 X-5.544 Y-8.419 E0.35465
G1 X-5.420 Y-8.035 E0.01172
G1 X-14.185 Y0.730 E0.35971
G1 X-14.185 Y1.238 E0.01473
G1 X-5.296 Y-7.651 E0.36482
G1 X-5.171 Y-7.268 E0.01169
G1 X-14.185 Y1.746 E0.36993
G1 X-14.185 Y2.254 E0.01473
G1 X-5.047 Y-6.885 E0.37504
G1 X-4.903 Y-6.521 E0.01135
G1 X-14.185 Y2.761 E0.38095
G1 X-14.185 Y3.269 E0.01473
G1 X-4.714 Y-6.202 E0.38869
G1 X-4.526 Y-5.883 E0.01076
G1 X-14.185 Y3.777 E0.39642
G1 X-14.185 Y4.284 E0.01473
G1 X-4.337 Y-5.563 E0.40415
G1 X-4.111 Y-5.282 E0.01048
G1 X-14.185 Y4.792 E0.41346
G1 X-14.185 Y5.300 E0.01473
G1 X-3.860 Y-5.025 E0.42374
G1 X-3.609 Y-4.768 E0.01042
G1 X-14.185 Y5.808 E0.43402
G1 X-14.185 Y6.315 E0.01473
G1 X-3.301 Y-4.568 E0.44667
G1 X-2.988 Y-4.374 E0.01070
G1 X-14.185 Y6.823 E0.45953
G1 X-14.185 Y7.331 E0.01473
G1 X-2.608 Y-4.247 E0.47513
G1 X-2.191 Y-4.155 E0.01237
G1 X-14.185 Y7.839 E0.49223
G1 X-14.185 Y8.346 E0.01473
G1 X-1.685 Y-4.153 E0.51298
G1 X-1.012 Y-4.319 E0.02014
G1 X-14.185 Y8.854 E0.54063
G1 X-14.185 Y9.362 E0.01473
G1 X7.020 Y-11.844 E0.87026
G1 X7.274 Y-11.590 E0.01042
G1 X-14.185 Y9.869 E0.88067
G1 X-14.185 Y10.377 E0.01473
G1 X7.528 Y-11.336 E0.89109
G1 X7.782 Y-11.082 E0.01042
G1 X-14.185 Y10.885 E0.90151
G1 X-14.185 Y11.393 E0.01473
G1 X8.036 Y-10.828 E0.91193
G1 X8.289 Y-10.574 E0.01042
G1 X-14.185 Y11.900 E0.92235
G1 X-14.185 Y12.408 E0.01473
G1 X8.543 Y-10.320 E0.93277
G1 X8.797 Y-10.067 E0.01042
G1 X-14.185 Y12.916 E0.94319
G1 X-14.185 Y13.424 E0.01473
G1 X9.051 Y-9.813 E0.95360
G1 X9.305 Y-9.559 E0.01042
G1 X-14.185 Y13.931 E0.96402
G1 X-13.931 Y14.185 E0.01042
G1 X9.559 Y-9.305 E0.96402
G1 X9.813 Y-9.051 E0.01042
G1 X-13.424 Y14.185 E0.95361
G1 X-12.916 Y14.185 E0.01473
G1 X10.067 Y-8.797 E0.94319
G1 X10.320 Y-8.543 E0.01042
G1 X-12.408 Y14.185 E0.93277
G1 X-11.900 Y14.185 E0.01473
G1 X10.574 Y-8.290 E0.92235
G1 X10.828 Y-8.036 E0.01042
G1 X-11.393 Y14.185 E0.91193
G1 X-10.885 Y14.185 E0.01473
G1 X11.082 Y-7.782 E0.90151
G1 X11.336 Y-7.528 E0.01042
G1 X-10.377 Y14.185 E0.89110
G1 X-9.870 Y14.185 E0.01473
G1 X11.590 Y-7.274 E0.88068
G1 X13.850 Y-1.410 F15000.000
G1 X14.185 Y-1.746 E0.01377 F4422.579
G1 X14.185 Y-2.254 E0.01473
G1 X13.435 Y-1.503 E0.03080
G1 X13.020 Y-1.596 E0.01234
G1 X14.185 Y-2.761 E0.04783
G1 X14.185 Y-3.269 E0.01473
G1 X12.605 Y-1.689 E0.06487
G1 X12.138 Y-1.730 E0.01358
G1 X14.185 Y-3.777 E0.08399
G1 X14.185 Y-4.285 E0.01473
G1 X11.650 Y-1.749 E0.10405
G1 X11.161 Y-1.768 E0.01419
G1 X14.128 Y-4.735 E0.12176
G1 X13.874 Y-4.989 E0.01042
G1 X10.673 Y-1.788 E0.13140
G1 X10.167 Y-1.790 E0.01467
G1 X13.621 Y-5.243 E0.14172
G1 X13.367 Y-5.497 E0.01042
G1 X9.583 Y-1.713 E0.15530
G1 X8.998 Y-1.636 E0.01711
G1 X13.113 Y-5.751 E0.16887
G1 X12.859 Y-6.005 E0.01042
G1 X8.413 Y-1.559 E0.18244
G1 X7.715 Y-1.368 E0.02102
G1 X12.605 Y-6.259 E0.20070
G1 X12.351 Y-6.512 E0.01042
G1 X6.961 Y-1.122 E0.22122
G1 X6.032 Y-0.701 F15000.000
G1 X12.097 Y-6.766 E0.24892 F4422.579
G1 X11.844 Y-7.020 E0.01042
G1 X-9.362 Y14.185 E0.87026
G1 X-8.854 Y14.185 E0.01473
G1 X4.313 Y1.018 E0.54037
G1 X4.159 Y1.680 E0.01972
G1 X-8.346 Y14.185 E0.51321
G1 X-7.839 Y14.185 E0.01473
G1 X4.157 Y2.189 E0.49230
G1 X4.237 Y2.617 E0.01264
G1 X-7.331 Y14.185 E0.47473
G1 X-6.823 Y14.185 E0.01473
G1 X4.377 Y2.985 E0.45964
G1 X4.562 Y3.308 E0.01079
G1 X-6.315 Y14.185 E0.44641
G1 X-5.808 Y14.185 E0.01473
G1 X4.776 Y3.602 E0.43433
G1 X5.009 Y3.876 E0.01045
G1 X-5.300 Y14.185 E0.42309
G1 X-4.792 Y14.185 E0.01473
G1 X5.282 Y4.111 E0.41346
G1 X5.563 Y4.338 E0.01048
G1 X-4.285 Y14.185 E0.40413
G1 X-3.777 Y14.185 E0.01473
G1 X5.868 Y4.541 E0.39581
G1 X6.187 Y4.729 E0.01076
G1 X-3.269 Y14.185 E0.38808
G1 X-2.761 Y14.185 E0.01473
G1 X6.523 Y4.901 E0.38101
G1 X6.886 Y5.045 E0.01135
G1 X-2.254 Y14.185 E0.37509
G1 X-1.746 Y14.185 E0.01473
G1 X7.250 Y5.190 E0.36917
G1 X7.616 Y5.331 E0.01140
G1 X-1.238 Y14.185 E0.36339
G1 X-0.730 Y14.185 E0.01473
