; generated by Slic3r 1.2.9 on 2019-08-07 at 18:58:25

; external perimeters extrusion width = 0.40mm
; perimeters extrusion width = 0.40mm
; infill extrusion width = 0.40mm
; solid infill extrusion width = 0.40mm
; top infill extrusion width = 0.40mm

M107
M83
T0
M116
G21 ; set units to millimeters
G90 ; use absolute coordinates
M83 ; use relative distances for extrusion
G1 E-3.50000 F1500.00000
G1 Z0.400 F15000.000
G1 X16.586 Y0.000 F15000.000
G1 Z0.300 F15000.000
G1 E3.50000 F1500.00000
G1 X16.586 Y32.950 E2.53931 F960.000
G1 X16.198 Y34.007 E0.08680
G1 X14.950 Y34.586 E0.10599
G1 X-14.950 Y34.586 E2.30426
G1 X-16.007 Y34.198 E0.08680
G1 X-16.586 Y32.950 E0.10599
G1 X-16.586 Y-22.979 E4.31022
G1 X-16.107 Y-24.136 E0.09647
G1 X-6.136 Y-34.107 E1.08668
G1 X-4.979 Y-34.586 E0.09647
G1 X14.950 Y-34.586 E1.53586
G1 X16.007 Y-34.198 E0.08680
G1 X16.586 Y-32.950 E0.10599 F960.000
G1 X16.586 Y-0.060 E2.53468
G1 E-3.50000 F1500.00000
G1 Z0.700 F15000.000
G1 X-1.969 Y-28.406 F15000.000
G1 Z0.300 F15000.000
G1 E3.50000 F1500.00000
G1 X-1.911 Y-27.576 E0.06412 F720.000
G1 X-1.544 Y-25.920 E0.13068
G1 X-1.050 Y-24.676 E0.10318
G1 X-0.599 Y-23.910 E0.06847
G1 X-0.112 Y-23.317 E0.05916
G1 X0.329 Y-22.928 E0.04533
G1 X0.819 Y-22.624 E0.04438
G1 X1.332 Y-22.429 E0.04235
G1 X1.905 Y-22.341 E0.04471
G1 X2.465 Y-22.383 E0.04325
G1 X3.083 Y-22.574 E0.04983
G1 X3.739 Y-22.975 E0.05932
G1 X4.449 Y-23.699 E0.07811
G1 X5.172 Y-24.923 E0.10959
G1 X5.759 Y-26.729 E0.14629
G1 X6.027 Y-28.818 E0.16237
G1 X5.936 Y-31.008 E0.16891
G1 X5.722 Y-31.964 E0.07551
G1 X13.964 Y-31.964 E0.63520
G1 X13.964 Y-4.036 E2.15234
G1 X-13.964 Y-4.036 E2.15234
G1 X-13.964 Y-12.259 E0.63372
G1 X-13.402 Y-12.122 E0.04461
G1 X-11.611 Y-11.964 E0.13855
G1 X-9.433 Y-12.110 E0.16826
G1 X-7.901 Y-12.462 E0.12112
G1 X-6.691 Y-12.941 E0.10028
G1 X-5.917 Y-13.397 E0.06924
G1 X-5.307 Y-13.897 E0.06077
G1 X-4.933 Y-14.323 E0.04369
G1 X-4.627 Y-14.812 E0.04448
G1 X-4.431 Y-15.327 E0.04247
G1 X-4.340 Y-15.906 E0.04513
G1 X-4.389 Y-16.496 E0.04565
G1 X-4.573 Y-17.079 E0.04711
G1 X-4.967 Y-17.730 E0.05867
G1 X-5.684 Y-18.438 E0.07759
G1 X-6.926 Y-19.173 E0.11125
G1 X-8.713 Y-19.755 E0.14488
G1 X-10.791 Y-20.026 E0.16143
G1 X-12.974 Y-19.938 E0.16842
G1 X-13.964 Y-19.719 E0.07815
G1 X-13.964 Y-22.571 E0.21978
G1 X-4.571 Y-31.964 E1.02375
G1 X-1.734 Y-31.964 E0.21863
G1 X-1.896 Y-31.287 E0.05366
G1 X-2.038 Y-29.384 E0.14711 F720.000
G1 X-1.974 Y-28.466 E0.07093
G1 X-1.340 Y-28.510 F15000.000
G1 X-1.280 Y-27.667 E0.06511 F720.000
G1 X-0.934 Y-26.107 E0.12313
G1 X-0.477 Y-24.956 E0.09547
G1 X-0.077 Y-24.275 E0.06087
G1 X0.347 Y-23.760 E0.05142
G1 X0.709 Y-23.440 E0.03726
G1 X1.101 Y-23.197 E0.03554
G1 X1.495 Y-23.047 E0.03248
G1 X1.931 Y-22.980 E0.03394
G1 X2.346 Y-23.011 E0.03209
G1 X2.819 Y-23.158 E0.03816
G1 X3.341 Y-23.477 E0.04715
G1 X3.941 Y-24.089 E0.06608
G1 X4.589 Y-25.186 E0.09823
G1 X5.136 Y-26.868 E0.13631
G1 X5.389 Y-28.846 E0.15364
G1 X5.304 Y-30.925 E0.16036
G1 X4.928 Y-32.600 E0.13229
G1 X14.600 Y-32.600 E0.74537
G1 X14.600 Y-3.400 E2.25031
G1 X-14.600 Y-3.400 E2.25031
G1 X-14.600 Y-13.068 E0.74505
G1 X-13.298 Y-12.751 E0.10325
G1 X-11.604 Y-12.601 E0.13104
G1 X-9.526 Y-12.741 E0.16056
G1 X-8.090 Y-13.070 E0.11351
G1 X-6.971 Y-13.514 E0.09275
G1 X-6.282 Y-13.920 E0.06166
G1 X-5.750 Y-14.355 E0.05295
G1 X-5.445 Y-14.704 E0.03571
G1 X-5.199 Y-15.097 E0.03573
G1 X-5.049 Y-15.492 E0.03257
G1 X-4.980 Y-15.929 E0.03413
G1 X-5.017 Y-16.372 E0.03429
G1 X-5.156 Y-16.815 E0.03578
G1 X-5.470 Y-17.334 E0.04669
G1 X-6.075 Y-17.931 E0.06549
G1 X-7.189 Y-18.591 E0.09982
G1 X-8.854 Y-19.133 E0.13491
G1 X-10.819 Y-19.388 E0.15273
G1 X-12.892 Y-19.305 E0.15990
G1 X-14.600 Y-18.927 E0.13479
G1 X-14.600 Y-22.834 E0.30108
G1 X-4.834 Y-32.600 E1.06433
G1 X-0.928 Y-32.600 E0.30105
G1 X-1.266 Y-31.189 E0.11183
G1 X-1.401 Y-29.382 E0.13961 F720.000
G1 X-1.344 Y-28.570 E0.06276
G1 X-1.671 Y-28.286 F15000.000
G1 X-3.113 Y-31.579 F15000.000
G1 X-2.311 Y-30.778 E0.08844 F960.000
G1 X-2.374 Y-29.930 E0.06627
G1 X-4.023 Y-31.579 E0.18190
G1 X-4.698 Y-31.344 E0.05576
G1 X-2.411 Y-29.058 E0.25225
G1 X-2.343 Y-28.078 E0.07658
G1 X-5.153 Y-30.888 E0.31007
G1 X-5.608 Y-30.433 E0.05021
G1 X-2.222 Y-27.048 E0.37361
G1 X-1.963 Y-25.878 E0.09346
G1 X-6.063 Y-29.978 E0.45243
G1 X-6.518 Y-29.523 E0.05021
G1 X-1.435 Y-24.441 E0.56083
G1 X0.876 Y-22.129 F15000.000
G1 X13.579 Y-9.427 E1.40170 F960.000
G1 X13.579 Y-10.337 E0.07101
G1 X1.949 Y-21.967 E1.28337
G1 X2.729 Y-22.096 E0.06175
G1 X13.579 Y-11.247 E1.19721
G1 X13.579 Y-12.157 E0.07101
G1 X3.375 Y-22.361 E1.12592
G1 X3.938 Y-22.708 E0.05160
G1 X13.579 Y-13.067 E1.06381
G1 X13.579 Y-13.977 E0.07101
G1 X4.389 Y-23.167 E1.01407
G1 X4.812 Y-23.654 E0.05034
G1 X13.579 Y-14.887 E0.96736
G1 X13.579 Y-15.797 E0.07101
G1 X5.150 Y-24.226 E0.93007
G1 X5.488 Y-24.798 E0.05185
G1 X13.579 Y-16.708 E0.89279
G1 X13.579 Y-17.618 E0.07101
G1 X5.720 Y-25.476 E0.86717
G1 X5.943 Y-26.163 E0.05636
G1 X13.579 Y-18.528 E0.84255
G1 X13.579 Y-19.438 E0.07101
G1 X6.149 Y-26.868 E0.81986
G1 X6.252 Y-27.674 E0.06346
G1 X13.579 Y-20.348 E0.80845
G1 X13.579 Y-21.258 E0.07101
G1 X6.356 Y-28.481 E0.79704
G1 X6.396 Y-29.351 E0.06794
G1 X13.579 Y-22.168 E0.79259
G1 X13.579 Y-23.078 E0.07101
G1 X6.357 Y-30.300 E0.79691
G1 X6.309 Y-31.258 E0.07486
G1 X13.579 Y-23.988 E0.80221
G1 X13.579 Y-24.899 E0.07101
G1 X6.899 Y-31.579 E0.73716
G1 X7.809 Y-31.579 E0.07101
G1 X13.579 Y-25.809 E0.63673
G1 X13.579 Y-26.719 E0.07101
G1 X8.719 Y-31.579 E0.53631
G1 X9.629 Y-31.579 E0.07101
G1 X13.579 Y-27.629 E0.43588
G1 X13.579 Y-28.539 E0.07101
G1 X10.539 Y-31.579 E0.33545
G1 X11.449 Y-31.579 E0.07101
G1 X13.579 Y-29.449 E0.23503
G1 X13.579 Y-30.359 E0.07101
G1 X12.359 Y-31.579 E0.13460
G1 X13.269 Y-31.579 E0.07101
G1 X13.579 Y-31.269 E0.03417
G1 E-3.50000 F1500.00000
G1 Z0.700 F15000.000
G1 X-6.973 Y-29.068 F15000.000
G1 Z0.300 F15000.000
G1 E3.50000 F1500.00000
G1 X13.579 Y-8.517 E2.26781 F960.000
G1 X13.579 Y-7.606 E0.07101
G1 X-7.428 Y-28.613 E2.31802
G1 X-7.883 Y-28.158 E0.05021
G1 X13.579 Y-6.696 E2.36823
G1 X13.579 Y-5.786 E0.07101
G1 X-8.338 Y-27.703 E2.41845
G1 X-8.793 Y-27.248 E0.05021
G1 X13.579 Y-4.876 E2.46866
G1 X13.124 Y-4.421 E0.05021
G1 X-9.248 Y-26.793 E2.46866
G1 X-9.703 Y-26.338 E0.05021
G1 X12.214 Y-4.421 E2.41844
G1 X11.304 Y-4.421 E0.07101
G1 X-10.158 Y-25.883 E2.36823
G1 X-10.613 Y-25.428 E0.05021
G1 X10.394 Y-4.421 E2.31802
G1 X9.483 Y-4.421 E0.07101
G1 X-11.068 Y-24.973 E2.26780
G1 X-11.523 Y-24.518 E0.05021
G1 X-6.442 Y-19.437 E0.56065
G1 X-7.844 Y-19.929 F15000.000
G1 X-11.978 Y-24.063 E0.45618 F960.000
G1 X-12.433 Y-23.608 E0.05021
G1 X-9.030 Y-20.204 E0.37560
G1 X-10.076 Y-20.340 E0.08233
G1 X-12.889 Y-23.153 E0.31036
G1 X-13.344 Y-22.697 E0.05021
G1 X-11.042 Y-20.396 E0.25396
G1 X-11.917 Y-20.361 E0.06834
G1 X-13.579 Y-22.023 E0.18337
G1 X-13.579 Y-21.113 E0.07101
G1 X-12.792 Y-20.326 E0.08680
G1 E-3.50000 F1500.00000
G1 Z0.700 F15000.000
G1 X-13.279 Y-11.712 F15000.000
G1 Z0.300 F15000.000
G1 E3.50000 F1500.00000
G1 X-5.988 Y-4.421 E0.80449 F960.000
G1 X-6.899 Y-4.421 E0.07101
G1 X-13.579 Y-11.101 E0.73716
G1 X-13.579 Y-10.191 E0.07101
G1 X-7.809 Y-4.421 E0.63673
G1 X-8.719 Y-4.421 E0.07101
G1 X-13.579 Y-9.281 E0.53630
G1 X-13.579 Y-8.371 E0.07101
G1 X-9.629 Y-4.421 E0.43588
G1 X-10.539 Y-4.421 E0.07101
G1 X-13.579 Y-7.461 E0.33545
G1 X-13.579 Y-6.551 E0.07101
G1 X-11.449 Y-4.421 E0.23502
G1 X-12.359 Y-4.421 E0.07101
G1 X-13.579 Y-5.641 E0.13459
G1 X-13.579 Y-4.731 E0.07101
G1 X-13.269 Y-4.421 E0.03417
G1 X-12.281 Y-11.624 F15000.000
G1 X-5.078 Y-4.421 E0.79478 F960.000
G1 X-4.168 Y-4.421 E0.07101
G1 X-11.351 Y-11.604 E0.79259
G1 X-10.498 Y-11.661 E0.06670
G1 X-3.258 Y-4.421 E0.79890
G1 X-2.348 Y-4.421 E0.07101
G1 X-9.645 Y-11.718 E0.80521
G1 X-8.885 Y-11.868 E0.06047
G1 X-1.438 Y-4.421 E0.82172
G1 X-0.528 Y-4.421 E0.07101
G1 X-8.145 Y-12.038 E0.84048
G1 X-7.461 Y-12.265 E0.05618
G1 X0.382 Y-4.421 E0.86551
G1 X1.292 Y-4.421 E0.07101
G1 X-6.809 Y-12.523 E0.89401
G1 X-6.211 Y-12.834 E0.05265
G1 X2.203 Y-4.421 E0.92839
G1 X3.113 Y-4.421 E0.07101
G1 X-5.653 Y-13.186 E0.96722
G1 X-5.152 Y-13.596 E0.05046
G1 X4.023 Y-4.421 E1.01244
G1 X4.933 Y-4.421 E0.07101
G1 X-4.716 Y-14.070 E1.06474
G1 X-4.354 Y-14.618 E0.05125
G1 X5.843 Y-4.421 E1.12520
G1 X6.753 Y-4.421 E0.07101
G1 X-4.086 Y-15.260 E1.19607
G1 X-3.952 Y-16.037 E0.06146
G1 X7.663 Y-4.421 E1.28172
G1 X8.573 Y-4.421 E0.07101
G1 X-4.136 Y-17.131 E1.40244
G1 E-3.50000 F1500.00000
G1 Z0.700 F15000.000
G1 X-1.976 Y7.504 F15000.000
G1 Z0.300 F15000.000
G1 E3.50000 F1500.00000
G1 X-1.911 Y8.424 E0.07108 F720.000
G1 X-1.544 Y10.080 E0.13068
G1 X-1.050 Y11.324 E0.10318
G1 X-0.599 Y12.090 E0.06847
G1 X-0.112 Y12.683 E0.05916
G1 X0.329 Y13.072 E0.04533
G1 X0.819 Y13.376 E0.04438
G1 X1.332 Y13.571 E0.04235
G1 X1.905 Y13.659 E0.04471
G1 X2.465 Y13.617 E0.04325
G1 X3.083 Y13.426 E0.04983
G1 X3.739 Y13.025 E0.05932
G1 X4.449 Y12.301 E0.07811
G1 X5.172 Y11.077 E0.10959
G1 X5.759 Y9.271 E0.14629
G1 X6.027 Y7.182 E0.16237
G1 X5.936 Y4.992 E0.16891
G1 X5.722 Y4.036 E0.07551
G1 X13.964 Y4.036 E0.63520
G1 X13.964 Y31.964 E2.15234
G1 X-13.964 Y31.964 E2.15234
G1 X-13.964 Y23.741 E0.63372
G1 X-13.402 Y23.878 E0.04461
G1 X-11.611 Y24.036 E0.13855
G1 X-9.433 Y23.890 E0.16826
G1 X-7.901 Y23.538 E0.12112
G1 X-6.691 Y23.059 E0.10028
G1 X-5.917 Y22.603 E0.06924
G1 X-5.307 Y22.103 E0.06077
G1 X-4.933 Y21.677 E0.04369
G1 X-4.627 Y21.188 E0.04448
G1 X-4.431 Y20.673 E0.04247
G1 X-4.340 Y20.094 E0.04513
G1 X-4.389 Y19.504 E0.04565
G1 X-4.573 Y18.921 E0.04711
G1 X-4.967 Y18.270 E0.05867
G1 X-5.684 Y17.562 E0.07759
G1 X-6.926 Y16.827 E0.11125
G1 X-8.713 Y16.245 E0.14488
G1 X-10.791 Y15.974 E0.16143
G1 X-12.974 Y16.062 E0.16842
G1 X-13.964 Y16.281 E0.07815
G1 X-13.964 Y13.429 E0.21978
G1 X-4.571 Y4.036 E1.02375
G1 X-1.734 Y4.036 E0.21863
G1 X-1.896 Y4.713 E0.05366
G1 X-2.038 Y6.616 E0.14711 F720.000
G1 X-1.980 Y7.444 E0.06397
G1 X-1.346 Y7.400 F15000.000
G1 X-1.280 Y8.333 E0.07207 F720.000
G1 X-0.934 Y9.893 E0.12313
G1 X-0.477 Y11.044 E0.09547
G1 X-0.077 Y11.725 E0.06087
G1 X0.347 Y12.240 E0.05142
G1 X0.709 Y12.560 E0.03726
G1 X1.101 Y12.803 E0.03554
G1 X1.495 Y12.953 E0.03248
G1 X1.931 Y13.020 E0.03394
G1 X2.346 Y12.989 E0.03209
G1 X2.819 Y12.842 E0.03816
G1 X3.341 Y12.523 E0.04715
G1 X3.941 Y11.911 E0.06608
G1 X4.589 Y10.814 E0.09823
G1 X5.136 Y9.132 E0.13631
G1 X5.389 Y7.154 E0.15364
G1 X5.304 Y5.075 E0.16036
G1 X4.928 Y3.400 E0.13229
G1 X14.600 Y3.400 E0.74537
G1 X14.600 Y32.600 E2.25031
G1 X-14.600 Y32.600 E2.25031
G1 X-14.600 Y22.932 E0.74505
G1 X-13.298 Y23.249 E0.10325
G1 X-11.604 Y23.399 E0.13104
G1 X-9.526 Y23.259 E0.16056
G1 X-8.090 Y22.930 E0.11351
G1 X-6.971 Y22.486 E0.09275
G1 X-6.282 Y22.080 E0.06166
G1 X-5.750 Y21.645 E0.05295
G1 X-5.445 Y21.296 E0.03571
G1 X-5.199 Y20.903 E0.03573
G1 X-5.049 Y20.508 E0.03257
G1 X-4.980 Y20.071 E0.03413
G1 X-5.017 Y19.628 E0.03429
G1 X-5.156 Y19.185 E0.03578
G1 X-5.470 Y18.666 E0.04669
G1 X-6.075 Y18.069 E0.06549
G1 X-7.189 Y17.409 E0.09982
G1 X-8.854 Y16.867 E0.13491
G1 X-10.819 Y16.612 E0.15273
G1 X-12.892 Y16.695 E0.15990
G1 X-14.600 Y17.073 E0.13479
G1 X-14.600 Y13.166 E0.30108
G1 X-4.834 Y3.400 E1.06433
G1 X-0.928 Y3.400 E0.30105
G1 X-1.266 Y4.811 E0.11183
G1 X-1.401 Y6.618 E0.13961 F720.000
G1 X-1.350 Y7.340 E0.05580
G1 X-1.677 Y7.624 F15000.000
G1 X-3.113 Y4.421 F15000.000
G1 X-2.311 Y5.222 E0.08844 F960.000
G1 X-2.374 Y6.070 E0.06627
G1 X-4.023 Y4.421 E0.18190
G1 X-4.698 Y4.656 E0.05576
G1 X-2.411 Y6.942 E0.25225
G1 X-2.343 Y7.922 E0.07658
G1 X-5.153 Y5.112 E0.31007
G1 X-5.608 Y5.567 E0.05021
G1 X-2.222 Y8.952 E0.37361
G1 X-1.963 Y10.122 E0.09346
G1 X-6.063 Y6.022 E0.45243
G1 X-6.518 Y6.477 E0.05021
G1 X-1.435 Y11.559 E0.56083
G1 X0.876 Y13.871 F15000.000
G1 X13.579 Y26.573 E1.40170 F960.000
G1 X13.579 Y25.663 E0.07101
G1 X1.949 Y14.033 E1.28337
G1 X2.729 Y13.904 E0.06175
G1 X13.579 Y24.753 E1.19721
G1 X13.579 Y23.843 E0.07101
G1 X3.375 Y13.639 E1.12592
G1 X3.938 Y13.292 E0.05160
G1 X13.579 Y22.933 E1.06381
G1 X13.579 Y22.023 E0.07101
G1 X4.389 Y12.833 E1.01407
G1 X4.812 Y12.346 E0.05034
G1 X13.579 Y21.113 E0.96736
G1 X13.579 Y20.203 E0.07101
G1 X5.150 Y11.774 E0.93007
G1 X5.488 Y11.202 E0.05185
G1 X13.579 Y19.292 E0.89279
G1 X13.579 Y18.382 E0.07101
G1 X5.720 Y10.524 E0.86717
G1 X5.943 Y9.837 E0.05636
G1 X13.579 Y17.472 E0.84255
G1 X13.579 Y16.562 E0.07101
G1 X6.149 Y9.132 E0.81986
G1 X6.252 Y8.326 E0.06346
G1 X13.579 Y15.652 E0.80845
G1 X13.579 Y14.742 E0.07101
G1 X6.356 Y7.519 E0.79704
G1 X6.396 Y6.649 E0.06794
G1 X13.579 Y13.832 E0.79259
G1 X13.579 Y12.922 E0.07101
G1 X6.357 Y5.700 E0.79691
G1 X6.309 Y4.742 E0.07486
G1 X13.579 Y12.012 E0.80221
G1 X13.579 Y11.101 E0.07101
G1 X6.899 Y4.421 E0.73716
G1 X7.809 Y4.421 E0.07101
G1 X13.579 Y10.191 E0.63673
G1 X13.579 Y9.281 E0.07101
G1 X8.719 Y4.421 E0.53631
G1 X9.629 Y4.421 E0.07101
G1 X13.579 Y8.371 E0.43588
G1 X13.579 Y7.461 E0.07101
G1 X10.539 Y4.421 E0.33545
G1 X11.449 Y4.421 E0.07101
G1 X13.579 Y6.551 E0.23503
G1 X13.579 Y5.641 E0.07101
G1 X12.359 Y4.421 E0.13460
G1 X13.269 Y4.421 E0.07101
G1 X13.579 Y4.731 E0.03417
G1 E-3.50000 F1500.00000
G1 Z0.700 F15000.000
G1 X-6.973 Y6.932 F15000.000
G1 Z0.300 F15000.000
G1 E3.50000 F1500.00000
G1 X13.579 Y27.483 E2.26781 F960.000
G1 X13.579 Y28.394 E0.07101
G1 X-7.428 Y7.387 E2.31802
G1 X-7.883 Y7.842 E0.05021
G1 X13.579 Y29.304 E2.36823
G1 X13.579 Y30.214 E0.07101
G1 X-8.338 Y8.297 E2.41845
G1 X-8.793 Y8.752 E0.05021
G1 X13.579 Y31.124 E2.46866
G1 X13.124 Y31.579 E0.05021
G1 X-9.248 Y9.207 E2.46866
G1 X-9.703 Y9.662 E0.05021
G1 X12.214 Y31.579 E2.41844
G1 X11.304 Y31.579 E0.07101
G1 X-10.158 Y10.117 E2.36823
G1 X-10.613 Y10.572 E0.05021
G1 X10.394 Y31.579 E2.31802
G1 X9.483 Y31.579 E0.07101
G1 X-11.068 Y11.027 E2.26780
G1 X-11.523 Y11.482 E0.05021
G1 X-6.442 Y16.563 E0.56065
G1 X-7.844 Y16.071 F15000.000
G1 X-11.978 Y11.937 E0.45618 F960.000
G1 X-12.433 Y12.392 E0.05021
G1 X-9.030 Y15.796 E0.37560
G1 X-10.076 Y15.660 E0.08233
G1 X-12.889 Y12.847 E0.31036
G1 X-13.344 Y13.303 E0.05021
G1 X-11.042 Y15.604 E0.25396
G1 X-11.917 Y15.639 E0.06834
G1 X-13.579 Y13.977 E0.18337
G1 X-13.579 Y14.887 E0.07101
G1 X-12.792 Y15.674 E0.08680
G1 E-3.50000 F1500.00000
G1 Z0.700 F15000.000
G1 X-13.279 Y24.288 F15000.000
G1 Z0.300 F15000.000
G1 E3.50000 F1500.00000
G1 X-5.988 Y31.579 E0.80449 F960.000
G1 X-6.899 Y31.579 E0.07101
G1 X-13.579 Y24.899 E0.73716
G1 X-13.579 Y25.809 E0.07101
G1 X-7.809 Y31.579 E0.63673
G1 X-8.719 Y31.579 E0.07101
G1 X-13.579 Y26.719 E0.53630
G1 X-13.579 Y27.629 E0.07101
G1 X-9.629 Y31.579 E0.43588
G1 X-10.539 Y31.579 E0.07101
G1 X-13.579 Y28.539 E0.33545
G1 X-13.579 Y29.449 E0.07101
G1 X-11.449 Y31.579 E0.23502
G1 X-12.359 Y31.579 E0.07101
G1 X-13.579 Y30.359 E0.13459
G1 X-13.579 Y31.269 E0.07101
G1 X-13.269 Y31.579 E0.03417
G1 X-12.281 Y24.376 F15000.000
G1 X-5.078 Y31.579 E0.79478 F960.000
G1 X-4.168 Y31.579 E0.07101
G1 X-11.351 Y24.396 E0.79259
G1 X-10.498 Y24.339 E0.06670
G1 X-3.258 Y31.579 E0.79890
G1 X-2.348 Y31.579 E0.07101
G1 X-9.645 Y24.282 E0.80521
G1 X-8.885 Y24.132 E0.06047
G1 X-1.438 Y31.579 E0.82172
G1 X-0.528 Y31.579 E0.07101
G1 X-8.145 Y23.962 E0.84048
G1 X-7.461 Y23.735 E0.05618
G1 X0.382 Y31.579 E0.86551
G1 X1.292 Y31.579 E0.07101
G1 X-6.809 Y23.477 E0.89401
G1 X-6.211 Y23.166 E0.05265
G1 X2.203 Y31.579 E0.92839
G1 X3.113 Y31.579 E0.07101
G1 X-5.653 Y22.814 E0.96722
G1 X-5.152 Y22.404 E0.05046
G1 X4.023 Y31.579 E1.01244
G1 X4.933 Y31.579 E0.07101
G1 X-4.716 Y21.930 E1.06474
G1 X-4.354 Y21.382 E0.05125
G1 X5.843 Y31.579 E1.12520
G1 X6.753 Y31.579 E0.07101
G1 X-4.086 Y20.740 E1.19607
G1 X-3.952 Y19.963 E0.06146
G1 X7.663 Y31.579 E1.28172
G1 X8.573 Y31.579 E0.07101
G1 X-4.136 Y18.869 E1.40244
G1 E-3.50000 F1500.00000
G1 Z0.700 F15000.000
G1 X14.393 Y-19.551 F15000.000
G1 Z0.500 F15000.000
G1 E3.50000 F1500.00000
G1 X14.393 Y-3.607 E0.46018 F3600.000
G1 X-14.393 Y-3.607 E0.83084
G1 X-14.393 Y-12.909 E0.26847
G1 X-12.841 Y-12.539 E0.04604
G1 X-11.118 Y-12.393 E0.04991
G1 X-9.062 Y-12.535 E0.05950
G1 X-7.598 Y-12.871 E0.04334
G1 X-6.442 Y-13.330 E0.03591
