; generated by Slic3r 1.2.9 on 2019-04-07 at 17:08:51

; external perimeters extrusion width = 0.40mm
; perimeters extrusion width = 0.40mm
; infill extrusion width = 0.40mm
; solid infill extrusion width = 0.40mm
; top infill extrusion width = 0.40mm

M107
M83
T0
M116
G21 ; set units to millimeters
G90 ; use absolute coordinates
M83 ; use relative distances for extrusion
G1 E-3.50000 F1500.00000
G1 Z0.400 F15000.000
G1 X-0.369 Y18.845 F15000.000
G1 Z0.300 F15000.000
G1 E3.50000 F1500.00000
G1 X-25.823 Y18.347 E1.96203 F960.000
G1 X-27.462 Y17.920 E0.13052
G1 X-28.730 Y16.798 E0.13052
G1 X-29.385 Y14.835 E0.15947
G1 X-29.909 Y-0.685 E1.19673
G1 X-29.912 Y-15.289 E1.12548
G1 X-29.517 Y-16.936 E0.13052
G1 X-28.419 Y-18.226 E0.13052
G1 X-26.276 Y-18.925 E0.17373
G1 X-1.369 Y-18.925 E1.91949
G1 X26.283 Y-18.870 E2.13101 F960.000
G1 X27.929 Y-18.472 E0.13052
G1 X29.217 Y-17.372 E0.13052
G1 X29.912 Y-15.234 E0.17320
G1 X29.910 Y-0.659 E1.12327
G1 X29.496 Y15.329 E1.23250
G1 X29.059 Y16.965 E0.13052
G1 X27.928 Y18.226 E0.13052
G1 X25.862 Y18.870 E0.16682
G1 X0.962 Y18.870 E1.91893
G1 X-0.309 Y18.846 E0.09793
G1 E-3.50000 F1500.00000
G1 Z0.700 F15000.000
G1 X16.290 Y-9.249 F15000.000
G1 Z0.300 F15000.000
G1 E3.50000 F1500.00000
G1 X16.290 Y-13.820 E0.35228 F600.000
G1 X24.362 Y-13.820 E0.62201 F600.000
G1 X24.362 Y-9.249 E0.35228
G1 X16.350 Y-9.249 E0.61739
G1 X16.926 Y-9.884 F15000.000
G1 X16.926 Y-13.184 E0.25432 F600.000
G1 X23.726 Y-13.184 E0.52405 F600.000
G1 X23.726 Y-9.884 E0.25432
G1 X16.986 Y-9.884 E0.51942
G1 X16.526 Y-9.884 F15000.000
G1 X11.362 Y-9.884 F15000.000
G1 X11.362 Y-9.249 E0.04898 F600.000
G1 X3.290 Y-9.249 E0.62201
G1 X3.290 Y-13.820 E0.35228
G1 X11.362 Y-13.820 E0.62201 F600.000
G1 X11.362 Y-9.944 E0.29868
G1 X10.726 Y-9.944 F15000.000
G1 X10.726 Y-9.884 E0.00462 F600.000
G1 X3.926 Y-9.884 E0.52405
G1 X3.926 Y-13.184 E0.25432
G1 X10.726 Y-13.184 E0.52405 F600.000
G1 X10.726 Y-10.004 E0.24507
G1 X10.778 Y-9.914 F15000.000
G1 X15.167 Y-1.739 F15000.000
G1 X2.362 Y-1.739 E0.98689 F720.000
G1 X2.362 Y-14.249 E0.96410
G1 X25.290 Y-14.249 E1.76702
G1 X25.290 Y-1.739 E0.96410
G1 X15.227 Y-1.739 E0.77551 F720.000
G1 X15.227 Y-1.103 F15000.000
G1 X1.726 Y-1.103 E1.04049 F720.000
G1 X1.726 Y-14.884 E1.06207
G1 X25.926 Y-14.884 E1.86499
G1 X25.926 Y-1.103 E1.06207
G1 X15.287 Y-1.103 E0.81987 F720.000
G1 X15.027 Y-1.449 F15000.000
G1 X11.747 Y-12.374 F15000.000
G1 X21.997 Y-2.124 E1.12094 F960.000
G1 X21.095 Y-2.124 E0.06974
G1 X11.747 Y-11.472 E1.02231
G1 X11.747 Y-10.571 E0.06974
G1 X20.194 Y-2.124 E0.92367
G1 X19.292 Y-2.124 E0.06974
G1 X11.747 Y-9.669 E0.82504
G1 X11.650 Y-8.863 E0.06271
G1 X18.390 Y-2.124 E0.73699
G1 X17.488 Y-2.124 E0.06974
G1 X10.748 Y-8.863 E0.73699
G1 X9.846 Y-8.863 E0.06974
G1 X16.586 Y-2.124 E0.73699
G1 X15.684 Y-2.124 E0.06974
G1 X8.944 Y-8.863 E0.73699
G1 X8.043 Y-8.863 E0.06974
G1 X14.782 Y-2.124 E0.73699
G1 X13.880 Y-2.124 E0.06974
G1 X7.141 Y-8.863 E0.73699
G1 X6.239 Y-8.863 E0.06974
G1 X12.978 Y-2.124 E0.73699
G1 X12.076 Y-2.124 E0.06974
G1 X5.337 Y-8.863 E0.73699
G1 X4.435 Y-8.863 E0.06974
G1 X11.174 Y-2.124 E0.73699
G1 X10.272 Y-2.124 E0.06974
G1 X3.561 Y-8.835 E0.73386
G1 X2.949 Y-8.546 F15000.000
G1 X9.370 Y-2.124 E0.70223 F960.000
G1 X8.468 Y-2.124 E0.06974
G1 X2.747 Y-7.845 E0.62565
G1 X2.747 Y-6.943 E0.06974
G1 X7.566 Y-2.124 E0.52702
G1 X6.664 Y-2.124 E0.06974
G1 X2.747 Y-6.041 E0.42839
G1 X2.747 Y-5.139 E0.06974
G1 X5.762 Y-2.124 E0.32976
G1 X4.861 Y-2.124 E0.06974
G1 X2.747 Y-4.238 E0.23113
G1 X2.747 Y-3.336 E0.06974
G1 X3.959 Y-2.124 E0.13249
G1 X3.057 Y-2.124 E0.06974
G1 X2.747 Y-2.434 E0.03386
G1 X14.768 Y-13.863 F15000.000
G1 X15.905 Y-12.726 E0.12436 F960.000
G1 X15.905 Y-11.824 E0.06974
G1 X13.866 Y-13.863 E0.22299
G1 X12.964 Y-13.863 E0.06974
G1 X15.905 Y-10.922 E0.32162
G1 X15.905 Y-10.020 E0.06974
G1 X12.062 Y-13.863 E0.42025
G1 X11.747 Y-13.276 E0.05151
G1 X22.899 Y-2.124 E1.21957
G1 X23.801 Y-2.124 E0.06974
G1 X17.062 Y-8.863 E0.73699
G1 X17.964 Y-8.863 E0.06974
G1 X24.703 Y-2.124 E0.73699
G1 X24.905 Y-2.824 E0.05635
G1 X18.866 Y-8.863 E0.66041
G1 X19.768 Y-8.863 E0.06974
G1 X24.905 Y-3.726 E0.56178
G1 X24.905 Y-4.628 E0.06974
G1 X20.670 Y-8.863 E0.46315
G1 X21.572 Y-8.863 E0.06974
G1 X24.905 Y-5.530 E0.36451
G1 X24.905 Y-6.432 E0.06974
G1 X22.474 Y-8.863 E0.26588
G1 X23.376 Y-8.863 E0.06974
G1 X24.905 Y-7.334 E0.16725
G1 X24.595 Y-8.546 E0.09670
G1 X24.905 Y-8.236 E0.03386
G1 X2.826 Y-8.931 F15000.000
G1 X2.826 Y-13.931 E0.38533 F960.000
G1 X24.826 Y-13.931 F15000.000
G1 X24.826 Y-8.931 E0.38533 F960.000
G1 E-3.50000 F1500.00000
G1 Z0.700 F15000.000
G1 X23.948 Y2.168 F15000.000
G1 Z0.300 F15000.000
G1 E3.50000 F1500.00000
G1 X23.948 Y6.739 E0.35228 F600.000
G1 X15.876 Y6.739 E0.62201
G1 X15.876 Y2.168 E0.35228
G1 X23.888 Y2.168 E0.61739 F600.000
G1 X23.312 Y2.803 F15000.000
G1 X23.312 Y6.103 E0.25432 F600.000
G1 X16.512 Y6.103 E0.52405
G1 X16.512 Y2.803 E0.25432
G1 X23.252 Y2.803 E0.51942 F600.000
G1 X23.712 Y2.803 F15000.000
G1 X10.948 Y2.803 F15000.000
G1 X10.948 Y6.739 E0.30330 F600.000
G1 X2.876 Y6.739 E0.62201
G1 X2.876 Y2.168 E0.35228
G1 X10.948 Y2.168 E0.62201 F600.000
G1 X10.948 Y2.743 E0.04436
G1 X10.312 Y2.803 F15000.000
G1 X10.312 Y6.103 E0.25432 F600.000
G1 X3.512 Y6.103 E0.52405
G1 X3.512 Y2.803 E0.25432
G1 X10.252 Y2.803 E0.51942 F600.000
G1 X10.712 Y2.803 F15000.000
G1 X13.934 Y14.249 F15000.000
G1 X1.948 Y14.249 E0.92374 F720.000
G1 X1.948 Y1.739 E0.96410
G1 X24.876 Y1.739 E1.76702
G1 X24.876 Y14.249 E0.96410
G1 X13.994 Y14.249 E0.83865 F720.000
G1 X13.994 Y14.885 F15000.000
G1 X1.312 Y14.885 E0.97735 F720.000
G1 X1.312 Y1.103 E1.06207
G1 X25.512 Y1.103 E1.86499
G1 X25.512 Y14.885 E1.06207
G1 X14.054 Y14.885 E0.88301 F720.000
G1 X13.794 Y14.538 F15000.000
G1 X11.333 Y3.613 F15000.000
G1 X21.583 Y13.864 E1.12094 F960.000
G1 X20.681 Y13.864 E0.06974
G1 X11.333 Y4.515 E1.02231
G1 X11.333 Y5.417 E0.06974
G1 X19.780 Y13.864 E0.92367
G1 X18.878 Y13.864 E0.06974
G1 X11.333 Y6.319 E0.82504
G1 X11.236 Y7.124 E0.06271
G1 X17.976 Y13.864 E0.73699
G1 X17.074 Y13.864 E0.06974
G1 X10.334 Y7.124 E0.73699
G1 X9.432 Y7.124 E0.06974
G1 X16.172 Y13.864 E0.73699
G1 X15.270 Y13.864 E0.06974
G1 X8.530 Y7.124 E0.73699
G1 X7.629 Y7.124 E0.06974
G1 X14.368 Y13.864 E0.73699
G1 X13.466 Y13.864 E0.06974
G1 X6.727 Y7.124 E0.73699
G1 X5.825 Y7.124 E0.06974
G1 X12.564 Y13.864 E0.73699
G1 X11.662 Y13.864 E0.06974
G1 X4.923 Y7.124 E0.73699
G1 X4.021 Y7.124 E0.06974
G1 X10.760 Y13.864 E0.73699
G1 X9.858 Y13.864 E0.06974
G1 X3.147 Y7.153 E0.73386
G1 X2.535 Y7.442 F15000.000
G1 X8.956 Y13.864 E0.70223 F960.000
G1 X8.054 Y13.864 E0.06974
G1 X2.333 Y8.142 E0.62565
G1 X2.333 Y9.044 E0.06974
G1 X7.152 Y13.864 E0.52702
G1 X6.250 Y13.864 E0.06974
G1 X2.333 Y9.946 E0.42839
G1 X2.333 Y10.848 E0.06974
G1 X5.348 Y13.864 E0.32976
G1 X4.447 Y13.864 E0.06974
G1 X2.333 Y11.750 E0.23113
G1 X2.333 Y12.652 E0.06974
G1 X3.545 Y13.864 E0.13249
G1 X2.643 Y13.864 E0.06974
G1 X2.333 Y13.554 E0.03386
G1 X14.354 Y2.124 F15000.000
G1 X15.491 Y3.261 E0.12436 F960.000
G1 X15.491 Y4.163 E0.06974
G1 X13.452 Y2.124 E0.22299
G1 X12.550 Y2.124 E0.06974
G1 X15.491 Y5.065 E0.32162
G1 X15.491 Y5.967 E0.06974
G1 X11.648 Y2.124 E0.42025
G1 X11.333 Y2.711 E0.05151
G1 X22.485 Y13.864 E1.21957
G1 X23.387 Y13.864 E0.06974
G1 X16.648 Y7.124 E0.73699
G1 X17.550 Y7.124 E0.06974
G1 X24.289 Y13.864 E0.73699
G1 X24.491 Y13.163 E0.05635
G1 X18.452 Y7.124 E0.66041
G1 X19.354 Y7.124 E0.06974
G1 X24.491 Y12.261 E0.56178
G1 X24.491 Y11.359 E0.06974
G1 X20.256 Y7.124 E0.46315
G1 X21.158 Y7.124 E0.06974
G1 X24.491 Y10.458 E0.36451
G1 X24.491 Y9.556 E0.06974
G1 X22.060 Y7.124 E0.26588
G1 X22.961 Y7.124 E0.06974
G1 X24.491 Y8.654 E0.16725
G1 X24.181 Y7.442 E0.09670
G1 X24.491 Y7.752 E0.03386
G1 X24.412 Y7.057 F15000.000
G1 X24.412 Y2.057 E0.38533 F960.000
G1 X2.412 Y2.057 F15000.000
G1 X2.412 Y7.057 E0.38533 F960.000
G1 E-3.50000 F1500.00000
G1 Z0.700 F15000.000
G1 X-2.766 Y6.216 F15000.000
G1 Z0.300 F15000.000
G1 E3.50000 F1500.00000
G1 X-10.837 Y6.216 E0.62201 F600.000
G1 X-10.837 Y1.645 E0.35228
G1 X-2.766 Y1.645 E0.62201 F600.000
G1 X-2.766 Y6.156 E0.34766
G1 X-3.402 Y5.581 F15000.000
G1 X-10.202 Y5.581 E0.52405 F600.000
G1 X-10.202 Y2.281 E0.25432
G1 X-3.402 Y2.281 E0.52405 F600.000
G1 X-3.402 Y5.521 E0.24969
G1 X-3.402 Y5.981 F15000.000
G1 X-15.766 Y5.521 F15000.000
G1 X-15.766 Y6.216 E0.05361 F600.000
G1 X-23.837 Y6.216 E0.62201
G1 X-23.837 Y1.645 E0.35228
G1 X-15.766 Y1.645 E0.62201 F600.000
G1 X-15.766 Y5.461 E0.29405
G1 X-16.402 Y5.461 F15000.000
G1 X-16.402 Y5.581 E0.00925 F600.000
G1 X-23.202 Y5.581 E0.52405
G1 X-23.202 Y2.281 E0.25432
G1 X-16.402 Y2.281 E0.52405 F600.000
G1 X-16.402 Y5.401 E0.24044
G1 X-16.298 Y5.521 F15000.000
G1 E-3.50000 F1500.00000
G1 Z0.700 F15000.000
G1 X-5.130 Y1.216 F15000.000
G1 Z0.300 F15000.000
G1 E3.50000 F1500.00000
G1 X-1.837 Y1.216 E0.25370 F720.000
G1 X-1.837 Y13.727 E0.96410
G1 X-24.766 Y13.727 E1.76702 F720.000
G1 X-24.766 Y1.216 E0.96410
G1 X-5.190 Y1.216 E1.50869
G1 X-5.190 Y0.581 F15000.000
G1 X-1.202 Y0.581 E0.30731 F720.000
G1 X-1.202 Y14.362 E1.06207
G1 X-25.402 Y14.362 E1.86499 F720.000
G1 X-25.402 Y0.581 E1.06207
G1 X-5.250 Y0.581 E1.55305
G1 X-4.990 Y0.927 F15000.000
G1 X-2.302 Y1.534 F15000.000
G1 X-2.302 Y6.534 E0.38533 F960.000
G1 X-2.223 Y7.229 F15000.000
G1 X-2.533 Y6.920 E0.03386 F960.000
G1 X-2.223 Y8.131 E0.09670
G1 X-3.752 Y6.602 E0.16725
G1 X-4.654 Y6.602 E0.06974
G1 X-2.223 Y9.033 E0.26588
G1 X-2.223 Y9.935 E0.06974
G1 X-5.556 Y6.602 E0.36451
G1 X-6.458 Y6.602 E0.06974
G1 X-2.223 Y10.837 E0.46315
G1 X-2.223 Y11.739 E0.06974
G1 X-7.360 Y6.602 E0.56178
G1 X-8.262 Y6.602 E0.06974
G1 X-2.223 Y12.641 E0.66041
G1 X-2.425 Y13.341 E0.05635
G1 X-9.164 Y6.602 E0.73699
G1 X-10.066 Y6.602 E0.06974
G1 X-3.327 Y13.341 E0.73699
G1 X-4.228 Y13.341 E0.06974
G1 X-15.381 Y2.189 E1.21957
G1 X-15.066 Y1.602 E0.05151
G1 X-11.223 Y5.445 E0.42025
G1 X-11.223 Y4.543 E0.06974
G1 X-14.164 Y1.602 E0.32162
G1 X-13.262 Y1.602 E0.06974
G1 X-11.223 Y3.641 E0.22299
G1 X-11.223 Y2.739 E0.06974
G1 X-12.360 Y1.602 E0.12436
G1 X-15.381 Y3.091 F15000.000
G1 X-5.130 Y13.341 E1.12094 F960.000
G1 X-6.032 Y13.341 E0.06974
G1 X-15.381 Y3.993 E1.02231
G1 X-15.381 Y4.895 E0.06974
G1 X-6.934 Y13.341 E0.92367
G1 X-7.836 Y13.341 E0.06974
G1 X-15.381 Y5.797 E0.82504
G1 X-15.478 Y6.602 E0.06271
G1 X-8.738 Y13.341 E0.73699
G1 X-9.640 Y13.341 E0.06974
G1 X-16.379 Y6.602 E0.73699
G1 X-17.281 Y6.602 E0.06974
G1 X-10.542 Y13.341 E0.73699
G1 X-11.444 Y13.341 E0.06974
G1 X-18.183 Y6.602 E0.73699
G1 X-19.085 Y6.602 E0.06974
G1 X-12.346 Y13.341 E0.73699
G1 X-13.248 Y13.341 E0.06974
G1 X-19.987 Y6.602 E0.73699
G1 X-20.889 Y6.602 E0.06974
G1 X-14.150 Y13.341 E0.73699
G1 X-15.052 Y13.341 E0.06974
G1 X-21.791 Y6.602 E0.73699
G1 X-22.693 Y6.602 E0.06974
G1 X-15.954 Y13.341 E0.73699
G1 X-16.856 Y13.341 E0.06974
G1 X-23.566 Y6.630 E0.73386
G1 X-24.179 Y6.920 F15000.000
G1 X-17.758 Y13.341 E0.70223 F960.000
G1 X-18.660 Y13.341 E0.06974
G1 X-24.381 Y7.620 E0.62565
G1 X-24.381 Y8.522 E0.06974
G1 X-19.561 Y13.341 E0.52702
G1 X-20.463 Y13.341 E0.06974
G1 X-24.381 Y9.424 E0.42839
G1 X-24.381 Y10.326 E0.06974
G1 X-21.365 Y13.341 E0.32976
G1 X-22.267 Y13.341 E0.06974
G1 X-24.381 Y11.228 E0.23113
G1 X-24.381 Y12.130 E0.06974
G1 X-23.169 Y13.341 E0.13249
G1 X-24.071 Y13.341 E0.06974
G1 X-24.381 Y13.031 E0.03386
G1 X-24.302 Y6.534 F15000.000
G1 X-24.302 Y1.534 E0.38533 F960.000
G1 E-3.50000 F1500.00000
G1 Z0.700 F15000.000
G1 X-11.362 Y-9.304 F15000.000
G1 Z0.300 F15000.000
G1 E3.50000 F1500.00000
G1 X-11.362 Y-13.875 E0.35228 F600.000
G1 X-3.290 Y-13.875 E0.62201 F600.000
G1 X-3.290 Y-9.304 E0.35228
G1 X-11.302 Y-9.304 E0.61739
G1 X-10.726 Y-9.939 F15000.000
G1 X-10.726 Y-13.239 E0.25432 F600.000
G1 X-3.926 Y-13.239 E0.52405 F600.000
G1 X-3.926 Y-9.939 E0.25432
G1 X-10.666 Y-9.939 E0.51942
G1 X-11.126 Y-9.939 F15000.000
G1 X-16.290 Y-9.939 F15000.000
G1 X-16.290 Y-9.304 E0.04898 F600.000
G1 X-24.362 Y-9.304 E0.62201
G1 X-24.362 Y-13.875 E0.35228
G1 X-16.290 Y-13.875 E0.62201 F600.000
G1 X-16.290 Y-9.999 E0.29868
G1 X-16.926 Y-9.999 F15000.000
G1 X-16.926 Y-9.939 E0.00462 F600.000
G1 X-23.726 Y-9.939 E0.52405
G1 X-23.726 Y-13.239 E0.25432
G1 X-16.926 Y-13.239 E0.52405 F600.000
G1 X-16.926 Y-10.059 E0.24507
G1 X-16.874 Y-9.969 F15000.000
G1 X-9.806 Y-14.304 F15000.000
G1 X-2.362 Y-14.304 E0.57369 F720.000
G1 X-2.362 Y-1.793 E0.96410
G1 X-25.290 Y-1.793 E1.76702 F720.000
G1 X-25.290 Y-14.304 E0.96410
G1 X-9.866 Y-14.304 E1.18870
G1 X-9.866 Y-14.939 F15000.000
G1 X-1.726 Y-14.939 E0.62730 F720.000
G1 X-1.726 Y-1.158 E1.06207
G1 X-25.926 Y-1.158 E1.86499 F720.000
G1 X-25.926 Y-14.939 E1.06207
G1 X-9.926 Y-14.939 E1.23306
G1 X-9.666 Y-14.593 F15000.000
G1 X-2.826 Y-13.986 F15000.000
G1 X-2.826 Y-8.986 E0.38533 F960.000
G1 X-2.747 Y-8.291 F15000.000
G1 X-3.057 Y-8.600 E0.03386 F960.000
G1 X-2.747 Y-7.389 E0.09670
G1 X-4.276 Y-8.918 E0.16725
G1 X-5.178 Y-8.918 E0.06974
G1 X-2.747 Y-6.487 E0.26588
G1 X-2.747 Y-5.585 E0.06974
G1 X-6.080 Y-8.918 E0.36451
G1 X-6.982 Y-8.918 E0.06974
G1 X-2.747 Y-4.683 E0.46315
G1 X-2.747 Y-3.781 E0.06974
G1 X-7.884 Y-8.918 E0.56178
G1 X-8.786 Y-8.918 E0.06974
G1 X-2.747 Y-2.879 E0.66041
G1 X-2.949 Y-2.179 E0.05635
G1 X-9.688 Y-8.918 E0.73699
G1 X-10.590 Y-8.918 E0.06974
G1 X-3.851 Y-2.179 E0.73699
G1 X-4.753 Y-2.179 E0.06974
G1 X-15.905 Y-13.331 E1.21957
G1 X-15.590 Y-13.918 E0.05151
G1 X-11.747 Y-10.075 E0.42025
G1 X-11.747 Y-10.977 E0.06974
G1 X-14.688 Y-13.918 E0.32162
G1 X-13.786 Y-13.918 E0.06974
G1 X-11.747 Y-11.879 E0.22299
G1 X-11.747 Y-12.781 E0.06974
G1 X-12.884 Y-13.918 E0.12436
G1 X-15.905 Y-12.429 F15000.000
G1 X-5.655 Y-2.179 E1.12094 F960.000
G1 X-6.556 Y-2.179 E0.06974
G1 X-15.905 Y-11.527 E1.02231
G1 X-15.905 Y-10.625 E0.06974
G1 X-7.458 Y-2.179 E0.92367
G1 X-8.360 Y-2.179 E0.06974
G1 X-15.905 Y-9.723 E0.82504
G1 X-16.002 Y-8.918 E0.06271
G1 X-9.262 Y-2.179 E0.73699
G1 X-10.164 Y-2.179 E0.06974
G1 X-16.904 Y-8.918 E0.73699
G1 X-17.806 Y-8.918 E0.06974
G1 X-11.066 Y-2.179 E0.73699
G1 X-11.968 Y-2.179 E0.06974
G1 X-18.707 Y-8.918 E0.73699
G1 X-19.609 Y-8.918 E0.06974
G1 X-12.870 Y-2.179 E0.73699
G1 X-13.772 Y-2.179 E0.06974
G1 X-20.511 Y-8.918 E0.73699
G1 X-21.413 Y-8.918 E0.06974
G1 X-14.674 Y-2.179 E0.73699
G1 X-15.576 Y-2.179 E0.06974
G1 X-22.315 Y-8.918 E0.73699
G1 X-23.217 Y-8.918 E0.06974
G1 X-16.478 Y-2.179 E0.73699
G1 X-17.380 Y-2.179 E0.06974
G1 X-24.091 Y-8.890 E0.73386
G1 X-24.703 Y-8.600 F15000.000
G1 X-18.282 Y-2.179 E0.70223 F960.000
G1 X-19.184 Y-2.179 E0.06974
G1 X-24.905 Y-7.900 E0.62565
G1 X-24.905 Y-6.998 E0.06974
G1 X-20.086 Y-2.179 E0.52702
G1 X-20.988 Y-2.179 E0.06974
G1 X-24.905 Y-6.096 E0.42839
G1 X-24.905 Y-5.194 E0.06974
G1 X-21.889 Y-2.179 E0.32976
G1 X-22.791 Y-2.179 E0.06974
G1 X-24.905 Y-4.292 E0.23113
G1 X-24.905 Y-3.390 E0.06974
G1 X-23.693 Y-2.179 E0.13249
G1 X-24.595 Y-2.179 E0.06974
G1 X-24.905 Y-2.488 E0.03386
G1 X-24.826 Y-8.986 F15000.000
G1 X-24.826 Y-13.986 E0.38533 F960.000
G1 E-3.50000 F1500.00000
G1 Z0.700 F15000.000
G1 X16.719 Y-13.391 F15000.000
G1 Z0.500 F15000.000
G1 E3.50000 F1500.00000
G1 X23.933 Y-13.391 E0.20822 F3000.000
G1 X23.933 Y-9.677 E0.10720
G1 X16.719 Y-9.677 E0.20822
G1 X16.719 Y-13.331 E0.10547
G1 X17.076 Y-13.034 F15000.000
G1 X23.576 Y-13.034 E0.18761 F3000.000
G1 X23.576 Y-10.034 E0.08659
G1 X17.076 Y-10.034 E0.18761
G1 X17.076 Y-12.974 E0.08486
G1 X17.076 Y-13.434 F15000.000
G1 X10.933 Y-12.974 F15000.000
G1 X10.933 Y-9.677 E0.09516 F3000.000
G1 X3.719 Y-9.677 E0.20822
G1 X3.719 Y-13.391 E0.10720
G1 X10.933 Y-13.391 E0.20822 F3000.000
G1 X10.933 Y-13.034 E0.01031
G1 X10.576 Y-13.034 F15000.000
G1 X10.576 Y-10.034 E0.08659 F3000.000
G1 X4.076 Y-10.034 E0.18761
G1 X4.076 Y-13.034 E0.08659
G1 X10.516 Y-13.034 E0.18588 F3000.000
G1 X10.976 Y-13.034 F15000.000
G1 E-3.50000 F1500.00000
G1 Z0.900 F15000.000
G1 X25.719 Y-11.264 F15000.000
G1 Z0.500 F15000.000
G1 E3.50000 F1500.00000
G1 X25.719 Y-1.401 E0.28466 F3600.000
G1 X1.933 Y-1.401 E0.68652 F3600.000
G1 X1.933 Y-14.677 E0.38319
G1 X25.719 Y-14.677 E0.68652
