; generated by Slic3r 1.2.9 on 2019-08-20 at 20:42:47

; external perimeters extrusion width = 0.40mm
; perimeters extrusion width = 0.40mm
; infill extrusion width = 0.40mm
; solid infill extrusion width = 0.40mm
; top infill extrusion width = 0.40mm

M107
M83
T0
M116
G21 ; set units to millimeters
G90 ; use absolute coordinates
M83 ; use relative distances for extrusion
G1 E-3.50000 F1500.00000
G1 Z0.400 F15000.000
G1 X0.000 Y11.586 F15000.000
G1 Z0.300 F15000.000
G1 E3.50000 F1500.00000
G1 X-54.997 Y11.586 E4.23839 F960.000
G1 X-56.285 Y11.451 E0.09975
G1 X-56.642 Y11.369 E0.02823
G1 X-57.688 Y11.003 E0.08542
G1 X-58.018 Y10.844 E0.02823
G1 X-58.956 Y10.255 E0.08542
G1 X-59.243 Y10.026 E0.02823
G1 X-60.026 Y9.243 E0.08542
G1 X-60.255 Y8.956 E0.02823
G1 X-60.844 Y8.018 E0.08542
G1 X-61.003 Y7.688 E0.02823
G1 X-61.369 Y6.642 E0.08542
G1 X-61.451 Y6.285 E0.02823
G1 X-61.586 Y4.997 E0.09975
G1 X-61.586 Y-4.997 E0.77022
G1 X-61.451 Y-6.285 E0.09975
G1 X-61.369 Y-6.642 E0.02823
G1 X-61.003 Y-7.688 E0.08542
G1 X-60.844 Y-8.018 E0.02823
G1 X-60.255 Y-8.956 E0.08542
G1 X-60.026 Y-9.243 E0.02823
G1 X-59.243 Y-10.026 E0.08542
G1 X-58.956 Y-10.255 E0.02823
G1 X-58.018 Y-10.844 E0.08542
G1 X-57.688 Y-11.003 E0.02823
G1 X-56.642 Y-11.369 E0.08542
G1 X-56.285 Y-11.451 E0.02823
G1 X-54.997 Y-11.586 E0.09975
G1 X55.180 Y-11.575 E8.49088
G1 X56.285 Y-11.451 E0.08564 F960.000
G1 X56.642 Y-11.369 E0.02823
G1 X57.688 Y-11.003 E0.08542
G1 X58.018 Y-10.844 E0.02823
G1 X58.956 Y-10.255 E0.08542
G1 X59.243 Y-10.026 E0.02823
G1 X60.026 Y-9.243 E0.08542
G1 X60.255 Y-8.956 E0.02823
G1 X60.844 Y-8.018 E0.08542
G1 X61.003 Y-7.688 E0.02823
G1 X61.369 Y-6.642 E0.08542
G1 X61.451 Y-6.285 E0.02823
G1 X61.575 Y-5.180 E0.08563
G1 X61.586 Y4.997 E0.78434
G1 X61.451 Y6.285 E0.09975
G1 X61.369 Y6.642 E0.02823
G1 X61.003 Y7.688 E0.08542
G1 X60.844 Y8.018 E0.02823
G1 X60.255 Y8.956 E0.08542
G1 X60.026 Y9.243 E0.02823
G1 X59.243 Y10.026 E0.08542
G1 X58.956 Y10.255 E0.02823
G1 X58.018 Y10.844 E0.08542
G1 X57.688 Y11.003 E0.02823
G1 X56.642 Y11.369 E0.08542
G1 X56.285 Y11.451 E0.02823
G1 X54.997 Y11.586 E0.09975
G1 X0.060 Y11.586 E4.23376
G1 E-3.50000 F1500.00000
G1 Z0.700 F15000.000
G1 X46.664 Y0.884 F15000.000
G1 Z0.300 F15000.000
G1 E3.50000 F1500.00000
G1 X46.557 Y0.000 E0.06861 F600.000
G1 X46.664 Y-0.884 E0.06861
G1 X46.980 Y-1.716 E0.06861
G1 X47.486 Y-2.449 E0.06861
G1 X48.152 Y-3.039 E0.06861
G1 X48.411 Y-3.175 E0.02251
G1 X48.940 Y-3.453 E0.04610
G1 X49.805 Y-3.666 E0.06861
G1 X50.695 Y-3.666 E0.06861 F600.000
G1 X50.979 Y-3.596 E0.02251
G1 X51.560 Y-3.453 E0.04610
G1 X52.348 Y-3.039 E0.06861
G1 X53.014 Y-2.449 E0.06861
G1 X53.520 Y-1.716 E0.06862
G1 X53.836 Y-0.884 E0.06861
G1 X53.943 Y-0.000 E0.06861
G1 X53.836 Y0.884 E0.06861
G1 X53.520 Y1.716 E0.06861
G1 X53.014 Y2.449 E0.06862
G1 X52.348 Y3.039 E0.06861
G1 X51.560 Y3.453 E0.06861
G1 X50.695 Y3.666 E0.06861
G1 X49.805 Y3.666 E0.06861
G1 X48.940 Y3.453 E0.06861
G1 X48.152 Y3.039 E0.06861
G1 X47.486 Y2.449 E0.06861
G1 X46.980 Y1.716 E0.06861
G1 X46.685 Y0.940 E0.06399
G1 X47.286 Y0.731 F15000.000
G1 X47.197 Y0.000 E0.05672 F600.000
G1 X47.286 Y-0.731 E0.05672
G1 X47.547 Y-1.419 E0.05672
G1 X47.965 Y-2.024 E0.05672
G1 X48.516 Y-2.513 E0.05672
G1 X48.706 Y-2.612 E0.01656
G1 X49.167 Y-2.855 E0.04016
G1 X49.882 Y-3.031 E0.05672
G1 X50.618 Y-3.031 E0.05672 F600.000
G1 X51.333 Y-2.855 E0.05672
G1 X51.984 Y-2.513 E0.05672
G1 X52.535 Y-2.024 E0.05672
G1 X52.953 Y-1.419 E0.05672
G1 X53.214 Y-0.731 E0.05672
G1 X53.303 Y-0.000 E0.05672
G1 X53.214 Y0.731 E0.05672
G1 X52.953 Y1.419 E0.05672
G1 X52.535 Y2.024 E0.05672
G1 X51.984 Y2.513 E0.05672
G1 X51.333 Y2.855 E0.05672
G1 X50.618 Y3.031 E0.05672
G1 X49.882 Y3.031 E0.05672
G1 X49.167 Y2.855 E0.05672
G1 X48.516 Y2.513 E0.05672
G1 X47.965 Y2.024 E0.05672
G1 X47.547 Y1.419 E0.05672
G1 X47.307 Y0.787 E0.05209
G1 X46.906 Y0.604 F15000.000
G1 X-46.557 Y-0.000 F15000.000
G1 X-46.664 Y0.884 E0.06861 F600.000
G1 X-46.980 Y1.716 E0.06861
G1 X-47.486 Y2.449 E0.06861
G1 X-48.152 Y3.039 E0.06861
G1 X-48.940 Y3.453 E0.06861
G1 X-49.805 Y3.666 E0.06861
G1 X-50.695 Y3.666 E0.06861
G1 X-51.560 Y3.453 E0.06861
G1 X-52.348 Y3.039 E0.06861
G1 X-53.014 Y2.449 E0.06861
G1 X-53.520 Y1.716 E0.06861
G1 X-53.836 Y0.884 E0.06861
G1 X-53.943 Y-0.000 E0.06861
G1 X-53.836 Y-0.884 E0.06861
G1 X-53.520 Y-1.716 E0.06861
G1 X-53.014 Y-2.449 E0.06861
G1 X-52.348 Y-3.039 E0.06861
G1 X-51.560 Y-3.453 E0.06861
G1 X-50.695 Y-3.666 E0.06861
G1 X-49.805 Y-3.666 E0.06861 F600.000
G1 X-48.940 Y-3.453 E0.06861
G1 X-48.152 Y-3.039 E0.06861
G1 X-47.486 Y-2.449 E0.06861
G1 X-46.980 Y-1.716 E0.06861
G1 X-46.664 Y-0.884 E0.06861
G1 X-46.564 Y-0.060 E0.06399
G1 X-47.197 Y-0.000 F15000.000
G1 X-47.286 Y0.731 E0.05672 F600.000
G1 X-47.547 Y1.419 E0.05672
G1 X-47.965 Y2.024 E0.05672
G1 X-48.516 Y2.513 E0.05672
G1 X-49.167 Y2.855 E0.05672
G1 X-49.882 Y3.031 E0.05672
G1 X-50.618 Y3.031 E0.05672
G1 X-51.333 Y2.855 E0.05672
G1 X-51.984 Y2.513 E0.05672
G1 X-52.535 Y2.024 E0.05672
G1 X-52.953 Y1.419 E0.05672
G1 X-53.214 Y0.731 E0.05672
G1 X-53.303 Y-0.000 E0.05672
G1 X-53.214 Y-0.731 E0.05672
G1 X-52.953 Y-1.419 E0.05672
G1 X-52.535 Y-2.024 E0.05672
G1 X-51.984 Y-2.513 E0.05672
G1 X-51.333 Y-2.855 E0.05672
G1 X-50.618 Y-3.031 E0.05672
G1 X-49.882 Y-3.031 E0.05672 F600.000
G1 X-49.167 Y-2.855 E0.05672
G1 X-48.516 Y-2.513 E0.05672
G1 X-47.965 Y-2.024 E0.05672
G1 X-47.547 Y-1.419 E0.05672
G1 X-47.286 Y-0.731 E0.05672
G1 X-47.204 Y-0.060 E0.05209
G1 X-46.859 Y0.214 F15000.000
G1 X-7.118 Y-8.964 F15000.000
G1 X54.942 Y-8.964 E4.78264 F720.000
G1 X55.881 Y-8.859 E0.07281
G1 X56.717 Y-8.566 E0.06830 F720.000
G1 X57.468 Y-8.094 E0.06830
G1 X58.094 Y-7.468 E0.06830
G1 X58.566 Y-6.717 E0.06830
G1 X58.859 Y-5.881 E0.06830
G1 X58.964 Y-4.942 E0.07281
G1 X58.964 Y4.942 E0.76169
G1 X58.859 Y5.881 E0.07281
G1 X58.566 Y6.717 E0.06830
G1 X58.094 Y7.468 E0.06830
G1 X57.468 Y8.094 E0.06830
G1 X56.717 Y8.566 E0.06830
G1 X55.881 Y8.859 E0.06830
G1 X54.942 Y8.964 E0.07281
G1 X-54.942 Y8.964 E8.46824
G1 X-55.881 Y8.859 E0.07281
G1 X-56.717 Y8.566 E0.06830
G1 X-57.468 Y8.094 E0.06830
G1 X-58.094 Y7.468 E0.06830
G1 X-58.566 Y6.717 E0.06830
G1 X-58.859 Y5.881 E0.06830
G1 X-58.964 Y4.942 E0.07281
G1 X-58.964 Y-4.942 E0.76169
G1 X-58.859 Y-5.881 E0.07281
G1 X-58.566 Y-6.717 E0.06830
G1 X-58.094 Y-7.468 E0.06830
G1 X-57.468 Y-8.094 E0.06830
G1 X-56.717 Y-8.566 E0.06830
G1 X-55.881 Y-8.859 E0.06830
G1 X-54.942 Y-8.964 E0.07281
G1 X-7.178 Y-8.964 E3.68098
G1 X-7.178 Y-9.600 F15000.000
G1 X54.978 Y-9.600 E4.79001 F720.000
G1 X56.023 Y-9.482 E0.08108
G1 X56.995 Y-9.142 E0.07934 F720.000
G1 X57.866 Y-8.594 E0.07934
G1 X58.594 Y-7.866 E0.07934
G1 X59.142 Y-6.995 E0.07934
G1 X59.482 Y-6.023 E0.07934
G1 X59.600 Y-4.978 E0.08108
G1 X59.600 Y4.978 E0.76719
G1 X59.482 Y6.023 E0.08108
G1 X59.142 Y6.995 E0.07934
G1 X58.594 Y7.866 E0.07934
G1 X57.866 Y8.594 E0.07934
G1 X56.995 Y9.142 E0.07934
G1 X56.023 Y9.482 E0.07934
G1 X54.978 Y9.600 E0.08108
G1 X-54.978 Y9.600 E8.47374
G1 X-56.023 Y9.482 E0.08108
G1 X-56.995 Y9.142 E0.07934
G1 X-57.866 Y8.594 E0.07934
G1 X-58.594 Y7.866 E0.07934
G1 X-59.142 Y6.995 E0.07934
G1 X-59.482 Y6.023 E0.07934
G1 X-59.600 Y4.978 E0.08108
G1 X-59.600 Y-4.978 E0.76719
G1 X-59.482 Y-6.023 E0.08108
G1 X-59.142 Y-6.995 E0.07934
G1 X-58.594 Y-7.866 E0.07934
G1 X-57.866 Y-8.594 E0.07934
G1 X-56.995 Y-9.142 E0.07934
G1 X-56.023 Y-9.482 E0.07934
G1 X-54.978 Y-9.600 E0.08108
G1 X-7.238 Y-9.600 E3.67911
G1 X-6.978 Y-9.254 F15000.000
G1 X-48.868 Y-3.870 F15000.000
G1 X-53.578 Y-8.579 E0.51386 F960.000
G1 X-54.478 Y-8.579 E0.06944
G1 X-49.950 Y-4.052 E0.49400
G1 X-50.805 Y-4.007 E0.06607
G1 X-55.344 Y-8.546 E0.49525
G1 X-56.108 Y-8.410 E0.05989
G1 X-51.528 Y-3.829 E0.49985
G1 X-52.133 Y-3.534 E0.05195
G1 X-56.749 Y-8.151 E0.50374
G1 X-57.283 Y-7.785 E0.04994
G1 X-52.682 Y-3.184 E0.50201
G1 X-53.160 Y-2.761 E0.04919
G1 X-57.733 Y-7.335 E0.49904
G1 X-58.111 Y-6.813 E0.04973
G1 X-53.553 Y-2.254 E0.49737
G1 X-53.897 Y-1.699 E0.05044
G1 X-58.383 Y-6.185 E0.48948
G1 X-58.535 Y-5.437 E0.05889
G1 X-54.145 Y-1.046 E0.47906
G1 X-54.282 Y-0.283 E0.05981
G1 X-58.579 Y-4.581 E0.46890
G1 X-58.579 Y-3.681 E0.06944
G1 X-54.273 Y0.625 E0.46986
G1 X-53.938 Y1.860 F15000.000
G1 X-58.579 Y-2.781 E0.50636 F960.000
G1 X-58.579 Y-1.881 E0.06944
G1 X-48.119 Y8.579 E1.14132
G1 X-49.019 Y8.579 E0.06944
G1 X-58.579 Y-0.981 E1.04312
G1 X-58.579 Y-0.081 E0.06944
G1 X-49.919 Y8.579 E0.94491
G1 X-50.819 Y8.579 E0.06944
G1 X-58.579 Y0.819 E0.84671
G1 X-58.579 Y1.719 E0.06944
G1 X-51.719 Y8.579 E0.74851
G1 X-52.619 Y8.579 E0.06944
G1 X-58.579 Y2.619 E0.65031
G1 X-58.579 Y3.519 E0.06944
G1 X-53.519 Y8.579 E0.55211
G1 X-54.419 Y8.579 E0.06944
G1 X-58.579 Y4.419 E0.45390
G1 X-58.510 Y5.388 E0.07493
G1 X-55.388 Y8.510 E0.34070
G1 X-56.931 Y7.868 F15000.000
G1 X-57.868 Y6.931 E0.10224 F960.000
G1 X-52.111 Y3.687 F15000.000
G1 X-47.219 Y8.579 E0.53376 F960.000
G1 X-46.319 Y8.579 E0.06944
G1 X-50.847 Y4.052 E0.49400
G1 X-49.947 Y4.052 E0.06944
G1 X-45.419 Y8.579 E0.49400
G1 X-44.519 Y8.579 E0.06944
G1 X-49.211 Y3.888 E0.51190
G1 X-48.562 Y3.637 E0.05368
G1 X-43.620 Y8.579 E0.53930
G1 X-42.720 Y8.579 E0.06944
G1 X-47.975 Y3.323 E0.57347
G1 X-47.498 Y2.901 E0.04919
G1 X-41.820 Y8.579 E0.61960
G1 X-40.920 Y8.579 E0.06944
G1 X-47.068 Y2.430 E0.67093
G1 X-46.701 Y1.898 E0.04992
G1 X-40.020 Y8.579 E0.72903
G1 X-39.120 Y8.579 E0.06944
G1 X-46.437 Y1.262 E0.79844
G1 X-46.250 Y0.548 E0.05690
G1 X-38.220 Y8.579 E0.87630
G1 X-37.320 Y8.579 E0.06944
G1 X-46.186 Y-0.287 E0.96747
G1 X-46.380 Y-1.381 E0.08573
G1 X-36.420 Y8.579 E1.08684
G1 X-35.520 Y8.579 E0.06944
G1 X-52.678 Y-8.579 E1.87222
G1 X-51.778 Y-8.579 E0.06944
G1 X-34.620 Y8.579 E1.87222
G1 X-33.720 Y8.579 E0.06944
G1 X-50.878 Y-8.579 E1.87222
G1 X-49.978 Y-8.579 E0.06944
G1 X-32.820 Y8.579 E1.87222
G1 X-31.920 Y8.579 E0.06944
G1 X-49.078 Y-8.579 E1.87222
G1 X-48.178 Y-8.579 E0.06944
G1 X-31.020 Y8.579 E1.87222
G1 X-30.120 Y8.579 E0.06944
G1 X-47.278 Y-8.579 E1.87222
G1 X-46.378 Y-8.579 E0.06944
G1 X-29.220 Y8.579 E1.87222
G1 X-28.320 Y8.579 E0.06944
G1 X-45.478 Y-8.579 E1.87222
G1 X-44.578 Y-8.579 E0.06944
G1 X-27.420 Y8.579 E1.87222
G1 X-26.520 Y8.579 E0.06944
G1 X-43.678 Y-8.579 E1.87222
G1 X-42.778 Y-8.579 E0.06944
G1 X-25.620 Y8.579 E1.87222
G1 X-24.720 Y8.579 E0.06944
G1 X-41.878 Y-8.579 E1.87222
G1 X-40.978 Y-8.579 E0.06944
G1 X-23.820 Y8.579 E1.87222
G1 X-22.920 Y8.579 E0.06944
G1 X-40.078 Y-8.579 E1.87222
G1 X-39.178 Y-8.579 E0.06944
G1 X-22.020 Y8.579 E1.87222
G1 X-21.120 Y8.579 E0.06944
G1 X-38.278 Y-8.579 E1.87222
G1 X-37.378 Y-8.579 E0.06944
G1 X-20.220 Y8.579 E1.87222
G1 X-19.320 Y8.579 E0.06944
G1 X-36.478 Y-8.579 E1.87222
G1 X-35.578 Y-8.579 E0.06944
G1 X-18.420 Y8.579 E1.87222
G1 X-17.520 Y8.579 E0.06944
G1 X-34.678 Y-8.579 E1.87222
G1 X-33.778 Y-8.579 E0.06944
G1 X-16.620 Y8.579 E1.87222
G1 X-15.720 Y8.579 E0.06944
G1 X-32.878 Y-8.579 E1.87222
G1 X-31.978 Y-8.579 E0.06944
G1 X-14.820 Y8.579 E1.87222
G1 X-13.920 Y8.579 E0.06944
G1 X-31.078 Y-8.579 E1.87222
G1 X-30.178 Y-8.579 E0.06944
G1 X-13.020 Y8.579 E1.87222
G1 X-12.120 Y8.579 E0.06944
G1 X-29.278 Y-8.579 E1.87222
G1 X-28.378 Y-8.579 E0.06944
G1 X-11.220 Y8.579 E1.87222
G1 X-10.321 Y8.579 E0.06944
G1 X-27.478 Y-8.579 E1.87222
G1 X-26.578 Y-8.579 E0.06944
G1 X-9.421 Y8.579 E1.87222
G1 X-8.521 Y8.579 E0.06944
G1 X-25.678 Y-8.579 E1.87222
G1 X-24.779 Y-8.579 E0.06944
G1 X-7.621 Y8.579 E1.87222
G1 X-6.721 Y8.579 E0.06944
G1 X-23.879 Y-8.579 E1.87222
G1 X-22.979 Y-8.579 E0.06944
G1 X-5.821 Y8.579 E1.87222
G1 X-4.921 Y8.579 E0.06944
G1 X-22.079 Y-8.579 E1.87222
G1 X-21.179 Y-8.579 E0.06944
G1 X-4.021 Y8.579 E1.87222
G1 X-3.121 Y8.579 E0.06944
G1 X-20.279 Y-8.579 E1.87222
G1 X-19.379 Y-8.579 E0.06944
G1 X-2.221 Y8.579 E1.87222
G1 X-1.321 Y8.579 E0.06944
G1 X-18.479 Y-8.579 E1.87222
G1 X-17.579 Y-8.579 E0.06944
G1 X-0.421 Y8.579 E1.87222
G1 X0.479 Y8.579 E0.06944
G1 X-16.679 Y-8.579 E1.87222
G1 X-15.779 Y-8.579 E0.06944
G1 X1.379 Y8.579 E1.87222
G1 X2.279 Y8.579 E0.06944
G1 X-14.879 Y-8.579 E1.87222
G1 X-13.979 Y-8.579 E0.06944
G1 X3.179 Y8.579 E1.87222
G1 X4.079 Y8.579 E0.06944
G1 X-13.079 Y-8.579 E1.87222
G1 X-12.179 Y-8.579 E0.06944
G1 X4.979 Y8.579 E1.87222
G1 X5.879 Y8.579 E0.06944
G1 X-11.279 Y-8.579 E1.87222
G1 X-10.379 Y-8.579 E0.06944
G1 X6.779 Y8.579 E1.87222
G1 X7.679 Y8.579 E0.06944
G1 X-9.479 Y-8.579 E1.87222
G1 X-8.579 Y-8.579 E0.06944
G1 X8.579 Y8.579 E1.87222
G1 X9.479 Y8.579 E0.06944
G1 X-7.679 Y-8.579 E1.87222
G1 X-6.779 Y-8.579 E0.06944
G1 X10.379 Y8.579 E1.87222
G1 X11.279 Y8.579 E0.06944
G1 X-5.879 Y-8.579 E1.87222
G1 X-4.979 Y-8.579 E0.06944
G1 X12.179 Y8.579 E1.87222
G1 X13.079 Y8.579 E0.06944
G1 X-4.079 Y-8.579 E1.87222
G1 X-3.179 Y-8.579 E0.06944
G1 X13.979 Y8.579 E1.87222
G1 X14.879 Y8.579 E0.06944
G1 X-2.279 Y-8.579 E1.87222
G1 X-1.379 Y-8.579 E0.06944
G1 X15.779 Y8.579 E1.87222
G1 X16.679 Y8.579 E0.06944
G1 X-0.479 Y-8.579 E1.87222
G1 X0.421 Y-8.579 E0.06944
G1 X17.579 Y8.579 E1.87222
G1 X18.479 Y8.579 E0.06944
G1 X1.321 Y-8.579 E1.87222
G1 X2.221 Y-8.579 E0.06944
G1 X19.379 Y8.579 E1.87222
G1 X20.279 Y8.579 E0.06944
G1 X3.121 Y-8.579 E1.87222
G1 X4.021 Y-8.579 E0.06944
G1 X21.179 Y8.579 E1.87222
G1 X22.079 Y8.579 E0.06944
G1 X4.921 Y-8.579 E1.87222
G1 X5.821 Y-8.579 E0.06944
G1 X22.978 Y8.579 E1.87222
G1 X23.878 Y8.579 E0.06944
G1 X6.721 Y-8.579 E1.87222
G1 X7.620 Y-8.579 E0.06944
G1 X24.778 Y8.579 E1.87222
G1 X25.678 Y8.579 E0.06944
G1 X8.520 Y-8.579 E1.87222
G1 X9.420 Y-8.579 E0.06944
G1 X26.578 Y8.579 E1.87222
G1 X27.478 Y8.579 E0.06944
G1 X10.320 Y-8.579 E1.87222
G1 X11.220 Y-8.579 E0.06944
G1 X28.378 Y8.579 E1.87222
G1 X29.278 Y8.579 E0.06944
G1 X12.120 Y-8.579 E1.87222
G1 X13.020 Y-8.579 E0.06944
G1 X30.178 Y8.579 E1.87222
G1 X31.078 Y8.579 E0.06944
G1 X13.920 Y-8.579 E1.87222
G1 X14.820 Y-8.579 E0.06944
G1 X31.978 Y8.579 E1.87222
G1 X32.878 Y8.579 E0.06944
G1 X15.720 Y-8.579 E1.87222
G1 X16.620 Y-8.579 E0.06944
G1 X33.778 Y8.579 E1.87222
G1 X34.678 Y8.579 E0.06944
G1 X17.520 Y-8.579 E1.87222
G1 X18.420 Y-8.579 E0.06944
G1 X35.578 Y8.579 E1.87222
G1 X36.478 Y8.579 E0.06944
G1 X19.320 Y-8.579 E1.87222
G1 X20.220 Y-8.579 E0.06944
G1 X37.378 Y8.579 E1.87222
G1 X38.278 Y8.579 E0.06944
G1 X21.120 Y-8.579 E1.87222
G1 X22.020 Y-8.579 E0.06944
G1 X39.178 Y8.579 E1.87222
G1 X40.078 Y8.579 E0.06944
G1 X22.920 Y-8.579 E1.87222
G1 X23.820 Y-8.579 E0.06944
G1 X40.978 Y8.579 E1.87222
G1 X41.878 Y8.579 E0.06944
G1 X24.720 Y-8.579 E1.87222
G1 X25.620 Y-8.579 E0.06944
G1 X42.778 Y8.579 E1.87222
G1 X43.678 Y8.579 E0.06944
G1 X26.520 Y-8.579 E1.87222
G1 X27.420 Y-8.579 E0.06944
G1 X44.578 Y8.579 E1.87222
G1 X45.478 Y8.579 E0.06944
G1 X28.320 Y-8.579 E1.87222
G1 X29.220 Y-8.579 E0.06944
G1 X46.378 Y8.579 E1.87222
G1 X47.278 Y8.579 E0.06944
G1 X30.120 Y-8.579 E1.87222
G1 X31.020 Y-8.579 E0.06944
G1 X48.178 Y8.579 E1.87222
G1 X49.078 Y8.579 E0.06944
G1 X31.920 Y-8.579 E1.87222
G1 X32.820 Y-8.579 E0.06944
G1 X49.978 Y8.579 E1.87222
G1 X50.878 Y8.579 E0.06944
G1 X33.720 Y-8.579 E1.87222
G1 X34.620 Y-8.579 E0.06944
G1 X51.778 Y8.579 E1.87222
G1 X52.678 Y8.579 E0.06944
G1 X35.520 Y-8.579 E1.87222
G1 X36.420 Y-8.579 E0.06944
G1 X46.380 Y1.382 E1.08686
G1 X48.868 Y3.870 F15000.000
G1 X53.578 Y8.579 E0.51386 F960.000
G1 X54.478 Y8.579 E0.06944
G1 X49.950 Y4.052 E0.49400
G1 X50.805 Y4.007 E0.06607
G1 X55.344 Y8.546 E0.49524
G1 X56.108 Y8.410 E0.05989
G1 X51.527 Y3.829 E0.49985
G1 X52.133 Y3.534 E0.05195
G1 X56.749 Y8.151 E0.50374
G1 X57.283 Y7.785 E0.04994
G1 X52.682 Y3.184 E0.50201
G1 X53.160 Y2.761 E0.04919
G1 X57.733 Y7.335 E0.49904
G1 X58.111 Y6.813 E0.04973
G1 X53.553 Y2.255 E0.49737
G1 X53.897 Y1.699 E0.05044
G1 X58.383 Y6.185 E0.48948
G1 X58.535 Y5.437 E0.05889
G1 X54.145 Y1.046 E0.47907
G1 X54.282 Y0.283 E0.05981
G1 X58.579 Y4.581 E0.46891
G1 X58.579 Y3.681 E0.06944
G1 X54.273 Y-0.625 E0.46986
G1 X53.939 Y-1.860 E0.09867
G1 X58.579 Y2.781 E0.50635
G1 X58.579 Y1.881 E0.06944
G1 X48.119 Y-8.579 E1.14133
G1 X49.019 Y-8.579 E0.06944
G1 X58.579 Y0.981 E1.04313
G1 X58.579 Y0.081 E0.06944
G1 X49.919 Y-8.579 E0.94492
