;(.../Engineering/Matt/pcb-gcode/pcb-gcode.ulp)
;(Copyright 2005 - 2012 by John Johnson)
;(See readme.txt for licensing terms.)
;(This file generated from the board:)
;(.../pneumatic-reg - 40PC Sensor.brd)
;(Current profile is .../pcb-gcode/profiles/generic.pp  )
;(This file generated 25/07/2016 11:50)
;(Settings from pcb-machine.h)
;(spindle on time = 1000.0000)
;(  Tool Size)
;(0.1778 )
;(spindle speed = 30000.0000)
;(tool change at 0.0000 0.0000 5.0000 )
;(feed rate xy = F500.00 )
;(feed rate z  = F200.00 )
;(Z Axis Settings)
;(  High     Up        Down     Drill)
;(5.0000 	2.0000 	-0.2000 	-2.0000 )
;(Settings from pcb-defaults.h)
;(isolate min = 0.0250)
;(isolate max = 0.5000)
;(isolate step = 0.1200)
;(Generated bottom outlines, bottom drill, )
;(Unit of measure: mm)
;(Metric Mode)
G21
;(Absolute Coordinates)
G90
;S30000
G00 Z5.0000  F3000
G00 X0.0000 Y0.0000  F3000
;M03 S1
G04 P1000.000000
G00 Z2.0000  F3000
G00 X-0.9388 Y1.0065  F3000
G01 Z-0.2000 F200.00 
G01 X-1.0065 Y0.9388 F500.00 
G01 X-1.0951 Y0.9021 
G01 X-55.0479 Y0.9021 
G01 X-55.1365 Y0.9388 
G01 X-55.2042 Y1.0065 
G01 X-55.2409 Y1.0951 
G01 X-55.2409 Y43.5479 
G01 X-55.2042 Y43.6365 
G01 X-55.1365 Y43.7042 
G01 X-55.0479 Y43.7409 
G01 X-1.0951 Y43.7409 
G01 X-1.0065 Y43.7042 
G01 X-0.9388 Y43.6365 
G01 X-0.9021 Y43.5479 
G01 X-0.9021 Y43.4521 
G01 X-0.9021 Y27.4146 
G01 X-0.9031 Y27.4121 
G01 X-0.9388 Y27.3261 
G01 X-1.0055 Y27.2594 
G01 X-1.0574 Y27.2373 
G01 X-1.0951 Y27.2216 
G01 X-1.1909 Y27.2216 
G01 X-1.1934 Y27.2227 
G01 X-1.2795 Y27.2583 
G01 X-1.4074 Y27.3863 
G01 X-1.5730 Y27.4548 
G01 X-1.6580 Y27.4901 
G01 X-1.6615 Y27.4915 
G01 X-1.7293 Y27.5593 
G01 X-1.8591 Y27.6891 
G01 X-2.3009 Y27.8721 
G01 X-2.7791 Y27.8721 
G01 X-3.2209 Y27.6891 
G01 X-3.4185 Y27.4915 
G01 X-3.5070 Y27.4548 
G01 X-3.6726 Y27.3863 
G01 X-3.9103 Y27.1486 
G01 X-4.0389 Y26.8381 
G01 X-4.0389 Y26.5019 
G01 X-3.9103 Y26.1914 
G01 X-3.6726 Y25.9537 
G01 X-3.5070 Y25.8851 
G01 X-3.4220 Y25.8499 
G01 X-3.4185 Y25.8485 
G01 X-3.3507 Y25.7807 
G01 X-3.2209 Y25.6509 
G01 X-3.1968 Y25.6409 
G01 X-3.1619 Y25.6265 
G01 X-3.1082 Y25.6042 
G01 X-3.0405 Y25.5365 
G01 X-3.0194 Y25.4856 
G01 X-3.0038 Y25.4479 
G01 X-3.0038 Y25.3521 
G01 X-3.0185 Y25.3164 
G01 X-3.0405 Y25.2635 
G01 X-3.1082 Y25.1958 
G01 X-3.1670 Y25.1714 
G01 X-3.1968 Y25.1591 
G01 X-3.2209 Y25.1491 
G01 X-3.4185 Y24.9515 
G01 X-3.5070 Y24.9148 
G01 X-3.6726 Y24.8463 
G01 X-3.9103 Y24.6086 
G01 X-4.0389 Y24.2981 
G01 X-4.0389 Y23.9619 
G01 X-3.9103 Y23.6514 
G01 X-3.6726 Y23.4137 
G01 X-3.5070 Y23.3452 
G01 X-3.4220 Y23.3099 
G01 X-3.4185 Y23.3085 
G01 X-3.3507 Y23.2407 
G01 X-3.2209 Y23.1109 
G01 X-3.1968 Y23.1009 
G01 X-3.1694 Y23.0896 
G01 X-3.1082 Y23.0642 
G01 X-3.0405 Y22.9965 
G01 X-3.0194 Y22.9456 
G01 X-3.0038 Y22.9079 
G01 X-3.0038 Y22.8121 
G01 X-3.0185 Y22.7765 
G01 X-3.0404 Y22.7235 
G01 X-3.1082 Y22.6558 
G01 X-3.1598 Y22.6344 
G01 X-3.1968 Y22.6191 
G01 X-3.2209 Y22.6091 
G01 X-3.3507 Y22.4793 
G01 X-3.4144 Y22.4156 
G01 X-3.4185 Y22.4115 
G01 X-3.6726 Y22.3063 
G01 X-3.9103 Y22.0686 
G01 X-4.0389 Y21.7581 
G01 X-4.0389 Y21.4219 
G01 X-3.9103 Y21.1114 
G01 X-3.6726 Y20.8737 
G01 X-3.4185 Y20.7685 
G01 X-3.3507 Y20.7007 
G01 X-3.2209 Y20.5709 
G01 X-2.7791 Y20.3879 
G01 X-2.3009 Y20.3879 
G01 X-1.8591 Y20.5709 
G01 X-1.7293 Y20.7007 
G01 X-1.6656 Y20.7644 
G01 X-1.6615 Y20.7685 
G01 X-1.4074 Y20.8737 
G01 X-1.2795 Y21.0017 
G01 X-1.1909 Y21.0384 
G01 X-1.0951 Y21.0384 
G01 X-1.0595 Y21.0236 
G01 X-1.0065 Y21.0017 
G01 X-0.9388 Y20.9339 
G01 X-0.9021 Y20.8454 
G01 X-0.9021 Y1.0951 
G01 X-0.9388 Y1.0065 
G00 Z2.0000  F3000
G00 X-2.0101 Y5.8157  F3000
G01 Z-0.2000 F200.00 
G01 X-1.9403 Y5.8898 F500.00 
G01 X-1.9389 Y5.8931 
G01 X-1.9075 Y5.9245 
G01 X-1.8770 Y5.9568 
G01 X-1.8737 Y5.9583 
G01 X-1.8016 Y6.0304 
G01 X-1.7975 Y6.0411 
G01 X-1.7950 Y6.0438 
G01 X-1.7937 Y6.0471 
G01 X-1.7855 Y6.0552 
G01 X-1.7493 Y6.1504 
G01 X-1.7493 Y6.1541 
G01 X-1.7324 Y6.1951 
G01 X-1.7166 Y6.2366 
G01 X-1.7141 Y6.2392 
G01 X-1.6751 Y6.3334 
G01 X-1.6754 Y6.3448 
G01 X-1.6741 Y6.3483 
G01 X-1.6741 Y6.3519 
G01 X-1.6697 Y6.3625 
G01 X-1.6727 Y6.4643 
G01 X-1.6741 Y6.4677 
G01 X-1.6741 Y6.5121 
G01 X-1.6754 Y6.5565 
G01 X-1.6741 Y6.5599 
G01 X-1.6741 Y17.6643 
G01 X-1.7998 Y17.9678 
G01 X-2.0322 Y18.2002 
G01 X-2.3357 Y18.3259 
G01 X-5.9811 Y18.3259 
G01 X-6.0697 Y18.3626 
G01 X-6.1374 Y18.4303 
G01 X-6.1741 Y18.5189 
G01 X-6.1741 Y28.9811 
G01 X-6.1374 Y29.0697 
G01 X-6.0697 Y29.1374 
G01 X-5.9811 Y29.1741 
G01 X-2.3357 Y29.1741 
G01 X-2.0322 Y29.2998 
G01 X-1.7998 Y29.5322 
G01 X-1.6741 Y29.8357 
G01 X-1.6741 Y41.1643 
G01 X-1.7998 Y41.4678 
G01 X-2.0322 Y41.7002 
G01 X-2.3357 Y41.8259 
G01 X-27.8343 Y41.8259 
G01 X-28.1378 Y41.7002 
G01 X-28.3702 Y41.4678 
G01 X-28.4959 Y41.1643 
G01 X-28.4959 Y35.0389 
G01 X-28.5326 Y34.9503 
G01 X-28.6003 Y34.8826 
G01 X-28.6889 Y34.8459 
G01 X-35.9943 Y34.8459 
G01 X-36.2978 Y34.7202 
G01 X-36.5302 Y34.4878 
G01 X-36.6559 Y34.1843 
G01 X-36.6559 Y23.9657 
G01 X-36.5302 Y23.6622 
G01 X-36.2978 Y23.4298 
G01 X-35.9943 Y23.3041 
G01 X-31.1639 Y23.3041 
G01 X-31.1614 Y23.3030 
G01 X-31.0753 Y23.2674 
G01 X-31.0076 Y23.1997 
G01 X-30.9819 Y23.1378 
G01 X-30.9709 Y23.1111 
G01 X-30.9709 Y23.0153 
G01 X-30.9719 Y23.0128 
G01 X-31.0076 Y22.9267 
G01 X-31.2017 Y22.7326 
G01 X-31.3313 Y22.4197 
G01 X-31.3313 Y20.7603 
G01 X-31.3059 Y20.6989 
G01 X-31.3059 Y20.0689 
G01 X-31.3426 Y19.9803 
G01 X-31.4103 Y19.9126 
G01 X-31.4989 Y19.8759 
G01 X-32.1843 Y19.8759 
G01 X-32.5025 Y19.7441 
G01 X-32.6023 Y19.7441 
G01 X-32.7141 Y19.6323 
G01 X-32.7141 Y19.5325 
G01 X-32.7155 Y19.5291 
G01 X-32.8459 Y19.2143 
G01 X-32.8459 Y18.8857 
G01 X-32.7141 Y18.5675 
G01 X-32.7141 Y18.4677 
G01 X-32.6023 Y18.3559 
G01 X-32.5025 Y18.3559 
G01 X-32.4991 Y18.3545 
G01 X-32.1843 Y18.2241 
G01 X-31.4989 Y18.2241 
G01 X-31.4103 Y18.1874 
G01 X-31.3426 Y18.1197 
G01 X-31.3059 Y18.0311 
G01 X-31.3059 Y17.8239 
G01 X-31.3426 Y17.7353 
G01 X-31.4103 Y17.6676 
G01 X-31.4989 Y17.6309 
G01 X-32.7291 Y17.6309 
G01 X-32.8409 Y17.5191 
G01 X-32.8409 Y15.7609 
G01 X-32.7291 Y15.6491 
G01 X-30.7686 Y15.6491 
G01 X-30.7066 Y15.6748 
G01 X-30.6841 Y15.6841 
G01 X-30.6367 Y15.6841 
G01 X-30.5882 Y15.6841 
G01 X-17.6157 Y15.6841 
G01 X-17.3122 Y15.8098 
G01 X-17.0798 Y16.0422 
G01 X-16.9541 Y16.3457 
G01 X-16.9541 Y20.6336 
G01 X-16.9174 Y20.7222 
G01 X-16.8497 Y20.7899 
G01 X-16.6474 Y20.8737 
G01 X-16.4097 Y21.1114 
G01 X-16.2811 Y21.4219 
G01 X-16.2811 Y21.7581 
G01 X-16.4097 Y22.0686 
G01 X-16.6474 Y22.3063 
G01 X-16.9015 Y22.4115 
G01 X-16.9693 Y22.4793 
G01 X-17.0991 Y22.6091 
G01 X-17.1232 Y22.6191 
G01 X-17.1506 Y22.6304 
G01 X-17.2118 Y22.6558 
G01 X-17.2795 Y22.7235 
G01 X-17.3006 Y22.7744 
G01 X-17.3162 Y22.8121 
G01 X-17.3162 Y22.9079 
G01 X-17.3015 Y22.9435 
G01 X-17.2795 Y22.9964 
G01 X-17.2118 Y23.0642 
G01 X-17.1602 Y23.0856 
G01 X-17.1232 Y23.1009 
G01 X-17.0991 Y23.1109 
G01 X-16.9425 Y23.2674 
G01 X-16.8540 Y23.3041 
G01 X-15.4889 Y23.3041 
G01 X-15.4003 Y23.2674 
G01 X-15.3326 Y23.1997 
G01 X-15.2959 Y23.1111 
G01 X-15.2959 Y14.8589 
G01 X-15.3326 Y14.7703 
G01 X-15.4003 Y14.7026 
G01 X-15.4889 Y14.6659 
G01 X-30.5541 Y14.6659 
G01 X-30.6426 Y14.7026 
G01 X-30.7709 Y14.8309 
G01 X-32.7291 Y14.8309 
G01 X-32.8409 Y14.7191 
G01 X-32.8409 Y14.0189 
G01 X-32.8776 Y13.9303 
G01 X-32.9453 Y13.8626 
G01 X-33.0339 Y13.8259 
G01 X-40.6905 Y13.8259 
G01 X-40.7261 Y13.8407 
G01 X-40.7790 Y13.8626 
G01 X-40.8468 Y13.9303 
G01 X-40.8617 Y13.9663 
G01 X-40.8834 Y14.0189 
G01 X-40.8834 Y14.1147 
G01 X-40.8687 Y14.1503 
G01 X-40.8468 Y14.2033 
G01 X-40.7790 Y14.2710 
G01 X-40.7609 Y14.2891 
G01 X-40.7524 Y14.3097 
G01 X-40.6847 Y14.3774 
G01 X-40.5961 Y14.4141 
G01 X-35.3357 Y14.4141 
G01 X-35.0322 Y14.5398 
G01 X-34.7998 Y14.7722 
G01 X-34.6741 Y15.0757 
G01 X-34.6741 Y20.6643 
G01 X-34.7998 Y20.9678 
G01 X-35.0322 Y21.2002 
G01 X-35.3357 Y21.3259 
G01 X-38.6643 Y21.3259 
G01 X-38.8453 Y21.2509 
G01 X-39.1141 Y21.2509 
G01 X-39.1658 Y21.1992 
G01 X-39.2335 Y21.1314 
G01 X-39.2954 Y21.1058 
G01 X-39.3221 Y21.0948 
G01 X-39.4179 Y21.0948 
G01 X-39.4204 Y21.0958 
G01 X-39.5065 Y21.1314 
G01 X-39.6259 Y21.2509 
G01 X-40.3841 Y21.2509 
G01 X-40.4019 Y21.2330 
G01 X-40.4161 Y21.2272 
G01 X-40.4905 Y21.1963 
G01 X-40.5863 Y21.1963 
G01 X-40.6634 Y21.2283 
G01 X-40.6748 Y21.2330 
G01 X-40.7082 Y21.2664 
G01 X-40.7426 Y21.3008 
G01 X-40.7485 Y21.3149 
G01 X-40.7793 Y21.3893 
G01 X-40.7793 Y24.3307 
G01 X-40.7493 Y24.4030 
G01 X-40.7426 Y24.4192 
G01 X-40.7093 Y24.4526 
G01 X-40.6749 Y24.4870 
G01 X-40.6648 Y24.4911 
G01 X-40.5863 Y24.5236 
G01 X-40.4905 Y24.5236 
G01 X-40.4182 Y24.4937 
G01 X-40.4019 Y24.4870 
G01 X-40.3841 Y24.4691 
G01 X-39.6259 Y24.4691 
G01 X-39.5742 Y24.5208 
G01 X-39.5065 Y24.5886 
G01 X-39.4446 Y24.6142 
G01 X-39.4179 Y24.6252 
G01 X-39.3221 Y24.6252 
G01 X-39.3196 Y24.6242 
G01 X-39.2335 Y24.5886 
G01 X-39.1141 Y24.4691 
G01 X-38.3559 Y24.4691 
G01 X-38.2441 Y24.5809 
G01 X-38.2441 Y25.0211 
G01 X-38.2486 Y25.0393 
G01 X-38.2441 Y25.0686 
G01 X-38.2441 Y25.0982 
G01 X-38.2369 Y25.1155 
G01 X-38.2341 Y25.1340 
G01 X-38.2188 Y25.1594 
G01 X-38.2074 Y25.1868 
G01 X-38.1942 Y25.2000 
G01 X-38.1625 Y25.2524 
G01 X-38.0126 Y26.2343 
G01 X-38.0132 Y26.2614 
G01 X-38.0055 Y26.2812 
G01 X-38.0023 Y26.3023 
G01 X-37.9882 Y26.3254 
G01 X-37.9784 Y26.3507 
G01 X-37.9637 Y26.3661 
G01 X-37.9526 Y26.3842 
G01 X-37.9308 Y26.4003 
G01 X-37.7902 Y26.5469 
G01 X-37.6708 Y26.8530 
G01 X-37.9081 Y38.2107 
G01 X-37.9091 Y38.2132 
G01 X-37.9091 Y38.2586 
G01 X-37.9100 Y38.3040 
G01 X-37.9091 Y38.3064 
G01 X-37.9091 Y38.4123 
G01 X-37.9125 Y38.4200 
G01 X-37.9125 Y38.4226 
G01 X-37.9135 Y38.4249 
G01 X-37.9135 Y38.4333 
G01 X-37.9560 Y38.5302 
G01 X-37.9752 Y38.5740 
G01 X-37.9935 Y38.6155 
G01 X-37.9935 Y38.6181 
G01 X-38.0341 Y38.7160 
G01 X-38.0401 Y38.7218 
G01 X-38.0412 Y38.7241 
G01 X-38.0462 Y38.7337 
G01 X-38.1226 Y38.8070 
G01 X-38.1250 Y38.8080 
G01 X-38.1570 Y38.8400 
G01 X-38.1898 Y38.8715 
G01 X-38.1909 Y38.8739 
G01 X-38.2657 Y38.9487 
G01 X-38.2736 Y38.9518 
G01 X-38.2778 Y38.9546 
G01 X-38.2838 Y38.9605 
G01 X-38.3824 Y38.9990 
G01 X-38.3850 Y38.9990 
G01 X-38.4269 Y39.0163 
G01 X-38.4692 Y39.0328 
G01 X-38.5688 Y39.0751 
G01 X-38.5772 Y39.0750 
G01 X-38.5797 Y39.0759 
G01 X-38.5823 Y39.0759 
G01 X-38.5900 Y39.0791 
G01 X-38.6958 Y39.0769 
G01 X-38.6982 Y39.0759 
G01 X-38.7437 Y39.0759 
G01 X-38.7890 Y39.0750 
G01 X-38.7914 Y39.0759 
G01 X-39.5340 Y39.0759 
G01 X-39.6225 Y39.1126 
G01 X-39.6903 Y39.1803 
G01 X-39.7270 Y39.2689 
G01 X-39.8389 Y39.5392 
G01 X-40.1048 Y39.8050 
G01 X-40.4520 Y39.9489 
G01 X-40.8280 Y39.9489 
G01 X-41.1752 Y39.8050 
G01 X-41.4410 Y39.5392 
G01 X-41.5849 Y39.1919 
G01 X-41.5849 Y37.3080 
G01 X-41.4410 Y36.9607 
G01 X-41.1752 Y36.6949 
G01 X-40.8280 Y36.5511 
G01 X-40.4520 Y36.5511 
G01 X-40.1048 Y36.6949 
G01 X-39.9416 Y36.8581 
G01 X-39.9101 Y36.8909 
G01 X-39.9077 Y36.8920 
G01 X-39.8640 Y36.9112 
G01 X-39.8224 Y36.9294 
G01 X-39.8198 Y36.9295 
G01 X-39.8174 Y36.9305 
G01 X-39.7719 Y36.9305 
G01 X-39.7266 Y36.9314 
G01 X-39.7241 Y36.9305 
G01 X-39.7215 Y36.9305 
G01 X-39.6795 Y36.9131 
G01 X-39.6373 Y36.8966 
G01 X-39.6330 Y36.8938 
G01 X-39.6009 Y36.8618 
G01 X-39.5681 Y36.8303 
G01 X-39.5671 Y36.8279 
G01 X-39.5478 Y36.7841 
G01 X-39.5296 Y36.7425 
G01 X-39.5295 Y36.7399 
G01 X-39.5285 Y36.7375 
G01 X-39.5285 Y36.6921 
G01 X-39.3223 Y26.8205 
G01 X-39.3082 Y26.7863 
G01 X-39.2899 Y26.7447 
G01 X-39.2899 Y26.7421 
G01 X-39.2889 Y26.7397 
G01 X-39.2889 Y26.6944 
G01 X-39.2879 Y26.6489 
G01 X-39.2889 Y26.6465 
G01 X-39.2889 Y26.6439 
G01 X-39.3062 Y26.6019 
G01 X-39.3227 Y26.5596 
G01 X-39.3255 Y26.5553 
G01 X-39.3576 Y26.5232 
G01 X-39.3891 Y26.4905 
G01 X-39.3914 Y26.4894 
G01 X-39.4353 Y26.4702 
G01 X-39.4768 Y26.4520 
G01 X-39.4794 Y26.4519 
G01 X-39.4818 Y26.4509 
G01 X-39.5272 Y26.4509 
G01 X-39.5726 Y26.4499 
G01 X-39.5751 Y26.4509 
G01 X-40.3841 Y26.4509 
G01 X-40.5035 Y26.3314 
G01 X-40.5921 Y26.2948 
G01 X-40.6879 Y26.2948 
G01 X-40.7131 Y26.3052 
G01 X-40.7765 Y26.3314 
G01 X-40.8442 Y26.3992 
G01 X-40.8959 Y26.4509 
G01 X-41.6541 Y26.4509 
G01 X-41.7735 Y26.3314 
G01 X-41.8621 Y26.2948 
G01 X-41.9579 Y26.2948 
G01 X-41.9831 Y26.3052 
G01 X-42.0465 Y26.3314 
G01 X-42.1142 Y26.3992 
G01 X-42.1659 Y26.4509 
G01 X-42.2310 Y26.4509 
G01 X-42.3196 Y26.4876 
G01 X-42.3873 Y26.5553 
G01 X-42.5322 Y26.7002 
G01 X-42.8357 Y26.8259 
G01 X-45.6643 Y26.8259 
G01 X-45.9678 Y26.7002 
G01 X-46.0372 Y26.6308 
G01 X-46.1258 Y26.5941 
G01 X-46.3023 Y26.5941 
G01 X-46.4141 Y26.4823 
G01 X-46.4141 Y25.3177 
G01 X-46.3023 Y25.2059 
G01 X-45.7411 Y25.2059 
G01 X-45.7364 Y25.2040 
G01 X-45.6643 Y25.1741 
G01 X-43.8233 Y25.1741 
G01 X-43.7348 Y25.1374 
G01 X-43.7232 Y25.1259 
G01 X-43.5784 Y25.0659 
G01 X-43.2289 Y25.0659 
G01 X-43.1403 Y25.0292 
G01 X-43.0726 Y24.9615 
G01 X-43.0359 Y24.8729 
G01 X-43.0359 Y24.5809 
G01 X-43.0127 Y24.5577 
G01 X-42.9806 Y24.5277 
G01 X-42.9789 Y24.5239 
G01 X-42.9760 Y24.5210 
G01 X-42.9592 Y24.4804 
G01 X-42.9410 Y24.4404 
G01 X-42.9409 Y24.4363 
G01 X-42.9393 Y24.4325 
G01 X-42.9393 Y24.3885 
G01 X-42.9379 Y24.3447 
G01 X-42.9393 Y24.3408 
G01 X-42.9393 Y24.3366 
G01 X-42.9561 Y24.2961 
G01 X-42.9716 Y24.2550 
G01 X-42.9744 Y24.2519 
G01 X-42.9760 Y24.2481 
G01 X-43.0071 Y24.2171 
G01 X-43.0371 Y24.1850 
G01 X-43.0408 Y24.1833 
G01 X-43.0438 Y24.1803 
G01 X-43.0844 Y24.1635 
G01 X-43.1243 Y24.1454 
G01 X-43.1285 Y24.1453 
G01 X-43.1323 Y24.1437 
G01 X-43.1763 Y24.1437 
G01 X-45.8285 Y24.0557 
G01 X-45.8323 Y24.0541 
G01 X-45.8763 Y24.0541 
G01 X-45.9202 Y24.0526 
G01 X-45.9240 Y24.0541 
G01 X-46.3023 Y24.0541 
G01 X-46.4141 Y23.9423 
G01 X-46.4141 Y23.5475 
G01 X-46.4126 Y23.5037 
G01 X-46.4141 Y23.4998 
G01 X-46.4141 Y23.4956 
G01 X-46.4231 Y23.4740 
G01 X-46.4157 Y23.2515 
G01 X-46.4141 Y23.2477 
G01 X-46.4141 Y23.2037 
G01 X-46.4126 Y23.1598 
G01 X-46.4141 Y23.1560 
G01 X-46.4141 Y22.7777 
G01 X-46.3023 Y22.6659 
G01 X-45.9075 Y22.6659 
G01 X-45.8636 Y22.6674 
G01 X-45.8598 Y22.6659 
G01 X-45.8556 Y22.6659 
G01 X-45.8340 Y22.6569 
G01 X-45.6115 Y22.6643 
G01 X-45.6077 Y22.6659 
G01 X-45.5637 Y22.6659 
G01 X-45.5198 Y22.6674 
G01 X-45.5160 Y22.6659 
G01 X-45.1116 Y22.6659 
G01 X-45.0759 Y22.6821 
G01 X-45.0718 Y22.6822 
G01 X-45.0680 Y22.6838 
G01 X-45.0240 Y22.6838 
G01 X-42.0967 Y22.7809 
G01 X-42.0929 Y22.7825 
G01 X-42.0490 Y22.7825 
G01 X-42.0051 Y22.7840 
G01 X-42.0012 Y22.7825 
G01 X-41.9971 Y22.7825 
G01 X-41.9565 Y22.7657 
G01 X-41.9154 Y22.7502 
G01 X-41.9124 Y22.7474 
G01 X-41.9085 Y22.7458 
G01 X-41.8775 Y22.7148 
G01 X-41.8454 Y22.6848 
G01 X-41.8437 Y22.6810 
G01 X-41.8408 Y22.6781 
G01 X-41.8240 Y22.6375 
G01 X-41.8058 Y22.5975 
G01 X-41.8057 Y22.5933 
G01 X-41.8041 Y22.5895 
G01 X-41.8041 Y22.5456 
G01 X-41.8026 Y22.5017 
G01 X-41.8041 Y22.4978 
G01 X-41.8041 Y21.5350 
G01 X-41.8026 Y21.5312 
G01 X-41.8041 Y21.4873 
G01 X-41.8041 Y21.4433 
G01 X-41.8057 Y21.4395 
G01 X-41.8058 Y21.4354 
G01 X-41.8240 Y21.3954 
G01 X-41.8408 Y21.3548 
G01 X-41.8437 Y21.3519 
G01 X-41.8454 Y21.3481 
G01 X-41.8775 Y21.3181 
G01 X-41.9085 Y21.2870 
G01 X-41.9124 Y21.2855 
G01 X-41.9154 Y21.2826 
G01 X-41.9565 Y21.2672 
G01 X-41.9971 Y21.2504 
G01 X-42.0012 Y21.2504 
G01 X-42.0051 Y21.2489 
G01 X-42.0490 Y21.2504 
G01 X-42.0929 Y21.2504 
G01 X-42.0967 Y21.2519 
G01 X-42.1009 Y21.2521 
G01 X-42.1408 Y21.2702 
G01 X-42.1815 Y21.2870 
G01 X-42.1844 Y21.2900 
G01 X-42.1881 Y21.2917 
G01 X-42.2182 Y21.3238 
G01 X-42.2492 Y21.3548 
G01 X-42.2508 Y21.3586 
G01 X-42.2536 Y21.3616 
G01 X-42.2691 Y21.4027 
G01 X-42.2859 Y21.4433 
G01 X-42.2859 Y21.4456 
G01 X-42.5093 Y21.6843 
G01 X-42.8085 Y21.8200 
G01 X-45.8569 Y21.9209 
G01 X-46.1760 Y21.8009 
G01 X-46.2165 Y21.7841 
G01 X-46.2207 Y21.7841 
G01 X-46.2245 Y21.7826 
G01 X-46.2685 Y21.7841 
G01 X-46.3023 Y21.7841 
G01 X-46.4141 Y21.6723 
G01 X-46.4141 Y21.6550 
G01 X-46.4126 Y21.6511 
G01 X-46.4141 Y21.6072 
G01 X-46.4141 Y21.5633 
G01 X-46.4157 Y21.5595 
G01 X-46.4158 Y21.5554 
G01 X-46.4340 Y21.5153 
G01 X-46.4508 Y21.4748 
G01 X-46.4537 Y21.4718 
G01 X-46.5400 Y21.2815 
G01 X-46.5509 Y20.9531 
G01 X-46.4309 Y20.6340 
G01 X-46.4141 Y20.5934 
G01 X-46.4141 Y20.5893 
G01 X-46.4126 Y20.5855 
G01 X-46.4141 Y20.5415 
G01 X-46.4141 Y20.5077 
G01 X-46.3023 Y20.3959 
G01 X-46.2850 Y20.3959 
G01 X-46.2811 Y20.3973 
G01 X-46.2372 Y20.3959 
G01 X-46.1933 Y20.3959 
G01 X-46.1895 Y20.3943 
G01 X-46.1854 Y20.3942 
G01 X-46.1453 Y20.3760 
G01 X-46.1048 Y20.3592 
G01 X-46.1018 Y20.3563 
G01 X-45.9115 Y20.2700 
G01 X-43.2728 Y20.1827 
G01 X-43.2289 Y20.1827 
G01 X-43.2251 Y20.1811 
G01 X-43.2209 Y20.1810 
G01 X-43.1809 Y20.1628 
G01 X-43.1403 Y20.1460 
G01 X-43.1374 Y20.1431 
G01 X-43.1337 Y20.1414 
G01 X-43.1036 Y20.1093 
G01 X-43.0726 Y20.0782 
G01 X-43.0710 Y20.0744 
G01 X-43.0682 Y20.0714 
G01 X-43.0527 Y20.0303 
G01 X-43.0359 Y19.9897 
G01 X-43.0359 Y19.9856 
G01 X-43.0344 Y19.9817 
G01 X-43.0359 Y19.9378 
G01 X-43.0359 Y19.3809 
G01 X-42.9241 Y19.2691 
G01 X-42.1659 Y19.2691 
G01 X-42.0465 Y19.3886 
G01 X-41.9579 Y19.4252 
G01 X-41.8621 Y19.4252 
G01 X-41.8369 Y19.4148 
G01 X-41.7735 Y19.3886 
G01 X-41.7058 Y19.3208 
G01 X-41.6541 Y19.2691 
G01 X-40.8959 Y19.2691 
G01 X-40.8781 Y19.2870 
G01 X-40.8639 Y19.2928 
G01 X-40.7895 Y19.3236 
G01 X-40.6937 Y19.3236 
G01 X-40.6166 Y19.2917 
G01 X-40.6051 Y19.2870 
G01 X-40.5718 Y19.2536 
G01 X-40.5374 Y19.2192 
G01 X-40.5315 Y19.2051 
G01 X-40.5007 Y19.1307 
G01 X-40.5007 Y18.8919 
G01 X-40.5374 Y18.8033 
G01 X-40.6051 Y18.7356 
G01 X-40.6937 Y18.6989 
G01 X-43.1990 Y18.6989 
G01 X-43.2876 Y18.7356 
G01 X-43.3553 Y18.8033 
G01 X-43.5322 Y18.9802 
G01 X-43.8357 Y19.1059 
G01 X-47.2411 Y19.1059 
G01 X-47.3297 Y19.1426 
G01 X-47.3974 Y19.2103 
G01 X-47.4341 Y19.2989 
G01 X-47.4341 Y37.2311 
G01 X-47.3974 Y37.3197 
G01 X-47.3297 Y37.3874 
G01 X-47.2411 Y37.4241 
G01 X-44.2860 Y37.4241 
G01 X-44.1975 Y37.3874 
G01 X-44.1297 Y37.3197 
G01 X-44.0930 Y37.2311 
G01 X-43.9810 Y36.9607 
G01 X-43.7152 Y36.6949 
G01 X-43.3680 Y36.5511 
G01 X-42.9920 Y36.5511 
G01 X-42.6448 Y36.6949 
G01 X-42.3790 Y36.9607 
G01 X-42.2351 Y37.3080 
G01 X-42.2351 Y39.1919 
G01 X-42.3790 Y39.5392 
G01 X-42.6448 Y39.8050 
G01 X-42.9920 Y39.9489 
G01 X-43.3680 Y39.9489 
G01 X-43.7152 Y39.8050 
G01 X-43.9810 Y39.5392 
G01 X-44.0930 Y39.2689 
G01 X-44.1286 Y39.1829 
G01 X-44.1297 Y39.1803 
G01 X-44.1975 Y39.1126 
G01 X-44.2860 Y39.0759 
G01 X-48.4243 Y39.0759 
G01 X-48.7278 Y38.9502 
G01 X-48.9602 Y38.7178 
G01 X-49.0859 Y38.4143 
G01 X-49.0859 Y18.1157 
G01 X-48.9602 Y17.8122 
G01 X-48.7278 Y17.5798 
G01 X-48.4243 Y17.4541 
G01 X-45.4944 Y17.4541 
G01 X-45.4058 Y17.4174 
G01 X-45.3959 Y17.4075 
G01 X-45.1390 Y17.3011 
G01 X-40.3610 Y17.3011 
G01 X-40.1041 Y17.4075 
G01 X-40.0440 Y17.4676 
G01 X-39.9554 Y17.5043 
G01 X-39.9064 Y17.5043 
G01 X-39.7242 Y17.5798 
G01 X-39.5848 Y17.7192 
G01 X-39.5093 Y17.9014 
G01 X-39.5093 Y19.1307 
G01 X-39.4793 Y19.2030 
G01 X-39.4726 Y19.2192 
G01 X-39.4393 Y19.2526 
G01 X-39.4049 Y19.2870 
G01 X-39.3948 Y19.2911 
G01 X-39.3163 Y19.3236 
G01 X-39.2205 Y19.3236 
G01 X-39.1482 Y19.2937 
G01 X-39.1319 Y19.2870 
G01 X-39.1141 Y19.2691 
G01 X-38.3559 Y19.2691 
G01 X-38.2441 Y19.3809 
G01 X-38.2441 Y19.4811 
G01 X-38.2074 Y19.5697 
G01 X-38.1397 Y19.6374 
G01 X-38.0511 Y19.6741 
G01 X-36.5189 Y19.6741 
G01 X-36.4303 Y19.6374 
G01 X-36.3626 Y19.5697 
G01 X-36.3259 Y19.4811 
G01 X-36.3259 Y16.2589 
G01 X-36.3626 Y16.1703 
G01 X-36.4303 Y16.1026 
G01 X-36.5189 Y16.0659 
G01 X-40.5961 Y16.0659 
G01 X-40.6847 Y16.1026 
G01 X-40.7524 Y16.1703 
G01 X-40.7609 Y16.1909 
G01 X-40.9009 Y16.3309 
G01 X-42.6591 Y16.3309 
G01 X-42.7709 Y16.2191 
G01 X-42.7709 Y14.2609 
G01 X-42.6426 Y14.1326 
G01 X-42.6059 Y14.0441 
G01 X-42.6059 Y12.8357 
G01 X-42.4802 Y12.5322 
G01 X-42.2478 Y12.2998 
G01 X-41.9443 Y12.1741 
G01 X-32.7689 Y12.1741 
G01 X-32.6803 Y12.1374 
G01 X-32.6126 Y12.0697 
G01 X-32.5759 Y11.9811 
G01 X-32.5759 Y10.5439 
G01 X-32.6126 Y10.4553 
G01 X-32.6803 Y10.3876 
G01 X-32.7689 Y10.3509 
G01 X-34.2461 Y10.3509 
G01 X-34.3347 Y10.3876 
G01 X-34.4024 Y10.4553 
G01 X-34.4391 Y10.5439 
G01 X-34.4391 Y11.1391 
G01 X-34.5509 Y11.2509 
G01 X-36.3091 Y11.2509 
G01 X-36.4209 Y11.1391 
G01 X-36.4209 Y9.1809 
G01 X-36.3826 Y9.1426 
G01 X-36.3726 Y9.1185 
G01 X-36.3459 Y9.0541 
G01 X-36.3459 Y8.0939 
G01 X-36.3826 Y8.0053 
G01 X-36.4503 Y7.9376 
G01 X-36.5389 Y7.9009 
G01 X-37.5791 Y7.9009 
G01 X-37.6909 Y7.7891 
G01 X-37.6909 Y5.8309 
G01 X-37.5791 Y5.7191 
G01 X-35.8209 Y5.7191 
G01 X-35.6810 Y5.8591 
G01 X-35.6724 Y5.8797 
G01 X-35.6047 Y5.9474 
G01 X-35.5161 Y5.9841 
G01 X-35.3557 Y5.9841 
G01 X-35.0522 Y6.1098 
G01 X-34.8198 Y6.3422 
G01 X-34.6941 Y6.6457 
G01 X-34.6941 Y8.5061 
G01 X-34.6574 Y8.5947 
G01 X-34.5897 Y8.6624 
G01 X-34.5011 Y8.6991 
G01 X-32.4593 Y8.6991 
G01 X-32.4568 Y8.6981 
G01 X-32.3707 Y8.6624 
G01 X-32.3030 Y8.5947 
G01 X-32.2773 Y8.5328 
G01 X-32.2663 Y8.5061 
G01 X-32.2663 Y8.4103 
G01 X-32.2673 Y8.4078 
G01 X-32.3030 Y8.3217 
G01 X-32.5225 Y8.1022 
G01 X-32.6521 Y7.7893 
G01 X-32.6521 Y7.4507 
G01 X-32.6012 Y7.3278 
G01 X-32.5759 Y7.2667 
G01 X-32.5759 Y4.7889 
G01 X-32.6126 Y4.7003 
G01 X-32.6803 Y4.6326 
G01 X-32.7689 Y4.5959 
G01 X-38.4811 Y4.5959 
G01 X-38.5697 Y4.6326 
G01 X-38.6374 Y4.7003 
G01 X-38.6741 Y4.7889 
G01 X-38.6741 Y5.6141 
G01 X-38.6374 Y5.7026 
G01 X-38.5697 Y5.7704 
G01 X-38.5091 Y5.8309 
G01 X-38.5091 Y7.7891 
G01 X-38.6209 Y7.9009 
G01 X-40.3791 Y7.9009 
G01 X-40.5190 Y7.7609 
G01 X-40.5276 Y7.7403 
G01 X-40.5953 Y7.6726 
G01 X-40.6839 Y7.6359 
G01 X-43.5611 Y7.6359 
G01 X-43.6497 Y7.6726 
G01 X-43.7174 Y7.7403 
G01 X-43.7541 Y7.8289 
G01 X-43.7541 Y14.0441 
G01 X-43.7174 Y14.1326 
G01 X-43.6497 Y14.2004 
G01 X-43.5891 Y14.2609 
G01 X-43.5891 Y16.2191 
G01 X-43.7009 Y16.3309 
G01 X-45.4591 Y16.3309 
G01 X-45.5990 Y16.1909 
G01 X-45.6076 Y16.1703 
G01 X-45.6753 Y16.1026 
G01 X-45.7639 Y16.0659 
G01 X-47.1543 Y16.0659 
G01 X-47.4725 Y15.9341 
G01 X-47.5723 Y15.9341 
G01 X-47.6841 Y15.8223 
G01 X-47.6841 Y15.7225 
G01 X-47.6855 Y15.7191 
G01 X-47.8159 Y15.4043 
G01 X-47.8159 Y15.0757 
G01 X-47.6841 Y14.7575 
G01 X-47.6841 Y14.6577 
G01 X-47.5723 Y14.5459 
G01 X-47.4725 Y14.5459 
G01 X-47.4691 Y14.5445 
G01 X-47.1543 Y14.4141 
G01 X-45.7639 Y14.4141 
G01 X-45.6753 Y14.3774 
G01 X-45.6076 Y14.3097 
G01 X-45.5990 Y14.2891 
G01 X-45.4426 Y14.1326 
G01 X-45.4059 Y14.0441 
G01 X-45.4059 Y6.6457 
G01 X-45.2802 Y6.3422 
G01 X-45.0478 Y6.1098 
G01 X-44.7443 Y5.9841 
G01 X-40.6839 Y5.9841 
G01 X-40.5953 Y5.9474 
G01 X-40.5276 Y5.8797 
G01 X-40.5190 Y5.8591 
G01 X-40.3626 Y5.7026 
G01 X-40.3259 Y5.6141 
G01 X-40.3259 Y3.6057 
G01 X-40.2002 Y3.3022 
G01 X-39.9678 Y3.0698 
G01 X-39.6643 Y2.9441 
G01 X-29.0457 Y2.9441 
G01 X-28.9491 Y2.9841 
G01 X-8.8492 Y2.9841 
G01 X-8.8463 Y2.9829 
G01 X-8.5619 Y2.8651 
G01 X-6.6780 Y2.8651 
G01 X-6.3308 Y3.0090 
G01 X-6.0649 Y3.2748 
G01 X-5.9211 Y3.6220 
G01 X-5.9211 Y3.9979 
G01 X-6.0649 Y4.3452 
G01 X-6.3308 Y4.6110 
G01 X-6.6780 Y4.7549 
G01 X-8.5619 Y4.7549 
G01 X-8.8492 Y4.6359 
G01 X-30.7311 Y4.6359 
G01 X-30.8197 Y4.6726 
G01 X-30.8874 Y4.7403 
G01 X-30.9241 Y4.8289 
G01 X-30.9241 Y6.5757 
G01 X-30.8874 Y6.6643 
G01 X-30.8197 Y6.7320 
G01 X-30.7311 Y6.7687 
G01 X-30.3107 Y6.7687 
G01 X-29.9978 Y6.8983 
G01 X-29.7583 Y7.1378 
G01 X-29.6287 Y7.4507 
G01 X-29.6287 Y7.7893 
G01 X-29.7583 Y8.1022 
G01 X-29.9778 Y8.3217 
G01 X-30.0145 Y8.4103 
G01 X-30.0145 Y8.5061 
G01 X-30.0041 Y8.5313 
G01 X-29.9778 Y8.5947 
G01 X-29.9101 Y8.6624 
G01 X-29.8215 Y8.6991 
G01 X-29.4407 Y8.6991 
G01 X-29.3793 Y8.6737 
G01 X-29.0407 Y8.6737 
G01 X-28.7278 Y8.8033 
G01 X-28.4883 Y9.0428 
G01 X-28.3587 Y9.3557 
G01 X-28.3587 Y11.0151 
G01 X-28.4883 Y11.3280 
G01 X-28.7278 Y11.5675 
G01 X-29.0407 Y11.6971 
G01 X-29.3793 Y11.6971 
G01 X-29.6922 Y11.5675 
G01 X-29.9317 Y11.3280 
G01 X-30.0613 Y11.0151 
G01 X-30.0613 Y10.5439 
G01 X-30.0980 Y10.4553 
G01 X-30.1657 Y10.3876 
G01 X-30.2543 Y10.3509 
G01 X-30.7311 Y10.3509 
G01 X-30.8197 Y10.3876 
G01 X-30.8874 Y10.4553 
G01 X-30.9241 Y10.5439 
G01 X-30.9241 Y12.6561 
G01 X-30.8874 Y12.7447 
G01 X-30.8197 Y12.8124 
G01 X-30.7991 Y12.8209 
G01 X-30.6426 Y12.9774 
G01 X-30.5541 Y13.0141 
G01 X-5.9689 Y13.0141 
G01 X-5.8803 Y12.9774 
G01 X-5.8126 Y12.9097 
G01 X-5.7759 Y12.8211 
G01 X-5.7759 Y12.4489 
G01 X-5.8126 Y12.3603 
G01 X-5.8803 Y12.2926 
G01 X-5.9689 Y12.2559 
G01 X-6.3908 Y12.2559 
G01 X-6.3937 Y12.2571 
G01 X-6.6780 Y12.3749 
G01 X-8.5619 Y12.3749 
G01 X-8.9092 Y12.2310 
G01 X-9.1750 Y11.9652 
G01 X-9.3189 Y11.6180 
G01 X-9.3189 Y11.2420 
G01 X-9.1750 Y10.8948 
G01 X-8.9092 Y10.6289 
G01 X-8.5619 Y10.4851 
G01 X-6.6780 Y10.4851 
G01 X-6.3908 Y10.6041 
G01 X-4.7857 Y10.6041 
G01 X-4.4822 Y10.7298 
G01 X-4.2498 Y10.9622 
G01 X-4.1241 Y11.2657 
G01 X-4.1241 Y14.0043 
G01 X-4.2498 Y14.3078 
G01 X-4.4822 Y14.5402 
G01 X-4.7857 Y14.6659 
G01 X-13.4511 Y14.6659 
G01 X-13.5397 Y14.7026 
G01 X-13.6074 Y14.7703 
G01 X-13.6441 Y14.8589 
G01 X-13.6441 Y24.2943 
G01 X-13.6610 Y24.3351 
G01 X-13.6741 Y24.3667 
G01 X-13.6741 Y31.9811 
G01 X-13.6374 Y32.0697 
G01 X-13.5697 Y32.1374 
G01 X-13.4811 Y32.1741 
G01 X-5.0537 Y32.1741 
G01 X-5.0058 Y32.1741 
G01 X-4.9596 Y32.1741 
G01 X-4.8488 Y32.1719 
G01 X-4.8435 Y32.1741 
G01 X-4.8401 Y32.1747 
G01 X-4.8343 Y32.1747 
G01 X-4.7335 Y32.2164 
G01 X-4.6894 Y32.2347 
G01 X-4.6466 Y32.2524 
G01 X-4.5434 Y32.2928 
G01 X-4.5393 Y32.2969 
G01 X-4.5365 Y32.2987 
G01 X-4.5311 Y32.3009 
G01 X-4.4540 Y32.3780 
G01 X-4.4202 Y32.4118 
G01 X-4.3875 Y32.4445 
G01 X-4.3075 Y32.5214 
G01 X-4.3053 Y32.5267 
G01 X-4.3034 Y32.5295 
G01 X-4.2993 Y32.5335 
G01 X-4.2575 Y32.6343 
G01 X-4.2393 Y32.6784 
G01 X-4.2215 Y32.7212 
G01 X-4.1771 Y32.8228 
G01 X-4.1771 Y32.8286 
G01 X-4.1764 Y32.8318 
G01 X-4.1741 Y32.8372 
G01 X-4.1741 Y32.9463 
G01 X-4.1741 Y32.9942 
G01 X-4.1741 Y33.0404 
G01 X-4.1417 Y35.3002 
G01 X-4.1417 Y35.3464 
G01 X-4.1410 Y35.3498 
G01 X-4.1227 Y35.3923 
G01 X-4.1050 Y35.4350 
G01 X-4.1031 Y35.4378 
G01 X-4.0700 Y35.4701 
G01 X-3.9591 Y35.5809 
G01 X-3.9591 Y37.5391 
G01 X-4.0709 Y37.6509 
G01 X-5.8291 Y37.6509 
G01 X-5.9409 Y37.5391 
G01 X-5.9409 Y35.5809 
G01 X-5.8964 Y35.5365 
G01 X-5.8626 Y35.5026 
G01 X-5.8299 Y35.4699 
G01 X-5.8280 Y35.4671 
G01 X-5.8109 Y35.4241 
G01 X-5.7932 Y35.3814 
G01 X-5.7926 Y35.3780 
G01 X-5.7932 Y35.3317 
G01 X-5.7932 Y35.2856 
G01 X-5.8110 Y34.0651 
G01 X-5.8110 Y34.0189 
G01 X-5.8117 Y34.0155 
G01 X-5.8300 Y33.9730 
G01 X-5.8477 Y33.9303 
G01 X-5.8496 Y33.9275 
G01 X-5.8829 Y33.8952 
G01 X-5.9155 Y33.8626 
G01 X-5.9183 Y33.8607 
G01 X-5.9613 Y33.8436 
G01 X-6.0040 Y33.8259 
G01 X-6.0074 Y33.8252 
G01 X-6.0536 Y33.8259 
G01 X-14.6643 Y33.8259 
G01 X-14.9678 Y33.7002 
G01 X-15.2002 Y33.4678 
G01 X-15.3259 Y33.1643 
G01 X-15.3259 Y25.1489 
G01 X-15.3626 Y25.0603 
G01 X-15.4303 Y24.9926 
G01 X-15.5189 Y24.9559 
G01 X-16.8540 Y24.9559 
G01 X-16.9425 Y24.9926 
G01 X-17.0103 Y25.0603 
G01 X-17.0991 Y25.1491 
G01 X-17.1232 Y25.1591 
G01 X-17.1962 Y25.1893 
G01 X-17.2118 Y25.1958 
G01 X-17.2795 Y25.2635 
G01 X-17.3162 Y25.3520 
G01 X-17.3162 Y25.4479 
G01 X-17.2859 Y25.5211 
G01 X-17.2795 Y25.5365 
G01 X-17.2118 Y25.6042 
G01 X-17.0991 Y25.6509 
G01 X-16.9693 Y25.7807 
G01 X-16.9056 Y25.8444 
G01 X-16.9015 Y25.8485 
G01 X-16.6474 Y25.9537 
G01 X-16.4097 Y26.1914 
G01 X-16.2811 Y26.5019 
G01 X-16.2811 Y26.8381 
G01 X-16.4097 Y27.1486 
G01 X-16.6474 Y27.3863 
G01 X-16.8497 Y27.4700 
G01 X-16.9174 Y27.5378 
G01 X-16.9185 Y27.5403 
G01 X-16.9541 Y27.6263 
G01 X-16.9541 Y31.9143 
G01 X-17.0798 Y32.2178 
G01 X-17.3122 Y32.4502 
G01 X-17.6157 Y32.5759 
G01 X-28.1043 Y32.5759 
G01 X-28.4078 Y32.4502 
G01 X-28.6402 Y32.2178 
G01 X-28.7659 Y31.9143 
G01 X-28.7659 Y30.1010 
G01 X-28.7913 Y30.0397 
G01 X-28.7913 Y28.3803 
G01 X-28.6617 Y28.0674 
G01 X-28.4676 Y27.8733 
G01 X-28.4309 Y27.7847 
G01 X-28.4309 Y27.6889 
G01 X-28.4413 Y27.6637 
G01 X-28.4676 Y27.6003 
G01 X-28.5353 Y27.5326 
G01 X-28.6239 Y27.4959 
G01 X-29.7961 Y27.4959 
G01 X-29.7986 Y27.4969 
G01 X-29.8847 Y27.5326 
G01 X-29.9524 Y27.6003 
G01 X-29.9780 Y27.6622 
G01 X-29.9891 Y27.6889 
G01 X-29.9891 Y27.7847 
G01 X-29.9881 Y27.7872 
G01 X-29.9524 Y27.8733 
G01 X-29.7583 Y28.0674 
G01 X-29.6287 Y28.3803 
G01 X-29.6287 Y30.0397 
G01 X-29.7583 Y30.3526 
G01 X-29.9978 Y30.5921 
G01 X-30.3107 Y30.7217 
G01 X-30.6493 Y30.7217 
G01 X-30.9622 Y30.5921 
G01 X-31.2017 Y30.3526 
G01 X-31.3313 Y30.0397 
G01 X-31.3313 Y28.3803 
G01 X-31.2017 Y28.0674 
G01 X-31.0076 Y27.8733 
G01 X-30.9709 Y27.7847 
G01 X-30.9709 Y27.6889 
G01 X-30.9813 Y27.6637 
G01 X-31.0076 Y27.6003 
G01 X-31.0753 Y27.5326 
G01 X-31.1639 Y27.4959 
G01 X-33.4543 Y27.4959 
G01 X-33.7725 Y27.3641 
G01 X-33.8723 Y27.3641 
G01 X-33.9841 Y27.2523 
G01 X-33.9841 Y27.1525 
G01 X-33.9855 Y27.1491 
G01 X-34.1159 Y26.8343 
G01 X-34.1159 Y26.5057 
G01 X-33.9841 Y26.1875 
G01 X-33.9841 Y26.0877 
G01 X-33.8723 Y25.9759 
G01 X-33.7725 Y25.9759 
G01 X-33.7691 Y25.9745 
G01 X-33.4543 Y25.8441 
G01 X-25.2357 Y25.8441 
G01 X-24.9322 Y25.9698 
G01 X-24.6998 Y26.2022 
G01 X-24.5741 Y26.5057 
G01 X-24.5741 Y28.3190 
G01 X-24.5487 Y28.3803 
G01 X-24.5487 Y30.0397 
G01 X-24.6783 Y30.3526 
G01 X-24.8724 Y30.5467 
G01 X-24.9091 Y30.6353 
G01 X-24.9091 Y30.7311 
G01 X-24.8987 Y30.7563 
G01 X-24.8724 Y30.8197 
G01 X-24.8047 Y30.8874 
G01 X-24.7161 Y30.9241 
G01 X-23.5439 Y30.9241 
G01 X-23.5414 Y30.9231 
G01 X-23.4553 Y30.8874 
G01 X-23.3876 Y30.8197 
G01 X-23.3619 Y30.7578 
G01 X-23.3509 Y30.7311 
G01 X-23.3509 Y30.6353 
G01 X-23.3519 Y30.6328 
G01 X-23.3876 Y30.5467 
G01 X-23.5817 Y30.3526 
G01 X-23.7113 Y30.0397 
G01 X-23.7113 Y28.3803 
G01 X-23.5817 Y28.0674 
G01 X-23.3422 Y27.8279 
G01 X-23.0293 Y27.6983 
G01 X-22.6907 Y27.6983 
G01 X-22.3778 Y27.8279 
G01 X-22.1383 Y28.0674 
G01 X-22.0870 Y28.1911 
G01 X-22.0858 Y28.1941 
G01 X-22.0504 Y28.2797 
G01 X-21.9826 Y28.3474 
G01 X-21.8941 Y28.3841 
G01 X-21.3389 Y28.3841 
G01 X-21.2503 Y28.3474 
G01 X-21.1826 Y28.2797 
G01 X-21.1459 Y28.1911 
G01 X-21.1459 Y23.9657 
G01 X-21.0202 Y23.6622 
G01 X-20.7878 Y23.4298 
G01 X-20.4843 Y23.3041 
G01 X-18.7060 Y23.3041 
G01 X-18.7035 Y23.3030 
G01 X-18.6174 Y23.2674 
G01 X-18.4609 Y23.1109 
G01 X-18.4368 Y23.1009 
G01 X-18.3638 Y23.0707 
G01 X-18.3482 Y23.0642 
G01 X-18.2804 Y22.9964 
G01 X-18.2438 Y22.9080 
G01 X-18.2438 Y22.8121 
G01 X-18.2741 Y22.7388 
G01 X-18.2805 Y22.7235 
G01 X-18.3482 Y22.6558 
G01 X-18.4609 Y22.6091 
G01 X-18.5907 Y22.4793 
G01 X-18.6544 Y22.4156 
G01 X-18.6585 Y22.4115 
G01 X-18.9126 Y22.3063 
G01 X-19.1503 Y22.0686 
G01 X-19.2789 Y21.7581 
G01 X-19.2789 Y21.4219 
G01 X-19.1503 Y21.1114 
G01 X-18.9126 Y20.8737 
G01 X-18.7103 Y20.7899 
G01 X-18.6426 Y20.7222 
G01 X-18.6415 Y20.7197 
G01 X-18.6059 Y20.6336 
G01 X-18.6059 Y17.5289 
G01 X-18.6426 Y17.4403 
G01 X-18.7103 Y17.3726 
G01 X-18.7989 Y17.3359 
G01 X-19.5711 Y17.3359 
G01 X-19.6597 Y17.3726 
G01 X-19.7274 Y17.4403 
G01 X-19.7641 Y17.5289 
G01 X-19.7641 Y19.2143 
G01 X-19.8959 Y19.5325 
G01 X-19.8959 Y19.6323 
G01 X-20.0077 Y19.7441 
G01 X-20.1075 Y19.7441 
G01 X-20.1109 Y19.7455 
G01 X-20.4257 Y19.8759 
G01 X-20.7543 Y19.8759 
G01 X-21.0725 Y19.7441 
G01 X-21.1723 Y19.7441 
G01 X-21.2841 Y19.6323 
G01 X-21.2841 Y19.5325 
G01 X-21.2855 Y19.5291 
G01 X-21.4159 Y19.2143 
G01 X-21.4159 Y17.5289 
G01 X-21.4526 Y17.4403 
G01 X-21.5203 Y17.3726 
G01 X-21.6089 Y17.3359 
G01 X-29.4611 Y17.3359 
G01 X-29.5497 Y17.3726 
G01 X-29.6174 Y17.4403 
G01 X-29.6541 Y17.5289 
G01 X-29.6541 Y20.6989 
G01 X-29.6287 Y20.7603 
G01 X-29.6287 Y22.4197 
G01 X-29.7583 Y22.7326 
G01 X-29.9524 Y22.9267 
G01 X-29.9891 Y23.0153 
G01 X-29.9891 Y23.1111 
G01 X-29.9787 Y23.1363 
G01 X-29.9524 Y23.1997 
G01 X-29.8847 Y23.2674 
G01 X-29.7961 Y23.3041 
G01 X-28.6239 Y23.3041 
G01 X-28.6214 Y23.3030 
G01 X-28.5353 Y23.2674 
G01 X-28.4676 Y23.1997 
G01 X-28.4419 Y23.1378 
G01 X-28.4309 Y23.1111 
G01 X-28.4309 Y23.0153 
G01 X-28.4319 Y23.0128 
G01 X-28.4676 Y22.9267 
G01 X-28.6617 Y22.7326 
G01 X-28.7913 Y22.4197 
G01 X-28.7913 Y20.7603 
G01 X-28.7659 Y20.6989 
G01 X-28.7659 Y18.8857 
G01 X-28.6341 Y18.5675 
G01 X-28.6341 Y18.4677 
G01 X-28.5223 Y18.3559 
G01 X-28.4225 Y18.3559 
G01 X-28.4191 Y18.3545 
G01 X-28.1043 Y18.2241 
G01 X-27.7757 Y18.2241 
G01 X-27.4575 Y18.3559 
G01 X-27.3577 Y18.3559 
G01 X-27.2459 Y18.4677 
G01 X-27.2459 Y18.5675 
G01 X-27.2445 Y18.5709 
G01 X-27.1141 Y18.8857 
G01 X-27.1141 Y20.6989 
G01 X-27.0887 Y20.7603 
G01 X-27.0887 Y22.4197 
G01 X-27.2183 Y22.7326 
G01 X-27.4124 Y22.9267 
G01 X-27.4491 Y23.0153 
G01 X-27.4491 Y23.1111 
G01 X-27.4387 Y23.1363 
G01 X-27.4124 Y23.1997 
G01 X-27.3447 Y23.2674 
G01 X-27.2561 Y23.3041 
G01 X-26.0839 Y23.3041 
G01 X-26.0814 Y23.3031 
G01 X-25.9953 Y23.2674 
G01 X-25.9276 Y23.1997 
G01 X-25.9019 Y23.1378 
G01 X-25.8909 Y23.1111 
G01 X-25.8909 Y23.0153 
G01 X-25.8919 Y23.0128 
G01 X-25.9276 Y22.9267 
G01 X-26.1217 Y22.7326 
G01 X-26.2513 Y22.4197 
G01 X-26.2513 Y21.9344 
G01 X-26.2526 Y21.9311 
G01 X-26.3259 Y21.7543 
G01 X-26.3259 Y18.8357 
G01 X-26.2002 Y18.5322 
G01 X-25.9678 Y18.2998 
G01 X-25.6643 Y18.1741 
G01 X-24.2357 Y18.1741 
G01 X-23.9322 Y18.2998 
G01 X-23.9128 Y18.3192 
G01 X-23.8242 Y18.3559 
G01 X-23.8177 Y18.3559 
G01 X-23.7059 Y18.4677 
G01 X-23.7059 Y18.5175 
G01 X-23.7048 Y18.5201 
G01 X-23.5741 Y18.8357 
G01 X-23.5741 Y19.2143 
G01 X-23.7059 Y19.5325 
G01 X-23.7059 Y19.6323 
G01 X-23.8177 Y19.7441 
G01 X-23.9175 Y19.7441 
G01 X-23.9201 Y19.7452 
G01 X-24.2357 Y19.8759 
G01 X-24.4811 Y19.8759 
G01 X-24.5697 Y19.9126 
G01 X-24.6374 Y19.9803 
G01 X-24.6741 Y20.0689 
G01 X-24.6741 Y20.4575 
G01 X-24.6728 Y20.4606 
G01 X-24.5487 Y20.7603 
G01 X-24.5487 Y22.4197 
G01 X-24.6783 Y22.7326 
G01 X-24.8724 Y22.9267 
G01 X-24.9091 Y23.0153 
G01 X-24.9091 Y23.1111 
G01 X-24.8987 Y23.1363 
G01 X-24.8724 Y23.1997 
G01 X-24.8047 Y23.2674 
G01 X-24.7161 Y23.3041 
G01 X-23.8789 Y23.3041 
G01 X-23.7903 Y23.2674 
G01 X-23.7226 Y23.1997 
G01 X-23.6859 Y23.1111 
G01 X-23.6859 Y22.4810 
G01 X-23.7113 Y22.4197 
G01 X-23.7113 Y20.7603 
G01 X-23.5817 Y20.4474 
G01 X-23.3422 Y20.2079 
G01 X-23.0293 Y20.0783 
G01 X-22.6907 Y20.0783 
G01 X-22.3778 Y20.2079 
G01 X-22.1383 Y20.4474 
G01 X-22.0087 Y20.7603 
G01 X-22.0087 Y22.4197 
G01 X-22.0341 Y22.4810 
G01 X-22.0341 Y24.2943 
G01 X-22.1598 Y24.5978 
G01 X-22.3922 Y24.8302 
G01 X-22.6957 Y24.9559 
G01 X-34.8111 Y24.9559 
G01 X-34.8997 Y24.9926 
G01 X-34.9674 Y25.0603 
G01 X-35.0041 Y25.1489 
G01 X-35.0041 Y33.0011 
G01 X-34.9674 Y33.0897 
G01 X-34.8997 Y33.1574 
G01 X-34.8111 Y33.1941 
G01 X-22.6957 Y33.1941 
G01 X-22.3922 Y33.3198 
G01 X-22.1598 Y33.5522 
G01 X-22.0341 Y33.8557 
G01 X-22.0341 Y35.7243 
G01 X-22.1598 Y36.0278 
G01 X-22.3024 Y36.1704 
G01 X-22.3391 Y36.2590 
G01 X-22.3391 Y37.4391 
G01 X-22.4509 Y37.5509 
G01 X-23.9091 Y37.5509 
G01 X-23.9258 Y37.5342 
G01 X-23.9925 Y37.4675 
G01 X-24.0444 Y37.4454 
G01 X-24.0821 Y37.4298 
G01 X-24.1779 Y37.4298 
G01 X-24.2665 Y37.4664 
G01 X-24.3509 Y37.5509 
G01 X-24.3811 Y37.5509 
G01 X-24.4697 Y37.5876 
G01 X-24.5374 Y37.6553 
G01 X-24.5741 Y37.7439 
G01 X-24.5741 Y38.0811 
G01 X-24.5374 Y38.1697 
G01 X-24.4697 Y38.2374 
G01 X-24.3811 Y38.2741 
G01 X-18.4789 Y38.2741 
G01 X-18.3903 Y38.2374 
G01 X-18.3226 Y38.1697 
G01 X-18.2859 Y38.0811 
G01 X-18.2859 Y37.6018 
G01 X-18.2859 Y37.5541 
G01 X-18.2859 Y37.5059 
G01 X-18.3009 Y37.4697 
G01 X-18.3009 Y35.6809 
G01 X-18.1891 Y35.5691 
G01 X-16.7309 Y35.5691 
G01 X-16.6465 Y35.6536 
G01 X-16.5579 Y35.6902 
G01 X-16.4621 Y35.6902 
G01 X-16.4265 Y35.6755 
G01 X-16.3735 Y35.6536 
G01 X-16.3058 Y35.5858 
G01 X-16.2891 Y35.5691 
G01 X-14.8309 Y35.5691 
G01 X-14.7026 Y35.6974 
G01 X-14.6141 Y35.7341 
G01 X-12.5357 Y35.7341 
G01 X-12.2175 Y35.8659 
G01 X-12.1177 Y35.8659 
G01 X-12.0059 Y35.9777 
G01 X-12.0059 Y36.0775 
G01 X-12.0045 Y36.0809 
G01 X-11.8741 Y36.3957 
G01 X-11.8741 Y36.7243 
G01 X-12.0059 Y37.0425 
G01 X-12.0059 Y37.1423 
G01 X-12.1177 Y37.2541 
G01 X-12.2175 Y37.2541 
G01 X-12.2209 Y37.2555 
G01 X-12.5357 Y37.3859 
G01 X-14.6141 Y37.3859 
G01 X-14.6166 Y37.3869 
G01 X-14.7026 Y37.4226 
G01 X-14.8309 Y37.5509 
G01 X-16.3348 Y37.5509 
G01 X-16.3452 Y37.5466 
G01 X-16.3930 Y37.5466 
G01 X-16.4410 Y37.5465 
G01 X-16.4820 Y37.5635 
G01 X-16.5296 Y37.5832 
G01 X-16.5611 Y37.6147 
G01 X-16.5974 Y37.6509 
G01 X-16.6171 Y37.6985 
G01 X-16.6341 Y37.7394 
G01 X-16.6341 Y37.7873 
G01 X-16.6341 Y37.8353 
G01 X-16.6341 Y38.0811 
G01 X-16.5974 Y38.1697 
G01 X-16.5297 Y38.2374 
G01 X-16.4411 Y38.2741 
G01 X-8.7843 Y38.2741 
G01 X-8.7783 Y38.2762 
G01 X-8.7366 Y38.2741 
G01 X-8.6949 Y38.2741 
G01 X-8.6890 Y38.2717 
G01 X-8.6826 Y38.2713 
G01 X-8.6449 Y38.2534 
G01 X-8.6063 Y38.2374 
G01 X-8.6018 Y38.2329 
G01 X-8.5961 Y38.2302 
G01 X-8.5681 Y38.1992 
G01 X-8.5386 Y38.1697 
G01 X-8.5361 Y38.1638 
G01 X-8.5319 Y38.1590 
G01 X-8.5179 Y38.1197 
G01 X-8.5019 Y38.0811 
G01 X-8.5019 Y38.0747 
G01 X-8.4998 Y38.0687 
G01 X-8.5019 Y38.0270 
G01 X-8.5019 Y37.9853 
G01 X-8.5043 Y37.9794 
G01 X-8.5103 Y37.8633 
G01 X-8.5103 Y37.8216 
G01 X-8.5127 Y37.8157 
G01 X-8.5130 Y37.8093 
G01 X-8.5310 Y37.7716 
G01 X-8.5469 Y37.7330 
G01 X-8.5515 Y37.7285 
G01 X-8.5542 Y37.7228 
G01 X-8.5852 Y37.6948 
G01 X-8.7690 Y37.5109 
G01 X-8.7776 Y37.4903 
G01 X-8.8453 Y37.4226 
G01 X-8.9339 Y37.3859 
G01 X-10.3243 Y37.3859 
G01 X-10.6425 Y37.2541 
G01 X-10.7423 Y37.2541 
G01 X-10.8541 Y37.1423 
G01 X-10.8541 Y37.0425 
G01 X-10.8555 Y37.0391 
G01 X-10.9859 Y36.7243 
G01 X-10.9859 Y36.3957 
G01 X-10.8541 Y36.0775 
G01 X-10.8541 Y35.9777 
G01 X-10.7423 Y35.8659 
G01 X-10.6425 Y35.8659 
G01 X-10.6391 Y35.8645 
G01 X-10.3243 Y35.7341 
G01 X-8.9339 Y35.7341 
G01 X-8.8453 Y35.6974 
G01 X-8.7776 Y35.6297 
G01 X-8.7690 Y35.6091 
G01 X-8.6291 Y35.4691 
G01 X-6.8709 Y35.4691 
G01 X-6.7591 Y35.5809 
G01 X-6.7591 Y37.5391 
G01 X-6.7623 Y37.5422 
G01 X-6.7680 Y37.5450 
G01 X-6.7960 Y37.5760 
G01 X-6.8255 Y37.6055 
G01 X-6.8280 Y37.6114 
G01 X-6.8322 Y37.6161 
G01 X-6.8462 Y37.6555 
G01 X-6.8622 Y37.6940 
G01 X-6.8622 Y37.7004 
G01 X-6.8643 Y37.7064 
G01 X-6.8622 Y37.7481 
G01 X-6.8622 Y37.7899 
G01 X-6.8598 Y37.7958 
G01 X-6.8049 Y38.8679 
G01 X-6.8049 Y38.9096 
G01 X-6.8025 Y38.9155 
G01 X-6.8021 Y38.9219 
G01 X-6.7941 Y38.9388 
G01 X-6.7941 Y39.0311 
G01 X-6.7962 Y39.0371 
G01 X-6.7941 Y39.0789 
G01 X-6.7941 Y39.1206 
G01 X-6.7917 Y39.1265 
G01 X-6.7869 Y39.2188 
G01 X-6.7941 Y39.2361 
G01 X-6.7941 Y39.2424 
G01 X-6.7962 Y39.2484 
G01 X-6.7953 Y39.2671 
G01 X-6.8306 Y39.3524 
G01 X-6.8349 Y39.3572 
G01 X-6.8489 Y39.3966 
G01 X-6.8649 Y39.4351 
G01 X-6.8649 Y39.4415 
G01 X-6.8958 Y39.5285 
G01 X-6.9090 Y39.5418 
G01 X-6.9115 Y39.5476 
G01 X-6.9157 Y39.5524 
G01 X-6.9220 Y39.5700 
G01 X-6.9873 Y39.6353 
G01 X-6.9931 Y39.6381 
G01 X-7.0211 Y39.6691 
G01 X-7.0506 Y39.6986 
G01 X-7.0530 Y39.7045 
G01 X-7.1097 Y39.7672 
G01 X-7.1392 Y39.7967 
G01 X-7.1416 Y39.8026 
G01 X-7.1459 Y39.8074 
G01 X-7.1599 Y39.8467 
G01 X-7.1759 Y39.8853 
G01 X-7.1759 Y39.8916 
G01 X-7.1780 Y39.8977 
G01 X-7.1759 Y39.9394 
G01 X-7.1759 Y39.9811 
G01 X-7.1734 Y39.9870 
G01 X-7.1731 Y39.9934 
G01 X-7.1552 Y40.0311 
G01 X-7.1392 Y40.0697 
G01 X-7.1347 Y40.0742 
G01 X-7.1319 Y40.0799 
G01 X-7.1009 Y40.1079 
G01 X-7.0714 Y40.1374 
G01 X-7.0655 Y40.1399 
G01 X-7.0608 Y40.1441 
G01 X-7.0215 Y40.1581 
G01 X-6.9829 Y40.1741 
G01 X-6.9765 Y40.1741 
G01 X-6.9705 Y40.1762 
G01 X-6.9288 Y40.1741 
G01 X-3.5189 Y40.1741 
G01 X-3.4303 Y40.1374 
G01 X-3.3626 Y40.0697 
G01 X-3.3259 Y39.9811 
G01 X-3.3259 Y31.0189 
G01 X-3.3626 Y30.9303 
G01 X-3.4303 Y30.8626 
G01 X-3.5189 Y30.8259 
G01 X-7.1643 Y30.8259 
G01 X-7.4678 Y30.7002 
G01 X-7.7002 Y30.4678 
G01 X-7.8259 Y30.1643 
G01 X-7.8259 Y17.3357 
G01 X-7.7002 Y17.0322 
G01 X-7.4678 Y16.7998 
G01 X-7.1643 Y16.6741 
G01 X-3.5189 Y16.6741 
G01 X-3.4303 Y16.6374 
G01 X-3.3626 Y16.5697 
G01 X-3.3259 Y16.4811 
G01 X-3.3259 Y7.5395 
G01 X-3.3246 Y7.4952 
G01 X-3.3259 Y7.4917 
G01 X-3.3259 Y7.4881 
G01 X-3.3429 Y7.4471 
G01 X-3.3587 Y7.4056 
G01 X-3.3612 Y7.4029 
G01 X-3.3626 Y7.3995 
G01 X-3.3939 Y7.3682 
G01 X-3.4244 Y7.3359 
G01 X-3.4278 Y7.3344 
G01 X-3.4303 Y7.3318 
G01 X-3.4714 Y7.3148 
G01 X-3.5118 Y7.2966 
G01 X-3.5155 Y7.2965 
G01 X-3.5189 Y7.2951 
G01 X-3.5633 Y7.2951 
G01 X-6.3769 Y7.2127 
G01 X-6.3803 Y7.2113 
G01 X-6.4247 Y7.2113 
G01 X-6.4691 Y7.2100 
G01 X-6.4725 Y7.2113 
G01 X-6.4762 Y7.2113 
G01 X-6.5172 Y7.2283 
G01 X-6.5587 Y7.2440 
G01 X-6.5613 Y7.2465 
G01 X-6.6780 Y7.2949 
G01 X-8.5619 Y7.2949 
G01 X-8.9092 Y7.1510 
G01 X-9.1750 Y6.8852 
G01 X-9.3189 Y6.5380 
G01 X-9.3189 Y6.1620 
G01 X-9.1750 Y5.8148 
G01 X-8.9092 Y5.5489 
G01 X-8.5619 Y5.4051 
G01 X-6.6780 Y5.4051 
G01 X-6.3422 Y5.5442 
G01 X-6.3018 Y5.5624 
G01 X-6.2981 Y5.5625 
G01 X-6.2947 Y5.5639 
G01 X-6.2504 Y5.5639 
G01 X-2.5357 Y5.6727 
G01 X-2.5323 Y5.6741 
G01 X-2.4879 Y5.6741 
G01 X-2.4435 Y5.6754 
G01 X-2.4401 Y5.6741 
G01 X-2.3382 Y5.6741 
G01 X-2.3278 Y5.6788 
G01 X-2.3241 Y5.6789 
G01 X-2.3207 Y5.6803 
G01 X-2.3093 Y5.6803 
G01 X-2.2164 Y5.7220 
G01 X-2.2138 Y5.7246 
G01 X-2.1728 Y5.7416 
G01 X-2.1323 Y5.7598 
G01 X-2.1286 Y5.7599 
G01 X-2.0345 Y5.7989 
G01 X-2.0266 Y5.8072 
G01 X-2.0233 Y5.8087 
G01 X-2.0207 Y5.8113 
G01 X-2.0101 Y5.8157 
G00 Z2.0000  F3000
G00 X-2.0148 Y5.9261  F3000
G01 Z-0.2000 F200.00 
G01 X-2.0226 Y5.9183 F500.00 
G01 X-2.0748 Y5.8834 
G01 X-2.1260 Y5.8470 
G01 X-2.1361 Y5.8425 
G01 X-2.1453 Y5.8363 
G01 X-2.2032 Y5.8123 
G01 X-2.2606 Y5.7866 
G01 X-2.2713 Y5.7841 
G01 X-2.2816 Y5.7799 
G01 X-2.3431 Y5.7676 
G01 X-2.4043 Y5.7536 
G01 X-2.4154 Y5.7533 
G01 X-2.4262 Y5.7511 
G01 X-2.4890 Y5.7511 
G01 X-6.3703 Y5.6374 
G01 X-6.4549 Y5.5809 
G01 X-6.6128 Y5.5155 
G01 X-6.7805 Y5.4821 
G01 X-8.4595 Y5.4821 
G01 X-8.6272 Y5.5155 
G01 X-8.7851 Y5.5809 
G01 X-8.9273 Y5.6759 
G01 X-9.0481 Y5.7967 
G01 X-9.1431 Y5.9389 
G01 X-9.2085 Y6.0968 
G01 X-9.2419 Y6.2645 
G01 X-9.2419 Y6.4355 
G01 X-9.2085 Y6.6032 
G01 X-9.1431 Y6.7611 
G01 X-9.0481 Y6.9033 
G01 X-8.9273 Y7.0241 
G01 X-8.7851 Y7.1191 
G01 X-8.6272 Y7.1845 
G01 X-8.4595 Y7.2179 
G01 X-6.7805 Y7.2179 
G01 X-6.6128 Y7.1845 
G01 X-6.4870 Y7.1324 
G01 X-3.2489 Y7.2273 
G01 X-3.2489 Y16.7511 
G01 X-7.0738 Y16.7511 
G01 X-7.2184 Y16.7799 
G01 X-7.3547 Y16.8363 
G01 X-7.4774 Y16.9183 
G01 X-7.5817 Y17.0226 
G01 X-7.6637 Y17.1453 
G01 X-7.7201 Y17.2816 
G01 X-7.7489 Y17.4262 
G01 X-7.7489 Y30.0738 
G01 X-7.7201 Y30.2184 
G01 X-7.6637 Y30.3547 
G01 X-7.5817 Y30.4774 
G01 X-7.4774 Y30.5817 
G01 X-7.3547 Y30.6637 
G01 X-7.2184 Y30.7201 
G01 X-7.0738 Y30.7489 
G01 X-3.2489 Y30.7489 
G01 X-3.2489 Y40.2511 
G01 X-26.9211 Y40.2511 
G01 X-26.9211 Y34.7689 
G01 X-23.6089 Y34.7689 
G01 X-23.6089 Y35.6338 
G01 X-23.6064 Y35.6461 
G01 X-23.8527 Y35.6461 
G01 X-23.8945 Y35.6634 
G01 X-23.9266 Y35.6955 
G01 X-23.9439 Y35.7373 
G01 X-23.9439 Y37.3827 
G01 X-23.9266 Y37.4245 
G01 X-23.8945 Y37.4566 
G01 X-23.8527 Y37.4739 
G01 X-22.5073 Y37.4739 
G01 X-22.4655 Y37.4566 
G01 X-22.4334 Y37.4245 
G01 X-22.4161 Y37.3827 
G01 X-22.4161 Y36.1641 
G01 X-22.3826 Y36.1417 
G01 X-22.2783 Y36.0374 
G01 X-22.1963 Y35.9147 
G01 X-22.1399 Y35.7784 
G01 X-22.1111 Y35.6338 
G01 X-22.1111 Y33.9462 
G01 X-22.1399 Y33.8016 
G01 X-22.1963 Y33.6653 
G01 X-22.2783 Y33.5426 
G01 X-22.3826 Y33.4383 
G01 X-22.5053 Y33.3563 
G01 X-22.6416 Y33.2999 
G01 X-22.7862 Y33.2711 
G01 X-35.0811 Y33.2711 
G01 X-35.0811 Y24.8789 
G01 X-22.7862 Y24.8789 
G01 X-22.6416 Y24.8501 
G01 X-22.5053 Y24.7937 
G01 X-22.3826 Y24.7117 
G01 X-22.2783 Y24.6074 
G01 X-22.1963 Y24.4847 
G01 X-22.1399 Y24.3484 
G01 X-22.1111 Y24.2038 
G01 X-22.1111 Y22.4544 
G01 X-22.0857 Y22.3267 
G01 X-22.0857 Y20.8533 
G01 X-22.1155 Y20.7037 
G01 X-22.1738 Y20.5628 
G01 X-22.2586 Y20.4360 
G01 X-22.3664 Y20.3282 
G01 X-22.4932 Y20.2434 
G01 X-22.6341 Y20.1851 
G01 X-22.7837 Y20.1553 
G01 X-22.9363 Y20.1553 
G01 X-23.0859 Y20.1851 
G01 X-23.2268 Y20.2434 
G01 X-23.3536 Y20.3282 
G01 X-23.4614 Y20.4360 
G01 X-23.5462 Y20.5628 
G01 X-23.6045 Y20.7037 
G01 X-23.6343 Y20.8533 
G01 X-23.6343 Y22.3267 
G01 X-23.6089 Y22.4544 
G01 X-23.6089 Y23.3811 
G01 X-35.9038 Y23.3811 
G01 X-36.0484 Y23.4099 
G01 X-36.1847 Y23.4663 
G01 X-36.3074 Y23.5483 
G01 X-36.4117 Y23.6526 
G01 X-36.4937 Y23.7753 
G01 X-36.5501 Y23.9116 
G01 X-36.5789 Y24.0562 
G01 X-36.5789 Y34.0938 
G01 X-36.5501 Y34.2384 
G01 X-36.4937 Y34.3747 
G01 X-36.4117 Y34.4974 
G01 X-36.3074 Y34.6017 
G01 X-36.1847 Y34.6837 
G01 X-36.0484 Y34.7401 
G01 X-35.9038 Y34.7689 
G01 X-28.4189 Y34.7689 
G01 X-28.4189 Y41.0738 
G01 X-28.3901 Y41.2184 
G01 X-28.3337 Y41.3547 
G01 X-28.2517 Y41.4774 
G01 X-28.1474 Y41.5817 
G01 X-28.0247 Y41.6637 
G01 X-27.8884 Y41.7201 
G01 X-27.7438 Y41.7489 
G01 X-2.4262 Y41.7489 
G01 X-2.2816 Y41.7201 
G01 X-2.1453 Y41.6637 
G01 X-2.0226 Y41.5817 
G01 X-1.9183 Y41.4774 
G01 X-1.8363 Y41.3547 
G01 X-1.7799 Y41.2184 
G01 X-1.7511 Y41.0738 
G01 X-1.7511 Y29.9262 
G01 X-1.7799 Y29.7816 
G01 X-1.8363 Y29.6453 
G01 X-1.9183 Y29.5226 
G01 X-2.0226 Y29.4183 
G01 X-2.1453 Y29.3363 
G01 X-2.2816 Y29.2799 
G01 X-2.4262 Y29.2511 
G01 X-6.2511 Y29.2511 
G01 X-6.2511 Y18.2489 
G01 X-2.4262 Y18.2489 
G01 X-2.2816 Y18.2201 
G01 X-2.1453 Y18.1637 
G01 X-2.0226 Y18.0817 
G01 X-1.9183 Y17.9774 
G01 X-1.8363 Y17.8547 
G01 X-1.7799 Y17.7184 
G01 X-1.7511 Y17.5738 
G01 X-1.7511 Y6.5109 
G01 X-1.7493 Y6.4482 
G01 X-1.7511 Y6.4373 
G01 X-1.7511 Y6.4262 
G01 X-1.7634 Y6.3646 
G01 X-1.7738 Y6.3027 
G01 X-1.7777 Y6.2924 
G01 X-1.7799 Y6.2816 
G01 X-1.8039 Y6.2236 
G01 X-1.8262 Y6.1648 
G01 X-1.8321 Y6.1555 
G01 X-1.8363 Y6.1453 
G01 X-1.8712 Y6.0931 
G01 X-1.9046 Y6.0398 
G01 X-1.9121 Y6.0318 
G01 X-1.9183 Y6.0226 
G01 X-1.9627 Y5.9782 
G01 X-2.0058 Y5.9325 
G01 X-2.0148 Y5.9261 
G00 Z2.0000  F3000
G00 X-6.3127 Y4.4841  F3000
G01 Z-0.2000 F200.00 
G01 X-6.1919 Y4.3633 F500.00 
G01 X-6.0969 Y4.2211 
G01 X-6.0315 Y4.0632 
G01 X-5.9981 Y3.8955 
G01 X-5.9981 Y3.7245 
G01 X-6.0315 Y3.5568 
G01 X-6.0969 Y3.3989 
G01 X-6.1919 Y3.2567 
G01 X-6.3127 Y3.1359 
G01 X-6.4549 Y3.0409 
G01 X-6.6128 Y2.9755 
G01 X-6.7805 Y2.9421 
G01 X-8.4595 Y2.9421 
G01 X-8.6272 Y2.9755 
G01 X-8.7851 Y3.0409 
G01 X-8.8154 Y3.0611 
G01 X-28.9645 Y3.0611 
G01 X-28.9916 Y3.0499 
G01 X-29.1362 Y3.0211 
G01 X-39.5738 Y3.0211 
G01 X-39.7184 Y3.0499 
G01 X-39.8547 Y3.1063 
G01 X-39.9774 Y3.1883 
G01 X-40.0817 Y3.2926 
G01 X-40.1637 Y3.4153 
G01 X-40.2201 Y3.5516 
G01 X-40.2489 Y3.6962 
G01 X-40.2489 Y5.7961 
G01 X-40.3227 Y5.7961 
G01 X-40.3645 Y5.8134 
G01 X-40.3966 Y5.8455 
G01 X-40.4139 Y5.8873 
G01 X-40.4139 Y6.0611 
G01 X-44.6538 Y6.0611 
G01 X-44.7984 Y6.0899 
G01 X-44.9347 Y6.1463 
G01 X-45.0574 Y6.2283 
G01 X-45.1617 Y6.3326 
G01 X-45.2437 Y6.4553 
G01 X-45.3001 Y6.5916 
G01 X-45.3289 Y6.7362 
G01 X-45.3289 Y14.2261 
G01 X-45.4027 Y14.2261 
G01 X-45.4445 Y14.2434 
G01 X-45.4766 Y14.2755 
G01 X-45.4939 Y14.3173 
G01 X-45.4939 Y14.4911 
G01 X-47.0638 Y14.4911 
G01 X-47.2084 Y14.5199 
G01 X-47.3447 Y14.5763 
G01 X-47.4144 Y14.6229 
G01 X-47.5159 Y14.6229 
G01 X-47.5577 Y14.6402 
G01 X-47.5898 Y14.6723 
G01 X-47.6071 Y14.7141 
G01 X-47.6071 Y14.8156 
G01 X-47.6537 Y14.8853 
G01 X-47.7101 Y15.0216 
G01 X-47.7389 Y15.1662 
G01 X-47.7389 Y15.3138 
G01 X-47.7101 Y15.4584 
G01 X-47.6537 Y15.5947 
G01 X-47.6071 Y15.6644 
G01 X-47.6071 Y15.7659 
G01 X-47.5898 Y15.8077 
G01 X-47.5577 Y15.8398 
G01 X-47.5159 Y15.8571 
G01 X-47.4144 Y15.8571 
G01 X-47.3447 Y15.9037 
G01 X-47.2084 Y15.9601 
G01 X-47.0638 Y15.9889 
G01 X-45.4939 Y15.9889 
G01 X-45.4939 Y16.1627 
G01 X-45.4766 Y16.2045 
G01 X-45.4445 Y16.2366 
G01 X-45.4027 Y16.2539 
G01 X-43.7573 Y16.2539 
G01 X-43.7155 Y16.2366 
G01 X-43.6834 Y16.2045 
G01 X-43.6661 Y16.1627 
G01 X-43.6661 Y14.3173 
G01 X-43.6834 Y14.2755 
G01 X-43.7155 Y14.2434 
G01 X-43.7573 Y14.2261 
G01 X-43.8311 Y14.2261 
G01 X-43.8311 Y7.5589 
G01 X-40.4139 Y7.5589 
G01 X-40.4139 Y7.7327 
G01 X-40.3966 Y7.7745 
G01 X-40.3645 Y7.8066 
G01 X-40.3227 Y7.8239 
G01 X-38.6773 Y7.8239 
G01 X-38.6355 Y7.8066 
G01 X-38.6034 Y7.7745 
G01 X-38.5861 Y7.7327 
G01 X-38.5861 Y5.8873 
G01 X-38.6034 Y5.8455 
G01 X-38.6355 Y5.8134 
G01 X-38.6773 Y5.7961 
G01 X-38.7511 Y5.7961 
G01 X-38.7511 Y4.5189 
G01 X-32.4989 Y4.5189 
G01 X-32.4989 Y7.2820 
G01 X-32.5453 Y7.3941 
G01 X-32.5751 Y7.5437 
G01 X-32.5751 Y7.6963 
G01 X-32.5453 Y7.8459 
G01 X-32.4870 Y7.9868 
G01 X-32.4022 Y8.1136 
G01 X-32.2944 Y8.2214 
G01 X-32.1676 Y8.3062 
G01 X-32.0267 Y8.3645 
G01 X-31.8771 Y8.3943 
G01 X-30.4037 Y8.3943 
G01 X-30.2541 Y8.3645 
G01 X-30.1132 Y8.3062 
G01 X-29.9864 Y8.2214 
G01 X-29.8786 Y8.1136 
G01 X-29.7938 Y7.9868 
G01 X-29.7355 Y7.8459 
G01 X-29.7057 Y7.6963 
G01 X-29.7057 Y7.5437 
G01 X-29.7355 Y7.3941 
G01 X-29.7938 Y7.2532 
G01 X-29.8786 Y7.1264 
G01 X-29.9864 Y7.0186 
G01 X-30.1132 Y6.9338 
G01 X-30.2541 Y6.8755 
G01 X-30.4037 Y6.8457 
G01 X-31.0011 Y6.8457 
G01 X-31.0011 Y4.5589 
G01 X-8.8154 Y4.5589 
G01 X-8.7851 Y4.5791 
G01 X-8.6272 Y4.6445 
G01 X-8.4595 Y4.6779 
G01 X-6.7805 Y4.6779 
G01 X-6.6128 Y4.6445 
G01 X-6.4549 Y4.5791 
G01 X-6.3127 Y4.4841 
G00 Z2.0000  F3000
G00 X-6.3308 Y8.0890  F3000
G01 Z-0.2000 F200.00 
G01 X-6.0649 Y8.3547 F500.00 
G01 X-5.9211 Y8.7020 
G01 X-5.9211 Y9.0779 
G01 X-6.0649 Y9.4252 
G01 X-6.3308 Y9.6910 
G01 X-6.6780 Y9.8349 
G01 X-8.5619 Y9.8349 
G01 X-8.8492 Y9.7159 
G01 X-17.9443 Y9.7159 
G01 X-18.2625 Y9.5841 
G01 X-18.3623 Y9.5841 
G01 X-18.4741 Y9.4723 
G01 X-18.4741 Y9.3725 
G01 X-18.4755 Y9.3691 
G01 X-18.6059 Y9.0543 
G01 X-18.6059 Y8.7257 
G01 X-18.4741 Y8.4075 
G01 X-18.4741 Y8.3077 
G01 X-18.3623 Y8.1959 
G01 X-18.2625 Y8.1959 
G01 X-18.2591 Y8.1945 
G01 X-17.9443 Y8.0641 
G01 X-8.8492 Y8.0641 
G01 X-8.8463 Y8.0629 
G01 X-8.5619 Y7.9451 
G01 X-6.6780 Y7.9451 
G01 X-6.3308 Y8.0890 
G00 Z2.0000  F3000
G00 X-6.3127 Y8.2159  F3000
G01 Z-0.2000 F200.00 
G01 X-6.4549 Y8.1209 F500.00 
G01 X-6.6128 Y8.0555 
G01 X-6.7805 Y8.0221 
G01 X-8.4595 Y8.0221 
G01 X-8.6272 Y8.0555 
G01 X-8.7851 Y8.1209 
G01 X-8.8154 Y8.1411 
G01 X-17.8538 Y8.1411 
G01 X-17.9984 Y8.1699 
G01 X-18.1347 Y8.2263 
G01 X-18.2044 Y8.2729 
G01 X-18.3059 Y8.2729 
G01 X-18.3477 Y8.2902 
G01 X-18.3798 Y8.3223 
G01 X-18.3971 Y8.3641 
G01 X-18.3971 Y8.4656 
G01 X-18.4437 Y8.5353 
G01 X-18.5001 Y8.6716 
G01 X-18.5289 Y8.8162 
G01 X-18.5289 Y8.9638 
G01 X-18.5001 Y9.1084 
G01 X-18.4437 Y9.2447 
G01 X-18.3971 Y9.3144 
G01 X-18.3971 Y9.4159 
G01 X-18.3798 Y9.4577 
G01 X-18.3477 Y9.4898 
G01 X-18.3059 Y9.5071 
G01 X-18.2044 Y9.5071 
G01 X-18.1347 Y9.5537 
G01 X-17.9984 Y9.6101 
G01 X-17.8538 Y9.6389 
G01 X-8.8154 Y9.6389 
G01 X-8.7851 Y9.6591 
G01 X-8.6272 Y9.7245 
G01 X-8.4595 Y9.7579 
G01 X-6.7805 Y9.7579 
G01 X-6.6128 Y9.7245 
G01 X-6.4549 Y9.6591 
G01 X-6.3127 Y9.5641 
G01 X-6.1919 Y9.4433 
G01 X-6.0969 Y9.3011 
G01 X-6.0315 Y9.1432 
G01 X-5.9981 Y8.9755 
G01 X-5.9981 Y8.8045 
G01 X-6.0315 Y8.6368 
G01 X-6.0969 Y8.4789 
G01 X-6.1919 Y8.3367 
G01 X-6.3127 Y8.2159 
G00 Z2.0000  F3000
G00 X-6.4246 Y10.6811  F3000
G01 Z-0.2000 F200.00 
G01 X-6.4549 Y10.6609 F500.00 
G01 X-6.6128 Y10.5955 
G01 X-6.7805 Y10.5621 
G01 X-8.4595 Y10.5621 
G01 X-8.6272 Y10.5955 
G01 X-8.7851 Y10.6609 
G01 X-8.9273 Y10.7559 
G01 X-9.0481 Y10.8767 
G01 X-9.1431 Y11.0189 
G01 X-9.2085 Y11.1768 
G01 X-9.2419 Y11.3445 
G01 X-9.2419 Y11.5155 
G01 X-9.2085 Y11.6832 
G01 X-9.1431 Y11.8411 
G01 X-9.0481 Y11.9833 
G01 X-8.9273 Y12.1041 
G01 X-8.7851 Y12.1991 
G01 X-8.6272 Y12.2645 
G01 X-8.4595 Y12.2979 
G01 X-6.7805 Y12.2979 
G01 X-6.6128 Y12.2645 
G01 X-6.4549 Y12.1991 
G01 X-6.4246 Y12.1789 
G01 X-5.6989 Y12.1789 
G01 X-5.6989 Y13.0911 
G01 X-30.7361 Y13.0911 
G01 X-30.7361 Y13.0173 
G01 X-30.7534 Y12.9755 
G01 X-30.7855 Y12.9434 
G01 X-30.8273 Y12.9261 
G01 X-31.0011 Y12.9261 
G01 X-31.0011 Y10.2739 
G01 X-29.9843 Y10.2739 
G01 X-29.9843 Y10.9221 
G01 X-29.9545 Y11.0717 
G01 X-29.8962 Y11.2126 
G01 X-29.8114 Y11.3394 
G01 X-29.7036 Y11.4472 
G01 X-29.5768 Y11.5320 
G01 X-29.4359 Y11.5903 
G01 X-29.2863 Y11.6201 
G01 X-29.1337 Y11.6201 
G01 X-28.9841 Y11.5903 
G01 X-28.8432 Y11.5320 
G01 X-28.7164 Y11.4472 
G01 X-28.6086 Y11.3394 
G01 X-28.5238 Y11.2126 
G01 X-28.4655 Y11.0717 
G01 X-28.4357 Y10.9221 
G01 X-28.4357 Y9.4487 
G01 X-28.4655 Y9.2991 
G01 X-28.5238 Y9.1582 
G01 X-28.6086 Y9.0314 
G01 X-28.7164 Y8.9236 
G01 X-28.8432 Y8.8388 
G01 X-28.9841 Y8.7805 
G01 X-29.1337 Y8.7507 
G01 X-29.2863 Y8.7507 
G01 X-29.4140 Y8.7761 
G01 X-34.7711 Y8.7761 
G01 X-34.7711 Y6.7362 
G01 X-34.7999 Y6.5916 
G01 X-34.8563 Y6.4553 
G01 X-34.9383 Y6.3326 
G01 X-35.0426 Y6.2283 
G01 X-35.1653 Y6.1463 
G01 X-35.3016 Y6.0899 
G01 X-35.4462 Y6.0611 
G01 X-35.7861 Y6.0611 
G01 X-35.7861 Y5.8873 
G01 X-35.8034 Y5.8455 
G01 X-35.8355 Y5.8134 
G01 X-35.8773 Y5.7961 
G01 X-37.5227 Y5.7961 
G01 X-37.5645 Y5.8134 
G01 X-37.5966 Y5.8455 
G01 X-37.6139 Y5.8873 
G01 X-37.6139 Y7.7327 
G01 X-37.5966 Y7.7745 
G01 X-37.5645 Y7.8066 
G01 X-37.5227 Y7.8239 
G01 X-36.2689 Y7.8239 
G01 X-36.2689 Y9.1528 
G01 X-36.2945 Y9.1634 
G01 X-36.3266 Y9.1955 
G01 X-36.3439 Y9.2373 
G01 X-36.3439 Y11.0827 
G01 X-36.3266 Y11.1245 
G01 X-36.2945 Y11.1566 
G01 X-36.2527 Y11.1739 
G01 X-34.6073 Y11.1739 
G01 X-34.5655 Y11.1566 
G01 X-34.5334 Y11.1245 
G01 X-34.5161 Y11.0827 
G01 X-34.5161 Y10.2739 
G01 X-32.4989 Y10.2739 
G01 X-32.4989 Y12.2511 
G01 X-41.8538 Y12.2511 
G01 X-41.9984 Y12.2799 
G01 X-42.1347 Y12.3363 
G01 X-42.2574 Y12.4183 
G01 X-42.3617 Y12.5226 
G01 X-42.4437 Y12.6453 
G01 X-42.5001 Y12.7816 
G01 X-42.5289 Y12.9262 
G01 X-42.5289 Y14.2261 
G01 X-42.6027 Y14.2261 
G01 X-42.6445 Y14.2434 
G01 X-42.6766 Y14.2755 
G01 X-42.6939 Y14.3173 
G01 X-42.6939 Y16.1627 
G01 X-42.6766 Y16.2045 
G01 X-42.6445 Y16.2366 
G01 X-42.6027 Y16.2539 
G01 X-40.9573 Y16.2539 
G01 X-40.9155 Y16.2366 
G01 X-40.8834 Y16.2045 
G01 X-40.8661 Y16.1627 
G01 X-40.8661 Y15.9889 
G01 X-36.2489 Y15.9889 
G01 X-36.2489 Y19.7511 
G01 X-38.3211 Y19.7511 
G01 X-38.3211 Y19.4373 
G01 X-38.3384 Y19.3955 
G01 X-38.3705 Y19.3634 
G01 X-38.4123 Y19.3461 
G01 X-39.0577 Y19.3461 
G01 X-39.0995 Y19.3634 
G01 X-39.1316 Y19.3955 
G01 X-39.1489 Y19.4373 
G01 X-39.1489 Y20.1232 
G01 X-39.1637 Y20.1453 
G01 X-39.2201 Y20.2816 
G01 X-39.2489 Y20.4262 
G01 X-39.2489 Y20.5738 
G01 X-39.2201 Y20.7184 
G01 X-39.1637 Y20.8547 
G01 X-39.1489 Y20.8768 
G01 X-39.1489 Y21.0827 
G01 X-39.1316 Y21.1245 
G01 X-39.0995 Y21.1566 
G01 X-39.0577 Y21.1739 
G01 X-38.8300 Y21.1739 
G01 X-38.7184 Y21.2201 
G01 X-38.5738 Y21.2489 
G01 X-35.4262 Y21.2489 
G01 X-35.2816 Y21.2201 
G01 X-35.1453 Y21.1637 
G01 X-35.0226 Y21.0817 
G01 X-34.9183 Y20.9774 
G01 X-34.8363 Y20.8547 
G01 X-34.7799 Y20.7184 
G01 X-34.7511 Y20.5738 
G01 X-34.7511 Y15.1662 
G01 X-34.7799 Y15.0216 
G01 X-34.8363 Y14.8853 
G01 X-34.9183 Y14.7626 
G01 X-35.0226 Y14.6583 
G01 X-35.1453 Y14.5763 
G01 X-35.2816 Y14.5199 
G01 X-35.4262 Y14.4911 
G01 X-40.8661 Y14.4911 
G01 X-40.8661 Y14.3173 
G01 X-40.8834 Y14.2755 
G01 X-40.9155 Y14.2434 
G01 X-40.9573 Y14.2261 
G01 X-41.0311 Y14.2261 
G01 X-41.0311 Y13.7489 
G01 X-32.7639 Y13.7489 
G01 X-32.7639 Y14.6627 
G01 X-32.7466 Y14.7045 
G01 X-32.7145 Y14.7366 
G01 X-32.6727 Y14.7539 
G01 X-30.8273 Y14.7539 
G01 X-30.7855 Y14.7366 
G01 X-30.7534 Y14.7045 
G01 X-30.7361 Y14.6627 
G01 X-30.7361 Y14.5889 
G01 X-15.2189 Y14.5889 
G01 X-15.2189 Y23.3811 
G01 X-16.9548 Y23.3811 
G01 X-17.0504 Y23.3621 
G01 X-18.5096 Y23.3621 
G01 X-18.6052 Y23.3811 
G01 X-20.3938 Y23.3811 
G01 X-20.5384 Y23.4099 
G01 X-20.6747 Y23.4663 
G01 X-20.7974 Y23.5483 
G01 X-20.9017 Y23.6526 
G01 X-20.9837 Y23.7753 
G01 X-21.0401 Y23.9116 
G01 X-21.0689 Y24.0562 
G01 X-21.0689 Y28.4611 
G01 X-22.0881 Y28.4611 
G01 X-22.1155 Y28.3237 
G01 X-22.1738 Y28.1828 
G01 X-22.2586 Y28.0560 
G01 X-22.3664 Y27.9482 
G01 X-22.4932 Y27.8634 
G01 X-22.6341 Y27.8051 
G01 X-22.7837 Y27.7753 
G01 X-22.9363 Y27.7753 
G01 X-23.0859 Y27.8051 
G01 X-23.2268 Y27.8634 
G01 X-23.3536 Y27.9482 
G01 X-23.4614 Y28.0560 
G01 X-23.5462 Y28.1828 
G01 X-23.6045 Y28.3237 
G01 X-23.6343 Y28.4733 
G01 X-23.6343 Y29.9467 
G01 X-23.6045 Y30.0963 
G01 X-23.5462 Y30.2372 
G01 X-23.4614 Y30.3640 
G01 X-23.3536 Y30.4718 
G01 X-23.2268 Y30.5566 
G01 X-23.0859 Y30.6149 
G01 X-22.9363 Y30.6447 
G01 X-22.7837 Y30.6447 
G01 X-22.6341 Y30.6149 
G01 X-22.4932 Y30.5566 
G01 X-22.3664 Y30.4718 
G01 X-22.2586 Y30.3640 
G01 X-22.1738 Y30.2372 
G01 X-22.1155 Y30.0963 
G01 X-22.0881 Y29.9589 
G01 X-20.2462 Y29.9589 
G01 X-20.1016 Y29.9301 
G01 X-19.9653 Y29.8737 
G01 X-19.8426 Y29.7917 
G01 X-19.7383 Y29.6874 
G01 X-19.6563 Y29.5647 
G01 X-19.5999 Y29.4284 
G01 X-19.5711 Y29.2838 
G01 X-19.5711 Y24.8789 
G01 X-18.6052 Y24.8789 
G01 X-18.5096 Y24.8979 
G01 X-17.0504 Y24.8979 
G01 X-16.9548 Y24.8789 
G01 X-15.2489 Y24.8789 
G01 X-15.2489 Y33.0738 
G01 X-15.2201 Y33.2184 
G01 X-15.1637 Y33.3547 
G01 X-15.0817 Y33.4774 
G01 X-14.9774 Y33.5817 
G01 X-14.8547 Y33.6637 
G01 X-14.7184 Y33.7201 
G01 X-14.5738 Y33.7489 
G01 X-5.7385 Y33.7489 
G01 X-5.7132 Y35.5461 
G01 X-5.7727 Y35.5461 
G01 X-5.8145 Y35.5634 
G01 X-5.8466 Y35.5955 
G01 X-5.8639 Y35.6373 
G01 X-5.8639 Y37.4827 
G01 X-5.8466 Y37.5245 
G01 X-5.8145 Y37.5566 
G01 X-5.7727 Y37.5739 
G01 X-4.1273 Y37.5739 
G01 X-4.0855 Y37.5566 
G01 X-4.0534 Y37.5245 
G01 X-4.0361 Y37.4827 
G01 X-4.0361 Y35.6373 
G01 X-4.0534 Y35.5955 
G01 X-4.0855 Y35.5634 
G01 X-4.1273 Y35.5461 
G01 X-4.2153 Y35.5461 
G01 X-4.2511 Y32.9947 
G01 X-4.2511 Y32.9262 
G01 X-4.2521 Y32.9210 
G01 X-4.2522 Y32.9157 
G01 X-4.2665 Y32.8488 
G01 X-4.2799 Y32.7816 
G01 X-4.2819 Y32.7766 
G01 X-4.2830 Y32.7715 
G01 X-4.3101 Y32.7085 
G01 X-4.3363 Y32.6453 
G01 X-4.3393 Y32.6409 
G01 X-4.3414 Y32.6360 
G01 X-4.3802 Y32.5795 
G01 X-4.4183 Y32.5226 
G01 X-4.4220 Y32.5189 
G01 X-4.4251 Y32.5145 
G01 X-4.4742 Y32.4667 
G01 X-4.5226 Y32.4183 
G01 X-4.5270 Y32.4153 
G01 X-4.5308 Y32.4116 
G01 X-4.5884 Y32.3743 
G01 X-4.6453 Y32.3363 
G01 X-4.6502 Y32.3343 
G01 X-4.6546 Y32.3314 
G01 X-4.7183 Y32.3061 
G01 X-4.7816 Y32.2799 
G01 X-4.7868 Y32.2788 
G01 X-4.7917 Y32.2769 
G01 X-4.8590 Y32.2645 
G01 X-4.9262 Y32.2511 
G01 X-4.9315 Y32.2511 
G01 X-4.9368 Y32.2501 
G01 X-5.0053 Y32.2511 
G01 X-13.7511 Y32.2511 
G01 X-13.7511 Y24.3514 
G01 X-13.7499 Y24.3484 
G01 X-13.7211 Y24.2038 
G01 X-13.7211 Y14.5889 
G01 X-4.8762 Y14.5889 
G01 X-4.7316 Y14.5601 
G01 X-4.5953 Y14.5037 
G01 X-4.4726 Y14.4217 
G01 X-4.3683 Y14.3174 
G01 X-4.2863 Y14.1947 
G01 X-4.2299 Y14.0584 
G01 X-4.2011 Y13.9138 
G01 X-4.2011 Y11.3562 
G01 X-4.2299 Y11.2116 
G01 X-4.2863 Y11.0753 
G01 X-4.3683 Y10.9526 
G01 X-4.4726 Y10.8483 
G01 X-4.5953 Y10.7663 
G01 X-4.7316 Y10.7099 
G01 X-4.8762 Y10.6811 
G01 X-6.4246 Y10.6811 
G00 Z2.0000  F3000
G00 X-3.6835 Y20.9935  F3000
G01 Z-0.2000 F200.00 
G01 X-3.7905 Y21.1005 F500.00 
G01 X-3.8745 Y21.2263 
G01 X-3.9324 Y21.3660 
G01 X-3.9619 Y21.5144 
G01 X-3.9619 Y21.6656 
G01 X-3.9324 Y21.8140 
G01 X-3.8745 Y21.9537 
G01 X-3.7905 Y22.0795 
G01 X-3.6835 Y22.1865 
G01 X-3.5577 Y22.2705 
G01 X-3.4180 Y22.3284 
G01 X-3.2696 Y22.3579 
G01 X-1.8104 Y22.3579 
G01 X-1.6620 Y22.3284 
G01 X-1.5223 Y22.2705 
G01 X-1.3965 Y22.1865 
G01 X-1.2895 Y22.0795 
G01 X-1.2055 Y21.9537 
G01 X-1.1476 Y21.8140 
G01 X-1.1181 Y21.6656 
G01 X-1.1181 Y21.5144 
G01 X-1.1476 Y21.3660 
G01 X-1.2055 Y21.2263 
G01 X-1.2895 Y21.1005 
G01 X-1.3965 Y20.9935 
G01 X-1.5223 Y20.9095 
G01 X-1.6620 Y20.8516 
G01 X-1.8104 Y20.8221 
G01 X-3.2696 Y20.8221 
G01 X-3.4180 Y20.8516 
G01 X-3.5577 Y20.9095 
G01 X-3.6835 Y20.9935 
G00 Z2.0000  F3000
G00 X-3.6835 Y23.5335  F3000
G01 Z-0.2000 F200.00 
G01 X-3.7905 Y23.6405 F500.00 
G01 X-3.8745 Y23.7663 
G01 X-3.9324 Y23.9060 
G01 X-3.9619 Y24.0544 
G01 X-3.9619 Y24.2056 
G01 X-3.9324 Y24.3540 
G01 X-3.8745 Y24.4937 
G01 X-3.7905 Y24.6195 
G01 X-3.6835 Y24.7265 
G01 X-3.5577 Y24.8105 
G01 X-3.4180 Y24.8684 
G01 X-3.2696 Y24.8979 
G01 X-1.8104 Y24.8979 
G01 X-1.6620 Y24.8684 
G01 X-1.5223 Y24.8105 
G01 X-1.3965 Y24.7265 
G01 X-1.2895 Y24.6195 
G01 X-1.2055 Y24.4937 
G01 X-1.1476 Y24.3540 
G01 X-1.1181 Y24.2056 
G01 X-1.1181 Y24.0544 
G01 X-1.1476 Y23.9060 
G01 X-1.2055 Y23.7663 
G01 X-1.2895 Y23.6405 
G01 X-1.3965 Y23.5335 
G01 X-1.5223 Y23.4495 
G01 X-1.6620 Y23.3916 
G01 X-1.8104 Y23.3621 
G01 X-3.2696 Y23.3621 
G01 X-3.4180 Y23.3916 
G01 X-3.5577 Y23.4495 
G01 X-3.6835 Y23.5335 
G00 Z2.0000  F3000
G00 X-2.0395 Y22.9965  F3000
G01 Z-0.2000 F200.00 
G01 X-2.0395 Y22.9965 F500.00 
G01 X-1.9718 Y23.0642 
G01 X-1.8591 Y23.1109 
G01 X-1.6615 Y23.3085 
G01 X-1.5730 Y23.3452 
G01 X-1.4074 Y23.4137 
G01 X-1.2795 Y23.5417 
G01 X-1.1909 Y23.5784 
G01 X-1.0951 Y23.5784 
G01 X-1.0595 Y23.5636 
G01 X-1.0065 Y23.5417 
G01 X-0.9388 Y23.4739 
G01 X-0.9021 Y23.3854 
G01 X-0.9021 Y22.3346 
G01 X-0.9031 Y22.3321 
G01 X-0.9388 Y22.2461 
G01 X-1.0055 Y22.1794 
G01 X-1.0574 Y22.1573 
G01 X-1.0951 Y22.1416 
G01 X-1.1909 Y22.1416 
G01 X-1.1934 Y22.1427 
G01 X-1.2795 Y22.1783 
G01 X-1.4074 Y22.3063 
G01 X-1.6615 Y22.4115 
G01 X-1.7293 Y22.4793 
G01 X-1.8591 Y22.6091 
G01 X-1.8832 Y22.6191 
G01 X-1.9562 Y22.6493 
G01 X-1.9718 Y22.6558 
G01 X-2.0395 Y22.7235 
G01 X-2.0762 Y22.8120 
G01 X-2.0762 Y22.9079 
G01 X-2.0459 Y22.9811 
G01 X-2.0395 Y22.9965 
G00 Z2.0000  F3000
G00 X-2.0395 Y25.2635  F3000
G01 Z-0.2000 F200.00 
G01 X-2.0395 Y25.2635 F500.00 
G01 X-2.0606 Y25.3144 
G01 X-2.0762 Y25.3521 
G01 X-2.0762 Y25.4479 
G01 X-2.0615 Y25.4835 
G01 X-2.0395 Y25.5364 
G01 X-1.9718 Y25.6042 
G01 X-1.9202 Y25.6256 
G01 X-1.8832 Y25.6409 
G01 X-1.8591 Y25.6509 
G01 X-1.6615 Y25.8485 
G01 X-1.5730 Y25.8851 
G01 X-1.4074 Y25.9537 
G01 X-1.2795 Y26.0817 
G01 X-1.1909 Y26.1183 
G01 X-1.0951 Y26.1183 
G01 X-1.0595 Y26.1036 
G01 X-1.0065 Y26.0817 
G01 X-0.9388 Y26.0139 
G01 X-0.9021 Y25.9254 
G01 X-0.9021 Y24.8746 
G01 X-0.9031 Y24.8721 
G01 X-0.9388 Y24.7861 
G01 X-1.0055 Y24.7194 
G01 X-1.0574 Y24.6973 
G01 X-1.0951 Y24.6816 
G01 X-1.1909 Y24.6816 
G01 X-1.1934 Y24.6827 
G01 X-1.2795 Y24.7183 
G01 X-1.4074 Y24.8463 
G01 X-1.5730 Y24.9148 
G01 X-1.6580 Y24.9501 
G01 X-1.6615 Y24.9515 
G01 X-1.7293 Y25.0193 
G01 X-1.8591 Y25.1491 
G01 X-1.8832 Y25.1591 
G01 X-1.9106 Y25.1704 
G01 X-1.9718 Y25.1958 
G01 X-2.0395 Y25.2635 
G00 Z2.0000  F3000
G00 X-1.8104 Y25.9021  F3000
G01 Z-0.2000 F200.00 
G01 X-3.2696 Y25.9021 F500.00 
G01 X-3.4180 Y25.9316 
G01 X-3.5577 Y25.9895 
G01 X-3.6835 Y26.0735 
G01 X-3.7905 Y26.1805 
G01 X-3.8745 Y26.3063 
G01 X-3.9324 Y26.4460 
G01 X-3.9619 Y26.5944 
G01 X-3.9619 Y26.7456 
G01 X-3.9324 Y26.8940 
G01 X-3.8745 Y27.0337 
G01 X-3.7905 Y27.1595 
G01 X-3.6835 Y27.2665 
G01 X-3.5577 Y27.3505 
G01 X-3.4180 Y27.4084 
G01 X-3.2696 Y27.4379 
G01 X-1.8104 Y27.4379 
G01 X-1.6620 Y27.4084 
G01 X-1.5223 Y27.3505 
G01 X-1.3965 Y27.2665 
G01 X-1.2895 Y27.1595 
G01 X-1.2055 Y27.0337 
G01 X-1.1476 Y26.8940 
G01 X-1.1181 Y26.7456 
G01 X-1.1181 Y26.5944 
G01 X-1.1476 Y26.4460 
G01 X-1.2055 Y26.3063 
G01 X-1.2895 Y26.1805 
G01 X-1.3965 Y26.0735 
G01 X-1.5223 Y25.9895 
G01 X-1.6620 Y25.9316 
G01 X-1.8104 Y25.9021 
G00 Z2.0000  F3000
G00 X-6.8534 Y35.5955  F3000
G01 Z-0.2000 F200.00 
G01 X-6.8855 Y35.5634 F500.00 
G01 X-6.9273 Y35.5461 
G01 X-8.5727 Y35.5461 
G01 X-8.6145 Y35.5634 
G01 X-8.6466 Y35.5955 
G01 X-8.6639 Y35.6373 
G01 X-8.6639 Y35.8111 
G01 X-10.2338 Y35.8111 
G01 X-10.3784 Y35.8399 
G01 X-10.5147 Y35.8963 
G01 X-10.5844 Y35.9429 
G01 X-10.6859 Y35.9429 
G01 X-10.7277 Y35.9602 
G01 X-10.7598 Y35.9923 
G01 X-10.7771 Y36.0341 
G01 X-10.7771 Y36.1356 
G01 X-10.8237 Y36.2053 
G01 X-10.8801 Y36.3416 
G01 X-10.9089 Y36.4862 
G01 X-10.9089 Y36.6338 
G01 X-10.8801 Y36.7784 
G01 X-10.8237 Y36.9147 
G01 X-10.7771 Y36.9844 
G01 X-10.7771 Y37.0859 
G01 X-10.7598 Y37.1277 
G01 X-10.7277 Y37.1598 
G01 X-10.6859 Y37.1771 
G01 X-10.5844 Y37.1771 
G01 X-10.5147 Y37.2237 
G01 X-10.3784 Y37.2801 
G01 X-10.2338 Y37.3089 
G01 X-8.6639 Y37.3089 
G01 X-8.6639 Y37.4827 
G01 X-8.6466 Y37.5245 
G01 X-8.6145 Y37.5566 
G01 X-8.5727 Y37.5739 
G01 X-8.4480 Y37.5739 
G01 X-8.4082 Y38.3511 
G01 X-16.7111 Y38.3511 
G01 X-16.7111 Y37.4189 
G01 X-16.6961 Y37.3827 
G01 X-16.6961 Y35.7373 
G01 X-16.7134 Y35.6955 
G01 X-16.7455 Y35.6634 
G01 X-16.7873 Y35.6461 
G01 X-18.1327 Y35.6461 
G01 X-18.1745 Y35.6634 
G01 X-18.2066 Y35.6955 
G01 X-18.2239 Y35.7373 
G01 X-18.2239 Y37.3827 
G01 X-18.2089 Y37.4189 
G01 X-18.2089 Y38.3511 
G01 X-24.6511 Y38.3511 
G01 X-24.6511 Y37.4739 
G01 X-24.4073 Y37.4739 
G01 X-24.3655 Y37.4566 
G01 X-24.3334 Y37.4245 
G01 X-24.3161 Y37.3827 
G01 X-24.3161 Y35.7373 
G01 X-24.3334 Y35.6955 
G01 X-24.3655 Y35.6634 
G01 X-24.4073 Y35.6461 
G01 X-25.7527 Y35.6461 
G01 X-25.7945 Y35.6634 
G01 X-25.8266 Y35.6955 
G01 X-25.8439 Y35.7373 
G01 X-25.8439 Y35.9559 
G01 X-25.8774 Y35.9783 
G01 X-25.9817 Y36.0826 
G01 X-26.0637 Y36.2053 
G01 X-26.1201 Y36.3416 
G01 X-26.1489 Y36.4862 
G01 X-26.1489 Y39.1738 
G01 X-26.1201 Y39.3184 
G01 X-26.0637 Y39.4547 
G01 X-25.9817 Y39.5774 
G01 X-25.8774 Y39.6817 
G01 X-25.7547 Y39.7637 
G01 X-25.6184 Y39.8201 
G01 X-25.4738 Y39.8489 
G01 X-7.6745 Y39.8489 
G01 X-7.6554 Y39.8517 
G01 X-7.6009 Y39.8489 
G01 X-7.5462 Y39.8489 
G01 X-7.5273 Y39.8451 
G01 X-7.5081 Y39.8441 
G01 X-7.4551 Y39.8308 
G01 X-7.4016 Y39.8201 
G01 X-7.3837 Y39.8127 
G01 X-7.3650 Y39.8080 
G01 X-7.3157 Y39.7846 
G01 X-7.2653 Y39.7637 
G01 X-7.2492 Y39.7530 
G01 X-7.2318 Y39.7447 
G01 X-7.1880 Y39.7120 
G01 X-7.1426 Y39.6817 
G01 X-7.1290 Y39.6681 
G01 X-7.1135 Y39.6565 
G01 X-7.0769 Y39.6160 
G01 X-7.0383 Y39.5774 
G01 X-7.0276 Y39.5614 
G01 X-7.0146 Y39.5470 
G01 X-6.9867 Y39.5001 
G01 X-6.9563 Y39.4547 
G01 X-6.9490 Y39.4369 
G01 X-6.9391 Y39.4203 
G01 X-6.9208 Y39.3689 
G01 X-6.8999 Y39.3184 
G01 X-6.8961 Y39.2995 
G01 X-6.8897 Y39.2814 
G01 X-6.8818 Y39.2273 
G01 X-6.8711 Y39.1738 
G01 X-6.8711 Y39.1545 
G01 X-6.8683 Y39.1354 
G01 X-6.8711 Y39.0809 
G01 X-6.8711 Y39.0262 
G01 X-6.8749 Y39.0073 
G01 X-6.9482 Y37.5739 
G01 X-6.9273 Y37.5739 
G01 X-6.8855 Y37.5566 
G01 X-6.8534 Y37.5245 
G01 X-6.8361 Y37.4827 
G01 X-6.8361 Y35.6373 
G01 X-6.8534 Y35.5955 
G00 Z2.0000  F3000
G00 X-12.1002 Y35.9923  F3000
G01 Z-0.2000 F200.00 
G01 X-12.1323 Y35.9602 F500.00 
G01 X-12.1741 Y35.9429 
G01 X-12.2756 Y35.9429 
G01 X-12.3453 Y35.8963 
G01 X-12.4816 Y35.8399 
G01 X-12.6262 Y35.8111 
G01 X-14.7961 Y35.8111 
G01 X-14.7961 Y35.7373 
G01 X-14.8134 Y35.6955 
G01 X-14.8455 Y35.6634 
G01 X-14.8873 Y35.6461 
G01 X-16.2327 Y35.6461 
G01 X-16.2745 Y35.6634 
G01 X-16.3066 Y35.6955 
G01 X-16.3239 Y35.7373 
G01 X-16.3239 Y37.3827 
G01 X-16.3066 Y37.4245 
G01 X-16.2745 Y37.4566 
G01 X-16.2327 Y37.4739 
G01 X-14.8873 Y37.4739 
G01 X-14.8455 Y37.4566 
G01 X-14.8134 Y37.4245 
G01 X-14.7961 Y37.3827 
G01 X-14.7961 Y37.3089 
G01 X-12.6262 Y37.3089 
G01 X-12.4816 Y37.2801 
G01 X-12.3453 Y37.2237 
G01 X-12.2756 Y37.1771 
G01 X-12.1741 Y37.1771 
G01 X-12.1323 Y37.1598 
G01 X-12.1002 Y37.1277 
G01 X-12.0829 Y37.0859 
G01 X-12.0829 Y36.9844 
G01 X-12.0363 Y36.9147 
G01 X-11.9799 Y36.7784 
G01 X-11.9511 Y36.6338 
G01 X-11.9511 Y36.4862 
G01 X-11.9799 Y36.3416 
G01 X-12.0363 Y36.2053 
G01 X-12.0829 Y36.1356 
G01 X-12.0829 Y36.0341 
G01 X-12.1002 Y35.9923 
G00 Z2.0000  F3000
G00 X-17.3026 Y32.3317  F3000
G01 Z-0.2000 F200.00 
G01 X-17.1983 Y32.2274 F500.00 
G01 X-17.1163 Y32.1047 
G01 X-17.0599 Y31.9684 
G01 X-17.0311 Y31.8238 
G01 X-17.0311 Y27.4341 
G01 X-16.9020 Y27.4084 
G01 X-16.7623 Y27.3505 
G01 X-16.6365 Y27.2665 
G01 X-16.5295 Y27.1595 
G01 X-16.4455 Y27.0337 
G01 X-16.3876 Y26.8940 
G01 X-16.3581 Y26.7456 
G01 X-16.3581 Y26.5944 
G01 X-16.3876 Y26.4460 
G01 X-16.4455 Y26.3063 
G01 X-16.5295 Y26.1805 
G01 X-16.6365 Y26.0735 
G01 X-16.7623 Y25.9895 
G01 X-16.9020 Y25.9316 
G01 X-17.0504 Y25.9021 
G01 X-18.5096 Y25.9021 
G01 X-18.6580 Y25.9316 
G01 X-18.7977 Y25.9895 
G01 X-18.9235 Y26.0735 
G01 X-19.0305 Y26.1805 
G01 X-19.1145 Y26.3063 
G01 X-19.1724 Y26.4460 
G01 X-19.2019 Y26.5944 
G01 X-19.2019 Y26.7456 
G01 X-19.1724 Y26.8940 
G01 X-19.1145 Y27.0337 
G01 X-19.0305 Y27.1595 
G01 X-18.9235 Y27.2665 
G01 X-18.7977 Y27.3505 
G01 X-18.6580 Y27.4084 
G01 X-18.5289 Y27.4341 
G01 X-18.5289 Y31.0011 
G01 X-27.1911 Y31.0011 
G01 X-27.1911 Y30.0743 
G01 X-27.1657 Y29.9467 
G01 X-27.1657 Y28.4733 
G01 X-27.1955 Y28.3237 
G01 X-27.2538 Y28.1828 
G01 X-27.3386 Y28.0560 
G01 X-27.4464 Y27.9482 
G01 X-27.5732 Y27.8634 
G01 X-27.7141 Y27.8051 
G01 X-27.8637 Y27.7753 
G01 X-28.0163 Y27.7753 
G01 X-28.1659 Y27.8051 
G01 X-28.3068 Y27.8634 
G01 X-28.4336 Y27.9482 
G01 X-28.5414 Y28.0560 
G01 X-28.6262 Y28.1828 
G01 X-28.6845 Y28.3237 
G01 X-28.7143 Y28.4733 
G01 X-28.7143 Y29.9467 
G01 X-28.6889 Y30.0743 
G01 X-28.6889 Y31.8238 
G01 X-28.6601 Y31.9684 
G01 X-28.6037 Y32.1047 
G01 X-28.5217 Y32.2274 
G01 X-28.4174 Y32.3317 
G01 X-28.2947 Y32.4137 
G01 X-28.1584 Y32.4701 
G01 X-28.0138 Y32.4989 
G01 X-17.7062 Y32.4989 
G01 X-17.5616 Y32.4701 
G01 X-17.4253 Y32.4137 
G01 X-17.3026 Y32.3317 
G00 Z2.0000  F3000
G00 X-18.7103 Y30.8874  F3000
G01 Z-0.2000 F200.00 
G01 X-18.6426 Y30.8197 F500.00 
G01 X-18.6059 Y30.7311 
G01 X-18.6059 Y27.6263 
G01 X-18.6426 Y27.5378 
G01 X-18.7103 Y27.4700 
G01 X-18.9126 Y27.3863 
G01 X-19.1167 Y27.1821 
G01 X-19.2053 Y27.1454 
G01 X-19.3011 Y27.1454 
G01 X-19.3263 Y27.1559 
G01 X-19.3897 Y27.1821 
G01 X-19.4574 Y27.2499 
G01 X-19.4941 Y27.3384 
G01 X-19.4941 Y29.3743 
G01 X-19.6198 Y29.6778 
G01 X-19.8522 Y29.9102 
G01 X-20.1557 Y30.0359 
G01 X-21.8941 Y30.0359 
G01 X-21.8966 Y30.0369 
G01 X-21.9826 Y30.0726 
G01 X-22.0504 Y30.1403 
G01 X-22.0850 Y30.2239 
G01 X-22.0870 Y30.2289 
G01 X-22.1383 Y30.3526 
G01 X-22.3324 Y30.5467 
G01 X-22.3691 Y30.6353 
G01 X-22.3691 Y30.7311 
G01 X-22.3587 Y30.7563 
G01 X-22.3324 Y30.8197 
G01 X-22.2647 Y30.8874 
G01 X-22.1761 Y30.9241 
G01 X-18.7989 Y30.9241 
G01 X-18.7103 Y30.8874 
G00 Z2.0000  F3000
G00 X-18.6585 Y25.8485  F3000
G01 Z-0.2000 F200.00 
G01 X-18.5907 Y25.7807 F500.00 
G01 X-18.4609 Y25.6509 
G01 X-18.4368 Y25.6409 
G01 X-18.4094 Y25.6296 
G01 X-18.3482 Y25.6042 
G01 X-18.2805 Y25.5365 
G01 X-18.2594 Y25.4856 
G01 X-18.2438 Y25.4479 
G01 X-18.2438 Y25.3521 
G01 X-18.2585 Y25.3165 
G01 X-18.2804 Y25.2635 
G01 X-18.3482 Y25.1958 
G01 X-18.3998 Y25.1744 
G01 X-18.4368 Y25.1591 
G01 X-18.4609 Y25.1491 
G01 X-18.6174 Y24.9926 
G01 X-18.6883 Y24.9632 
G01 X-18.7060 Y24.9559 
G01 X-19.3011 Y24.9559 
G01 X-19.3897 Y24.9926 
G01 X-19.4574 Y25.0603 
G01 X-19.4941 Y25.1489 
G01 X-19.4941 Y26.0016 
G01 X-19.4931 Y26.0041 
G01 X-19.4574 Y26.0901 
G01 X-19.3897 Y26.1579 
G01 X-19.3278 Y26.1835 
G01 X-19.3011 Y26.1945 
G01 X-19.2053 Y26.1945 
G01 X-19.2028 Y26.1935 
G01 X-19.1167 Y26.1579 
G01 X-18.9126 Y25.9537 
G01 X-18.6585 Y25.8485 
G00 Z2.0000  F3000
G00 X-18.6580 Y22.3284  F3000
G01 Z-0.2000 F200.00 
G01 X-18.5096 Y22.3579 F500.00 
G01 X-17.0504 Y22.3579 
G01 X-16.9020 Y22.3284 
G01 X-16.7623 Y22.2705 
G01 X-16.6365 Y22.1865 
G01 X-16.5295 Y22.0795 
G01 X-16.4455 Y21.9537 
G01 X-16.3876 Y21.8140 
G01 X-16.3581 Y21.6656 
G01 X-16.3581 Y21.5144 
G01 X-16.3876 Y21.3660 
G01 X-16.4455 Y21.2263 
G01 X-16.5295 Y21.1005 
G01 X-16.6365 Y20.9935 
G01 X-16.7623 Y20.9095 
G01 X-16.9020 Y20.8516 
G01 X-17.0311 Y20.8259 
G01 X-17.0311 Y16.4362 
G01 X-17.0599 Y16.2916 
G01 X-17.1163 Y16.1553 
G01 X-17.1983 Y16.0326 
G01 X-17.3026 Y15.9283 
G01 X-17.4253 Y15.8463 
G01 X-17.5616 Y15.7899 
G01 X-17.7062 Y15.7611 
G01 X-30.7678 Y15.7611 
G01 X-30.7855 Y15.7434 
G01 X-30.8273 Y15.7261 
G01 X-32.6727 Y15.7261 
G01 X-32.7145 Y15.7434 
G01 X-32.7466 Y15.7755 
G01 X-32.7639 Y15.8173 
G01 X-32.7639 Y17.4627 
G01 X-32.7466 Y17.5045 
G01 X-32.7145 Y17.5366 
G01 X-32.6727 Y17.5539 
G01 X-31.2289 Y17.5539 
G01 X-31.2289 Y18.3011 
G01 X-32.0938 Y18.3011 
G01 X-32.2384 Y18.3299 
G01 X-32.3747 Y18.3863 
G01 X-32.4444 Y18.4329 
G01 X-32.5459 Y18.4329 
G01 X-32.5877 Y18.4502 
G01 X-32.6198 Y18.4823 
G01 X-32.6371 Y18.5241 
G01 X-32.6371 Y18.6256 
G01 X-32.6837 Y18.6953 
G01 X-32.7401 Y18.8316 
G01 X-32.7689 Y18.9762 
G01 X-32.7689 Y19.1238 
G01 X-32.7401 Y19.2684 
G01 X-32.6837 Y19.4047 
G01 X-32.6371 Y19.4744 
G01 X-32.6371 Y19.5759 
G01 X-32.6198 Y19.6177 
G01 X-32.5877 Y19.6498 
G01 X-32.5459 Y19.6671 
G01 X-32.4444 Y19.6671 
G01 X-32.3747 Y19.7137 
G01 X-32.2384 Y19.7701 
G01 X-32.0938 Y19.7989 
G01 X-31.2289 Y19.7989 
G01 X-31.2289 Y20.7256 
G01 X-31.2543 Y20.8533 
G01 X-31.2543 Y22.3267 
G01 X-31.2245 Y22.4763 
G01 X-31.1662 Y22.6172 
G01 X-31.0814 Y22.7440 
G01 X-30.9736 Y22.8518 
G01 X-30.8468 Y22.9366 
G01 X-30.7059 Y22.9949 
G01 X-30.5563 Y23.0247 
G01 X-30.4037 Y23.0247 
G01 X-30.2541 Y22.9949 
G01 X-30.1132 Y22.9366 
G01 X-29.9864 Y22.8518 
G01 X-29.8786 Y22.7440 
G01 X-29.7938 Y22.6172 
G01 X-29.7355 Y22.4763 
G01 X-29.7057 Y22.3267 
G01 X-29.7057 Y20.8533 
G01 X-29.7311 Y20.7256 
G01 X-29.7311 Y17.2589 
G01 X-21.3389 Y17.2589 
G01 X-21.3389 Y19.1238 
G01 X-21.3101 Y19.2684 
G01 X-21.2537 Y19.4047 
G01 X-21.2071 Y19.4744 
G01 X-21.2071 Y19.5759 
G01 X-21.1898 Y19.6177 
G01 X-21.1577 Y19.6498 
G01 X-21.1159 Y19.6671 
G01 X-21.0144 Y19.6671 
G01 X-20.9447 Y19.7137 
G01 X-20.8084 Y19.7701 
G01 X-20.6638 Y19.7989 
G01 X-20.5162 Y19.7989 
G01 X-20.3716 Y19.7701 
G01 X-20.2353 Y19.7137 
G01 X-20.1656 Y19.6671 
G01 X-20.0641 Y19.6671 
G01 X-20.0223 Y19.6498 
G01 X-19.9902 Y19.6177 
G01 X-19.9729 Y19.5759 
G01 X-19.9729 Y19.4744 
G01 X-19.9263 Y19.4047 
G01 X-19.8699 Y19.2684 
G01 X-19.8411 Y19.1238 
G01 X-19.8411 Y17.2589 
G01 X-18.5289 Y17.2589 
G01 X-18.5289 Y20.8259 
G01 X-18.6580 Y20.8516 
G01 X-18.7977 Y20.9095 
G01 X-18.9235 Y20.9935 
G01 X-19.0305 Y21.1005 
G01 X-19.1145 Y21.2263 
G01 X-19.1724 Y21.3660 
G01 X-19.2019 Y21.5144 
G01 X-19.2019 Y21.6656 
G01 X-19.1724 Y21.8140 
G01 X-19.1145 Y21.9537 
G01 X-19.0305 Y22.0795 
G01 X-18.9235 Y22.1865 
G01 X-18.7977 Y22.2705 
G01 X-18.6580 Y22.3284 
G00 Z2.0000  F3000
G00 X-24.6257 Y22.3267  F3000
G01 Z-0.2000 F200.00 
G01 X-24.6257 Y20.8533 F500.00 
G01 X-24.6555 Y20.7037 
G01 X-24.7138 Y20.5628 
G01 X-24.7511 Y20.5070 
G01 X-24.7511 Y19.7489 
G01 X-24.6697 Y19.7489 
G01 X-24.6184 Y19.7701 
G01 X-24.4738 Y19.7989 
G01 X-24.3262 Y19.7989 
G01 X-24.1816 Y19.7701 
G01 X-24.0453 Y19.7137 
G01 X-23.9756 Y19.6671 
G01 X-23.8741 Y19.6671 
G01 X-23.8323 Y19.6498 
G01 X-23.8002 Y19.6177 
G01 X-23.7829 Y19.5759 
G01 X-23.7829 Y19.4744 
G01 X-23.7363 Y19.4047 
G01 X-23.6799 Y19.2684 
G01 X-23.6511 Y19.1238 
G01 X-23.6511 Y18.9262 
G01 X-23.6799 Y18.7816 
G01 X-23.7363 Y18.6453 
G01 X-23.7829 Y18.5756 
G01 X-23.7829 Y18.5241 
G01 X-23.8002 Y18.4823 
G01 X-23.8323 Y18.4502 
G01 X-23.8741 Y18.4329 
G01 X-23.9080 Y18.4329 
G01 X-23.9226 Y18.4183 
G01 X-24.0453 Y18.3363 
G01 X-24.1816 Y18.2799 
G01 X-24.3262 Y18.2511 
G01 X-25.5738 Y18.2511 
G01 X-25.7184 Y18.2799 
G01 X-25.8547 Y18.3363 
G01 X-25.9774 Y18.4183 
G01 X-26.0817 Y18.5226 
G01 X-26.1637 Y18.6453 
G01 X-26.2201 Y18.7816 
G01 X-26.2489 Y18.9262 
G01 X-26.2489 Y21.6638 
G01 X-26.2201 Y21.8084 
G01 X-26.1743 Y21.9191 
G01 X-26.1743 Y22.3267 
G01 X-26.1445 Y22.4763 
G01 X-26.0862 Y22.6172 
G01 X-26.0014 Y22.7440 
G01 X-25.8936 Y22.8518 
G01 X-25.7668 Y22.9366 
G01 X-25.6259 Y22.9949 
G01 X-25.4763 Y23.0247 
G01 X-25.3237 Y23.0247 
G01 X-25.1741 Y22.9949 
G01 X-25.0332 Y22.9366 
G01 X-24.9064 Y22.8518 
G01 X-24.7986 Y22.7440 
G01 X-24.7138 Y22.6172 
G01 X-24.6555 Y22.4763 
G01 X-24.6257 Y22.3267 
G00 Z2.0000  F3000
G00 X-27.1657 Y22.3267  F3000
G01 Z-0.2000 F200.00 
G01 X-27.1657 Y20.8533 F500.00 
G01 X-27.1911 Y20.7256 
G01 X-27.1911 Y18.9762 
G01 X-27.2199 Y18.8316 
G01 X-27.2763 Y18.6953 
G01 X-27.3229 Y18.6256 
G01 X-27.3229 Y18.5241 
G01 X-27.3402 Y18.4823 
G01 X-27.3723 Y18.4502 
G01 X-27.4141 Y18.4329 
G01 X-27.5156 Y18.4329 
G01 X-27.5853 Y18.3863 
G01 X-27.7216 Y18.3299 
G01 X-27.8662 Y18.3011 
G01 X-28.0138 Y18.3011 
G01 X-28.1584 Y18.3299 
G01 X-28.2947 Y18.3863 
G01 X-28.3644 Y18.4329 
G01 X-28.4659 Y18.4329 
G01 X-28.5077 Y18.4502 
G01 X-28.5398 Y18.4823 
G01 X-28.5571 Y18.5241 
G01 X-28.5571 Y18.6256 
G01 X-28.6037 Y18.6953 
G01 X-28.6601 Y18.8316 
G01 X-28.6889 Y18.9762 
G01 X-28.6889 Y20.7256 
G01 X-28.7143 Y20.8533 
G01 X-28.7143 Y22.3267 
G01 X-28.6845 Y22.4763 
G01 X-28.6262 Y22.6172 
G01 X-28.5414 Y22.7440 
G01 X-28.4336 Y22.8518 
G01 X-28.3068 Y22.9366 
G01 X-28.1659 Y22.9949 
G01 X-28.0163 Y23.0247 
G01 X-27.8637 Y23.0247 
G01 X-27.7141 Y22.9949 
G01 X-27.5732 Y22.9366 
G01 X-27.4464 Y22.8518 
G01 X-27.3386 Y22.7440 
G01 X-27.2538 Y22.6172 
G01 X-27.1955 Y22.4763 
G01 X-27.1657 Y22.3267 
G00 Z2.0000  F3000
G00 X-27.2561 Y27.4959  F3000
G01 Z-0.2000 F200.00 
G01 X-27.2586 Y27.4969 F500.00 
G01 X-27.3447 Y27.5326 
G01 X-27.4124 Y27.6003 
G01 X-27.4381 Y27.6622 
G01 X-27.4491 Y27.6889 
G01 X-27.4491 Y27.7847 
G01 X-27.4481 Y27.7872 
G01 X-27.4124 Y27.8733 
G01 X-27.2183 Y28.0674 
G01 X-27.0887 Y28.3803 
G01 X-27.0887 Y30.0397 
G01 X-27.1141 Y30.1010 
G01 X-27.1141 Y30.7311 
G01 X-27.0774 Y30.8197 
G01 X-27.0097 Y30.8874 
G01 X-26.9211 Y30.9241 
G01 X-26.8253 Y30.9241 
G01 X-26.0839 Y30.9241 
G01 X-26.0814 Y30.9231 
G01 X-25.9953 Y30.8874 
G01 X-25.9276 Y30.8197 
G01 X-25.9019 Y30.7578 
G01 X-25.8909 Y30.7311 
G01 X-25.8909 Y30.6353 
G01 X-25.8919 Y30.6328 
G01 X-25.9276 Y30.5467 
G01 X-26.1217 Y30.3526 
G01 X-26.2513 Y30.0397 
G01 X-26.2513 Y28.3803 
G01 X-26.2259 Y28.3190 
G01 X-26.2259 Y27.6889 
G01 X-26.2626 Y27.6003 
G01 X-26.3303 Y27.5326 
G01 X-26.4189 Y27.4959 
G01 X-27.2561 Y27.4959 
G00 Z2.0000  F3000
G00 X-26.1489 Y27.4189  F3000
G01 Z-0.2000 F200.00 
G01 X-26.1489 Y28.3456 F500.00 
G01 X-26.1743 Y28.4733 
G01 X-26.1743 Y29.9467 
G01 X-26.1445 Y30.0963 
G01 X-26.0862 Y30.2372 
G01 X-26.0014 Y30.3640 
G01 X-25.8936 Y30.4718 
G01 X-25.7668 Y30.5566 
G01 X-25.6259 Y30.6149 
G01 X-25.4763 Y30.6447 
G01 X-25.3237 Y30.6447 
G01 X-25.1741 Y30.6149 
G01 X-25.0332 Y30.5566 
G01 X-24.9064 Y30.4718 
G01 X-24.7986 Y30.3640 
G01 X-24.7138 Y30.2372 
G01 X-24.6555 Y30.0963 
G01 X-24.6257 Y29.9467 
G01 X-24.6257 Y28.4733 
G01 X-24.6511 Y28.3456 
G01 X-24.6511 Y26.5962 
G01 X-24.6799 Y26.4516 
G01 X-24.7363 Y26.3153 
G01 X-24.8183 Y26.1926 
G01 X-24.9226 Y26.0883 
G01 X-25.0453 Y26.0063 
G01 X-25.1816 Y25.9499 
G01 X-25.3262 Y25.9211 
G01 X-33.3638 Y25.9211 
G01 X-33.5084 Y25.9499 
G01 X-33.6447 Y26.0063 
G01 X-33.7144 Y26.0529 
G01 X-33.8159 Y26.0529 
G01 X-33.8577 Y26.0702 
G01 X-33.8898 Y26.1023 
G01 X-33.9071 Y26.1441 
G01 X-33.9071 Y26.2456 
G01 X-33.9537 Y26.3153 
G01 X-34.0101 Y26.4516 
G01 X-34.0389 Y26.5962 
G01 X-34.0389 Y26.7438 
G01 X-34.0101 Y26.8884 
G01 X-33.9537 Y27.0247 
G01 X-33.9071 Y27.0944 
G01 X-33.9071 Y27.1959 
G01 X-33.8898 Y27.2377 
G01 X-33.8577 Y27.2698 
G01 X-33.8159 Y27.2871 
G01 X-33.7144 Y27.2871 
G01 X-33.6447 Y27.3337 
G01 X-33.5084 Y27.3901 
G01 X-33.3638 Y27.4189 
G01 X-26.1489 Y27.4189 
G00 Z2.0000  F3000
G00 X-29.8786 Y28.0560  F3000
G01 Z-0.2000 F200.00 
G01 X-29.9864 Y27.9482 F500.00 
G01 X-30.1132 Y27.8634 
G01 X-30.2541 Y27.8051 
G01 X-30.4037 Y27.7753 
G01 X-30.5563 Y27.7753 
G01 X-30.7059 Y27.8051 
G01 X-30.8468 Y27.8634 
G01 X-30.9736 Y27.9482 
G01 X-31.0814 Y28.0560 
G01 X-31.1662 Y28.1828 
G01 X-31.2245 Y28.3237 
G01 X-31.2543 Y28.4733 
G01 X-31.2543 Y29.9467 
G01 X-31.2245 Y30.0963 
G01 X-31.1662 Y30.2372 
G01 X-31.0814 Y30.3640 
G01 X-30.9736 Y30.4718 
G01 X-30.8468 Y30.5566 
G01 X-30.7059 Y30.6149 
G01 X-30.5563 Y30.6447 
G01 X-30.4037 Y30.6447 
G01 X-30.2541 Y30.6149 
G01 X-30.1132 Y30.5566 
G01 X-29.9864 Y30.4718 
G01 X-29.8786 Y30.3640 
G01 X-29.7938 Y30.2372 
G01 X-29.7355 Y30.0963 
G01 X-29.7057 Y29.9467 
G01 X-29.7057 Y28.4733 
G01 X-29.7355 Y28.3237 
G01 X-29.7938 Y28.1828 
G01 X-29.8786 Y28.0560 
G00 Z2.0000  F3000
G00 X-37.7497 Y26.9419  F3000
G01 Z-0.2000 F200.00 
G01 X-37.7755 Y26.7966 F500.00 
G01 X-37.8291 Y26.6592 
G01 X-37.9084 Y26.5349 
G01 X-38.0106 Y26.4284 
G01 X-38.0669 Y26.3890 
G01 X-38.2310 Y25.3138 
G01 X-38.2860 Y25.1883 
G01 X-38.3211 Y25.1445 
G01 X-38.3211 Y24.6373 
G01 X-38.3384 Y24.5955 
G01 X-38.3705 Y24.5634 
G01 X-38.4123 Y24.5461 
G01 X-39.0577 Y24.5461 
G01 X-39.0995 Y24.5634 
G01 X-39.1316 Y24.5955 
G01 X-39.1489 Y24.6373 
G01 X-39.1489 Y25.1446 
G01 X-39.1948 Y25.2070 
G01 X-39.2446 Y25.3346 
G01 X-39.2597 Y25.4708 
G01 X-39.1489 Y26.1967 
G01 X-39.1489 Y26.2827 
G01 X-39.1316 Y26.3245 
G01 X-39.1290 Y26.3271 
G01 X-39.0957 Y26.5451 
G01 X-39.1561 Y26.6315 
G01 X-39.2154 Y26.7666 
G01 X-39.2472 Y26.9106 
G01 X-39.4684 Y37.5011 
G01 X-39.7721 Y37.5011 
G01 X-39.7721 Y37.4105 
G01 X-39.8055 Y37.2428 
G01 X-39.8709 Y37.0849 
G01 X-39.9659 Y36.9427 
G01 X-40.0867 Y36.8219 
G01 X-40.2289 Y36.7269 
G01 X-40.3868 Y36.6615 
G01 X-40.5545 Y36.6281 
G01 X-40.7255 Y36.6281 
G01 X-40.8932 Y36.6615 
G01 X-41.0511 Y36.7269 
G01 X-41.1933 Y36.8219 
G01 X-41.3141 Y36.9427 
G01 X-41.4091 Y37.0849 
G01 X-41.4745 Y37.2428 
G01 X-41.5079 Y37.4105 
G01 X-41.5079 Y39.0895 
G01 X-41.4745 Y39.2572 
G01 X-41.4091 Y39.4151 
G01 X-41.3141 Y39.5573 
G01 X-41.1933 Y39.6781 
G01 X-41.0511 Y39.7731 
G01 X-40.8932 Y39.8385 
G01 X-40.7255 Y39.8719 
G01 X-40.5545 Y39.8719 
G01 X-40.3868 Y39.8385 
G01 X-40.2289 Y39.7731 
G01 X-40.0867 Y39.6781 
G01 X-39.9659 Y39.5573 
G01 X-39.8709 Y39.4151 
G01 X-39.8055 Y39.2572 
G01 X-39.7721 Y39.0895 
G01 X-39.7721 Y38.9989 
G01 X-38.7429 Y38.9989 
G01 X-38.6769 Y39.0003 
G01 X-38.6691 Y38.9989 
G01 X-38.6612 Y38.9989 
G01 X-38.5966 Y38.9860 
G01 X-38.5316 Y38.9745 
G01 X-38.5243 Y38.9717 
G01 X-38.5166 Y38.9701 
G01 X-38.4556 Y38.9449 
G01 X-38.3942 Y38.9209 
G01 X-38.3875 Y38.9167 
G01 X-38.3803 Y38.9137 
G01 X-38.3255 Y38.8771 
G01 X-38.2699 Y38.8415 
G01 X-38.2642 Y38.8361 
G01 X-38.2576 Y38.8317 
G01 X-38.2110 Y38.7851 
G01 X-38.1634 Y38.7394 
G01 X-38.1589 Y38.7330 
G01 X-38.1533 Y38.7274 
G01 X-38.1167 Y38.6726 
G01 X-38.0789 Y38.6185 
G01 X-38.0757 Y38.6113 
G01 X-38.0713 Y38.6047 
G01 X-38.0461 Y38.5438 
G01 X-38.0196 Y38.4834 
G01 X-38.0179 Y38.4757 
G01 X-38.0149 Y38.4684 
G01 X-38.0020 Y38.4037 
G01 X-37.9878 Y38.3394 
G01 X-37.9876 Y38.3315 
G01 X-37.9861 Y38.3238 
G01 X-37.9861 Y38.2579 
G01 X-37.7497 Y26.9419 
G00 Z2.0000  F3000
G00 X-39.6405 Y26.3566  F3000
G01 Z-0.2000 F200.00 
G01 X-39.6084 Y26.3245 F500.00 
G01 X-39.5911 Y26.2827 
G01 X-39.5911 Y24.6373 
G01 X-39.6084 Y24.5955 
G01 X-39.6405 Y24.5634 
G01 X-39.6823 Y24.5461 
G01 X-40.3277 Y24.5461 
G01 X-40.3695 Y24.5634 
G01 X-40.4016 Y24.5955 
G01 X-40.4189 Y24.6373 
G01 X-40.4189 Y24.8820 
G01 X-40.4387 Y24.8781 
G01 X-40.8563 Y24.8781 
G01 X-40.8563 Y20.2049 
G01 X-40.8611 Y20.1870 
G01 X-40.8611 Y19.4373 
G01 X-40.8784 Y19.3955 
G01 X-40.9105 Y19.3634 
G01 X-40.9523 Y19.3461 
G01 X-41.5977 Y19.3461 
G01 X-41.6395 Y19.3634 
G01 X-41.6716 Y19.3955 
G01 X-41.6889 Y19.4373 
G01 X-41.6889 Y20.1089 
G01 X-41.7055 Y20.1376 
G01 X-41.7271 Y20.2183 
G01 X-41.7271 Y22.8702 
G01 X-45.1618 Y22.7563 
G01 X-45.1941 Y22.7429 
G01 X-45.5651 Y22.7429 
G01 X-45.7606 Y22.7364 
G01 X-45.8000 Y22.7429 
G01 X-46.2459 Y22.7429 
G01 X-46.2877 Y22.7602 
G01 X-46.3198 Y22.7923 
G01 X-46.3371 Y22.8341 
G01 X-46.3371 Y23.2678 
G01 X-46.3395 Y23.2782 
G01 X-46.3436 Y23.4006 
G01 X-46.3371 Y23.4400 
G01 X-46.3371 Y23.8859 
G01 X-46.3198 Y23.9277 
G01 X-46.2877 Y23.9598 
G01 X-46.2459 Y23.9771 
G01 X-45.8122 Y23.9771 
G01 X-45.8018 Y23.9795 
G01 X-41.6937 Y24.1158 
G01 X-41.6937 Y25.5151 
G01 X-41.6889 Y25.5330 
G01 X-41.6889 Y26.2827 
G01 X-41.6716 Y26.3245 
G01 X-41.6395 Y26.3566 
G01 X-41.5977 Y26.3739 
G01 X-40.9523 Y26.3739 
G01 X-40.9105 Y26.3566 
G01 X-40.8784 Y26.3245 
G01 X-40.8611 Y26.2827 
G01 X-40.8611 Y26.1219 
G01 X-40.4387 Y26.1219 
G01 X-40.4189 Y26.1179 
G01 X-40.4189 Y26.2827 
G01 X-40.4016 Y26.3245 
G01 X-40.3695 Y26.3566 
G01 X-40.3277 Y26.3739 
G01 X-39.6823 Y26.3739 
G01 X-39.6405 Y26.3566 
G00 Z2.0000  F3000
G00 X-42.1805 Y26.3566  F3000
G01 Z-0.2000 F200.00 
G01 X-42.1484 Y26.3245 F500.00 
G01 X-42.1311 Y26.2827 
G01 X-42.1311 Y24.6373 
G01 X-42.1484 Y24.5955 
G01 X-42.1805 Y24.5634 
G01 X-42.2223 Y24.5461 
G01 X-42.8677 Y24.5461 
G01 X-42.9095 Y24.5634 
G01 X-42.9416 Y24.5955 
G01 X-42.9589 Y24.6373 
G01 X-42.9589 Y25.1429 
G01 X-43.5417 Y25.1429 
G01 X-43.6224 Y25.1645 
G01 X-43.6947 Y25.2063 
G01 X-43.7395 Y25.2511 
G01 X-45.5738 Y25.2511 
G01 X-45.7184 Y25.2799 
G01 X-45.7257 Y25.2829 
G01 X-46.2459 Y25.2829 
G01 X-46.2877 Y25.3002 
G01 X-46.3198 Y25.3323 
G01 X-46.3371 Y25.3741 
G01 X-46.3371 Y26.4259 
G01 X-46.3198 Y26.4677 
G01 X-46.2877 Y26.4998 
G01 X-46.2459 Y26.5171 
G01 X-46.0420 Y26.5171 
G01 X-45.9774 Y26.5817 
G01 X-45.8547 Y26.6637 
G01 X-45.7184 Y26.7201 
G01 X-45.5738 Y26.7489 
G01 X-42.9262 Y26.7489 
G01 X-42.7816 Y26.7201 
G01 X-42.6453 Y26.6637 
G01 X-42.5226 Y26.5817 
G01 X-42.4183 Y26.4774 
G01 X-42.3491 Y26.3739 
G01 X-42.2223 Y26.3739 
G01 X-42.1805 Y26.3566 
G00 Z2.0000  F3000
G00 X-42.5036 Y21.5656  F3000
G01 Z-0.2000 F200.00 
G01 X-42.4028 Y21.4579 F500.00 
G01 X-42.3250 Y21.3326 
G01 X-42.3167 Y21.3106 
G01 X-42.3133 Y21.3068 
G01 X-42.2913 Y21.2847 
G01 X-42.2859 Y21.2754 
G01 X-42.2789 Y21.2674 
G01 X-42.2651 Y21.2394 
G01 X-42.2495 Y21.2124 
G01 X-42.2467 Y21.2021 
G01 X-42.2420 Y21.1925 
G01 X-42.2384 Y21.1739 
G01 X-42.2223 Y21.1739 
G01 X-42.1805 Y21.1566 
G01 X-42.1484 Y21.1245 
G01 X-42.1311 Y21.0827 
G01 X-42.1311 Y19.4373 
G01 X-42.1484 Y19.3955 
G01 X-42.1805 Y19.3634 
G01 X-42.2223 Y19.3461 
G01 X-42.8677 Y19.3461 
G01 X-42.9095 Y19.3634 
G01 X-42.9416 Y19.3955 
G01 X-42.9589 Y19.4373 
G01 X-42.9589 Y20.2493 
G01 X-45.8185 Y20.3439 
G01 X-45.9621 Y20.3775 
G01 X-46.0965 Y20.4384 
G01 X-46.1446 Y20.4729 
G01 X-46.2459 Y20.4729 
G01 X-46.2877 Y20.4902 
G01 X-46.3198 Y20.5223 
G01 X-46.3371 Y20.5641 
G01 X-46.3371 Y20.6642 
G01 X-46.3950 Y20.7574 
G01 X-46.4469 Y20.8955 
G01 X-46.4709 Y21.0410 
G01 X-46.4660 Y21.1885 
G01 X-46.4325 Y21.3321 
G01 X-46.3716 Y21.4665 
G01 X-46.3371 Y21.5146 
G01 X-46.3371 Y21.6159 
G01 X-46.3198 Y21.6577 
G01 X-46.2877 Y21.6898 
G01 X-46.2459 Y21.7071 
G01 X-46.1458 Y21.7071 
G01 X-46.0526 Y21.7650 
G01 X-45.9145 Y21.8169 
G01 X-45.7690 Y21.8409 
G01 X-42.9015 Y21.7460 
G01 X-42.7579 Y21.7125 
G01 X-42.6235 Y21.6516 
G01 X-42.5036 Y21.5656 
G00 Z2.0000  F3000
G00 X-40.4016 Y21.1245  F3000
G01 Z-0.2000 F200.00 
G01 X-40.3695 Y21.1566 F500.00 
G01 X-40.3277 Y21.1739 
G01 X-39.6823 Y21.1739 
G01 X-39.6405 Y21.1566 
G01 X-39.6084 Y21.1245 
G01 X-39.5911 Y21.0827 
G01 X-39.5911 Y20.3330 
G01 X-39.5863 Y20.3151 
G01 X-39.5863 Y17.9449 
G01 X-39.6148 Y17.8384 
G01 X-39.6700 Y17.7429 
G01 X-39.7479 Y17.6650 
G01 X-39.8434 Y17.6098 
G01 X-39.9499 Y17.5813 
G01 X-40.0392 Y17.5813 
G01 X-40.1036 Y17.5169 
G01 X-40.2054 Y17.4489 
G01 X-40.3186 Y17.4020 
G01 X-40.4387 Y17.3781 
G01 X-45.0613 Y17.3781 
G01 X-45.1814 Y17.4020 
G01 X-45.2946 Y17.4489 
G01 X-45.3964 Y17.5169 
G01 X-45.4106 Y17.5311 
G01 X-48.3338 Y17.5311 
G01 X-48.4784 Y17.5599 
G01 X-48.6147 Y17.6163 
G01 X-48.7374 Y17.6983 
G01 X-48.8417 Y17.8026 
G01 X-48.9237 Y17.9253 
G01 X-48.9801 Y18.0616 
G01 X-49.0089 Y18.2062 
G01 X-49.0089 Y38.3238 
G01 X-48.9801 Y38.4684 
G01 X-48.9237 Y38.6047 
G01 X-48.8417 Y38.7274 
G01 X-48.7374 Y38.8317 
G01 X-48.6147 Y38.9137 
G01 X-48.4784 Y38.9701 
G01 X-48.3338 Y38.9989 
G01 X-44.0479 Y38.9989 
G01 X-44.0479 Y39.0895 
G01 X-44.0145 Y39.2572 
G01 X-43.9491 Y39.4151 
G01 X-43.8541 Y39.5573 
G01 X-43.7333 Y39.6781 
G01 X-43.5911 Y39.7731 
G01 X-43.4332 Y39.8385 
G01 X-43.2655 Y39.8719 
G01 X-43.0945 Y39.8719 
G01 X-42.9268 Y39.8385 
G01 X-42.7689 Y39.7731 
G01 X-42.6267 Y39.6781 
G01 X-42.5059 Y39.5573 
G01 X-42.4109 Y39.4151 
G01 X-42.3455 Y39.2572 
G01 X-42.3121 Y39.0895 
G01 X-42.3121 Y37.4105 
G01 X-42.3455 Y37.2428 
G01 X-42.4109 Y37.0849 
G01 X-42.5059 Y36.9427 
G01 X-42.6267 Y36.8219 
G01 X-42.7689 Y36.7269 
G01 X-42.9268 Y36.6615 
G01 X-43.0945 Y36.6281 
G01 X-43.2655 Y36.6281 
G01 X-43.4332 Y36.6615 
G01 X-43.5911 Y36.7269 
G01 X-43.7333 Y36.8219 
G01 X-43.8541 Y36.9427 
G01 X-43.9491 Y37.0849 
G01 X-44.0145 Y37.2428 
G01 X-44.0479 Y37.4105 
G01 X-44.0479 Y37.5011 
G01 X-47.5111 Y37.5011 
G01 X-47.5111 Y19.0289 
G01 X-43.9262 Y19.0289 
G01 X-43.7816 Y19.0001 
G01 X-43.6453 Y18.9437 
G01 X-43.5226 Y18.8617 
G01 X-43.4183 Y18.7574 
G01 X-43.3363 Y18.6347 
G01 X-43.3310 Y18.6219 
G01 X-40.4387 Y18.6219 
G01 X-40.4237 Y18.6189 
G01 X-40.4237 Y20.3151 
G01 X-40.4189 Y20.3330 
G01 X-40.4189 Y21.0827 
G01 X-40.4016 Y21.1245 
G00 Z2.0000  F3000
G00 X-39.4139 Y10.9859  F3000
G01 Z-0.2000 F200.00 
G01 X-42.0743 Y10.9859 F500.00 
G01 X-42.3925 Y10.8541 
G01 X-42.4923 Y10.8541 
G01 X-42.6041 Y10.7423 
G01 X-42.6041 Y10.6425 
G01 X-42.6055 Y10.6391 
G01 X-42.7359 Y10.3243 
G01 X-42.7359 Y9.9957 
G01 X-42.6041 Y9.6775 
G01 X-42.6041 Y9.5777 
G01 X-42.4923 Y9.4659 
G01 X-42.3925 Y9.4659 
G01 X-42.3891 Y9.4645 
G01 X-42.0743 Y9.3341 
G01 X-39.4139 Y9.3341 
G01 X-39.3253 Y9.2974 
G01 X-39.2576 Y9.2297 
G01 X-39.2490 Y9.2091 
G01 X-39.1091 Y9.0691 
G01 X-37.3509 Y9.0691 
G01 X-37.2391 Y9.1809 
G01 X-37.2391 Y11.1391 
G01 X-37.3509 Y11.2509 
G01 X-39.1091 Y11.2509 
G01 X-39.2490 Y11.1109 
G01 X-39.2576 Y11.0903 
G01 X-39.3253 Y11.0226 
G01 X-39.4139 Y10.9859 
G00 Z2.0000  F3000
G00 X-39.1439 Y10.9089  F3000
G01 Z-0.2000 F200.00 
G01 X-39.1439 Y11.0827 F500.00 
G01 X-39.1266 Y11.1245 
G01 X-39.0945 Y11.1566 
G01 X-39.0527 Y11.1739 
G01 X-37.4073 Y11.1739 
G01 X-37.3655 Y11.1566 
G01 X-37.3334 Y11.1245 
G01 X-37.3161 Y11.0827 
G01 X-37.3161 Y9.2373 
G01 X-37.3334 Y9.1955 
G01 X-37.3655 Y9.1634 
G01 X-37.4073 Y9.1461 
G01 X-39.0527 Y9.1461 
G01 X-39.0945 Y9.1634 
G01 X-39.1266 Y9.1955 
G01 X-39.1439 Y9.2373 
G01 X-39.1439 Y9.4111 
G01 X-41.9838 Y9.4111 
G01 X-42.1284 Y9.4399 
G01 X-42.2647 Y9.4963 
G01 X-42.3344 Y9.5429 
G01 X-42.4359 Y9.5429 
G01 X-42.4777 Y9.5602 
G01 X-42.5098 Y9.5923 
G01 X-42.5271 Y9.6341 
G01 X-42.5271 Y9.7356 
G01 X-42.5737 Y9.8053 
G01 X-42.6301 Y9.9416 
G01 X-42.6589 Y10.0862 
G01 X-42.6589 Y10.2338 
G01 X-42.6301 Y10.3784 
G01 X-42.5737 Y10.5147 
G01 X-42.5271 Y10.5844 
G01 X-42.5271 Y10.6859 
G01 X-42.5098 Y10.7277 
G01 X-42.4777 Y10.7598 
G01 X-42.4359 Y10.7771 
G01 X-42.3344 Y10.7771 
G01 X-42.2647 Y10.8237 
G01 X-42.1284 Y10.8801 
G01 X-41.9838 Y10.9089 
G01 X-39.1439 Y10.9089 
G00 Z2.0000  F3000
G00 X-28.4222 Y8.3417  F3000
G01 Z-0.2000 F200.00 
G01 X-28.6617 Y8.1022 F500.00 
G01 X-28.7913 Y7.7893 
G01 X-28.7913 Y7.4507 
G01 X-28.7659 Y7.3893 
G01 X-28.7659 Y7.3357 
G01 X-28.6402 Y7.0322 
G01 X-28.4078 Y6.7998 
G01 X-28.1043 Y6.6741 
G01 X-21.3357 Y6.6741 
G01 X-21.0322 Y6.7998 
G01 X-20.7998 Y7.0322 
G01 X-20.6741 Y7.3357 
G01 X-20.6741 Y8.7843 
G01 X-20.7998 Y9.0878 
G01 X-20.8592 Y9.1472 
G01 X-20.8722 Y9.1786 
G01 X-21.0077 Y9.3141 
G01 X-21.0175 Y9.3141 
G01 X-21.0209 Y9.3155 
G01 X-21.3357 Y9.4459 
G01 X-21.7543 Y9.4459 
G01 X-22.0725 Y9.3141 
G01 X-22.1723 Y9.3141 
G01 X-22.2841 Y9.2023 
G01 X-22.2841 Y9.1025 
G01 X-22.2855 Y9.0991 
G01 X-22.4159 Y8.7843 
G01 X-22.4159 Y8.5189 
G01 X-22.4526 Y8.4303 
G01 X-22.5203 Y8.3626 
G01 X-22.6089 Y8.3259 
G01 X-26.0988 Y8.3259 
G01 X-26.1709 Y8.3558 
G01 X-26.4499 Y8.4713 
G01 X-28.1093 Y8.4713 
G01 X-28.4222 Y8.3417 
G00 Z2.0000  F3000
G00 X-28.4336 Y8.2214  F3000
G01 Z-0.2000 F200.00 
G01 X-28.3068 Y8.3062 F500.00 
G01 X-28.1659 Y8.3645 
G01 X-28.0163 Y8.3943 
G01 X-26.5429 Y8.3943 
G01 X-26.3933 Y8.3645 
G01 X-26.2524 Y8.3062 
G01 X-26.1667 Y8.2489 
G01 X-22.2489 Y8.2489 
G01 X-22.2489 Y8.2581 
G01 X-22.2537 Y8.2653 
G01 X-22.3101 Y8.4016 
G01 X-22.3389 Y8.5462 
G01 X-22.3389 Y8.6938 
G01 X-22.3101 Y8.8384 
G01 X-22.2537 Y8.9747 
G01 X-22.2071 Y9.0444 
G01 X-22.2071 Y9.1459 
G01 X-22.1898 Y9.1877 
G01 X-22.1577 Y9.2198 
G01 X-22.1159 Y9.2371 
G01 X-22.0144 Y9.2371 
G01 X-21.9447 Y9.2837 
G01 X-21.8084 Y9.3401 
G01 X-21.6638 Y9.3689 
G01 X-21.4262 Y9.3689 
G01 X-21.2816 Y9.3401 
G01 X-21.1453 Y9.2837 
G01 X-21.0756 Y9.2371 
G01 X-21.0641 Y9.2371 
G01 X-21.0223 Y9.2198 
G01 X-20.9902 Y9.1877 
G01 X-20.9772 Y9.1563 
G01 X-20.9183 Y9.0974 
G01 X-20.8363 Y8.9747 
G01 X-20.7799 Y8.8384 
G01 X-20.7511 Y8.6938 
G01 X-20.7511 Y7.4262 
G01 X-20.7799 Y7.2816 
G01 X-20.8363 Y7.1453 
G01 X-20.9183 Y7.0226 
G01 X-21.0226 Y6.9183 
G01 X-21.1453 Y6.8363 
G01 X-21.2816 Y6.7799 
G01 X-21.4262 Y6.7511 
G01 X-28.0138 Y6.7511 
G01 X-28.1584 Y6.7799 
G01 X-28.2947 Y6.8363 
G01 X-28.4174 Y6.9183 
G01 X-28.5217 Y7.0226 
G01 X-28.6037 Y7.1453 
G01 X-28.6601 Y7.2816 
G01 X-28.6806 Y7.3847 
G01 X-28.6845 Y7.3941 
G01 X-28.7143 Y7.5437 
G01 X-28.7143 Y7.6963 
G01 X-28.6845 Y7.8459 
G01 X-28.6262 Y7.9868 
G01 X-28.5414 Y8.1136 
G01 X-28.4336 Y8.2214 
G00 Z2.0000  F3000
G00 X-49.9809 Y6.1809  F3000
G01 Z-0.2000 F200.00 
G01 X-50.3191 Y6.5191 F500.00 
G01 X-50.7609 Y6.7021 
G01 X-51.2391 Y6.7021 
G01 X-51.6809 Y6.5191 
G01 X-52.0191 Y6.1809 
G01 X-52.2021 Y5.7391 
G01 X-52.2021 Y5.2609 
G01 X-52.0191 Y4.8191 
G01 X-51.6809 Y4.4809 
G01 X-51.2391 Y4.2979 
G01 X-50.7609 Y4.2979 
G01 X-50.3191 Y4.4809 
G01 X-49.9809 Y4.8191 
G01 X-49.7979 Y5.2609 
G01 X-49.7979 Y5.7391 
G01 X-49.9809 Y6.1809 
G00 Z2.0000  F3000
G00 X-50.8191 Y37.9809  F3000
G01 Z-0.2000 F200.00 
G01 X-50.4809 Y38.3191 F500.00 
G01 X-50.2979 Y38.7609 
G01 X-50.2979 Y39.2391 
G01 X-50.4809 Y39.6809 
G01 X-50.8191 Y40.0191 
G01 X-51.2609 Y40.2021 
G01 X-51.7391 Y40.2021 
G01 X-52.1809 Y40.0191 
G01 X-52.5191 Y39.6809 
G01 X-52.7021 Y39.2391 
G01 X-52.7021 Y38.7609 
G01 X-52.5191 Y38.3191 
G01 X-52.1809 Y37.9809 
G01 X-51.7391 Y37.7979 
G01 X-51.2609 Y37.7979 
G01 X-50.8191 Y37.9809 
G00 Z2.0000  F3000
G00 X-26.2259 Y39.2643  F3000
G01 Z-0.2000 F200.00 
G01 X-26.2259 Y36.3957 F500.00 
G01 X-26.1002 Y36.0922 
G01 X-25.9576 Y35.9496 
G01 X-25.9209 Y35.8610 
G01 X-25.9209 Y35.6809 
G01 X-25.8091 Y35.5691 
G01 X-24.3509 Y35.5691 
G01 X-24.2665 Y35.6536 
G01 X-24.1779 Y35.6902 
G01 X-24.0821 Y35.6902 
G01 X-24.0465 Y35.6755 
G01 X-23.9935 Y35.6536 
G01 X-23.9258 Y35.5858 
G01 X-23.9091 Y35.5691 
G01 X-23.8789 Y35.5691 
G01 X-23.7903 Y35.5324 
G01 X-23.7226 Y35.4647 
G01 X-23.6859 Y35.3761 
G01 X-23.6859 Y35.0389 
G01 X-23.7226 Y34.9503 
G01 X-23.7903 Y34.8826 
G01 X-23.8789 Y34.8459 
G01 X-23.9747 Y34.8459 
G01 X-26.6511 Y34.8459 
G01 X-26.7397 Y34.8826 
G01 X-26.8074 Y34.9503 
G01 X-26.8441 Y35.0389 
G01 X-26.8441 Y39.9811 
G01 X-26.8074 Y40.0697 
G01 X-26.7397 Y40.1374 
G01 X-26.6511 Y40.1741 
G01 X-26.0276 Y40.1741 
G01 X-26.0250 Y40.1731 
G01 X-25.9390 Y40.1374 
G01 X-25.8712 Y40.0697 
G01 X-25.8456 Y40.0078 
G01 X-25.8346 Y39.9811 
G01 X-25.8346 Y39.8853 
G01 X-25.8356 Y39.8828 
G01 X-25.8712 Y39.7967 
G01 X-26.1002 Y39.5678 
G01 X-26.2259 Y39.2643 
G00 Z2.0000  F3000
G00 X-0.8542 Y0.9214  F3000
G01 Z-0.2000 F200.00 
G01 X-0.9214 Y0.8542 F500.00 
G01 X-1.0037 Y0.8067 
G01 X-1.0955 Y0.7821 
G01 X-55.0475 Y0.7821 
G01 X-55.1393 Y0.8067 
G01 X-55.2216 Y0.8542 
G01 X-55.2888 Y0.9214 
G01 X-55.3363 Y1.0037 
G01 X-55.3609 Y1.0955 
G01 X-55.3609 Y43.5475 
G01 X-55.3363 Y43.6393 
G01 X-55.2888 Y43.7216 
G01 X-55.2216 Y43.7888 
G01 X-55.1393 Y43.8363 
G01 X-55.0475 Y43.8609 
G01 X-1.0955 Y43.8609 
G01 X-1.0037 Y43.8363 
G01 X-0.9214 Y43.7888 
G01 X-0.8542 Y43.7216 
G01 X-0.8067 Y43.6393 
G01 X-0.7821 Y43.5475 
G01 X-0.7821 Y27.4150 
G01 X-0.7950 Y27.3669 
G01 X-0.8067 Y27.3232 
G01 X-0.8184 Y27.3030 
G01 X-0.8542 Y27.2409 
G01 X-0.9214 Y27.1737 
G01 X-1.0037 Y27.1262 
G01 X-1.0955 Y27.1016 
G01 X-1.1065 Y27.1016 
G01 X-1.0992 Y27.0906 
G01 X-1.0322 Y26.9290 
G01 X-0.9981 Y26.7574 
G01 X-0.9981 Y26.5825 
G01 X-1.0322 Y26.4110 
G01 X-1.0992 Y26.2494 
G01 X-1.1066 Y26.2384 
G01 X-1.0955 Y26.2384 
G01 X-1.0037 Y26.2138 
G01 X-0.9214 Y26.1662 
G01 X-0.8553 Y26.1001 
G01 X-0.8205 Y26.0406 
G01 X-0.8067 Y26.0168 
G01 X-0.7956 Y25.9752 
G01 X-0.7821 Y25.9250 
G01 X-0.7821 Y24.8750 
G01 X-0.7950 Y24.8269 
G01 X-0.8067 Y24.7832 
G01 X-0.8184 Y24.7630 
G01 X-0.8542 Y24.7009 
G01 X-0.9214 Y24.6337 
G01 X-1.0037 Y24.5862 
G01 X-1.0955 Y24.5616 
G01 X-1.1065 Y24.5616 
G01 X-1.0992 Y24.5506 
G01 X-1.0322 Y24.3890 
G01 X-0.9981 Y24.2174 
G01 X-0.9981 Y24.0425 
G01 X-1.0322 Y23.8710 
G01 X-1.0992 Y23.7094 
G01 X-1.1066 Y23.6984 
G01 X-1.0955 Y23.6984 
G01 X-1.0037 Y23.6738 
G01 X-0.9214 Y23.6262 
G01 X-0.8553 Y23.5601 
G01 X-0.8205 Y23.5006 
G01 X-0.8067 Y23.4768 
G01 X-0.7956 Y23.4352 
G01 X-0.7821 Y23.3850 
G01 X-0.7821 Y22.3350 
G01 X-0.7950 Y22.2869 
G01 X-0.8067 Y22.2432 
G01 X-0.8184 Y22.2230 
G01 X-0.8542 Y22.1609 
G01 X-0.9214 Y22.0938 
G01 X-1.0037 Y22.0462 
G01 X-1.0955 Y22.0216 
G01 X-1.1065 Y22.0216 
G01 X-1.0992 Y22.0106 
G01 X-1.0322 Y21.8490 
G01 X-0.9981 Y21.6775 
G01 X-0.9981 Y21.5025 
G01 X-1.0322 Y21.3310 
G01 X-1.0992 Y21.1694 
G01 X-1.1066 Y21.1583 
G01 X-1.0955 Y21.1583 
G01 X-1.0037 Y21.1338 
G01 X-0.9214 Y21.0862 
G01 X-0.8553 Y21.0201 
G01 X-0.8205 Y20.9606 
G01 X-0.8067 Y20.9368 
G01 X-0.7956 Y20.8952 
G01 X-0.7821 Y20.8450 
G01 X-0.7821 Y1.0955 
G01 X-0.8067 Y1.0037 
G01 X-0.8542 Y0.9214 
G00 Z2.0000  F3000
G00 X-1.9270 Y20.6726  F3000
G01 Z-0.2000 F200.00 
G01 X-1.8976 Y20.7021 F500.00 
G01 X-3.1824 Y20.7021 
G01 X-3.1530 Y20.6726 
G01 X-2.7552 Y20.5079 
G01 X-2.3247 Y20.5079 
G01 X-1.9270 Y20.6726 
G00 Z2.0000  F3000
G00 X-1.8976 Y22.4779  F3000
G01 Z-0.2000 F200.00 
G01 X-1.9270 Y22.5074 F500.00 
G01 X-1.9295 Y22.5084 
G01 X-2.0173 Y22.5448 
G01 X-2.0927 Y22.6026 
G01 X-2.1506 Y22.6780 
G01 X-2.1764 Y22.7403 
G01 X-2.1869 Y22.7658 
G01 X-2.1993 Y22.8600 
G01 X-2.1869 Y22.9542 
G01 X-2.1506 Y23.0420 
G01 X-2.0927 Y23.1174 
G01 X-2.0173 Y23.1752 
G01 X-1.9482 Y23.2039 
G01 X-1.9295 Y23.2116 
G01 X-1.9270 Y23.2126 
G01 X-1.8976 Y23.2421 
G01 X-3.1824 Y23.2421 
G01 X-3.1530 Y23.2126 
G01 X-3.1505 Y23.2116 
G01 X-3.1039 Y23.1923 
G01 X-3.0627 Y23.1752 
G01 X-2.9873 Y23.1174 
G01 X-2.9801 Y23.1081 
G01 X-2.9294 Y23.0420 
G01 X-2.8931 Y22.9542 
G01 X-2.8807 Y22.8600 
G01 X-2.8931 Y22.7658 
G01 X-2.9141 Y22.7151 
G01 X-2.9294 Y22.6780 
G01 X-2.9873 Y22.6026 
G01 X-2.9966 Y22.5954 
G01 X-3.0627 Y22.5448 
G01 X-3.1505 Y22.5084 
G01 X-3.1530 Y22.5074 
G01 X-3.1824 Y22.4779 
G01 X-1.8976 Y22.4779 
G00 Z2.0000  F3000
G00 X-1.8976 Y25.0179  F3000
G01 Z-0.2000 F200.00 
G01 X-1.9270 Y25.0474 F500.00 
G01 X-1.9295 Y25.0484 
G01 X-1.9761 Y25.0677 
G01 X-2.0173 Y25.0847 
G01 X-2.0927 Y25.1426 
G01 X-2.0999 Y25.1519 
G01 X-2.1506 Y25.2180 
G01 X-2.1869 Y25.3058 
G01 X-2.1993 Y25.4000 
G01 X-2.1869 Y25.4942 
G01 X-2.1659 Y25.5449 
G01 X-2.1506 Y25.5820 
G01 X-2.0927 Y25.6574 
G01 X-2.0834 Y25.6645 
G01 X-2.0173 Y25.7152 
G01 X-1.9295 Y25.7516 
G01 X-1.9270 Y25.7526 
G01 X-1.8976 Y25.7821 
G01 X-3.1824 Y25.7821 
G01 X-3.1530 Y25.7526 
G01 X-3.1505 Y25.7516 
G01 X-3.0627 Y25.7152 
G01 X-2.9978 Y25.6655 
G01 X-2.9873 Y25.6574 
G01 X-2.9294 Y25.5820 
G01 X-2.9147 Y25.5464 
G01 X-2.8931 Y25.4942 
G01 X-2.8807 Y25.4000 
G01 X-2.8931 Y25.3058 
G01 X-2.9294 Y25.2180 
G01 X-2.9792 Y25.1531 
G01 X-2.9873 Y25.1426 
G01 X-3.0627 Y25.0847 
G01 X-3.1022 Y25.0684 
G01 X-3.1505 Y25.0484 
G01 X-3.1530 Y25.0474 
G01 X-3.1824 Y25.0179 
G01 X-1.8976 Y25.0179 
G00 Z2.0000  F3000
G00 X-1.8976 Y27.5579  F3000
G01 Z-0.2000 F200.00 
G01 X-1.9270 Y27.5874 F500.00 
G01 X-2.3247 Y27.7521 
G01 X-2.7552 Y27.7521 
G01 X-3.1530 Y27.5874 
G01 X-3.1824 Y27.5579 
G01 X-1.8976 Y27.5579 
G00 Z2.0000  F3000
G00 X-17.1376 Y25.7821  F3000
G01 Z-0.2000 F200.00 
G01 X-18.4224 Y25.7821 F500.00 
G01 X-18.3930 Y25.7526 
G01 X-18.3905 Y25.7516 
G01 X-18.3439 Y25.7323 
G01 X-18.3027 Y25.7152 
G01 X-18.2273 Y25.6574 
G01 X-18.2201 Y25.6481 
G01 X-18.1694 Y25.5820 
G01 X-18.1331 Y25.4942 
G01 X-18.1207 Y25.4000 
G01 X-18.1331 Y25.3058 
G01 X-18.1541 Y25.2551 
G01 X-18.1694 Y25.2180 
G01 X-18.2273 Y25.1426 
G01 X-18.2366 Y25.1354 
G01 X-18.3027 Y25.0848 
G01 X-18.3905 Y25.0484 
G01 X-18.3930 Y25.0474 
G01 X-18.4224 Y25.0179 
G01 X-17.1376 Y25.0179 
G01 X-17.1670 Y25.0474 
G01 X-17.1695 Y25.0484 
G01 X-17.2573 Y25.0848 
G01 X-17.3327 Y25.1426 
G01 X-17.3906 Y25.2180 
G01 X-17.4164 Y25.2803 
G01 X-17.4269 Y25.3058 
G01 X-17.4393 Y25.4000 
G01 X-17.4269 Y25.4942 
G01 X-17.3906 Y25.5820 
G01 X-17.3327 Y25.6574 
G01 X-17.2573 Y25.7152 
G01 X-17.1882 Y25.7439 
G01 X-17.1695 Y25.7516 
G01 X-17.1670 Y25.7526 
G01 X-17.1376 Y25.7821 
G00 Z2.0000  F3000
G00 X-17.1376 Y23.2421  F3000
G01 Z-0.2000 F200.00 
G01 X-18.4224 Y23.2421 F500.00 
G01 X-18.3930 Y23.2126 
G01 X-18.3905 Y23.2116 
G01 X-18.3027 Y23.1752 
G01 X-18.2273 Y23.1174 
G01 X-18.1694 Y23.0420 
G01 X-18.1436 Y22.9797 
G01 X-18.1331 Y22.9542 
G01 X-18.1207 Y22.8600 
G01 X-18.1331 Y22.7658 
G01 X-18.1694 Y22.6780 
G01 X-18.2273 Y22.6026 
G01 X-18.3027 Y22.5447 
G01 X-18.3718 Y22.5161 
G01 X-18.3905 Y22.5084 
G01 X-18.3930 Y22.5074 
G01 X-18.4224 Y22.4779 
G01 X-17.1376 Y22.4779 
G01 X-17.1670 Y22.5074 
G01 X-17.1695 Y22.5084 
G01 X-17.2161 Y22.5277 
G01 X-17.2573 Y22.5447 
G01 X-17.3327 Y22.6026 
G01 X-17.3399 Y22.6119 
G01 X-17.3906 Y22.6780 
