;(.../Engineering/Matt/pcb-gcode/pcb-gcode.ulp)
;(Copyright 2005 - 2012 by John Johnson)
;(See readme.txt for licensing terms.)
;(This file generated from the board:)
;(.../pneumatic-reg - 40PC Sensor.brd)
;(Current profile is .../pcb-gcode/profiles/generic.pp  )
;(This file generated 25/07/2016 11:50)
;(Settings from pcb-machine.h)
;(spindle on time = 1000.0000)
;(spindle speed = 20000.0000)
;(tool change at 0.0000 0.0000 5.0000 )
;(feed rate xy = F0.00  )
;(feed rate z  = F500.00 )
;(Z Axis Settings)
;(  High     Up        Down     Drill)
;(5.0000 	2.0000 	-0.2000 	-2.0000 )
;(Settings from pcb-defaults.h)
;(isolate min = 0.0250)
;(isolate max = 0.5000)
;(isolate step = 0.1200)
;(Generated bottom outlines, bottom drill, )
;(Unit of measure: mm)
;( Tool|       Size       |  Min Sub |  Max Sub |   Count )
;( T01  0.600mm 0.0236in 0.0000in 0.0000in )
;( T02  0.800mm 0.0315in 0.0000in 0.0000in )
;( T03  0.813mm 0.0320in 0.0000in 0.0000in )
;( T04  1.000mm 0.0394in 0.0000in 0.0000in )
;(Metric Mode)
G21
;(Absolute Coordinates)
G90
;S20000
G00 Z5.0000  F3000
G00 X0.0000 Y0.0000  F3000
;M03 S1
G04 P1000.000000
;M03 S0
;M06 T01  ; 0.6000 
G01 Z0.0000 F500.00 
;M06 
G00 Z2.0000  F3000
;M03 S1
G04 P1000.000000
G00 X-2.5400 Y21.5900  F3000
G01 Z-2.0000 F500.00 
G00 Z2.0000  F3000
G00 X-2.5400 Y24.1300  F3000
G01 Z-2.0000 F500.00 
G00 Z2.0000  F3000
G00 X-2.5400 Y26.6700  F3000
G01 Z-2.0000 F500.00 
G00 Z2.0000  F3000
G00 X-10.1600 Y36.5600  F3000
G01 Z-2.0000 F500.00 
G00 Z2.0000  F3000
G00 X-12.7000 Y36.5600  F3000
G01 Z-2.0000 F500.00 
G00 Z2.0000  F3000
G00 X-17.7800 Y26.6700  F3000
G01 Z-2.0000 F500.00 
G00 Z2.0000  F3000
G00 X-17.7800 Y24.1300  F3000
G01 Z-2.0000 F500.00 
G00 Z2.0000  F3000
G00 X-17.7800 Y21.5900  F3000
G01 Z-2.0000 F500.00 
G00 Z2.0000  F3000
G00 X-20.5900 Y19.0500  F3000
G01 Z-2.0000 F500.00 
G00 Z2.0000  F3000
G00 X-24.4000 Y19.0500  F3000
G01 Z-2.0000 F500.00 
G00 Z2.0000  F3000
G00 X-27.9400 Y19.0500  F3000
G01 Z-2.0000 F500.00 
G00 Z2.0000  F3000
G00 X-32.0200 Y19.0500  F3000
G01 Z-2.0000 F500.00 
G00 Z2.0000  F3000
G00 X-33.2900 Y26.6700  F3000
G01 Z-2.0000 F500.00 
G00 Z2.0000  F3000
G00 X-45.7200 Y25.9000  F3000
G01 Z-2.0000 F500.00 
G00 Z2.0000  F3000
G00 X-45.7200 Y23.3600  F3000
G01 Z-2.0000 F500.00 
G00 Z2.0000  F3000
G00 X-45.7200 Y21.0900  F3000
G01 Z-2.0000 F500.00 
G00 Z2.0000  F3000
G00 X-46.9900 Y15.2400  F3000
G01 Z-2.0000 F500.00 
G00 Z2.0000  F3000
G00 X-41.9100 Y10.1600  F3000
G01 Z-2.0000 F500.00 
G00 Z2.0000  F3000
G00 X-51.0000 Y5.5000  F3000
G01 Z-2.0000 F500.00 
G00 Z2.0000  F3000
G00 X-21.5900 Y8.6200  F3000
G01 Z-2.0000 F500.00 
G00 Z2.0000  F3000
G00 X-17.7800 Y8.8900  F3000
G01 Z-2.0000 F500.00 
G00 Z2.0000  F3000
G00 X-51.5000 Y39.0000  F3000
G01 Z-2.0000 F500.00 
G00 Z2.0000  F3000
;M03 S0
G00 Z5.0000  F3000
G00 X0.0000 Y0.0000  F3000
;M06 T02  ; 0.8000 
G01 Z0.0000 F500.00 
;M06 
G00 Z2.0000  F3000
;M03 S1
G04 P1000.000000
G00 X-2.5400 Y21.5900  F3000
G01 Z-2.0000 F500.00 
G00 Z2.0000  F3000
G00 X-2.5400 Y24.1300  F3000
G01 Z-2.0000 F500.00 
G00 Z2.0000  F3000
G00 X-2.5400 Y26.6700  F3000
G01 Z-2.0000 F500.00 
G00 Z2.0000  F3000
G00 X-17.7800 Y26.6700  F3000
G01 Z-2.0000 F500.00 
G00 Z2.0000  F3000
G00 X-17.7800 Y24.1300  F3000
G01 Z-2.0000 F500.00 
G00 Z2.0000  F3000
G00 X-17.7800 Y21.5900  F3000
G01 Z-2.0000 F500.00 
G00 Z2.0000  F3000
;M03 S0
G00 Z5.0000  F3000
G00 X0.0000 Y0.0000  F3000
;M06 T03  ; 0.8128 
G01 Z0.0000 F500.00 
;M06 
G00 Z2.0000  F3000
;M03 S1
G04 P1000.000000
G00 X-22.8600 Y21.5900  F3000
G01 Z-2.0000 F500.00 
G00 Z2.0000  F3000
G00 X-25.4000 Y21.5900  F3000
G01 Z-2.0000 F500.00 
G00 Z2.0000  F3000
G00 X-27.9400 Y21.5900  F3000
G01 Z-2.0000 F500.00 
G00 Z2.0000  F3000
G00 X-30.4800 Y21.5900  F3000
G01 Z-2.0000 F500.00 
G00 Z2.0000  F3000
G00 X-30.4800 Y29.2100  F3000
G01 Z-2.0000 F500.00 
G00 Z2.0000  F3000
G00 X-27.9400 Y29.2100  F3000
G01 Z-2.0000 F500.00 
G00 Z2.0000  F3000
G00 X-25.4000 Y29.2100  F3000
G01 Z-2.0000 F500.00 
G00 Z2.0000  F3000
G00 X-22.8600 Y29.2100  F3000
G01 Z-2.0000 F500.00 
G00 Z2.0000  F3000
G00 X-29.2100 Y9.5250  F3000
G01 Z-2.0000 F500.00 
G00 Z2.0000  F3000
G00 X-30.4800 Y7.6200  F3000
G01 Z-2.0000 F500.00 
G00 Z2.0000  F3000
G00 X-27.9400 Y7.6200  F3000
G01 Z-2.0000 F500.00 
G00 Z2.0000  F3000
;M03 S0
G00 Z5.0000  F3000
G00 X0.0000 Y0.0000  F3000
;M06 T04  ; 1.0000 
G01 Z0.0000 F500.00 
;M06 
G00 Z2.0000  F3000
;M03 S1
G04 P1000.000000
G00 X-7.6200 Y3.8100  F3000
G01 Z-2.0000 F500.00 
G00 Z2.0000  F3000
G00 X-7.6200 Y6.3500  F3000
G01 Z-2.0000 F500.00 
G00 Z2.0000  F3000
G00 X-7.6200 Y8.8900  F3000
G01 Z-2.0000 F500.00 
G00 Z2.0000  F3000
G00 X-7.6200 Y11.4300  F3000
G01 Z-2.0000 F500.00 
G00 Z2.0000  F3000
G00 X-40.6400 Y38.2500  F3000
G01 Z-2.0000 F500.00 
G00 Z2.0000  F3000
G00 X-43.1800 Y38.2500  F3000
G01 Z-2.0000 F500.00 
G00 Z2.0000  F3000
;T01 
G00 Z5.0000  F3000
;M03 S0
M0
