; generated by Slic3r 1.2.9 on 2018-06-27 at 16:40:17

; external perimeters extrusion width = 0.40mm
; perimeters extrusion width = 0.40mm
; infill extrusion width = 0.40mm
; solid infill extrusion width = 0.40mm
; top infill extrusion width = 0.40mm

M107
M83
T0
M116
G21 ; set units to millimeters
G90 ; use absolute coordinates
M83 ; use relative distances for extrusion
G1 E-3.50000 F1500.00000
G1 Z0.400 F15000.000
G1 X53.586 Y0.000 F15000.000
G1 Z0.300 F15000.000
G1 E3.50000 F1500.00000
G1 X53.586 Y49.950 E3.84942 F960.000
G1 X53.191 Y51.597 E0.13052
G1 X52.093 Y52.887 E0.13052
G1 X49.950 Y53.586 E0.17373
G1 X-49.950 Y53.586 E7.69884
G1 X-51.597 Y53.191 E0.13052
G1 X-52.887 Y52.093 E0.13052
G1 X-53.586 Y49.950 E0.17373
G1 X-53.586 Y-49.950 E7.69884
G1 X-53.191 Y-51.597 E0.13052
G1 X-52.093 Y-52.887 E0.13052
G1 X-49.950 Y-53.586 E0.17373
G1 X49.950 Y-53.586 E7.69884
G1 X51.597 Y-53.191 E0.13052
G1 X52.887 Y-52.093 E0.13052 F960.000
G1 X53.586 Y-49.950 E0.17373
G1 X53.586 Y-0.060 E3.84480
G1 E-3.50000 F1500.00000
G1 Z0.700 F15000.000
G1 X21.038 Y0.000 F15000.000
G1 Z0.300 F15000.000
G1 E3.50000 F1500.00000
G1 X20.833 Y2.928 E0.22619 F720.000
G1 X20.223 Y5.799 E0.22619
G1 X19.219 Y8.557 E0.22619
G1 X17.841 Y11.149 E0.22628
G1 X16.084 Y13.556 E0.22966
G1 X14.077 Y15.634 E0.22262
G1 X11.764 Y17.441 E0.22619
G1 X9.222 Y18.910 E0.22628
G1 X6.456 Y20.020 E0.22966
G1 X3.653 Y20.719 E0.22261
G1 X0.733 Y21.025 E0.22628
G1 X-2.245 Y20.915 E0.22966
G1 X-5.090 Y20.413 E0.22261
G1 X-7.881 Y19.506 E0.22619
G1 X-10.520 Y18.219 E0.22628
G1 X-12.987 Y16.547 E0.22966
G1 X-15.134 Y14.614 E0.22262
G1 X-17.020 Y12.366 E0.22619
G1 X-18.576 Y9.876 E0.22628
G1 X-19.782 Y7.151 E0.22966
G1 X-20.578 Y4.374 E0.22261
G1 X-20.987 Y1.466 E0.22628
G1 X-20.980 Y-1.514 E0.22966
G1 X-20.578 Y-4.374 E0.22261
G1 X-19.769 Y-7.195 E0.22619
G1 X-18.576 Y-9.877 E0.22619
G1 X-17.020 Y-12.366 E0.22619
G1 X-15.134 Y-14.614 E0.22619
G1 X-12.952 Y-16.578 E0.22619
G1 X-10.519 Y-18.220 E0.22619
G1 X-7.881 Y-19.506 E0.22619
G1 X-5.089 Y-20.414 E0.22628
G1 X-2.153 Y-20.925 E0.22966
G1 X0.734 Y-21.025 E0.22261 F720.000
G1 X3.653 Y-20.719 E0.22619
G1 X6.501 Y-20.008 E0.22619
G1 X9.223 Y-18.909 E0.22619
G1 X11.764 Y-17.441 E0.22619
G1 X14.077 Y-15.634 E0.22619
G1 X16.116 Y-13.523 E0.22619
G1 X17.841 Y-11.149 E0.22619
G1 X19.220 Y-8.556 E0.22628
G1 X20.233 Y-5.753 E0.22966
G1 X20.833 Y-2.928 E0.22261
G1 X21.034 Y-0.060 E0.22157
G1 X20.400 Y-0.016 F15000.000
G1 X20.202 Y2.839 E0.22053 F720.000
G1 X19.611 Y5.623 E0.21934
G1 X18.637 Y8.298 E0.21934
G1 X17.301 Y10.811 E0.21937
G1 X15.596 Y13.146 E0.22281
G1 X13.651 Y15.161 E0.21582
G1 X11.408 Y16.913 E0.21934
G1 X8.943 Y18.336 E0.21937
G1 X6.260 Y19.414 E0.22281
G1 X3.543 Y20.091 E0.21582
G1 X0.712 Y20.389 E0.21937
G1 X-2.178 Y20.281 E0.22281
G1 X-4.935 Y19.795 E0.21582
G1 X-7.642 Y18.915 E0.21934
G1 X-10.201 Y17.668 E0.21937
G1 X-12.594 Y16.046 E0.22280
G1 X-14.675 Y14.172 E0.21582
G1 X-16.505 Y11.991 E0.21934
G1 X-18.013 Y9.577 E0.21937
G1 X-19.183 Y6.934 E0.22281
G1 X-19.955 Y4.242 E0.21582
G1 X-20.351 Y1.423 E0.21937
G1 X-20.345 Y-1.468 E0.22281
G1 X-19.955 Y-4.242 E0.21582
G1 X-19.171 Y-6.978 E0.21934
G1 X-18.013 Y-9.578 E0.21934
G1 X-16.505 Y-11.991 E0.21934
G1 X-14.675 Y-14.172 E0.21934
G1 X-12.560 Y-16.076 E0.21934
G1 X-10.200 Y-17.668 E0.21934
G1 X-7.642 Y-18.915 E0.21934
G1 X-4.935 Y-19.795 E0.21937
G1 X-2.087 Y-20.291 E0.22281
G1 X0.712 Y-20.389 E0.21582 F720.000
G1 X3.543 Y-20.091 E0.21934
G1 X6.304 Y-19.402 E0.21934
G1 X8.943 Y-18.336 E0.21934
G1 X11.408 Y-16.913 E0.21934
G1 X13.651 Y-15.161 E0.21934
G1 X15.628 Y-13.113 E0.21934
G1 X17.301 Y-10.811 E0.21934
G1 X18.637 Y-8.297 E0.21937
G1 X19.620 Y-5.579 E0.22281
G1 X20.202 Y-2.839 E0.21582
G1 X20.396 Y-0.075 E0.21352
G1 X20.742 Y0.192 F15000.000
G1 E-3.50000 F1500.00000
G1 Z0.700 F15000.000
G1 X-7.891 Y-48.964 F15000.000
G1 Z0.300 F15000.000
G1 E3.50000 F1500.00000
G1 X48.964 Y-48.964 E4.38155 F720.000
G1 X48.964 Y48.964 E7.54693
G1 X-48.964 Y48.964 E7.54693 F720.000
G1 X-48.964 Y-48.964 E7.54693
G1 X-7.951 Y-48.964 E3.16075
G1 X-7.951 Y-49.600 F15000.000
G1 X49.600 Y-49.600 E4.43516 F720.000
G1 X49.600 Y49.600 E7.64490
G1 X-49.600 Y49.600 E7.64490 F720.000
G1 X-49.600 Y-49.600 E7.64490
G1 X-8.011 Y-49.600 E3.20511
G1 X-7.751 Y-49.254 F15000.000
G1 X8.831 Y-19.548 F15000.000
G1 X-20.200 Y-48.579 E3.17108 F960.000
G1 X-21.101 Y-48.579 E0.06958
G1 X7.319 Y-20.159 E3.10437
G1 X6.011 Y-20.566 E0.10578
G1 X-22.002 Y-48.579 E3.05994
G1 X-22.903 Y-48.579 E0.06958
G1 X4.811 Y-20.865 E3.02725
G1 X3.654 Y-21.121 E0.09153
G1 X-23.804 Y-48.579 E2.99928
G1 X-24.705 Y-48.579 E0.06958
G1 X2.647 Y-21.227 E2.98772
G1 X1.641 Y-21.333 E0.07819
G1 X-25.606 Y-48.579 E2.97616
G1 X-26.507 Y-48.579 E0.06958
G1 X0.668 Y-21.404 E2.96834
G1 X-0.202 Y-21.374 E0.06728
G1 X-27.408 Y-48.579 E2.97167
G1 X-28.308 Y-48.579 E0.06958
G1 X-1.073 Y-21.343 E2.97499
G1 X-1.943 Y-21.313 E0.06728
G1 X-29.209 Y-48.579 E2.97831
G1 X-30.110 Y-48.579 E0.06958
G1 X-2.726 Y-21.195 E2.99123
G1 X-3.493 Y-21.061 E0.06016
G1 X-31.011 Y-48.579 E3.00582
G1 X-31.912 Y-48.579 E0.06958
G1 X-4.261 Y-20.927 E3.02041
G1 X-5.028 Y-20.794 E0.06016
G1 X-32.813 Y-48.579 E3.03499
G1 X-33.714 Y-48.579 E0.06958
G1 X-5.714 Y-20.579 E3.05849
G1 X-6.394 Y-20.358 E0.05522
G1 X-34.615 Y-48.579 E3.08262
G1 X-35.516 Y-48.579 E0.06958
G1 X-7.074 Y-20.137 E3.10676
G1 X-7.754 Y-19.916 E0.05522
G1 X-36.417 Y-48.579 E3.13089
G1 X-37.318 Y-48.579 E0.06958
G1 X-8.380 Y-19.641 E3.16091
G1 X-8.985 Y-19.346 E0.05204
G1 X-38.219 Y-48.579 E3.19317
G1 X-39.119 Y-48.579 E0.06958
G1 X-9.591 Y-19.050 E3.22543
G1 X-10.197 Y-18.755 E0.05204
G1 X-40.020 Y-48.579 E3.25769
G1 X-40.921 Y-48.579 E0.06958
G1 X-10.785 Y-18.442 E3.29187
G1 X-11.323 Y-18.079 E0.05012
G1 X-41.822 Y-48.579 E3.33151
G1 X-42.723 Y-48.579 E0.06958
G1 X-11.861 Y-17.716 E3.37114
G1 X-12.399 Y-17.354 E0.05012
G1 X-43.624 Y-48.579 E3.41078
G1 X-44.525 Y-48.579 E0.06958
G1 X-12.937 Y-16.991 E3.45042
G1 X-13.435 Y-16.588 E0.04948
G1 X-45.426 Y-48.579 E3.49443
G1 X-46.327 Y-48.579 E0.06958
G1 X-13.909 Y-16.161 E3.54105
G1 X-14.383 Y-15.734 E0.04927
G1 X-47.228 Y-48.579 E3.58768
G1 X-48.129 Y-48.579 E0.06958
G1 X-14.857 Y-15.307 E3.63430
G1 X-15.331 Y-14.880 E0.04927
G1 X-48.579 Y-48.128 E3.63172
G1 X-48.579 Y-47.228 E0.06958
G1 X-15.748 Y-14.396 E3.58619
G1 X-16.159 Y-13.906 E0.04939
G1 X-48.579 Y-46.327 E3.54129
G1 X-48.579 Y-45.426 E0.06958
G1 X-16.570 Y-13.417 E3.49639
G1 X-16.981 Y-12.927 E0.04939
G1 X-48.579 Y-44.525 E3.45150
G1 X-48.579 Y-43.624 E0.06958
G1 X-17.379 Y-12.424 E3.40805
G1 X-17.725 Y-11.869 E0.05050
G1 X-48.579 Y-42.723 E3.37020
G1 X-48.579 Y-41.822 E0.06958
G1 X-18.072 Y-11.315 E3.33236
G1 X-18.418 Y-10.760 E0.05050
G1 X-48.579 Y-40.921 E3.29452
G1 X-48.579 Y-40.020 E0.06958
G1 X-18.764 Y-10.206 E3.25667
G1 X-19.069 Y-9.610 E0.05171
G1 X-48.579 Y-39.119 E3.22338
G1 X-48.579 Y-38.218 E0.06958
G1 X-19.347 Y-8.986 E3.19307
G1 X-19.624 Y-8.363 E0.05270
G1 X-48.579 Y-37.317 E3.16275
G1 X-48.579 Y-36.417 E0.06958
G1 X-19.902 Y-7.739 E3.13243
G1 X-20.164 Y-7.101 E0.05332
G1 X-48.579 Y-35.516 E3.10377
G1 X-48.579 Y-34.615 E0.06958
G1 X-20.365 Y-6.401 E3.08184
G1 X-20.566 Y-5.701 E0.05626
G1 X-48.579 Y-33.714 E3.05991
G1 X-48.579 Y-32.813 E0.06958
G1 X-20.767 Y-5.000 E3.03798
G1 X-20.961 Y-4.294 E0.05658
G1 X-48.579 Y-31.912 E3.01672
G1 X-48.579 Y-31.011 E0.06958
G1 X-21.072 Y-3.504 E3.00459
G1 X-21.183 Y-2.714 E0.06161
G1 X-48.579 Y-30.110 E2.99246
G1 X-48.579 Y-29.209 E0.06958
G1 X-21.294 Y-1.925 E2.98034
G1 X-21.366 Y-1.096 E0.06425
G1 X-48.579 Y-28.308 E2.97245
G1 X-48.579 Y-27.407 E0.06958
G1 X-21.368 Y-0.197 E2.97223
G1 X-21.370 Y0.702 E0.06943
G1 X-48.579 Y-26.506 E2.97201
G1 X-48.579 Y-25.606 E0.06958
G1 X-21.372 Y1.601 E2.97180
G1 X-21.231 Y2.643 E0.08124
G1 X-48.579 Y-24.705 E2.98723
G1 X-48.579 Y-23.804 E0.06958
G1 X-21.084 Y3.691 E3.00332
G1 X-20.911 Y4.765 E0.08396
G1 X-48.579 Y-22.903 E3.02215
G1 X-48.579 Y-22.002 E0.06958
G1 X-20.549 Y6.028 E3.06171
G1 X-20.187 Y7.291 E0.10149
G1 X-48.579 Y-21.101 E3.10128
G1 X-48.579 Y-20.200 E0.06958
G1 X-19.520 Y8.859 E3.17414
G1 X-18.698 Y10.582 F15000.000
G1 X-48.579 Y-19.299 E3.26394 F960.000
G1 X-48.579 Y-18.398 E0.06958
G1 X-16.963 Y13.218 E3.45349
G1 X-13.178 Y17.003 F15000.000
G1 X18.398 Y48.579 E3.44911 F960.000
G1 X17.497 Y48.579 E0.06958
G1 X-48.579 Y-17.497 E7.21759
G1 X-48.579 Y-16.596 E0.06958
G1 X16.596 Y48.579 E7.11918
G1 X15.696 Y48.579 E0.06958
G1 X-48.579 Y-15.696 E7.02077
G1 X-48.579 Y-14.795 E0.06958
G1 X14.795 Y48.579 E6.92236
G1 X13.894 Y48.579 E0.06958
G1 X-48.579 Y-13.894 E6.82396
G1 X-48.579 Y-12.993 E0.06958
G1 X12.993 Y48.579 E6.72555
G1 X12.092 Y48.579 E0.06958
G1 X-48.579 Y-12.092 E6.62714
G1 X-48.579 Y-11.191 E0.06958
G1 X11.191 Y48.579 E6.52873
G1 X10.290 Y48.579 E0.06958
G1 X-48.579 Y-10.290 E6.43032
G1 X-48.579 Y-9.389 E0.06958
G1 X9.389 Y48.579 E6.33192
G1 X8.488 Y48.579 E0.06958
G1 X-48.579 Y-8.488 E6.23351
G1 X-48.579 Y-7.587 E0.06958
G1 X7.587 Y48.579 E6.13510
G1 X6.686 Y48.579 E0.06958
G1 X-48.579 Y-6.686 E6.03669
G1 X-48.579 Y-5.785 E0.06958
G1 X5.785 Y48.579 E5.93829
G1 X4.885 Y48.579 E0.06958
G1 X-48.579 Y-4.885 E5.83988
G1 X-48.579 Y-3.984 E0.06958
G1 X3.984 Y48.579 E5.74147
G1 X3.083 Y48.579 E0.06958
G1 X-48.579 Y-3.083 E5.64306
G1 X-48.579 Y-2.182 E0.06958
G1 X2.182 Y48.579 E5.54465
G1 X1.281 Y48.579 E0.06958
G1 X-48.579 Y-1.281 E5.44625
G1 X-48.579 Y-0.380 E0.06958
G1 X0.380 Y48.579 E5.34784
G1 X-0.521 Y48.579 E0.06959
G1 X-48.579 Y0.521 E5.24943
G1 X-48.579 Y1.422 E0.06958
G1 X-1.422 Y48.579 E5.15102
G1 X-2.323 Y48.579 E0.06958
G1 X-48.579 Y2.323 E5.05261
G1 X-48.579 Y3.224 E0.06958
G1 X-3.224 Y48.579 E4.95421
G1 X-4.125 Y48.579 E0.06958
G1 X-48.579 Y4.125 E4.85580
G1 X-48.579 Y5.026 E0.06958
G1 X-5.026 Y48.579 E4.75739
G1 X-5.926 Y48.579 E0.06958
G1 X-48.579 Y5.926 E4.65898
G1 X-48.579 Y6.827 E0.06958
G1 X-6.827 Y48.579 E4.56057
G1 X-7.728 Y48.579 E0.06958
G1 X-48.579 Y7.728 E4.46217
G1 X-48.579 Y8.629 E0.06958
G1 X-8.629 Y48.579 E4.36376
G1 X-9.530 Y48.579 E0.06958
G1 X-48.579 Y9.530 E4.26535
G1 X-48.579 Y10.431 E0.06958
G1 X-10.431 Y48.579 E4.16694
G1 X-11.332 Y48.579 E0.06958
G1 X-48.579 Y11.332 E4.06853
G1 X-48.579 Y12.233 E0.06958
G1 X-12.233 Y48.579 E3.97013
G1 X-13.134 Y48.579 E0.06958
G1 X-48.579 Y13.134 E3.87172
G1 X-48.579 Y14.035 E0.06958
G1 X-14.035 Y48.579 E3.77331
G1 X-14.936 Y48.579 E0.06958
G1 X-48.579 Y14.936 E3.67490
G1 X-48.579 Y15.837 E0.06958
G1 X-15.837 Y48.579 E3.57650
G1 X-16.737 Y48.579 E0.06958
G1 X-48.579 Y16.737 E3.47809
G1 X-48.579 Y17.638 E0.06958
G1 X-17.638 Y48.579 E3.37968
G1 X-18.539 Y48.579 E0.06958
G1 X-48.579 Y18.539 E3.28127
G1 X-48.579 Y19.440 E0.06958
G1 X-19.440 Y48.579 E3.18286
G1 X-20.341 Y48.579 E0.06958
G1 X-48.579 Y20.341 E3.08446
G1 X-48.579 Y21.242 E0.06958
G1 X-21.242 Y48.579 E2.98605
G1 X-22.143 Y48.579 E0.06958
G1 X-48.579 Y22.143 E2.88764
G1 X-48.579 Y23.044 E0.06958
G1 X-23.044 Y48.579 E2.78923
G1 X-23.945 Y48.579 E0.06958
G1 X-48.579 Y23.945 E2.69082
G1 X-48.579 Y24.846 E0.06958
G1 X-24.846 Y48.579 E2.59242
G1 X-25.747 Y48.579 E0.06958
G1 X-48.579 Y25.747 E2.49401
G1 X-48.579 Y26.647 E0.06958
G1 X-26.647 Y48.579 E2.39560
G1 X-27.548 Y48.579 E0.06958
G1 X-48.579 Y27.548 E2.29719
G1 X-48.579 Y28.449 E0.06958
G1 X-28.449 Y48.579 E2.19878
G1 X-29.350 Y48.579 E0.06958
G1 X-48.579 Y29.350 E2.10038
G1 X-48.579 Y30.251 E0.06958
G1 X-30.251 Y48.579 E2.00197
G1 X-31.152 Y48.579 E0.06958
G1 X-48.579 Y31.152 E1.90356
G1 X-48.579 Y32.053 E0.06958
G1 X-32.053 Y48.579 E1.80515
G1 X-32.954 Y48.579 E0.06958
G1 X-48.579 Y32.954 E1.70674
G1 X-48.579 Y33.855 E0.06958
G1 X-33.855 Y48.579 E1.60834
G1 X-34.756 Y48.579 E0.06958
G1 X-48.579 Y34.756 E1.50993
G1 X-48.579 Y35.657 E0.06958
G1 X-35.657 Y48.579 E1.41152
G1 X-36.558 Y48.579 E0.06958
G1 X-48.579 Y36.558 E1.31311
G1 X-48.579 Y37.458 E0.06958
G1 X-37.458 Y48.579 E1.21471
G1 X-38.359 Y48.579 E0.06958
G1 X-48.579 Y38.359 E1.11630
G1 X-48.579 Y39.260 E0.06958
G1 X-39.260 Y48.579 E1.01789
G1 X-40.161 Y48.579 E0.06958
G1 X-48.579 Y40.161 E0.91948
G1 X-48.579 Y41.062 E0.06958
G1 X-41.062 Y48.579 E0.82107
G1 X-41.963 Y48.579 E0.06958
G1 X-48.579 Y41.963 E0.72267
G1 X-48.579 Y42.864 E0.06958
G1 X-42.864 Y48.579 E0.62426
G1 X-43.765 Y48.579 E0.06958
G1 X-48.579 Y43.765 E0.52585
G1 X-48.579 Y44.666 E0.06958
G1 X-44.666 Y48.579 E0.42744
G1 X-45.567 Y48.579 E0.06958
G1 X-48.579 Y45.567 E0.32903
G1 X-48.579 Y46.468 E0.06958
G1 X-46.468 Y48.579 E0.23063
G1 X-47.369 Y48.579 E0.06958
G1 X-48.579 Y47.369 E0.13222
G1 X-48.579 Y48.269 E0.06958
G1 X-48.269 Y48.579 E0.03381
G1 X-10.580 Y18.699 F15000.000
G1 X19.299 Y48.579 E3.26377 F960.000
G1 X20.200 Y48.579 E0.06958
G1 X-8.822 Y19.557 E3.17008
G1 X-7.340 Y20.138 F15000.000
G1 X21.101 Y48.579 E3.10663 F960.000
G1 X22.002 Y48.579 E0.06958
G1 X-6.005 Y20.572 E3.05927
G1 X-4.793 Y20.883 E0.09664
G1 X22.903 Y48.579 E3.02530
G1 X23.804 Y48.579 E0.06958
G1 X-3.700 Y21.076 E3.00423
G1 X-2.606 Y21.268 E0.08578
G1 X24.705 Y48.579 E2.98317
G1 X25.606 Y48.579 E0.06958
G1 X-1.646 Y21.328 E2.97667
G1 X-0.710 Y21.363 E0.07232
G1 X26.506 Y48.579 E2.97287
G1 X27.407 Y48.579 E0.06958
G1 X0.226 Y21.397 E2.96907
G1 X1.091 Y21.362 E0.06690
G1 X28.308 Y48.579 E2.97295
G1 X29.209 Y48.579 E0.06958
G1 X1.906 Y21.276 E2.98231
G1 X2.722 Y21.191 E0.06331
G1 X30.110 Y48.579 E2.99167
G1 X31.011 Y48.579 E0.06958
G1 X3.537 Y21.105 E3.00103
G1 X4.266 Y20.933 E0.05788
G1 X31.912 Y48.579 E3.01976
G1 X32.813 Y48.579 E0.06958
G1 X4.988 Y20.754 E3.03940
G1 X5.709 Y20.574 E0.05740
G1 X33.714 Y48.579 E3.05904
G1 X34.615 Y48.579 E0.06958
G1 X6.430 Y20.394 E3.07867
G1 X7.078 Y20.142 E0.05375
G1 X35.516 Y48.579 E3.10625
G1 X36.417 Y48.579 E0.06958
G1 X7.721 Y19.884 E3.13444
G1 X8.364 Y19.625 E0.05350
G1 X37.317 Y48.579 E3.16262
G1 X38.218 Y48.579 E0.06958
G1 X9.007 Y19.367 E3.19081
G1 X9.612 Y19.072 E0.05204
G1 X39.119 Y48.579 E3.22308
G1 X40.020 Y48.579 E0.06958
G1 X10.183 Y18.742 E3.25910
G1 X10.755 Y18.412 E0.05094
G1 X40.921 Y48.579 E3.29512
G1 X41.822 Y48.579 E0.06958
G1 X11.326 Y18.083 E3.33114
G1 X11.897 Y17.753 E0.05094
G1 X42.723 Y48.579 E3.36716
G1 X43.624 Y48.579 E0.06958
G1 X12.405 Y17.361 E3.41002
G1 X12.911 Y16.965 E0.04957
G1 X44.525 Y48.579 E3.45318
G1 X45.426 Y48.579 E0.06958
G1 X13.417 Y16.570 E3.49634
G1 X13.923 Y16.175 E0.04957
G1 X46.327 Y48.579 E3.53951
G1 X47.228 Y48.579 E0.06958
G1 X14.411 Y15.763 E3.58454
G1 X14.854 Y15.305 E0.04921
G1 X48.128 Y48.579 E3.63460
G1 X48.579 Y48.129 E0.04920
G1 X15.297 Y14.846 E3.63547
G1 X15.739 Y14.388 E0.04921
G1 X48.579 Y47.228 E3.58712
G1 X48.579 Y46.327 E0.06958
G1 X16.182 Y13.930 E3.53878
G1 X16.585 Y13.432 E0.04947
G1 X48.579 Y45.426 E3.49469
G1 X48.579 Y44.525 E0.06958
G1 X16.966 Y12.911 E3.45317
G1 X17.346 Y12.391 E0.04980
G1 X48.579 Y43.624 E3.41165
G1 X48.579 Y42.723 E0.06958
G1 X17.726 Y11.870 E3.37012
G1 X18.106 Y11.349 E0.04980
G1 X48.579 Y41.822 E3.32860
G1 X48.579 Y40.921 E0.06958
G1 X18.426 Y10.768 E3.29363
G1 X18.739 Y10.180 E0.05145
G1 X48.579 Y40.020 E3.25947
G1 X48.579 Y39.119 E0.06958
G1 X19.052 Y9.592 E3.22530
G1 X19.364 Y9.004 E0.05145
G1 X48.579 Y38.219 E3.19114
G1 X48.579 Y37.318 E0.06958
G1 X19.650 Y8.389 E3.15992
G1 X19.891 Y7.728 E0.05429
G1 X48.579 Y36.417 E3.13366
G1 X48.579 Y35.516 E0.06958
G1 X20.131 Y7.068 E3.10740
G1 X20.371 Y6.407 E0.05429
G1 X48.579 Y34.615 E3.08114
G1 X48.579 Y33.714 E0.06958
G1 X20.604 Y5.739 E3.05571
G1 X20.762 Y4.996 E0.05867
G1 X48.579 Y32.813 E3.03846
G1 X48.579 Y31.912 E0.06958
G1 X20.920 Y4.253 E3.02121
G1 X21.078 Y3.510 E0.05867
G1 X48.579 Y31.011 E3.00396
G1 X48.579 Y30.110 E0.06958
G1 X21.223 Y2.754 E2.98814
G1 X21.282 Y1.912 E0.06520
G1 X48.579 Y29.209 E2.98171
G1 X48.579 Y28.308 E0.06958
G1 X21.341 Y1.070 E2.97528
G1 X21.399 Y0.228 E0.06520
G1 X48.579 Y27.408 E2.96885
G1 X48.579 Y26.507 E0.06958
G1 X21.386 Y-0.686 E2.97029
G1 X21.319 Y-1.655 E0.07500
G1 X48.579 Y25.606 E2.97768
G1 X48.579 Y24.705 E0.06958
G1 X21.251 Y-2.623 E2.98508
G1 X21.100 Y-3.675 E0.08203
G1 X48.579 Y23.804 E3.00152
G1 X48.579 Y22.903 E0.06958
G1 X20.857 Y-4.819 E3.02808
