; generated by Slic3r 1.2.9 on 2018-06-27 at 15:25:53

; external perimeters extrusion width = 0.40mm
; perimeters extrusion width = 0.40mm
; infill extrusion width = 0.40mm
; solid infill extrusion width = 0.40mm
; top infill extrusion width = 0.40mm

M107
M83
T0
M116
G21 ; set units to millimeters
G90 ; use absolute coordinates
M83 ; use relative distances for extrusion
G1 E-3.50000 F1500.00000
G1 Z0.400 F15000.000
G1 X19.211 Y9.788 F15000.000
G1 Z0.300 F15000.000
G1 E3.50000 F1500.00000
G1 X18.784 Y10.626 E0.07240 F960.000
G1 X18.594 Y10.955 E0.02933
G1 X17.571 Y12.531 E0.14479
G1 X17.347 Y12.839 E0.02933
G1 X16.165 Y14.299 E0.14479
G1 X15.910 Y14.582 E0.02933
G1 X14.582 Y15.910 E0.14479
G1 X14.299 Y16.165 E0.02933
G1 X12.839 Y17.347 E0.14479
G1 X12.531 Y17.571 E0.02933
G1 X10.955 Y18.594 E0.14479
G1 X10.626 Y18.784 E0.02933
G1 X8.951 Y19.637 E0.14479
G1 X8.604 Y19.792 E0.02933
G1 X6.850 Y20.466 E0.14479
G1 X6.488 Y20.583 E0.02933
G1 X4.673 Y21.069 E0.14479
G1 X4.301 Y21.149 E0.02933
G1 X2.445 Y21.442 E0.14479
G1 X2.067 Y21.482 E0.02933
G1 X0.190 Y21.581 E0.14479
G1 X-0.190 Y21.581 E0.02933
G1 X-2.067 Y21.482 E0.14479
G1 X-2.445 Y21.442 E0.02933
G1 X-4.301 Y21.149 E0.14480
G1 X-4.673 Y21.069 E0.02933
G1 X-6.488 Y20.583 E0.14479
G1 X-6.850 Y20.466 E0.02933
G1 X-8.604 Y19.792 E0.14479
G1 X-8.951 Y19.637 E0.02933
G1 X-10.626 Y18.784 E0.14479
G1 X-10.955 Y18.594 E0.02933
G1 X-12.531 Y17.571 E0.14479
G1 X-12.839 Y17.347 E0.02933
G1 X-14.299 Y16.165 E0.14479
G1 X-14.582 Y15.910 E0.02933
G1 X-15.910 Y14.582 E0.14479
G1 X-16.165 Y14.299 E0.02933
G1 X-17.347 Y12.839 E0.14479
G1 X-17.571 Y12.531 E0.02933
G1 X-18.594 Y10.955 E0.14480
G1 X-18.784 Y10.625 E0.02933
G1 X-19.637 Y8.951 E0.14479
G1 X-19.792 Y8.604 E0.02933
G1 X-20.466 Y6.850 E0.14479
G1 X-20.583 Y6.488 E0.02933
G1 X-21.069 Y4.673 E0.14479
G1 X-21.149 Y4.301 E0.02933
G1 X-21.442 Y2.445 E0.14479
G1 X-21.482 Y2.067 E0.02933
G1 X-21.581 Y0.190 E0.14479
G1 X-21.581 Y-0.190 E0.02933
G1 X-21.482 Y-2.067 E0.14479
G1 X-21.442 Y-2.445 E0.02933
G1 X-21.149 Y-4.301 E0.14479
G1 X-21.069 Y-4.673 E0.02933
G1 X-20.583 Y-6.488 E0.14479
G1 X-20.466 Y-6.850 E0.02933
G1 X-19.792 Y-8.604 E0.14479
G1 X-19.637 Y-8.951 E0.02933
G1 X-18.784 Y-10.626 E0.14479
G1 X-18.594 Y-10.955 E0.02933
G1 X-17.571 Y-12.531 E0.14479
G1 X-17.347 Y-12.839 E0.02933
G1 X-16.165 Y-14.299 E0.14479
G1 X-15.910 Y-14.582 E0.02933
G1 X-14.582 Y-15.910 E0.14479
G1 X-14.299 Y-16.165 E0.02933
G1 X-12.839 Y-17.347 E0.14479
G1 X-12.531 Y-17.571 E0.02933
G1 X-10.955 Y-18.594 E0.14479
G1 X-10.626 Y-18.784 E0.02933
G1 X-8.951 Y-19.637 E0.14479
G1 X-8.604 Y-19.792 E0.02933
G1 X-6.850 Y-20.466 E0.14479
G1 X-6.488 Y-20.583 E0.02933
G1 X-4.673 Y-21.069 E0.14479
G1 X-4.301 Y-21.149 E0.02933
G1 X-2.445 Y-21.442 E0.14479
G1 X-2.067 Y-21.482 E0.02933
G1 X-0.190 Y-21.581 E0.14479
G1 X0.508 Y-21.564 E0.05380
G1 X2.067 Y-21.482 E0.12030 F960.000
G1 X2.445 Y-21.442 E0.02933
G1 X4.301 Y-21.149 E0.14479
G1 X4.673 Y-21.069 E0.02933
G1 X6.488 Y-20.583 E0.14479
G1 X6.850 Y-20.466 E0.02933
G1 X8.604 Y-19.792 E0.14479
G1 X8.951 Y-19.637 E0.02933
G1 X10.626 Y-18.784 E0.14479
G1 X10.955 Y-18.594 E0.02933
G1 X12.531 Y-17.571 E0.14480
G1 X12.839 Y-17.347 E0.02933
G1 X14.299 Y-16.165 E0.14479
G1 X14.582 Y-15.910 E0.02933
G1 X15.910 Y-14.582 E0.14479
G1 X16.165 Y-14.299 E0.02933
G1 X17.347 Y-12.839 E0.14479
G1 X17.571 Y-12.531 E0.02933
G1 X18.594 Y-10.955 E0.14479
G1 X18.784 Y-10.626 E0.02933
G1 X19.637 Y-8.951 E0.14479
G1 X19.792 Y-8.604 E0.02933
G1 X20.466 Y-6.850 E0.14479
G1 X20.583 Y-6.488 E0.02933
G1 X21.069 Y-4.673 E0.14479
G1 X21.149 Y-4.301 E0.02933
G1 X21.442 Y-2.445 E0.14479
G1 X21.482 Y-2.067 E0.02933
G1 X21.581 Y-0.190 E0.14479
G1 X21.581 Y0.190 E0.02933
G1 X21.482 Y2.067 E0.14479
G1 X21.442 Y2.445 E0.02933
G1 X21.198 Y3.987 E0.12030
G1 X21.069 Y4.673 E0.05380
G1 X20.583 Y6.488 E0.14479
G1 X20.466 Y6.850 E0.02933
G1 X19.792 Y8.604 E0.14479
G1 X19.637 Y8.951 E0.02933
G1 X19.238 Y9.735 E0.06777
G1 E-3.50000 F1500.00000
G1 Z0.700 F15000.000
G1 X-1.000 Y16.198 F15000.000
G1 Z0.300 F15000.000
G1 E3.50000 F1500.00000
G1 X-1.000 Y17.547 E0.10394 F600.000
G1 X-1.840 Y17.503 E0.06480
G1 X-2.065 Y17.467 E0.01755
G1 X-1.348 Y13.404 E0.31795
G1 X-1.000 Y13.435 E0.02693
G1 X-1.000 Y16.138 E0.20834 F600.000
G1 X-1.346 Y16.398 F15000.000
G1 X-1.144 Y13.071 F15000.000
G1 X-0.868 Y9.916 E0.24410 F720.000
G1 X2.575 Y9.610 F15000.000
G1 X3.396 Y12.674 E0.24448 F720.000
G1 X3.677 Y17.109 F15000.000
G1 X3.023 Y17.226 E0.05119 F720.000
G1 X1.829 Y17.402 E0.09300
G1 X1.004 Y17.459 E0.06372
G1 X-0.000 Y17.500 E0.07745
G1 X-0.650 Y17.475 E0.05013
G1 X-2.395 Y17.323 F15000.000
G1 X-3.638 Y17.113 E0.09715 F720.000
G1 X-4.083 Y17.007 E0.03533
G1 X-5.407 Y16.640 E0.10582
G1 X-6.588 Y16.200 E0.09715
G1 X-8.175 Y15.459 F15000.000
G1 X-8.750 Y15.155 E0.05013 F720.000
G1 X-9.599 Y14.618 E0.07745
G1 X-10.285 Y14.156 E0.06372
G1 X-11.231 Y13.406 E0.09307
G1 X-11.738 Y12.978 E0.05112
G1 X-12.978 Y11.738 F15000.000
G1 X-13.406 Y11.231 E0.05112 F720.000
G1 X-14.156 Y10.285 E0.09307
G1 X-14.618 Y9.599 E0.06372
G1 X-15.155 Y8.750 E0.07745
G1 X-15.459 Y8.175 E0.05013
G1 X-16.200 Y6.588 F15000.000
G1 X-16.639 Y5.406 E0.09715 F720.000
G1 X-17.017 Y4.046 E0.10879
G1 X-17.114 Y3.638 E0.03236
G1 X-17.323 Y2.395 E0.09715
G1 X-17.475 Y0.650 F15000.000
G1 X-17.500 Y-0.000 E0.05013 F720.000
G1 X-17.459 Y-1.004 E0.07745
G1 X-17.402 Y-1.829 E0.06372
G1 X-17.111 Y-3.677 E0.14418
G1 X-16.655 Y-5.370 F15000.000
G1 X-16.430 Y-5.994 E0.05112 F720.000
G1 X-15.985 Y-7.117 E0.09307
G1 X-15.622 Y-7.860 E0.06372
G1 X-15.155 Y-8.750 E0.07745
G1 X-14.811 Y-9.302 E0.05012
G1 X-13.805 Y-10.735 F15000.000
G1 X-13.002 Y-11.707 E0.09715 F720.000
G1 X-12.714 Y-12.012 E0.03236
G1 X-11.707 Y-13.002 E0.10879
G1 X-10.737 Y-13.807 E0.09715
G1 X-9.300 Y-14.809 F15000.000
G1 X-8.750 Y-15.155 E0.05013 F720.000
G1 X-7.860 Y-15.622 E0.07745
G1 X-7.117 Y-15.985 E0.06372
G1 X-5.371 Y-16.657 E0.14418
G1 X-3.677 Y-17.109 F15000.000
G1 X-3.024 Y-17.225 E0.05112 F720.000
G1 X-1.829 Y-17.401 E0.09307
G1 X0.000 Y-17.500 E0.14115
G1 X0.650 Y-17.475 E0.05013
G1 X1.739 Y-15.622 F15000.000
G1 X1.348 Y-13.404 E0.17350 F600.000
G1 X1.000 Y-13.435 E0.02693
G1 X1.000 Y-17.547 E0.31691
G1 X1.840 Y-17.503 E0.06480
G1 X2.065 Y-17.467 E0.01755 F600.000
G1 X1.749 Y-15.681 E0.13982
G1 X1.363 Y-15.485 F15000.000
G1 X2.395 Y-17.323 F15000.000
G1 X3.638 Y-17.113 E0.09715 F720.000
G1 X4.083 Y-17.007 E0.03533
G1 X5.407 Y-16.640 E0.10582
G1 X6.588 Y-16.200 E0.09715
G1 X7.637 Y-15.227 F15000.000
G1 X5.851 Y-12.135 E0.27517 F600.000
G1 X5.535 Y-12.283 E0.02693
G1 X6.946 Y-16.160 E0.31795
G1 X7.158 Y-16.078 E0.01755
G1 X7.907 Y-15.696 E0.06480 F600.000
G1 X7.667 Y-15.279 E0.03712
G1 X7.237 Y-15.227 F15000.000
G1 X8.175 Y-15.459 F15000.000
G1 X8.750 Y-15.155 E0.05013 F720.000
G1 X9.599 Y-14.618 E0.07745
G1 X10.285 Y-14.156 E0.06372
G1 X11.231 Y-13.406 E0.09307
G1 X11.738 Y-12.978 E0.05112
G1 X12.510 Y-11.803 F15000.000
G1 X9.649 Y-9.402 E0.28786 F600.000
G1 X9.402 Y-9.649 E0.02693
G1 X12.050 Y-12.805 E0.31752
G1 X12.805 Y-12.050 E0.08228
G1 X12.556 Y-11.841 E0.02503 F600.000
G1 X12.134 Y-11.940 F15000.000
G1 X12.978 Y-11.738 F15000.000
G1 X13.406 Y-11.231 E0.05119 F720.000
G1 X14.156 Y-10.285 E0.09300
G1 X14.618 Y-9.599 E0.06372
G1 X15.155 Y-8.750 E0.07745
G1 X15.459 Y-8.175 E0.05013
G1 X16.136 Y-6.937 F15000.000
G1 X12.283 Y-5.535 E0.31599 F600.000
G1 X12.135 Y-5.851 E0.02693
G1 X15.696 Y-7.907 E0.31691
G1 X16.078 Y-7.158 E0.06480
G1 X16.147 Y-6.978 E0.01488 F600.000
G1 X15.744 Y-7.019 F15000.000
G1 X16.200 Y-6.588 F15000.000
G1 X16.640 Y-5.407 E0.09715 F720.000
G1 X17.017 Y-4.046 E0.10879
G1 X17.114 Y-3.638 E0.03236
G1 X17.323 Y-2.395 E0.09715
G1 X14.314 Y-1.509 F15000.000
G1 X17.467 Y-2.065 E0.24675 F600.000
G1 X17.503 Y-1.840 E0.01755
G1 X17.547 Y-1.000 E0.06480 F600.000
G1 X13.435 Y-1.000 E0.31691
G1 X13.404 Y-1.348 E0.02693
G1 X14.255 Y-1.498 E0.06658
G1 X14.571 Y-1.202 F15000.000
G1 X17.475 Y-0.650 F15000.000
G1 X17.500 Y0.000 E0.05013 F720.000
G1 X17.459 Y1.004 E0.07745
G1 X17.402 Y1.829 E0.06372
G1 X17.225 Y3.024 E0.09307
G1 X17.109 Y3.677 E0.05112
G1 X16.714 Y5.019 F15000.000
G1 X12.967 Y3.655 E0.30731 F600.000
G1 X13.057 Y3.318 E0.02693
G1 X17.115 Y4.033 E0.31752
G1 X16.838 Y5.064 E0.08228 F600.000
G1 X16.770 Y5.040 E0.00559
G1 X16.644 Y4.625 F15000.000
G1 X16.655 Y5.370 F15000.000
G1 X16.430 Y5.994 E0.05112 F720.000
G1 X15.985 Y7.117 E0.09307
G1 X15.622 Y7.860 E0.06372
G1 X15.155 Y8.750 E0.07745
G1 X14.809 Y9.300 E0.05013
G1 X13.797 Y10.272 F15000.000
G1 X10.934 Y7.870 E0.28801 F600.000
G1 X11.135 Y7.583 E0.02693
G1 X14.696 Y9.640 E0.31691
G1 X14.238 Y10.345 E0.06480 F600.000
G1 X14.095 Y10.522 E0.01755
G1 X13.843 Y10.311 E0.02531
G1 X13.867 Y9.878 F15000.000
G1 X13.805 Y10.735 F15000.000
G1 X13.002 Y11.707 E0.09715 F720.000
G1 X12.714 Y12.012 E0.03236
G1 X11.707 Y13.002 E0.10879
G1 X10.735 Y13.805 E0.09715
G1 X8.904 Y13.422 F15000.000
G1 X7.583 Y11.135 E0.20349 F600.000
G1 X7.870 Y10.934 E0.02693
G1 X10.522 Y14.095 E0.31795
G1 X10.345 Y14.238 E0.01755 F600.000
G1 X9.640 Y14.696 E0.06480
G1 X8.934 Y13.474 E0.10879
G1 X9.104 Y13.075 F15000.000
G1 X9.300 Y14.809 F15000.000
G1 X8.750 Y15.155 E0.05013 F720.000
G1 X7.860 Y15.622 E0.07745
G1 X7.117 Y15.985 E0.06372
G1 X5.994 Y16.430 E0.09307
G1 X5.370 Y16.655 E0.05112
G1 X3.825 Y15.934 F15000.000
G1 X3.318 Y13.057 E0.22516 F600.000
G1 X3.655 Y12.967 E0.02693
G1 X5.064 Y16.838 E0.31752
G1 X4.033 Y17.115 E0.08228 F600.000
G1 X3.836 Y15.994 E0.08773
G1 X4.132 Y15.677 F15000.000
G1 E-3.50000 F1500.00000
G1 Z0.700 F15000.000
G1 X7.526 Y10.748 F15000.000
G1 Z0.300 F15000.000
G1 E3.50000 F1500.00000
G1 X5.706 Y8.149 E0.24448 F720.000
G1 X8.149 Y5.706 F15000.000
G1 X10.748 Y7.526 E0.24448 F720.000
G1 E-3.50000 F1500.00000
G1 Z0.700 F15000.000
G1 X12.674 Y3.396 F15000.000
G1 Z0.300 F15000.000
G1 E3.50000 F1500.00000
G1 X9.610 Y2.575 E0.24448 F720.000
G1 X9.916 Y-0.868 F15000.000
G1 X13.071 Y-1.144 E0.24410 F720.000
G1 E-3.50000 F1500.00000
G1 Z0.700 F15000.000
G1 X11.892 Y-5.545 F15000.000
G1 Z0.300 F15000.000
G1 E3.50000 F1500.00000
G1 X9.021 Y-4.207 E0.24410 F720.000
G1 X7.038 Y-7.038 F15000.000
G1 X9.278 Y-9.278 E0.24410 F720.000
G1 E-3.50000 F1500.00000
G1 Z0.700 F15000.000
G1 X5.545 Y-11.892 F15000.000
G1 Z0.300 F15000.000
G1 E3.50000 F1500.00000
G1 X4.207 Y-9.021 E0.24409 F720.000
G1 X0.887 Y-2.458 F15000.000
G1 X1.457 Y-2.170 E0.04919 F600.000
G1 X1.939 Y-1.752 E0.04919
G1 X2.306 Y-1.229 E0.04919
G1 X2.535 Y-0.634 E0.04919
G1 X2.612 Y-0.013 E0.04817
G1 X2.562 Y0.503 E0.04001
G1 X2.416 Y0.988 E0.03898
G1 X2.180 Y1.435 E0.03898
G1 X1.615 Y2.136 E0.06935
G1 X-1.631 Y2.136 E0.25019
G1 X-2.253 Y1.324 E0.07876
G1 X-2.507 Y0.739 E0.04919
G1 X-2.611 Y0.109 E0.04919
G1 X-2.560 Y-0.527 E0.04919
G1 X-2.355 Y-1.132 E0.04919
G1 X-2.011 Y-1.669 E0.04919
G1 X-1.546 Y-2.107 E0.04919
G1 X-0.984 Y-2.422 E0.04966
G1 X-0.347 Y-2.587 E0.05073
G1 X0.265 Y-2.600 E0.04715 F600.000
G1 X0.829 Y-2.471 E0.04457
G1 X0.670 Y-1.856 F15000.000
G1 X1.100 Y-1.638 E0.03714 F600.000
G1 X1.464 Y-1.322 E0.03714
G1 X1.741 Y-0.928 E0.03714
G1 X1.914 Y-0.478 E0.03714
G1 X1.972 Y-0.005 E0.03674
G1 X1.935 Y0.380 E0.02984
G1 X1.825 Y0.746 E0.02945
G1 X1.647 Y1.084 E0.02945
G1 X1.311 Y1.500 E0.04118
G1 X-1.318 Y1.500 E0.20261
G1 X-1.701 Y1.000 E0.04856
G1 X-1.893 Y0.558 E0.03714
G1 X-1.971 Y0.082 E0.03714
G1 X-1.932 Y-0.398 E0.03714
G1 X-1.778 Y-0.855 E0.03714
G1 X-1.518 Y-1.260 E0.03714
G1 X-1.167 Y-1.591 E0.03714
G1 X-0.745 Y-1.827 E0.03730
G1 X-0.259 Y-1.953 E0.03868
G1 X0.200 Y-1.963 E0.03539 F600.000
G1 X0.611 Y-1.869 E0.03252
G1 X0.986 Y-2.101 F15000.000
G1 X4.702 Y-7.627 F15000.000
G1 X5.353 Y-7.190 E0.06038 F720.000
G1 X5.758 Y-6.870 E0.03982
G1 X6.340 Y-6.340 E0.06064
G1 X6.870 Y-5.758 E0.06064
G1 X7.190 Y-5.353 E0.03982
G1 X7.489 Y-4.926 E0.04018
G1 X7.760 Y-4.486 E0.03982
G1 X8.127 Y-3.789 E0.06064
G1 X8.425 Y-3.061 E0.06064
G1 X8.587 Y-2.571 E0.03982
G1 X8.722 Y-2.067 E0.04018
G1 X8.827 Y-1.561 E0.03982
G1 X8.933 Y-0.782 E0.06064
G1 X8.964 Y0.005 E0.06064
G1 X8.949 Y0.521 E0.03982
G1 X8.903 Y1.041 E0.04018
G1 X8.828 Y1.552 E0.03982
G1 X8.673 Y2.264 E0.05619
G1 X8.536 Y2.730 E0.03739
G1 X8.231 Y3.550 E0.06749
G1 X8.010 Y4.023 E0.04018
G1 X7.765 Y4.478 E0.03982
G1 X7.376 Y5.094 E0.05620
G1 X7.088 Y5.485 E0.03738
G1 X6.520 Y6.151 E0.06749
G1 X6.151 Y6.520 E0.04018
G1 X5.765 Y6.864 E0.03982
G1 X5.189 Y7.310 E0.05619
G1 X4.785 Y7.578 E0.03739
G1 X4.023 Y8.010 E0.06749
G1 X3.550 Y8.231 E0.04018
G1 X3.070 Y8.422 E0.03982
G1 X2.376 Y8.644 E0.05620
G1 X1.904 Y8.758 E0.03738
G1 X1.041 Y8.903 E0.06749
G1 X0.521 Y8.949 E0.04018
G1 X0.005 Y8.964 E0.03982
G1 X-0.782 Y8.933 E0.06064
G1 X-1.561 Y8.827 E0.06064
G1 X-2.067 Y8.722 E0.03982
G1 X-2.571 Y8.587 E0.04018
G1 X-3.061 Y8.425 E0.03982
G1 X-3.789 Y8.127 E0.06064
G1 X-4.486 Y7.760 E0.06065
G1 X-4.926 Y7.489 E0.03982
G1 X-5.353 Y7.190 E0.04018
G1 X-5.758 Y6.870 E0.03982
G1 X-6.340 Y6.340 E0.06064
G1 X-6.870 Y5.758 E0.06064
G1 X-7.190 Y5.353 E0.03982
G1 X-7.489 Y4.926 E0.04018
G1 X-7.760 Y4.486 E0.03982
G1 X-8.127 Y3.790 E0.06064
G1 X-8.424 Y3.062 E0.06057
G1 X-8.592 Y2.552 E0.04138
G1 X-8.722 Y2.067 E0.03869
G1 X-8.827 Y1.561 E0.03982
G1 X-8.933 Y0.781 E0.06064
G1 X-8.964 Y-0.005 E0.06064
G1 X-8.949 Y-0.521 E0.03982
G1 X-8.903 Y-1.041 E0.04018
G1 X-8.828 Y-1.552 E0.03982
G1 X-8.661 Y-2.321 E0.06064
G1 X-8.422 Y-3.070 E0.06064
G1 X-8.231 Y-3.550 E0.03982
G1 X-8.010 Y-4.023 E0.04018
G1 X-7.765 Y-4.478 E0.03982
G1 X-7.345 Y-5.143 E0.06064
G1 X-6.864 Y-5.765 E0.06064
G1 X-6.520 Y-6.151 E0.03982
G1 X-6.151 Y-6.520 E0.04018
G1 X-5.765 Y-6.864 E0.03982
G1 X-5.143 Y-7.345 E0.06064
G1 X-4.479 Y-7.765 E0.06057
G1 X-4.005 Y-8.019 E0.04138
G1 X-3.550 Y-8.231 E0.03869
G1 X-3.070 Y-8.422 E0.03982
G1 X-2.321 Y-8.661 E0.06064
G1 X-1.553 Y-8.828 E0.06057
G1 X-1.021 Y-8.905 E0.04138
G1 X-0.521 Y-8.949 E0.03869
G1 X-0.005 Y-8.964 E0.03982
G1 X0.781 Y-8.933 E0.06064
G1 X1.561 Y-8.827 E0.06064 F720.000
G1 X2.067 Y-8.722 E0.03982
G1 X2.571 Y-8.587 E0.04018
G1 X3.061 Y-8.425 E0.03982
G1 X3.790 Y-8.127 E0.06064
G1 X4.651 Y-7.658 E0.07559
G1 X4.985 Y-8.199 F15000.000
G1 X5.733 Y-7.700 E0.06927 F720.000
G1 X6.170 Y-7.355 E0.04292
G1 X6.790 Y-6.790 E0.06466
G1 X7.355 Y-6.170 E0.06466
G1 X7.700 Y-5.733 E0.04292
G1 X8.021 Y-5.275 E0.04303
G1 X8.313 Y-4.801 E0.04292
G1 X8.703 Y-4.058 E0.06466
G1 X9.021 Y-3.282 E0.06466
G1 X9.197 Y-2.753 E0.04292
G1 X9.341 Y-2.214 E0.04303
G1 X9.454 Y-1.668 E0.04292
G1 X9.567 Y-0.837 E0.06466
G1 X9.600 Y0.001 E0.06466
G1 X9.584 Y0.558 E0.04292
G1 X9.535 Y1.114 E0.04303
G1 X9.454 Y1.666 E0.04292
G1 X9.290 Y2.422 E0.05965
G1 X9.021 Y3.282 E0.06946
G1 X8.815 Y3.802 E0.04312
G1 X8.579 Y4.308 E0.04303
G1 X8.314 Y4.799 E0.04292
G1 X7.901 Y5.453 E0.05966
G1 X7.355 Y6.170 E0.06945
G1 X6.983 Y6.588 E0.04312
G1 X6.588 Y6.983 E0.04303
G1 X6.172 Y7.353 E0.04292
G1 X5.560 Y7.827 E0.05964
G1 X4.801 Y8.313 E0.06946
G1 X4.308 Y8.579 E0.04312
G1 X3.802 Y8.815 E0.04303
G1 X3.285 Y9.020 E0.04292
G1 X2.547 Y9.256 E0.05965
G1 X2.042 Y9.378 E0.04008
G1 X1.114 Y9.535 E0.07249
G1 X0.558 Y9.584 E0.04303
G1 X0.001 Y9.600 E0.04292
G1 X-0.837 Y9.567 E0.06466
G1 X-1.668 Y9.454 E0.06466
G1 X-2.214 Y9.341 E0.04292
G1 X-2.753 Y9.197 E0.04303
G1 X-3.282 Y9.021 E0.04292
G1 X-4.058 Y8.703 E0.06466
G1 X-4.801 Y8.313 E0.06466
G1 X-5.275 Y8.021 E0.04292
G1 X-5.733 Y7.700 E0.04303
G1 X-6.170 Y7.355 E0.04292
G1 X-6.790 Y6.790 E0.06466
G1 X-7.355 Y6.170 E0.06466
G1 X-7.700 Y5.733 E0.04292
G1 X-8.021 Y5.275 E0.04303
G1 X-8.313 Y4.801 E0.04292
G1 X-8.703 Y4.058 E0.06466
G1 X-9.021 Y3.282 E0.06464
G1 X-9.202 Y2.734 E0.04449
G1 X-9.341 Y2.214 E0.04149
G1 X-9.454 Y1.668 E0.04292
G1 X-9.567 Y0.837 E0.06466
G1 X-9.600 Y-0.001 E0.06466
G1 X-9.584 Y-0.558 E0.04292
G1 X-9.535 Y-1.114 E0.04303
G1 X-9.454 Y-1.666 E0.04292
G1 X-9.276 Y-2.485 E0.06466
G1 X-9.020 Y-3.285 E0.06466
G1 X-8.815 Y-3.802 E0.04292
G1 X-8.579 Y-4.308 E0.04303
G1 X-8.314 Y-4.799 E0.04292
G1 X-7.866 Y-5.508 E0.06466
G1 X-7.353 Y-6.172 E0.06466
G1 X-6.983 Y-6.588 E0.04292
G1 X-6.588 Y-6.983 E0.04303
G1 X-6.172 Y-7.353 E0.04292
