; generated by Slic3r 1.2.9 on 2019-02-03 at 16:41:00

; external perimeters extrusion width = 0.40mm
; perimeters extrusion width = 0.40mm
; infill extrusion width = 0.40mm
; solid infill extrusion width = 0.40mm
; top infill extrusion width = 0.40mm

M107
M83
T0
M116
G21 ; set units to millimeters
G90 ; use absolute coordinates
M83 ; use relative distances for extrusion
G1 E-3.50000 F1500.00000
G1 Z0.400 F15000.000
G1 X15.586 Y0.000 F15000.000
G1 Z0.300 F15000.000
G1 E3.50000 F1500.00000
G1 X15.586 Y11.950 E0.92093 F960.000
G1 X15.191 Y13.597 E0.13052
G1 X14.093 Y14.887 E0.13052
G1 X11.950 Y15.586 E0.17373
G1 X-11.950 Y15.586 E1.84187
G1 X-13.597 Y15.191 E0.13052
G1 X-14.887 Y14.093 E0.13052
G1 X-15.586 Y11.950 E0.17373
G1 X-15.586 Y-11.950 E1.84187
G1 X-15.191 Y-13.597 E0.13052
G1 X-14.093 Y-14.887 E0.13052
G1 X-11.950 Y-15.586 E0.17373
G1 X11.950 Y-15.586 E1.84187
G1 X13.597 Y-15.191 E0.13052
G1 X14.887 Y-14.093 E0.13052 F960.000
G1 X15.586 Y-11.950 E0.17373
G1 X15.586 Y-0.060 E0.91631
G1 E-3.50000 F1500.00000
G1 Z0.700 F15000.000
G1 X9.539 Y-0.022 F15000.000
G1 Z0.300 F15000.000
G1 E3.50000 F1500.00000
G1 X9.312 Y2.071 E0.16228 F720.000
G1 X8.661 Y4.004 E0.15721
G1 X7.584 Y5.788 E0.16061
G1 X6.182 Y7.268 E0.15705
G1 X4.477 Y8.426 E0.15885
G1 X2.563 Y9.191 E0.15887
G1 X0.528 Y9.526 E0.15891
G1 X-1.554 Y9.414 E0.16070
G1 X-3.540 Y8.860 E0.15892
G1 X-5.361 Y7.893 E0.15887
G1 X-6.931 Y6.557 E0.15887
G1 X-8.178 Y4.915 E0.15887
G1 X-9.043 Y3.044 E0.15887
G1 X-9.486 Y1.031 E0.15888
G1 X-9.486 Y-1.031 E0.15885
G1 X-9.043 Y-3.044 E0.15888
G1 X-8.178 Y-4.915 E0.15888
G1 X-6.931 Y-6.557 E0.15887
G1 X-5.361 Y-7.893 E0.15887
G1 X-3.540 Y-8.860 E0.15893
G1 X-1.530 Y-9.417 E0.16069
G1 X0.529 Y-9.526 E0.15890 F720.000
G1 X2.563 Y-9.191 E0.15887
G1 X4.477 Y-8.426 E0.15887
G1 X6.182 Y-7.268 E0.15887
G1 X7.599 Y-5.770 E0.15887
G1 X8.661 Y-4.003 E0.15887
G1 X9.319 Y-2.049 E0.15887
G1 X9.533 Y-0.082 E0.15250
G1 X8.900 Y-0.022 F15000.000
G1 X8.688 Y1.934 E0.15162 F720.000
G1 X8.081 Y3.735 E0.14651
G1 X7.075 Y5.401 E0.14995
G1 X5.768 Y6.781 E0.14646
G1 X4.177 Y7.861 E0.14822
G1 X2.391 Y8.575 E0.14822
G1 X0.493 Y8.888 E0.14824
G1 X-1.450 Y8.783 E0.14999
G1 X-3.303 Y8.266 E0.14824
G1 X-5.002 Y7.364 E0.14822
G1 X-6.467 Y6.118 E0.14823
G1 X-7.630 Y4.586 E0.14823
G1 X-8.437 Y2.840 E0.14823
G1 X-8.850 Y0.962 E0.14823
G1 X-8.850 Y-0.962 E0.14820
G1 X-8.437 Y-2.840 E0.14823
G1 X-7.630 Y-4.586 E0.14823
G1 X-6.467 Y-6.118 E0.14823
G1 X-5.002 Y-7.364 E0.14823
G1 X-3.303 Y-8.266 E0.14824
G1 X-1.428 Y-8.786 E0.14999
G1 X0.493 Y-8.888 E0.14823 F720.000
G1 X2.391 Y-8.575 E0.14822
G1 X4.177 Y-7.861 E0.14822
G1 X5.768 Y-6.781 E0.14822
G1 X7.090 Y-5.383 E0.14823
G1 X8.081 Y-3.735 E0.14823
G1 X8.695 Y-1.912 E0.14823
G1 X8.894 Y-0.082 E0.14186
G1 X9.239 Y0.190 F15000.000
G1 E-3.50000 F1500.00000
G1 Z0.700 F15000.000
G1 X-1.693 Y-10.964 F15000.000
G1 Z0.300 F15000.000
G1 E3.50000 F1500.00000
G1 X10.964 Y-10.964 E0.97545 F720.000
G1 X10.964 Y10.964 E1.68995
G1 X-10.964 Y10.964 E1.68995 F720.000
G1 X-10.964 Y-10.964 E1.68995
G1 X-1.753 Y-10.964 E0.70988
G1 X-1.753 Y-11.600 F15000.000
G1 X11.600 Y-11.600 E1.02905 F720.000
G1 X11.600 Y11.600 E1.78792
G1 X-11.600 Y11.600 E1.78792 F720.000
G1 X-11.600 Y-11.600 E1.78792
G1 X-1.813 Y-11.600 E0.75424
G1 X-1.553 Y-11.254 F15000.000
G1 X-1.909 Y-10.269 F15000.000
G1 X-2.219 Y-10.579 E0.03518 F960.000
G1 X-3.155 Y-10.579 E0.07498
G1 X-2.180 Y-9.605 E0.11045
G1 X-2.913 Y-9.402 E0.06092
G1 X-4.090 Y-10.579 E0.13347
G1 X-5.025 Y-10.579 E0.07498
G1 X-3.637 Y-9.191 E0.15735
G1 X-4.248 Y-8.867 E0.05545
G1 X-5.960 Y-10.579 E0.19414
G1 X-6.895 Y-10.579 E0.07498
G1 X-4.859 Y-8.542 E0.23093
G1 X-5.469 Y-8.218 E0.05545
G1 X-7.831 Y-10.579 E0.26772
G1 X-8.766 Y-10.579 E0.07498
G1 X-5.984 Y-7.797 E0.31547
G1 X-6.489 Y-7.367 E0.05319
G1 X-9.701 Y-10.579 E0.36421
G1 X-10.579 Y-10.522 E0.07054
G1 X-6.994 Y-6.937 E0.40646
G1 X-7.435 Y-6.442 E0.05311
G1 X-10.579 Y-9.587 E0.35653
G1 X-10.579 Y-8.651 E0.07498
G1 X-7.838 Y-5.911 E0.31076
G1 X-8.242 Y-5.379 E0.05351
G1 X-10.579 Y-7.716 E0.26499
G1 X-10.579 Y-6.781 E0.07498
G1 X-8.604 Y-4.806 E0.22389
G1 X-8.900 Y-4.167 E0.05649
G1 X-10.579 Y-5.846 E0.19037
G1 X-10.579 Y-4.911 E0.07498
G1 X-9.196 Y-3.527 E0.15685
G1 X-9.454 Y-2.850 E0.05809
G1 X-10.579 Y-3.975 E0.12757
G1 X-10.579 Y-3.040 E0.07498
G1 X-9.622 Y-2.084 E0.10846
G1 X-10.269 Y-1.795 E0.05678
G1 X-10.579 Y-2.105 E0.03511
G1 X-10.225 Y-1.410 F15000.000
G1 X-10.225 Y1.410 E0.45662 F960.000
G1 X-9.676 Y2.111 F15000.000
G1 X-9.992 Y1.795 E0.03471 F960.000
G1 X-10.579 Y2.114 E0.05192
G1 X-9.420 Y3.273 E0.12730
G1 X-10.579 Y3.020 E0.09213
G1 X-8.674 Y4.925 E0.20926
G1 X-10.579 Y4.832 F15000.000
G1 X-4.832 Y10.579 E0.63133 F960.000
G1 X-5.739 Y10.579 E0.07039
G1 X-10.579 Y5.739 E0.53178
G1 X-10.579 Y6.645 E0.07039
G1 X-6.645 Y10.579 E0.43223
G1 X-7.551 Y10.579 E0.07039
G1 X-10.579 Y7.551 E0.33268
G1 X-10.579 Y8.457 E0.07039
G1 X-8.457 Y10.579 E0.23312
G1 X-9.363 Y10.579 E0.07039
G1 X-10.579 Y9.363 E0.13357
G1 X-10.579 Y10.269 E0.07039
G1 X-10.269 Y10.579 E0.03402
G1 X-4.976 Y8.623 F15000.000
G1 X-3.020 Y10.579 E0.21484 F960.000
G1 X-2.114 Y10.579 E0.07039
G1 X-3.332 Y9.361 E0.13381
G1 X-3.926 Y10.579 F15000.000
G1 X-10.579 Y3.926 E0.73088 F960.000
G1 X-1.527 Y10.190 F15000.000
G1 X0.524 Y10.246 E0.33221 F960.000
G1 X1.390 Y10.180 E0.14059
G1 X1.795 Y10.267 F15000.000
G1 X2.106 Y10.579 E0.03510 F960.000
G1 X3.036 Y10.579 E0.07406
G1 X2.095 Y9.638 E0.10603
G1 X2.838 Y9.452 E0.06106
G1 X3.965 Y10.579 E0.12700
G1 X4.895 Y10.579 E0.07406
G1 X3.502 Y9.187 E0.15690
G1 X4.167 Y8.921 E0.05698
G1 X5.824 Y10.579 E0.18680
G1 X6.754 Y10.579 E0.07406
G1 X4.790 Y8.616 E0.22126
G1 X5.344 Y8.240 E0.05331
G1 X7.683 Y10.579 E0.26362
G1 X8.612 Y10.579 E0.07406
G1 X5.897 Y7.864 E0.30598
G1 X6.439 Y7.476 E0.05308
G1 X9.542 Y10.579 E0.34967
G1 X10.471 Y10.579 E0.07406
G1 X6.891 Y6.999 E0.40346
G1 X7.343 Y6.521 E0.05239
G1 X10.579 Y9.757 E0.36464
G1 X10.579 Y8.828 E0.07406
G1 X7.795 Y6.044 E0.31369
G1 X8.161 Y5.480 E0.05354
G1 X10.579 Y7.898 E0.27248
G1 X10.579 Y6.969 E0.07406
G1 X8.511 Y4.901 E0.23305
G1 X8.861 Y4.321 E0.05394
G1 X10.579 Y6.040 E0.19361
G1 X10.579 Y5.110 E0.07406
G1 X9.141 Y3.672 E0.16200
G1 X9.376 Y2.977 E0.05845
G1 X10.579 Y4.181 E0.13561
G1 X10.579 Y3.251 E0.07406
G1 X9.610 Y2.282 E0.10921
G1 X10.268 Y2.011 E0.05673
G1 X10.579 Y2.322 E0.03503
G1 X10.166 Y1.612 F15000.000
G1 X10.252 Y0.020 E0.25815 F960.000
G1 X10.166 Y-1.653 E0.27122
G1 X10.574 Y-2.087 F15000.000
G1 X9.356 Y-3.305 E0.13432 F960.000
G1 X8.683 Y-4.888 F15000.000
G1 X10.579 Y-2.992 E0.20917 F960.000
G1 X10.579 Y-3.901 E0.07095
G1 X3.901 Y-10.579 E0.73652
G1 X4.811 Y-10.579 E0.07095
G1 X10.579 Y-4.811 E0.63619
G1 X10.579 Y-5.721 E0.07095
G1 X5.721 Y-10.579 E0.53585
G1 X6.630 Y-10.579 E0.07095
G1 X10.579 Y-6.630 E0.43551
G1 X10.579 Y-7.540 E0.07095
G1 X7.540 Y-10.579 E0.33517
G1 X8.450 Y-10.579 E0.07095
G1 X10.579 Y-8.450 E0.23483
G1 X10.579 Y-9.360 E0.07095
G1 X9.360 Y-10.579 E0.13449
G1 X10.269 Y-10.579 E0.07095
G1 X10.579 Y-10.269 E0.03416
G1 X4.791 Y-8.780 F15000.000
G1 X2.992 Y-10.579 E0.19847 F960.000
G1 X2.082 Y-10.579 E0.07095
G1 X3.276 Y-9.385 E0.13171
G1 X2.063 Y-9.688 E0.09748
G1 X1.751 Y-10.000 E0.03447
G1 X1.390 Y-10.180 F15000.000
G1 X0.525 Y-10.246 E0.14039 F960.000
G1 X-1.518 Y-10.192 E0.33097
G1 E-3.50000 F1500.00000
G1 Z0.700 F15000.000
G1 X-1.445 Y-8.994 F15000.000
G1 Z0.500 F15000.000
G1 E3.50000 F1500.00000
G1 X0.519 Y-9.094 E0.05676 F2400.000
G1 X2.459 Y-8.772 E0.05675
G1 X4.284 Y-8.040 E0.05675
G1 X5.909 Y-6.934 E0.05675
G1 X7.260 Y-5.504 E0.05675
G1 X8.272 Y-3.818 E0.05675
G1 X8.898 Y-1.955 E0.05675
G1 X9.105 Y-0.051 E0.05527
G1 X8.883 Y2.004 E0.05965
G1 X8.271 Y3.820 E0.05531
G1 X7.225 Y5.544 E0.05822
G1 X5.909 Y6.934 E0.05524
G1 X4.284 Y8.040 E0.05674
G1 X2.459 Y8.772 E0.05675
G1 X0.519 Y9.095 E0.05677
G1 X-1.497 Y8.986 E0.05826
G1 X-3.391 Y8.455 E0.05677
G1 X-5.126 Y7.531 E0.05675
G1 X-6.623 Y6.255 E0.05675
G1 X-7.811 Y4.689 E0.05675
G1 X-8.635 Y2.904 E0.05675
G1 X-9.057 Y0.983 E0.05675
G1 X-9.057 Y-0.983 E0.05674
G1 X-8.635 Y-2.904 E0.05675
G1 X-7.811 Y-4.689 E0.05675
G1 X-6.623 Y-6.255 E0.05675
G1 X-5.126 Y-7.531 E0.05675
G1 X-3.390 Y-8.456 E0.05678
G1 X-1.503 Y-8.978 E0.05653
G1 X-1.407 Y-8.634 F15000.000
G1 X-1.387 Y-8.639 E0.00060 F2400.000
G1 X0.499 Y-8.736 E0.05451 F2400.000
G1 X2.362 Y-8.426 E0.05451
G1 X4.115 Y-7.723 E0.05451
G1 X5.676 Y-6.660 E0.05451
G1 X6.973 Y-5.287 E0.05451
G1 X7.946 Y-3.668 E0.05452
G1 X8.548 Y-1.878 E0.05452
G1 X8.746 Y-0.051 E0.05303
G1 X8.532 Y1.927 E0.05741
G1 X7.945 Y3.668 E0.05305
G1 X6.940 Y5.327 E0.05598
G1 X5.676 Y6.660 E0.05302
G1 X4.115 Y7.723 E0.05451
G1 X2.362 Y8.426 E0.05451
G1 X0.499 Y8.736 E0.05452
G1 X-1.439 Y8.631 E0.05600
G1 X-3.257 Y8.122 E0.05452
G1 X-4.924 Y7.234 E0.05451
G1 X-6.362 Y6.009 E0.05451
G1 X-7.503 Y4.504 E0.05451
G1 X-8.295 Y2.789 E0.05452
G1 X-8.700 Y0.944 E0.05452
G1 X-8.700 Y-0.944 E0.05451
G1 X-8.295 Y-2.789 E0.05452
G1 X-7.503 Y-4.504 E0.05452
G1 X-6.362 Y-6.009 E0.05451
G1 X-4.924 Y-7.234 E0.05451
G1 X-3.257 Y-8.122 E0.05452
G1 X-1.465 Y-8.618 E0.05366
G1 X-1.402 Y-8.654 F15000.000
G1 E-3.50000 F1500.00000
G1 Z0.900 F15000.000
G1 X2.432 Y11.393 F15000.000
G1 Z0.500 F15000.000
G1 E3.50000 F1500.00000
G1 X-11.393 Y11.393 E0.39902 F2400.000
G1 X-11.393 Y-11.393 E0.65766
G1 X11.393 Y-11.393 E0.65766
G1 X11.393 Y11.393 E0.65766
G1 X2.492 Y11.393 E0.25691 F2400.000
G1 X2.492 Y11.750 F15000.000
G1 X-11.750 Y11.750 E0.41106 F2400.000
G1 X-11.750 Y-11.750 E0.67827
G1 X11.750 Y-11.750 E0.67827
G1 X11.750 Y11.750 E0.67827
G1 X2.552 Y11.750 E0.26548 F2400.000
G1 X2.292 Y11.404 F15000.000
G1 X2.479 Y8.992 F15000.000
G1 X0.287 Y11.185 E0.09037 F2400.000
G1 X-0.223 Y11.185 E0.01486
G1 X1.868 Y9.094 E0.08617
G1 X1.256 Y9.196 E0.01807
G1 X-0.733 Y11.185 E0.08197
G1 X-1.243 Y11.185 E0.01486
G1 X0.644 Y9.298 E0.07778
G1 X0.153 Y9.279 E0.01431
G1 X-1.753 Y11.185 E0.07856
G1 X-2.263 Y11.185 E0.01486
G1 X-0.330 Y9.253 E0.07964
G1 X-0.814 Y9.227 E0.01412
G1 X-2.773 Y11.185 E0.08071
G1 X-3.282 Y11.185 E0.01486
G1 X-1.298 Y9.201 E0.08179
G1 X-1.726 Y9.119 E0.01271
G1 X-3.792 Y11.185 E0.08515
G1 X-4.302 Y11.185 E0.01486
G1 X-2.124 Y9.007 E0.08975
G1 X-2.523 Y8.896 E0.01205
G1 X-4.812 Y11.185 E0.09435
G1 X-5.322 Y11.185 E0.01486
G1 X-2.921 Y8.784 E0.09895
G1 X-3.319 Y8.673 E0.01205
G1 X-5.832 Y11.185 E0.10354
G1 X-6.342 Y11.185 E0.01486
G1 X-3.669 Y8.512 E0.11015
G1 X-4.001 Y8.335 E0.01098
G1 X-6.851 Y11.185 E0.11746
G1 X-7.361 Y11.185 E0.01486
G1 X-4.334 Y8.158 E0.12476
G1 X-4.667 Y7.981 E0.01098
G1 X-7.871 Y11.185 E0.13206
G1 X-8.381 Y11.185 E0.01486
G1 X-4.999 Y7.804 E0.13936
G1 X-5.311 Y7.606 E0.01076
G1 X-8.891 Y11.185 E0.14752
G1 X-9.401 Y11.185 E0.01486
G1 X-5.586 Y7.371 E0.15719
G1 X-5.862 Y7.136 E0.01054
G1 X-9.911 Y11.185 E0.16686
G1 X-10.420 Y11.185 E0.01486
G1 X-6.137 Y6.902 E0.17653
G1 X-6.412 Y6.667 E0.01054
G1 X-10.930 Y11.185 E0.18619
G1 X-11.185 Y10.930 E0.01051
G1 X-6.688 Y6.433 E0.18535
G1 X-6.921 Y6.156 E0.01054
G1 X-11.185 Y10.420 E0.17573
G1 X-11.185 Y9.910 E0.01486
G1 X-7.141 Y5.866 E0.16667
G1 X-7.361 Y5.576 E0.01060
G1 X-11.185 Y9.401 E0.15761
G1 X-11.185 Y8.891 E0.01486
G1 X-7.581 Y5.286 E0.14855
G1 X-7.801 Y4.996 E0.01060
G1 X-11.185 Y8.381 E0.13949
G1 X-11.185 Y7.871 E0.01486
G1 X-8.010 Y4.696 E0.13087
G1 X-8.171 Y4.347 E0.01120
G1 X-11.185 Y7.361 E0.12423
G1 X-11.185 Y6.851 E0.01486
G1 X-8.332 Y3.998 E0.11760
G1 X-8.493 Y3.649 E0.01120
G1 X-11.185 Y6.341 E0.11096
G1 X-11.185 Y5.832 E0.01486
G1 X-8.654 Y3.300 E0.10432
G1 X-8.815 Y2.951 E0.01120
G1 X-11.185 Y5.322 E0.09768
G1 X-11.185 Y4.812 E0.01486
G1 X-8.913 Y2.540 E0.09363
G1 X-9.005 Y2.122 E0.01247
G1 X-11.185 Y4.302 E0.08985
G1 X-11.185 Y3.792 E0.01486
G1 X-9.097 Y1.704 E0.08606
G1 X-9.189 Y1.286 E0.01247
G1 X-11.185 Y3.282 E0.08228
G1 X-11.185 Y2.772 E0.01486
G1 X-9.265 Y0.852 E0.07913
G1 X-9.265 Y0.343 E0.01486
G1 X-11.185 Y2.263 E0.07913
G1 X-11.185 Y1.753 E0.01486
G1 X-9.265 Y-0.167 E0.07913
G1 X-9.265 Y-0.677 E0.01486
G1 X-11.185 Y1.243 E0.07913
G1 X-11.185 Y0.733 E0.01486
G1 X-9.238 Y-1.214 E0.08026
G1 X-9.094 Y-1.868 E0.01950
G1 X-11.185 Y0.223 E0.08617
G1 X-11.185 Y-0.287 E0.01486
G1 X-8.951 Y-2.521 E0.09209
G1 X-8.760 Y-3.222 E0.02115
G1 X-11.185 Y-0.797 E0.09994
G1 X-11.185 Y-1.306 E0.01486
G1 X-8.323 Y-4.169 E0.11797
G1 X-7.634 Y-5.367 F15000.000
G1 X-11.185 Y-1.816 E0.14635 F2400.000
G1 X-11.185 Y-2.326 E0.01486
G1 X-2.326 Y-11.185 E0.36510
G1 X-2.836 Y-11.185 E0.01486
G1 X-11.185 Y-2.836 E0.34408
G1 X-11.185 Y-3.346 E0.01486
G1 X-3.346 Y-11.185 E0.32307
G1 X-3.856 Y-11.185 E0.01486
G1 X-11.185 Y-3.856 E0.30206
G1 X-11.185 Y-4.366 E0.01486
G1 X-4.366 Y-11.185 E0.28105
G1 X-4.875 Y-11.185 E0.01486
G1 X-11.185 Y-4.875 E0.26004
G1 X-11.185 Y-5.385 E0.01486
G1 X-5.385 Y-11.185 E0.23902
G1 X-5.895 Y-11.185 E0.01486
G1 X-11.185 Y-5.895 E0.21801
G1 X-11.185 Y-6.405 E0.01486
G1 X-6.405 Y-11.185 E0.19700
G1 X-6.915 Y-11.185 E0.01486
G1 X-11.185 Y-6.915 E0.17599
G1 X-11.185 Y-7.425 E0.01486
G1 X-7.425 Y-11.185 E0.15497
G1 X-7.935 Y-11.185 E0.01486
G1 X-11.185 Y-7.935 E0.13396
G1 X-11.185 Y-8.444 E0.01486
G1 X-8.444 Y-11.185 E0.11295
G1 X-8.954 Y-11.185 E0.01486
G1 X-11.185 Y-8.954 E0.09194
G1 X-11.185 Y-9.464 E0.01486
G1 X-9.464 Y-11.185 E0.07093
G1 X-9.974 Y-11.185 E0.01486
G1 X-11.185 Y-9.974 E0.04991
G1 X-11.185 Y-10.484 E0.01486
G1 X-10.484 Y-11.185 E0.02890
G1 X-10.994 Y-11.185 E0.01486
G1 X-11.185 Y-10.994 E0.00789
G1 X-5.252 Y-7.750 F15000.000
G1 X-1.816 Y-11.185 E0.14157 F2400.000
G1 X-1.306 Y-11.185 E0.01486
G1 X-4.161 Y-8.331 E0.11762
G1 X-3.247 Y-8.734 F15000.000
G1 X-0.797 Y-11.185 E0.10100 F2400.000
G1 X-0.287 Y-11.185 E0.01486
G1 X-2.542 Y-8.929 E0.09296
G1 X-1.838 Y-9.124 E0.02131
G1 X0.223 Y-11.185 E0.08493
G1 X0.733 Y-11.185 E0.01486
G1 X-1.236 Y-9.216 E0.08113
G1 X-0.698 Y-9.244 E0.01568
G1 X1.243 Y-11.185 E0.08000
G1 X1.753 Y-11.185 E0.01486
G1 X-0.161 Y-9.272 E0.07886
G1 X0.377 Y-9.299 E0.01568
G1 X2.263 Y-11.185 E0.07773
G1 X2.772 Y-11.185 E0.01486
G1 X0.829 Y-9.242 E0.08008
G1 X1.266 Y-9.169 E0.01291
G1 X3.282 Y-11.185 E0.08308
G1 X3.792 Y-11.185 E0.01486
G1 X1.703 Y-9.096 E0.08608
G1 X2.140 Y-9.024 E0.01291
G1 X4.302 Y-11.185 E0.08908
G1 X4.812 Y-11.185 E0.01486
G1 X2.558 Y-8.931 E0.09289
G1 X2.922 Y-8.785 E0.01143
G1 X5.322 Y-11.185 E0.09891
G1 X5.832 Y-11.185 E0.01486
G1 X3.286 Y-8.639 E0.10492
G1 X3.650 Y-8.493 E0.01143
G1 X6.341 Y-11.185 E0.11093
G1 X6.851 Y-11.185 E0.01486
G1 X4.014 Y-8.347 E0.11695
G1 X4.372 Y-8.196 E0.01133
G1 X7.361 Y-11.185 E0.12320
G1 X7.871 Y-11.185 E0.01486
G1 X4.675 Y-7.989 E0.13171
G1 X4.978 Y-7.783 E0.01069
G1 X8.381 Y-11.185 E0.14022
G1 X8.891 Y-11.185 E0.01486
G1 X5.282 Y-7.576 E0.14873
G1 X5.585 Y-7.370 E0.01069
G1 X9.401 Y-11.185 E0.15724
G1 X9.910 Y-11.185 E0.01486
G1 X5.889 Y-7.163 E0.16575
G1 X6.160 Y-6.925 E0.01053
G1 X10.420 Y-11.185 E0.17557
G1 X10.930 Y-11.185 E0.01486
G1 X6.408 Y-6.663 E0.18638
G1 X6.655 Y-6.401 E0.01051
G1 X11.185 Y-10.930 E0.18668
G1 X11.185 Y-10.420 E0.01486
G1 X6.903 Y-6.138 E0.17647
G1 X7.151 Y-5.876 E0.01051
G1 X11.185 Y-9.911 E0.16626
G1 X11.185 Y-9.401 E0.01486
G1 X7.399 Y-5.614 E0.15605
G1 X7.593 Y-5.298 E0.01080
G1 X11.185 Y-8.891 E0.14806
G1 X11.185 Y-8.381 E0.01486
G1 X7.784 Y-4.980 E0.14017
G1 X7.975 Y-4.661 E0.01083
G1 X11.185 Y-7.871 E0.13229
G1 X11.185 Y-7.361 E0.01486
G1 X8.166 Y-4.343 E0.12441
G1 X8.358 Y-4.024 E0.01083
G1 X11.185 Y-6.851 E0.11652
G1 X11.185 Y-6.342 E0.01486
G1 X8.518 Y-3.674 E0.10992
G1 X8.646 Y-3.293 E0.01173
G1 X11.185 Y-5.832 E0.10463
G1 X11.185 Y-5.322 E0.01486
G1 X8.775 Y-2.911 E0.09934
G1 X8.903 Y-2.530 E0.01173
G1 X11.185 Y-4.812 E0.09406
G1 X11.185 Y-4.302 E0.01486
G1 X9.031 Y-2.148 E0.08877
G1 X9.124 Y-1.731 E0.01245
G1 X11.185 Y-3.792 E0.08495
G1 X11.185 Y-3.282 E0.01486
G1 X9.174 Y-1.271 E0.08289
G1 X9.224 Y-0.811 E0.01348
G1 X11.185 Y-2.773 E0.08083
G1 X11.185 Y-2.263 E0.01486
G1 X9.274 Y-0.351 E0.07877
G1 X9.304 Y0.129 E0.01402
G1 X11.185 Y-1.753 E0.07754
G1 X11.185 Y-1.243 E0.01486
G1 X9.242 Y0.701 E0.08009
G1 X9.180 Y1.272 E0.01676
G1 X11.185 Y-0.733 E0.08264
