; generated by Slic3r 1.2.9 on 2020-08-28 at 15:58:13

; external perimeters extrusion width = 0.40mm
; perimeters extrusion width = 0.40mm
; infill extrusion width = 0.40mm
; solid infill extrusion width = 0.40mm
; top infill extrusion width = 0.40mm

M107
M83
T0
M116
G21 ; set units to millimeters
G90 ; use absolute coordinates
M83 ; use relative distances for extrusion
G1 E-4.20000 F1500.00000
G1 Z1.000 F15000.000
G1 X1.285 Y1.285 F15000.000
G1 Z0.300 F15000.000
G1 E4.20000 F1500.00000
G1 X-11.450 Y14.021 E1.38799 F960.000
G1 X-12.894 Y14.906 E0.13052
G1 X-14.021 Y15.086 E0.08796
G1 X-19.950 Y15.086 E0.45694
G1 X-21.597 Y14.691 E0.13052
G1 X-22.887 Y13.593 E0.13052
G1 X-23.493 Y12.268 E0.11233
G1 X-26.493 Y-0.732 E1.02818
G1 X-26.586 Y-1.550 E0.06341
G1 X-26.586 Y-12.450 E0.84001
G1 X-26.191 Y-14.097 E0.13052
G1 X-25.093 Y-15.387 E0.13052
G1 X-22.950 Y-16.086 E0.17373
G1 X-0.050 Y-16.086 E1.76480
G1 X1.597 Y-15.691 E0.13052
G1 X2.887 Y-14.593 E0.13052 F960.000
G1 X3.586 Y-12.450 E0.17373
G1 X3.586 Y-2.521 E0.76521
G1 X3.191 Y-0.874 E0.13052
G1 X2.521 Y0.050 E0.08796
G1 X1.328 Y1.243 E0.13001
G1 E-4.20000 F1500.00000
G1 Z1.300 F15000.000
G1 X-13.881 Y5.348 F15000.000
G1 Z0.300 F15000.000
G1 E4.20000 F1500.00000
G1 X-13.854 Y5.930 E0.04488 F600.000
G1 X-13.967 Y6.499 E0.04468
G1 X-14.204 Y7.009 E0.04332
G1 X-14.536 Y7.431 E0.04144
G1 X-15.006 Y7.806 E0.04633
G1 X-15.538 Y8.045 E0.04488
G1 X-16.109 Y8.149 E0.04476
G1 X-16.689 Y8.113 E0.04475
G1 X-17.215 Y7.947 E0.04251
G1 X-17.737 Y7.637 E0.04682
G1 X-18.148 Y7.224 E0.04490
G1 X-18.432 Y6.751 E0.04252
G1 X-18.616 Y6.172 E0.04682
G1 X-18.647 Y5.590 E0.04488
G1 X-18.545 Y5.048 E0.04253
G1 X-18.298 Y4.493 E0.04683
G1 X-17.935 Y4.037 E0.04490
G1 X-17.475 Y3.683 E0.04475
G1 X-16.944 Y3.450 E0.04471
G1 X-16.400 Y3.354 E0.04254 F600.000
G1 X-15.793 Y3.391 E0.04685
G1 X-15.239 Y3.570 E0.04489
G1 X-14.746 Y3.877 E0.04476
G1 X-14.341 Y4.292 E0.04470
G1 X-14.059 Y4.767 E0.04255
G1 X-13.899 Y5.291 E0.04225
G1 X-13.512 Y5.502 F15000.000
G1 X-6.729 Y-2.995 F15000.000
G1 X-7.278 Y-3.482 E0.05654 F600.000
G1 X-7.699 Y-4.091 E0.05707
G1 X-7.959 Y-4.809 E0.05880
G1 X-8.043 Y-5.500 E0.05368
G1 X-7.955 Y-6.228 E0.05654
G1 X-7.695 Y-6.914 E0.05654
G1 X-7.278 Y-7.518 E0.05654
G1 X-6.729 Y-8.005 E0.05654
G1 X-6.079 Y-8.345 E0.05654
G1 X-5.367 Y-8.521 E0.05654
G1 X-4.633 Y-8.521 E0.05654 F600.000
G1 X-3.921 Y-8.345 E0.05654
G1 X-3.271 Y-8.005 E0.05654
G1 X-2.722 Y-7.518 E0.05654
G1 X-2.305 Y-6.914 E0.05654
G1 X-2.045 Y-6.228 E0.05654
G1 X-1.957 Y-5.500 E0.05654
G1 X-2.045 Y-4.772 E0.05654
G1 X-2.305 Y-4.086 E0.05654
G1 X-2.718 Y-3.488 E0.05594
G1 X-3.238 Y-3.013 E0.05428
G1 X-3.921 Y-2.655 E0.05947
G1 X-4.633 Y-2.479 E0.05654
G1 X-5.367 Y-2.479 E0.05654
G1 X-6.079 Y-2.655 E0.05654
G1 X-6.676 Y-2.968 E0.05191
G1 X-6.365 Y-3.522 F15000.000
G1 X-6.799 Y-3.907 E0.04464 F600.000
G1 X-7.129 Y-4.385 E0.04483
G1 X-7.337 Y-4.957 E0.04690
G1 X-7.403 Y-5.500 E0.04213
G1 X-7.333 Y-6.075 E0.04464
G1 X-7.128 Y-6.617 E0.04464
G1 X-6.799 Y-7.093 E0.04464
G1 X-6.365 Y-7.478 E0.04464
G1 X-5.852 Y-7.747 E0.04464
G1 X-5.290 Y-7.885 E0.04464
G1 X-4.710 Y-7.885 E0.04464 F600.000
G1 X-4.148 Y-7.747 E0.04464
G1 X-3.635 Y-7.478 E0.04464
G1 X-3.201 Y-7.093 E0.04464
G1 X-2.872 Y-6.617 E0.04464
G1 X-2.667 Y-6.075 E0.04464
G1 X-2.597 Y-5.500 E0.04464
G1 X-2.667 Y-4.925 E0.04464
G1 X-2.872 Y-4.383 E0.04464
G1 X-3.200 Y-3.909 E0.04443
G1 X-3.606 Y-3.538 E0.04239
G1 X-4.148 Y-3.253 E0.04718
G1 X-4.710 Y-3.115 E0.04464
G1 X-5.290 Y-3.115 E0.04464
G1 X-5.852 Y-3.253 E0.04464
G1 X-6.312 Y-3.495 E0.04002
G1 X-6.733 Y-3.366 F15000.000
G1 E-4.20000 F1500.00000
G1 Z1.300 F15000.000
G1 X-1.036 Y-3.738 F15000.000
G1 Z0.300 F15000.000
G1 E4.20000 F1500.00000
G1 X-1.036 Y-2.929 E0.06238 F720.000
G1 X-14.429 Y10.464 E1.45970 F720.000
G1 X-18.964 Y10.464 E0.34952
G1 X-18.964 Y7.303 E0.24363
G1 X-18.132 Y8.143 E0.09114
G1 X-17.476 Y8.532 E0.05876
G1 X-16.805 Y8.742 E0.05415
G1 X-16.071 Y8.788 E0.05666
G1 X-15.348 Y8.656 E0.05669
G1 X-14.673 Y8.353 E0.05703
G1 X-14.083 Y7.882 E0.05818
G1 X-13.658 Y7.344 E0.05284
G1 X-13.359 Y6.697 E0.05491
G1 X-13.216 Y5.978 E0.05649
G1 X-13.250 Y5.239 E0.05702
G1 X-13.474 Y4.508 E0.05890
G1 X-13.833 Y3.902 E0.05426
G1 X-14.345 Y3.377 E0.05653
G1 X-14.970 Y2.990 E0.05668
G1 X-15.674 Y2.761 E0.05706
G1 X-16.436 Y2.715 E0.05885
G1 X-17.129 Y2.837 E0.05422
G1 X-17.801 Y3.132 E0.05656
G1 X-18.384 Y3.581 E0.05668
G1 X-18.709 Y3.989 E0.04018
G1 X-18.964 Y3.899 E0.02086
G1 X-18.964 Y-2.536 E0.49591
G1 X-21.964 Y-2.536 E0.23120
G1 X-21.964 Y-11.464 E0.68810
G1 X-1.036 Y-11.464 E1.61289
G1 X-1.036 Y-3.798 E0.59078
G1 X-0.400 Y-3.798 F15000.000
G1 X-0.400 Y-2.666 E0.08729 F720.000
G1 X-14.166 Y11.100 E1.50028 F720.000
G1 X-19.600 Y11.100 E0.41880
G1 X-19.600 Y-1.900 E1.00185
G1 X-22.600 Y-1.900 E0.23120
G1 X-22.600 Y-12.100 E0.78607
G1 X-0.400 Y-12.100 E1.71085
G1 X-0.400 Y-3.858 E0.63514
G1 X-0.746 Y-3.598 F15000.000
G1 X-1.709 Y-3.759 F15000.000
G1 X-1.545 Y-4.672 E0.07153 F960.000
G1 X-1.496 Y-5.517 E0.06524
G1 X-1.550 Y-6.375 E0.06623
G1 X-1.709 Y-7.241 E0.06790
G1 X-1.421 Y-10.769 F15000.000
G1 X-1.731 Y-11.079 E0.03452 F960.000
G1 X-2.650 Y-11.079 E0.07247
G1 X-1.421 Y-9.850 E0.13701
G1 X-1.421 Y-8.930 E0.07247
G1 X-3.570 Y-11.079 E0.23951
G1 X-4.489 Y-11.079 E0.07247
G1 X-1.421 Y-8.011 E0.34200
G1 X-1.904 Y-7.575 E0.05132
G1 X-5.408 Y-11.079 E0.39061
G1 X-6.328 Y-11.079 E0.07247
G1 X-4.064 Y-8.815 E0.25239
G1 X-5.075 Y-8.906 E0.08002
G1 X-7.247 Y-11.079 E0.24218
G1 X-8.167 Y-11.079 E0.07247
G1 X-5.856 Y-8.768 E0.25759
G1 X-6.509 Y-8.502 E0.05559
G1 X-9.086 Y-11.079 E0.28729
G1 X-10.006 Y-11.079 E0.07247
G1 X-7.070 Y-8.143 E0.32727
G1 X-7.552 Y-7.706 E0.05131
G1 X-10.925 Y-11.079 E0.37598
G1 X-11.844 Y-11.079 E0.07247
G1 X-7.928 Y-7.162 E0.43662
G1 X-8.212 Y-6.527 E0.05485
G1 X-12.764 Y-11.079 E0.50743
G1 X-13.683 Y-11.079 E0.07247
G1 X-8.382 Y-5.778 E0.59092
G1 X-8.369 Y-4.846 E0.07350
G1 X-14.603 Y-11.079 E0.69486
G1 X-15.522 Y-11.079 E0.07247
G1 X-4.451 Y-0.008 E1.23415
G1 X-3.991 Y-0.468 E0.05125
G1 X-5.634 Y-2.111 E0.18317
G1 X-4.699 Y-2.095 E0.07373
G1 X-3.532 Y-0.927 E0.13016
G1 X-3.072 Y-1.387 E0.05125
G1 X-3.962 Y-2.277 E0.09918
G1 X-3.342 Y-2.576 E0.05426
G1 X-2.612 Y-1.847 E0.08134
G1 X-2.152 Y-2.306 E0.05125
G1 X-2.806 Y-2.960 E0.07290
G1 X-2.355 Y-3.428 E0.05125
G1 X-1.693 Y-2.766 E0.07381
G1 X-4.911 Y0.452 F15000.000
G1 X-16.442 Y-11.079 E1.28540 F960.000
G1 X-17.361 Y-11.079 E0.07247
G1 X-5.370 Y0.912 E1.33665
G1 X-5.830 Y1.371 E0.05125
G1 X-18.280 Y-11.079 E1.38790
G1 X-19.200 Y-11.079 E0.07247
G1 X-6.290 Y1.831 E1.43914
G1 X-6.750 Y2.291 E0.05125
G1 X-20.119 Y-11.079 E1.49039
G1 X-21.039 Y-11.079 E0.07247
G1 X-7.209 Y2.750 E1.54164
G1 X-7.669 Y3.210 E0.05125
G1 X-21.579 Y-10.700 E1.55062
G1 X-21.579 Y-9.780 E0.07247
G1 X-8.129 Y3.670 E1.49937
G1 X-8.588 Y4.130 E0.05125
G1 X-21.579 Y-8.861 E1.44812
G1 X-21.579 Y-7.942 E0.07247
G1 X-9.048 Y4.589 E1.39688
G1 X-9.508 Y5.049 E0.05125
G1 X-21.579 Y-7.022 E1.34563
G1 X-21.579 Y-6.103 E0.07247
G1 X-9.968 Y5.509 E1.29438
G1 X-10.427 Y5.968 E0.05125
G1 X-18.579 Y-2.183 E0.90871
G1 X-18.579 Y-1.264 E0.07247
G1 X-14.691 Y2.624 E0.43341
G1 X-15.880 Y2.354 E0.09613
G1 X-18.579 Y-0.344 E0.30083
G1 X-18.579 Y0.575 E0.07247
G1 X-16.753 Y2.401 E0.20355
G1 X-17.464 Y2.610 E0.05839
G1 X-18.579 Y1.494 E0.12432
G1 X-18.579 Y2.414 E0.07247
G1 X-18.071 Y2.922 E0.05662
G1 X-13.119 Y4.196 F15000.000
G1 X-10.887 Y6.428 E0.24877 F960.000
G1 X-11.347 Y6.888 E0.05125
G1 X-12.851 Y5.384 E0.16769
G1 X-12.902 Y6.252 E0.06861
G1 X-11.806 Y7.348 E0.12208
G1 X-12.266 Y7.807 E0.05125
G1 X-13.107 Y6.966 E0.09377
G1 X-13.419 Y7.574 E0.05385
G1 X-12.726 Y8.267 E0.07723
G1 X-13.186 Y8.727 E0.05125
G1 X-13.824 Y8.088 E0.07114
G1 X-14.329 Y8.502 E0.05150
G1 X-13.645 Y9.186 E0.07625
G1 X-14.105 Y9.646 E0.05125
G1 X-14.914 Y8.837 E0.09022
G1 X-15.599 Y9.072 E0.05705
G1 X-14.592 Y10.079 E0.11230
G1 X-15.511 Y10.079 E0.07247
G1 X-16.430 Y9.160 E0.10239
G1 X-16.430 Y10.079 E0.07240
G1 X-17.547 Y8.962 E0.12452
G1 X-18.579 Y8.850 E0.08179
G1 X-17.350 Y10.079 E0.13701
G1 X-18.269 Y10.079 E0.07247
G1 X-18.579 Y9.769 E0.03452
G1 X-19.317 Y-2.921 F15000.000
G1 X-21.579 Y-5.183 E0.25218 F960.000
G1 X-21.579 Y-4.264 E0.07247
G1 X-20.236 Y-2.921 E0.14969
G1 X-21.156 Y-2.921 E0.07247
G1 X-21.579 Y-3.344 E0.04719
G1 E-4.20000 F1500.00000
G1 Z1.300 F15000.000
G1 X-18.927 Y4.249 F15000.000
G1 Z0.300 F15000.000
G1 E4.20000 F1500.00000
G1 X-19.065 Y4.912 E0.05221 F960.000
G1 X-19.123 Y5.540 E0.04857
G1 X-19.102 Y6.284 E0.05737
G1 X-19.077 Y6.447 E0.01270
G1 X-18.799 Y6.906 E0.04140
G1 X-18.495 Y7.299 E0.03825
G1 E-4.20000 F1500.00000
G1 Z1.300 F15000.000
G1 X-18.384 Y7.233 F15000.000
G1 Z0.500 F15000.000
G1 E4.20000 F1500.00000
G1 X-18.604 Y6.866 E0.01234 F2400.000
G1 X-18.822 Y6.207 E0.02002
G1 X-18.855 Y5.571 E0.01840
G1 X-18.751 Y5.017 E0.01626
G1 X-18.474 Y4.381 E0.02003
G1 X-18.075 Y3.883 E0.01842
G1 X-17.573 Y3.499 E0.01823
G1 X-16.996 Y3.248 E0.01818
G1 X-16.441 Y3.150 E0.01627 F2400.000
G1 X-15.747 Y3.187 E0.02005
G1 X-15.141 Y3.386 E0.01841
G1 X-14.606 Y3.722 E0.01824
G1 X-14.168 Y4.175 E0.01816
G1 X-13.881 Y4.660 E0.01629
G1 X-13.674 Y5.324 E0.02009
G1 X-13.648 Y5.961 E0.01840
G1 X-13.775 Y6.578 E0.01817
G1 X-14.030 Y7.124 E0.01741
G1 X-14.369 Y7.555 E0.01582
G1 X-14.895 Y7.983 E0.01958
G1 X-15.476 Y8.244 E0.01839
G1 X-16.098 Y8.357 E0.01824
G1 X-16.729 Y8.317 E0.01824
G1 X-17.332 Y8.127 E0.01824
G1 X-17.871 Y7.797 E0.01824
G1 X-18.315 Y7.349 E0.01821
G1 X-18.354 Y7.284 E0.00218
G1 X-18.047 Y7.100 F15000.000
G1 X-18.278 Y6.716 E0.01293 F2400.000
G1 X-18.468 Y6.141 E0.01749
G1 X-18.496 Y5.595 E0.01578
G1 X-18.407 Y5.123 E0.01386
G1 X-18.166 Y4.567 E0.01749
G1 X-17.824 Y4.140 E0.01579
G1 X-17.391 Y3.809 E0.01572
G1 X-16.892 Y3.592 E0.01570
G1 X-16.419 Y3.509 E0.01387 F2400.000
G1 X-15.813 Y3.541 E0.01750
G1 X-15.294 Y3.712 E0.01579
G1 X-14.832 Y4.001 E0.01572
G1 X-14.454 Y4.393 E0.01570
G1 X-14.209 Y4.806 E0.01388
G1 X-14.028 Y5.386 E0.01752
G1 X-14.007 Y5.932 E0.01578
G1 X-14.116 Y6.465 E0.01569
G1 X-14.336 Y6.936 E0.01500
G1 X-14.626 Y7.303 E0.01350
G1 X-15.084 Y7.677 E0.01708
G1 X-15.583 Y7.901 E0.01578
G1 X-16.119 Y7.998 E0.01573
G1 X-16.663 Y7.964 E0.01573
G1 X-17.183 Y7.800 E0.01573
G1 X-17.648 Y7.515 E0.01573
G1 X-18.011 Y7.148 E0.01492
G1 X-18.446 Y7.137 F15000.000
G1 E-4.20000 F1500.00000
G1 Z1.500 F15000.000
G1 X-6.955 Y-3.768 F15000.000
G1 Z0.500 F15000.000
G1 E4.20000 F1500.00000
G1 X-7.312 Y-4.286 E0.01817 F2400.000
G1 X-7.536 Y-4.875 E0.01817
G1 X-7.612 Y-5.500 E0.01817
G1 X-7.536 Y-6.125 E0.01817
G1 X-7.312 Y-6.714 E0.01817
G1 X-6.955 Y-7.232 E0.01817
G1 X-6.484 Y-7.649 E0.01817
G1 X-5.926 Y-7.942 E0.01817
G1 X-5.314 Y-8.093 E0.01820 F2400.000
G1 X-4.678 Y-8.091 E0.01836
G1 X-4.074 Y-7.942 E0.01795
G1 X-3.516 Y-7.649 E0.01817
G1 X-3.045 Y-7.232 E0.01817
G1 X-2.688 Y-6.714 E0.01817
G1 X-2.464 Y-6.125 E0.01817
G1 X-2.388 Y-5.500 E0.01817
G1 X-2.464 Y-4.875 E0.01817
G1 X-2.688 Y-4.286 E0.01817
G1 X-3.045 Y-3.768 E0.01817
G1 X-3.516 Y-3.351 E0.01817
G1 X-4.074 Y-3.058 E0.01817
G1 X-4.685 Y-2.908 E0.01817
G1 X-5.315 Y-2.908 E0.01817
G1 X-5.926 Y-3.058 E0.01817
G1 X-6.484 Y-3.351 E0.01817
G1 X-6.910 Y-3.728 E0.01644
G1 X-6.673 Y-3.996 F15000.000
G1 X-6.994 Y-4.454 E0.01614 F2400.000
G1 X-7.186 Y-4.961 E0.01567
G1 X-7.252 Y-5.500 E0.01567
G1 X-7.186 Y-6.039 E0.01567
G1 X-6.994 Y-6.546 E0.01567
G1 X-6.686 Y-6.993 E0.01567
G1 X-6.279 Y-7.353 E0.01567
G1 X-5.799 Y-7.605 E0.01567
G1 X-5.271 Y-7.735 E0.01568 F2400.000
G1 X-4.722 Y-7.734 E0.01585
G1 X-4.201 Y-7.605 E0.01547
G1 X-3.721 Y-7.353 E0.01567
G1 X-3.314 Y-6.993 E0.01567
G1 X-3.006 Y-6.546 E0.01567
G1 X-2.814 Y-6.039 E0.01567
G1 X-2.748 Y-5.500 E0.01567
G1 X-2.814 Y-4.961 E0.01567
G1 X-3.006 Y-4.454 E0.01567
G1 X-3.314 Y-4.007 E0.01567
G1 X-3.721 Y-3.647 E0.01567
G1 X-4.201 Y-3.395 E0.01567
G1 X-4.729 Y-3.265 E0.01567
G1 X-5.271 Y-3.265 E0.01567
G1 X-5.799 Y-3.395 E0.01567
G1 X-6.279 Y-3.647 E0.01567
G1 X-6.628 Y-3.956 E0.01346
G1 X-7.068 Y-3.930 F15000.000
G1 X-1.762 Y-1.596 F15000.000
G1 X-14.251 Y10.893 E0.50979 F2400.000
G1 X-19.393 Y10.893 E0.14840
G1 X-19.393 Y-2.107 E0.37521
G1 X-22.393 Y-2.107 E0.08659
G1 X-22.393 Y-11.893 E0.28245
G1 X-0.607 Y-11.893 E0.62880
G1 X-0.607 Y-2.751 E0.26385
G1 X-1.720 Y-1.639 E0.04541 F2400.000
G1 X-1.467 Y-1.386 F15000.000
G1 X-14.104 Y11.250 E0.51579 F2400.000
G1 X-19.750 Y11.250 E0.16297
G1 X-19.750 Y-1.750 E0.37521
G1 X-22.750 Y-1.750 E0.08659
G1 X-22.750 Y-12.250 E0.30306
G1 X-0.250 Y-12.250 E0.64941
G1 X-0.250 Y-2.604 E0.27842
G1 X-1.425 Y-1.429 E0.04795 F2400.000
G1 X-1.853 Y-1.490 F15000.000
G1 X-2.364 Y-4.463 F15000.000
G1 X-0.815 Y-6.013 E0.06345 F2400.000
G1 X-0.815 Y-6.519 E0.01467
G1 X-2.216 Y-5.118 E0.05737
G1 X-2.204 Y-5.636 E0.01500
G1 X-0.815 Y-7.026 E0.05690
G1 X-0.815 Y-7.533 E0.01467
G1 X-2.259 Y-6.088 E0.05915
G1 X-2.393 Y-6.461 E0.01147
G1 X-0.815 Y-8.039 E0.06463
G1 X-0.815 Y-8.546 E0.01467
G1 X-2.543 Y-6.818 E0.07077
G1 X-2.750 Y-7.117 E0.01055
G1 X-0.815 Y-9.052 E0.07924
G1 X-0.815 Y-9.559 E0.01467
G1 X-2.972 Y-7.402 E0.08832
G1 X-3.240 Y-7.640 E0.01039
G1 X-0.815 Y-10.066 E0.09932
G1 X-0.815 Y-10.572 E0.01467
G1 X-3.527 Y-7.860 E0.11109
G1 X-3.860 Y-8.034 E0.01087
G1 X-0.815 Y-11.079 E0.12469
G1 X-0.815 Y-11.586 E0.01467
G1 X-4.224 Y-8.176 E0.13961
G1 X-4.631 Y-8.277 E0.01212
G1 X-1.222 Y-11.685 E0.13958
G1 X-1.729 Y-11.685 E0.01467
G1 X-5.114 Y-8.300 E0.13864
G1 X-5.684 Y-8.236 E0.01660
G1 X-2.235 Y-11.685 E0.14123
G1 X-2.742 Y-11.685 E0.01467
G1 X-6.505 Y-7.922 E0.15409
G1 X-7.455 Y-6.972 F15000.000
G1 X-17.726 Y3.299 E0.42059 F2400.000
G1 X-19.185 Y4.252 F15000.000
G1 X-3.248 Y-11.685 E0.65262 F2400.000
G1 X-3.755 Y-11.685 E0.01467
G1 X-19.185 Y3.745 E0.63188
G1 X-19.185 Y3.238 E0.01467
G1 X-4.262 Y-11.685 E0.61113
G1 X-4.768 Y-11.685 E0.01467
G1 X-19.185 Y2.732 E0.59038
G1 X-19.185 Y2.225 E0.01467
G1 X-5.275 Y-11.685 E0.56963
G1 X-5.782 Y-11.685 E0.01467
G1 X-19.185 Y1.718 E0.54889
G1 X-19.185 Y1.212 E0.01467
G1 X-6.288 Y-11.685 E0.52814
G1 X-6.795 Y-11.685 E0.01467
G1 X-19.185 Y0.705 E0.50739
G1 X-19.185 Y0.199 E0.01467
G1 X-7.301 Y-11.685 E0.48665
G1 X-7.808 Y-11.685 E0.01467
G1 X-19.185 Y-0.308 E0.46590
G1 X-19.185 Y-0.815 E0.01467
G1 X-8.315 Y-11.685 E0.44515
G1 X-8.821 Y-11.685 E0.01467
G1 X-19.185 Y-1.321 E0.42441
G1 X-19.185 Y-1.828 E0.01467
G1 X-9.328 Y-11.685 E0.40366
G1 X-9.835 Y-11.685 E0.01467
G1 X-19.205 Y-2.315 E0.38372
G1 X-19.712 Y-2.315 E0.01467
G1 X-10.341 Y-11.685 E0.38372
G1 X-10.848 Y-11.685 E0.01467
G1 X-20.218 Y-2.315 E0.38372
G1 X-20.725 Y-2.315 E0.01467
G1 X-11.355 Y-11.685 E0.38372
G1 X-11.861 Y-11.685 E0.01467
G1 X-21.231 Y-2.315 E0.38372
G1 X-21.738 Y-2.315 E0.01467
G1 X-12.368 Y-11.685 E0.38372
G1 X-12.874 Y-11.685 E0.01467
G1 X-22.185 Y-2.374 E0.38128
G1 X-22.185 Y-2.881 E0.01467
G1 X-13.381 Y-11.685 E0.36054
G1 X-13.888 Y-11.685 E0.01467
G1 X-22.185 Y-3.388 E0.33979
G1 X-22.185 Y-3.894 E0.01467
G1 X-14.394 Y-11.685 E0.31904
G1 X-14.901 Y-11.685 E0.01467
G1 X-22.185 Y-4.401 E0.29830
G1 X-22.185 Y-4.908 E0.01467
G1 X-15.408 Y-11.685 E0.27755
G1 X-15.914 Y-11.685 E0.01467
G1 X-22.185 Y-5.414 E0.25680
G1 X-22.185 Y-5.921 E0.01467
G1 X-16.421 Y-11.685 E0.23606
G1 X-16.927 Y-11.685 E0.01467
G1 X-22.185 Y-6.427 E0.21531
G1 X-22.185 Y-6.934 E0.01467
G1 X-17.434 Y-11.685 E0.19456
G1 X-17.941 Y-11.685 E0.01467
G1 X-22.185 Y-7.441 E0.17381
G1 X-22.185 Y-7.947 E0.01467
G1 X-18.447 Y-11.685 E0.15307
G1 X-18.954 Y-11.685 E0.01467
G1 X-22.185 Y-8.454 E0.13232
G1 X-22.185 Y-8.961 E0.01467
G1 X-19.461 Y-11.685 E0.11157
G1 X-19.967 Y-11.685 E0.01467
G1 X-22.185 Y-9.467 E0.09083
G1 X-22.185 Y-9.974 E0.01467
G1 X-20.474 Y-11.685 E0.07008
G1 X-20.980 Y-11.685 E0.01467
G1 X-22.185 Y-10.480 E0.04933
G1 X-22.185 Y-10.987 E0.01467
G1 X-21.487 Y-11.685 E0.02859
G1 X-21.994 Y-11.685 E0.01467
G1 X-22.185 Y-11.494 E0.00784
G1 X-7.749 Y-6.171 F15000.000
G1 X-16.931 Y3.011 E0.37602 F2400.000
G1 X-16.364 Y2.950 E0.01653
G1 X-7.819 Y-5.595 E0.34991
G1 X-7.768 Y-5.139 E0.01328
G1 X-15.883 Y2.976 E0.33230
G1 X-15.478 Y3.078 E0.01209
