; generated by Slic3r 1.2.9 on 2020-08-27 at 16:59:04

; external perimeters extrusion width = 0.40mm
; perimeters extrusion width = 0.40mm
; infill extrusion width = 0.40mm
; solid infill extrusion width = 0.40mm
; top infill extrusion width = 0.40mm

M107
M83
T0
M116
G21 ; set units to millimeters
G90 ; use absolute coordinates
M83 ; use relative distances for extrusion
G1 E-4.20000 F1500.00000
G1 Z1.000 F15000.000
G1 X0.000 Y8.586 F15000.000
G1 Z0.300 F15000.000
G1 E4.20000 F1500.00000
G1 X-18.950 Y8.586 E1.46039 F960.000
G1 X-20.597 Y8.191 E0.13052
G1 X-21.887 Y7.093 E0.13052
G1 X-22.586 Y4.950 E0.17373
G1 X-22.586 Y-4.950 E0.76295
G1 X-22.191 Y-6.597 E0.13052
G1 X-21.093 Y-7.887 E0.13052
G1 X-18.950 Y-8.586 E0.17373
G1 X18.950 Y-8.586 E2.92078
G1 X20.597 Y-8.191 E0.13052
G1 X21.887 Y-7.093 E0.13052 F960.000
G1 X22.586 Y-4.950 E0.17373
G1 X22.586 Y4.950 E0.76295
G1 X22.191 Y6.597 E0.13052
G1 X21.093 Y7.887 E0.13052
G1 X18.950 Y8.586 E0.17373
G1 X0.060 Y8.586 E1.45577
G1 E-4.20000 F1500.00000
G1 Z1.300 F15000.000
G1 X11.752 Y1.410 F15000.000
G1 Z0.300 F15000.000
G1 E4.20000 F1500.00000
G1 X11.492 Y0.701 E0.05820 F600.000
G1 X11.407 Y-0.000 E0.05444
G1 X11.495 Y-0.728 E0.05654
G1 X11.755 Y-1.414 E0.05654
G1 X12.172 Y-2.018 E0.05654
G1 X12.721 Y-2.505 E0.05654
G1 X13.371 Y-2.845 E0.05654
G1 X14.083 Y-3.021 E0.05654
G1 X14.817 Y-3.021 E0.05654 F600.000
G1 X15.529 Y-2.845 E0.05654
G1 X16.179 Y-2.505 E0.05654
G1 X16.728 Y-2.018 E0.05654
G1 X17.145 Y-1.414 E0.05654
G1 X17.405 Y-0.728 E0.05654
G1 X17.493 Y-0.000 E0.05654
G1 X17.404 Y0.733 E0.05693
G1 X17.129 Y1.437 E0.05820
G1 X16.728 Y2.018 E0.05444
G1 X16.179 Y2.505 E0.05654
G1 X15.529 Y2.845 E0.05654
G1 X14.817 Y3.021 E0.05654
G1 X14.083 Y3.021 E0.05654
G1 X13.371 Y2.845 E0.05654
G1 X12.721 Y2.505 E0.05654
G1 X12.172 Y2.018 E0.05654
G1 X11.787 Y1.459 E0.05231
G1 X12.321 Y1.115 F15000.000
G1 X12.114 Y0.551 E0.04630 F600.000
G1 X12.047 Y-0.000 E0.04280
G1 X12.117 Y-0.575 E0.04464
G1 X12.322 Y-1.117 E0.04464
G1 X12.651 Y-1.593 E0.04464
G1 X13.085 Y-1.978 E0.04464
G1 X13.598 Y-2.247 E0.04464
G1 X14.160 Y-2.385 E0.04464
G1 X14.740 Y-2.385 E0.04464 F600.000
G1 X15.302 Y-2.247 E0.04464
G1 X15.815 Y-1.978 E0.04464
G1 X16.249 Y-1.593 E0.04464
G1 X16.578 Y-1.117 E0.04464
G1 X16.783 Y-0.575 E0.04464
G1 X16.853 Y-0.000 E0.04464
G1 X16.783 Y0.577 E0.04478
G1 X16.564 Y1.136 E0.04630
G1 X16.249 Y1.593 E0.04280
G1 X15.815 Y1.978 E0.04464
G1 X15.302 Y2.247 E0.04464
G1 X14.740 Y2.385 E0.04464
G1 X14.160 Y2.385 E0.04464
G1 X13.598 Y2.247 E0.04464
G1 X13.085 Y1.978 E0.04464
G1 X12.651 Y1.593 E0.04464
G1 X12.355 Y1.165 E0.04016
G1 X11.923 Y1.080 F15000.000
G1 X8.469 Y0.609 F15000.000
G1 X8.252 Y1.182 E0.04725 F600.000
G1 X7.904 Y1.686 E0.04725
G1 X7.445 Y2.093 E0.04725
G1 X6.902 Y2.378 E0.04725
G1 X6.302 Y2.526 E0.04761
G1 X5.674 Y2.520 E0.04838
G1 X5.098 Y2.378 E0.04573
G1 X4.555 Y2.093 E0.04725
G1 X4.096 Y1.686 E0.04725
G1 X3.745 Y1.178 E0.04761
G1 X3.528 Y0.589 E0.04838
G1 X3.457 Y-0.000 E0.04573
G1 X3.531 Y-0.609 E0.04725
G1 X3.748 Y-1.182 E0.04725
G1 X4.099 Y-1.690 E0.04761
G1 X4.573 Y-2.102 E0.04838
G1 X5.098 Y-2.378 E0.04573
G1 X5.693 Y-2.525 E0.04725
G1 X6.307 Y-2.525 E0.04725 F600.000
G1 X6.902 Y-2.378 E0.04725
G1 X7.445 Y-2.093 E0.04725
G1 X7.904 Y-1.686 E0.04725
G1 X8.255 Y-1.178 E0.04761
G1 X8.472 Y-0.589 E0.04838
G1 X8.543 Y-0.000 E0.04573
G1 X8.477 Y0.549 E0.04263
G1 X7.848 Y0.455 F15000.000
G1 X7.685 Y0.884 E0.03535 F600.000
G1 X7.424 Y1.262 E0.03535
G1 X7.081 Y1.566 E0.03535
G1 X6.675 Y1.779 E0.03535
G1 X6.228 Y1.889 E0.03548
G1 X5.754 Y1.885 E0.03649
G1 X5.325 Y1.779 E0.03406
G1 X4.919 Y1.566 E0.03535
G1 X4.576 Y1.262 E0.03535
G1 X4.314 Y0.883 E0.03548
G1 X4.150 Y0.439 E0.03649
G1 X4.097 Y0.000 E0.03406
G1 X4.152 Y-0.455 E0.03535
G1 X4.315 Y-0.884 E0.03535
G1 X4.577 Y-1.263 E0.03548
G1 X4.934 Y-1.574 E0.03649
G1 X5.325 Y-1.779 E0.03406
G1 X5.771 Y-1.889 E0.03535
G1 X6.229 Y-1.889 E0.03535 F600.000
G1 X6.675 Y-1.779 E0.03535
G1 X7.081 Y-1.566 E0.03535
G1 X7.424 Y-1.262 E0.03535
G1 X7.686 Y-0.883 E0.03548
G1 X7.850 Y-0.439 E0.03649
G1 X7.903 Y-0.000 E0.03406
G1 X7.855 Y0.396 E0.03073
G1 X8.125 Y0.744 F15000.000
G1 E-4.20000 F1500.00000
G1 Z1.300 F15000.000
G1 X-2.457 Y0.000 F15000.000
G1 Z0.300 F15000.000
G1 E4.20000 F1500.00000
G1 X-2.531 Y0.609 E0.04725 F600.000
G1 X-2.748 Y1.182 E0.04725
G1 X-3.096 Y1.686 E0.04725
G1 X-3.555 Y2.093 E0.04725
G1 X-4.098 Y2.378 E0.04725
G1 X-4.693 Y2.525 E0.04725
G1 X-5.307 Y2.525 E0.04725
G1 X-5.902 Y2.378 E0.04725
G1 X-6.445 Y2.093 E0.04725
G1 X-6.904 Y1.686 E0.04725
G1 X-7.255 Y1.178 E0.04761
G1 X-7.472 Y0.589 E0.04838
G1 X-7.543 Y0.000 E0.04573
G1 X-7.469 Y-0.609 E0.04725
G1 X-7.252 Y-1.182 E0.04725
G1 X-6.901 Y-1.690 E0.04761
G1 X-6.427 Y-2.102 E0.04838
G1 X-5.902 Y-2.378 E0.04573
G1 X-5.307 Y-2.525 E0.04725
G1 X-4.693 Y-2.525 E0.04725 F600.000
G1 X-4.094 Y-2.377 E0.04761
G1 X-3.540 Y-2.080 E0.04838
G1 X-3.096 Y-1.686 E0.04573
G1 X-2.748 Y-1.182 E0.04725
G1 X-2.531 Y-0.609 E0.04725
G1 X-2.464 Y-0.060 E0.04263
G1 X-3.097 Y0.000 F15000.000
G1 X-3.152 Y0.455 E0.03535 F600.000
G1 X-3.315 Y0.884 E0.03535
G1 X-3.576 Y1.262 E0.03535
G1 X-3.919 Y1.566 E0.03535
G1 X-4.325 Y1.779 E0.03535
G1 X-4.771 Y1.889 E0.03535
G1 X-5.229 Y1.889 E0.03535
G1 X-5.675 Y1.779 E0.03535
G1 X-6.081 Y1.566 E0.03535
G1 X-6.424 Y1.262 E0.03535
G1 X-6.686 Y0.883 E0.03548
G1 X-6.850 Y0.439 E0.03649
G1 X-6.903 Y0.000 E0.03406
G1 X-6.848 Y-0.455 E0.03535
G1 X-6.685 Y-0.884 E0.03535
G1 X-6.423 Y-1.263 E0.03548
G1 X-6.066 Y-1.574 E0.03649
G1 X-5.675 Y-1.779 E0.03406
G1 X-5.229 Y-1.889 E0.03535
G1 X-4.771 Y-1.889 E0.03535 F600.000
G1 X-4.324 Y-1.779 E0.03548
G1 X-3.906 Y-1.555 E0.03649
G1 X-3.576 Y-1.262 E0.03406
G1 X-3.315 Y-0.884 E0.03535
G1 X-3.152 Y-0.455 E0.03535
G1 X-3.104 Y-0.060 E0.03073
G1 X-2.759 Y0.214 F15000.000
G1 E-4.20000 F1500.00000
G1 Z1.300 F15000.000
G1 X-10.407 Y-0.000 F15000.000
G1 Z0.300 F15000.000
G1 E4.20000 F1500.00000
G1 X-10.495 Y0.728 E0.05654 F600.000
G1 X-10.755 Y1.414 E0.05654
G1 X-11.172 Y2.018 E0.05654
G1 X-11.721 Y2.505 E0.05654
G1 X-12.371 Y2.845 E0.05654
G1 X-13.083 Y3.021 E0.05654
G1 X-13.817 Y3.021 E0.05654
G1 X-14.529 Y2.845 E0.05654
G1 X-15.179 Y2.505 E0.05654
G1 X-15.732 Y2.015 E0.05693
G1 X-16.154 Y1.389 E0.05820
G1 X-16.405 Y0.728 E0.05444
G1 X-16.493 Y0.000 E0.05654
G1 X-16.405 Y-0.728 E0.05654
G1 X-16.145 Y-1.414 E0.05654
G1 X-15.728 Y-2.018 E0.05654
G1 X-15.179 Y-2.505 E0.05654
G1 X-14.529 Y-2.845 E0.05654
G1 X-13.835 Y-3.016 E0.05507
G1 X-13.835 Y-3.614 E0.04605 F600.000
G1 X-11.721 Y-2.505 E0.18399
G1 X-11.172 Y-2.018 E0.05654
G1 X-10.755 Y-1.414 E0.05654
G1 X-10.495 Y-0.728 E0.05654
G1 X-10.414 Y-0.060 E0.05191
G1 X-11.047 Y-0.000 F15000.000
G1 X-11.117 Y0.575 E0.04464 F600.000
G1 X-11.322 Y1.117 E0.04464
G1 X-11.651 Y1.593 E0.04464
G1 X-12.085 Y1.978 E0.04464
G1 X-12.598 Y2.247 E0.04464
G1 X-13.160 Y2.385 E0.04464
G1 X-13.740 Y2.385 E0.04464
G1 X-14.302 Y2.247 E0.04464
G1 X-14.815 Y1.978 E0.04464
G1 X-15.250 Y1.592 E0.04478
G1 X-15.586 Y1.094 E0.04630
G1 X-15.783 Y0.575 E0.04280
G1 X-15.853 Y0.000 E0.04464
G1 X-15.783 Y-0.575 E0.04464
G1 X-15.578 Y-1.117 E0.04464
G1 X-15.249 Y-1.593 E0.04464
G1 X-14.815 Y-1.978 E0.04464
G1 X-14.302 Y-2.247 E0.04464
G1 X-13.740 Y-2.385 E0.04464
G1 X-13.200 Y-2.385 E0.04161
G1 X-13.200 Y-2.563 E0.01366 F600.000
G1 X-12.085 Y-1.978 E0.09702
G1 X-11.651 Y-1.593 E0.04464
G1 X-11.322 Y-1.117 E0.04464
G1 X-11.117 Y-0.575 E0.04464
G1 X-11.054 Y-0.060 E0.04002
G1 X-10.709 Y0.214 F15000.000
G1 X-2.951 Y3.964 F15000.000
G1 X-17.964 Y3.964 E1.15698 F720.000
G1 X-17.964 Y-3.964 E0.61103
G1 X17.964 Y-3.964 E2.76887
G1 X17.964 Y3.964 E0.61103
G1 X-2.891 Y3.964 E1.60726 F720.000
G1 X-2.891 Y4.600 F15000.000
G1 X-18.600 Y4.600 E1.21059 F720.000
G1 X-18.600 Y-4.600 E0.70900
G1 X18.600 Y-4.600 E2.86684
G1 X18.600 Y4.600 E0.70900
G1 X-2.831 Y4.600 E1.65162 F720.000
G1 X-3.091 Y4.254 F15000.000
G1 X-4.266 Y3.245 F15000.000
G1 X-5.734 Y3.245 E0.23776 F960.000
G1 X-11.070 Y3.275 F15000.000
G1 X-10.766 Y3.579 E0.03531 F960.000
G1 X-9.808 Y3.579 E0.07867
G1 X-11.043 Y2.344 E0.14339
G1 X-10.622 Y1.807 E0.05604
G1 X-8.850 Y3.579 E0.20579
G1 X-7.892 Y3.579 E0.07867
G1 X-10.295 Y1.177 E0.27901
G1 X-10.086 Y0.428 E0.06386
G1 X-6.935 Y3.579 E0.36599
G1 X-6.120 Y3.436 E0.06795
G1 X-10.063 Y-0.507 E0.45797
G1 X-10.506 Y-1.908 F15000.000
G1 X-7.859 Y0.739 E0.30740 F960.000
G1 X-7.886 Y-0.246 E0.08092
G1 X-11.219 Y-3.579 E0.38705
G1 X-10.261 Y-3.579 E0.07867
G1 X-7.689 Y-1.007 E0.29873
G1 X-7.350 Y-1.626 E0.05795
G1 X-9.303 Y-3.579 E0.22684
G1 X-8.345 Y-3.579 E0.07867
G1 X-6.897 Y-2.131 E0.16817
G1 X-6.339 Y-2.531 E0.05639
G1 X-7.387 Y-3.579 E0.12176
G1 X-6.429 Y-3.579 E0.07867
G1 X-6.120 Y-3.269 E0.03597
G1 X-11.520 Y-2.923 F15000.000
G1 X-12.177 Y-3.579 E0.07624 F960.000
G1 X-5.734 Y-3.245 F15000.000
G1 X-4.262 Y-3.245 E0.23835 F960.000
G1 X-3.877 Y-3.027 F15000.000
G1 X-3.362 Y-2.512 E0.05615 F960.000
G1 X-3.571 Y3.579 F15000.000
G1 X-3.880 Y3.269 E0.03379 F960.000
G1 X-3.699 Y2.551 E0.05719
G1 X-2.671 Y3.579 E0.11222
G1 X-1.771 Y3.579 E0.06944
G1 X-3.163 Y2.187 E0.15194
G1 X-2.721 Y1.729 E0.04911
G1 X-0.871 Y3.579 E0.20190
G1 X0.029 Y3.579 E0.06944
G1 X-2.375 Y1.175 E0.26232
G1 X-2.145 Y0.505 E0.05466
G1 X0.929 Y3.579 E0.33545
G1 X1.829 Y3.579 E0.06944
G1 X-2.093 Y-0.343 E0.42794
G1 X-2.438 Y-1.588 E0.09971
G1 X2.729 Y3.579 E0.56382
G1 X3.629 Y3.579 E0.06944
G1 X-3.529 Y-3.579 E0.78105
G1 X-2.629 Y-3.579 E0.06944
G1 X4.529 Y3.579 E0.78105
G1 X4.883 Y3.033 E0.05020
G1 X4.368 Y2.518 E0.05616
G1 X3.438 Y1.588 F15000.000
G1 X-1.729 Y-3.579 E0.56382 F960.000
G1 X-0.829 Y-3.579 E0.06944
G1 X3.093 Y0.343 E0.42794
G1 X3.145 Y-0.505 E0.06552
G1 X0.071 Y-3.579 E0.33545
G1 X0.971 Y-3.579 E0.06944
G1 X3.375 Y-1.175 E0.26233
G1 X3.721 Y-1.729 E0.05039
G1 X1.871 Y-3.579 E0.20190
G1 X2.771 Y-3.579 E0.06944
G1 X4.165 Y-2.185 E0.15211
G1 X4.699 Y-2.551 E0.04996
G1 X3.671 Y-3.579 E0.11222
G1 X4.571 Y-3.579 E0.06944
G1 X4.880 Y-3.269 E0.03379
G1 X5.266 Y-3.245 F15000.000
G1 X6.734 Y-3.245 E0.23776 F960.000
G1 X12.072 Y-3.275 F15000.000
G1 X11.768 Y-3.579 E0.03532 F960.000
G1 X10.810 Y-3.579 E0.07869
G1 X12.044 Y-2.345 E0.14334
G1 X11.623 Y-1.808 E0.05605
G1 X9.852 Y-3.579 E0.20573
G1 X8.894 Y-3.579 E0.07869
G1 X11.295 Y-1.177 E0.27896
G1 X11.086 Y-0.429 E0.06387
G1 X7.935 Y-3.579 E0.36595
G1 X7.120 Y-3.437 E0.06803
G1 X11.063 Y0.506 E0.45802
G1 X11.504 Y1.906 F15000.000
G1 X8.859 Y-0.739 E0.30728 F960.000
G1 X8.886 Y0.246 E0.08095
G1 X11.949 Y3.308 E0.35571
G1 X11.261 Y3.579 E0.06067
G1 X8.689 Y1.007 E0.29880
G1 X8.350 Y1.626 E0.05797
G1 X10.303 Y3.579 E0.22689
G1 X9.345 Y3.579 E0.07869
G1 X7.898 Y2.132 E0.16807
G1 X7.339 Y2.531 E0.05642
G1 X8.387 Y3.579 E0.12177
G1 X7.429 Y3.579 E0.07869
G1 X7.119 Y3.269 E0.03596
G1 X6.735 Y3.247 F15000.000
G1 X5.267 Y3.240 E0.23770 F960.000
G1 X12.666 Y2.855 F15000.000
G1 X13.212 Y3.232 E0.05113 F960.000
G1 X13.609 Y3.442 E0.03462
G1 X14.045 Y3.493 E0.03382
G1 X14.855 Y3.493 E0.06249
G1 X15.291 Y3.442 E0.03382
G1 X15.688 Y3.232 E0.03462
G1 X16.234 Y2.855 E0.05113
G1 X16.830 Y3.275 F15000.000
G1 X17.134 Y3.579 E0.03519 F960.000
G1 X17.579 Y3.070 E0.05535
G1 X16.855 Y2.346 E0.08375
G1 X17.289 Y1.826 E0.05545
G1 X17.579 Y2.115 E0.03352
G1 X17.559 Y-1.826 F15000.000
G1 X17.211 Y-2.174 E0.06178 F960.000
G1 X17.269 Y-3.579 E0.17650
G1 X17.579 Y-3.269 E0.05496
G1 X16.234 Y-2.855 F15000.000
G1 X15.688 Y-3.232 E0.05113 F960.000
G1 X15.291 Y-3.442 E0.03462
G1 X14.855 Y-3.493 E0.03382
G1 X14.045 Y-3.493 E0.06249
G1 X13.609 Y-3.442 E0.03382
G1 X13.212 Y-3.232 E0.03462
G1 X12.666 Y-2.855 E0.05113
G1 E-4.20000 F1500.00000
G1 Z1.300 F15000.000
G1 X-11.666 Y2.855 F15000.000
G1 Z0.300 F15000.000
G1 E4.20000 F1500.00000
G1 X-12.212 Y3.232 E0.05113 F960.000
G1 X-12.609 Y3.442 E0.03462
G1 X-13.045 Y3.493 E0.03382
G1 X-13.855 Y3.493 E0.06249
G1 X-14.291 Y3.442 E0.03382
G1 X-14.688 Y3.232 E0.03462
G1 X-15.234 Y2.855 E0.05113
G1 X-17.269 Y3.579 F15000.000
G1 X-17.579 Y3.269 E0.03692 F960.000
G1 X-17.579 Y2.286 E0.08290
G1 X-16.286 Y3.579 E0.15416
G1 X-15.797 Y3.084 E0.05862
G1 X-17.579 Y1.303 E0.21244
G1 X-16.699 Y1.199 E0.07471
G1 X-17.579 Y0.319 E0.10493
G1 X-16.871 Y0.044 E0.06402
G1 X-17.579 Y-0.664 E0.08436
G1 X-17.579 Y-1.647 E0.08290
G1 X-16.744 Y-0.812 E0.09961
G1 X-16.473 Y-1.525 E0.06427
G1 X-17.579 Y-2.631 E0.13189
G1 X-17.541 Y-3.577 E0.07980
G1 X-16.071 Y-2.106 E0.17528
G1 X-15.575 Y-2.594 E0.05862
G1 X-16.560 Y-3.579 E0.11744
G1 X-15.577 Y-3.579 E0.08290
G1 X-14.986 Y-2.988 E0.07049
G1 X-14.594 Y-3.579 E0.05981
G1 X-14.288 Y-3.273 E0.03651
G1 E-4.20000 F1500.00000
G1 Z1.300 F15000.000
G1 X11.850 Y-0.099 F15000.000
G1 Z0.500 F15000.000
G1 E4.20000 F1500.00000
G1 X11.914 Y-0.625 E0.01529 F2400.000
G1 X12.138 Y-1.214 E0.01817
G1 X12.495 Y-1.732 E0.01817
G1 X12.966 Y-2.149 E0.01817
G1 X13.524 Y-2.442 E0.01817
G1 X14.135 Y-2.592 E0.01817
G1 X14.765 Y-2.592 E0.01817 F2400.000
G1 X15.382 Y-2.440 E0.01835
G1 X15.975 Y-2.113 E0.01955
G1 X16.405 Y-1.732 E0.01658
G1 X16.762 Y-1.214 E0.01817
G1 X16.986 Y-0.625 E0.01817
G1 X17.062 Y-0.000 E0.01817
G1 X16.986 Y0.625 E0.01817
G1 X16.762 Y1.214 E0.01817
G1 X16.405 Y1.732 E0.01817
G1 X15.934 Y2.149 E0.01817
G1 X15.376 Y2.442 E0.01817
G1 X14.759 Y2.594 E0.01835
G1 X14.082 Y2.579 E0.01955
G1 X13.524 Y2.442 E0.01658
G1 X12.966 Y2.149 E0.01817
G1 X12.495 Y1.732 E0.01817
G1 X12.134 Y1.209 E0.01835
G1 X11.908 Y0.570 E0.01955
G1 X11.843 Y-0.039 E0.01770
G1 X12.198 Y-0.000 F15000.000
G1 X12.264 Y-0.539 E0.01567 F2400.000
G1 X12.456 Y-1.046 E0.01567
G1 X12.764 Y-1.493 E0.01567
G1 X13.171 Y-1.853 E0.01567
G1 X13.651 Y-2.106 E0.01567
G1 X14.179 Y-2.235 E0.01567
G1 X14.721 Y-2.235 E0.01567 F2400.000
G1 X15.251 Y-2.105 E0.01573
G1 X15.767 Y-1.819 E0.01704
G1 X16.136 Y-1.493 E0.01419
G1 X16.444 Y-1.046 E0.01567
G1 X16.636 Y-0.539 E0.01567
G1 X16.702 Y-0.000 E0.01567
G1 X16.636 Y0.539 E0.01567
G1 X16.444 Y1.046 E0.01567
G1 X16.136 Y1.493 E0.01567
G1 X15.729 Y1.853 E0.01567
G1 X15.249 Y2.105 E0.01567
G1 X14.719 Y2.236 E0.01573
G1 X14.129 Y2.223 E0.01704
G1 X13.651 Y2.106 E0.01419
G1 X13.171 Y1.853 E0.01567
G1 X12.764 Y1.493 E0.01567
G1 X12.455 Y1.045 E0.01573
G1 X12.257 Y0.488 E0.01704
G1 X12.205 Y0.060 E0.01246
G1 X11.860 Y-0.214 F15000.000
G1 X8.112 Y-0.000 F15000.000
G1 X8.050 Y0.505 E0.01469 F2400.000
G1 X7.870 Y0.981 E0.01469
G1 X7.581 Y1.400 E0.01469
G1 X7.199 Y1.738 E0.01469
G1 X6.749 Y1.974 E0.01469
G1 X6.255 Y2.096 E0.01469
G1 X5.745 Y2.096 E0.01469
G1 X5.251 Y1.974 E0.01469
G1 X4.801 Y1.738 E0.01469
G1 X4.419 Y1.400 E0.01469
G1 X4.127 Y0.977 E0.01484
G1 X3.946 Y0.470 E0.01554
G1 X3.888 Y-0.000 E0.01368
G1 X3.950 Y-0.505 E0.01469
G1 X4.130 Y-0.981 E0.01469
G1 X4.422 Y-1.404 E0.01484
G1 X4.832 Y-1.754 E0.01554
G1 X5.251 Y-1.974 E0.01368
G1 X5.750 Y-2.097 E0.01484 F2400.000
G1 X6.289 Y-2.088 E0.01554
G1 X6.749 Y-1.974 E0.01368
G1 X7.199 Y-1.738 E0.01469
G1 X7.581 Y-1.400 E0.01469
G1 X7.873 Y-0.977 E0.01484
G1 X8.054 Y-0.470 E0.01554
G1 X8.104 Y-0.060 E0.01194
G1 X7.750 Y-0.017 F15000.000
G1 X7.701 Y0.419 E0.01266 F2400.000
G1 X7.551 Y0.814 E0.01219
G1 X7.311 Y1.162 E0.01219
G1 X6.995 Y1.442 E0.01219
G1 X6.621 Y1.638 E0.01219
G1 X6.211 Y1.739 E0.01219
G1 X5.789 Y1.739 E0.01219
G1 X5.379 Y1.638 E0.01219
G1 X5.005 Y1.442 E0.01219
G1 X4.689 Y1.162 E0.01219
G1 X4.448 Y0.813 E0.01224
G1 X4.295 Y0.387 E0.01304
G1 X4.248 Y-0.000 E0.01127
G1 X4.299 Y-0.419 E0.01219
G1 X4.449 Y-0.814 E0.01219
G1 X4.690 Y-1.163 E0.01224
G1 X5.033 Y-1.457 E0.01304
G1 X5.379 Y-1.638 E0.01127
G1 X5.791 Y-1.740 E0.01224 F2400.000
G1 X6.242 Y-1.731 E0.01304
G1 X6.621 Y-1.638 E0.01127
G1 X6.995 Y-1.442 E0.01219
G1 X7.311 Y-1.162 E0.01219
G1 X7.552 Y-0.813 E0.01224
G1 X7.705 Y-0.387 E0.01304
G1 X7.743 Y-0.076 E0.00905
G1 X8.089 Y0.195 F15000.000
G1 E-4.20000 F1500.00000
G1 Z1.500 F15000.000
G1 X-2.888 Y-0.000 F15000.000
G1 Z0.500 F15000.000
G1 E4.20000 F1500.00000
G1 X-2.950 Y0.505 E0.01469 F2400.000
G1 X-3.130 Y0.981 E0.01469
G1 X-3.419 Y1.400 E0.01469
G1 X-3.801 Y1.738 E0.01469
G1 X-4.251 Y1.974 E0.01469
G1 X-4.750 Y2.097 E0.01484
G1 X-5.289 Y2.088 E0.01554
G1 X-5.749 Y1.974 E0.01368
