; generated by Slic3r 1.2.9 on 2020-08-28 at 15:18:11

; external perimeters extrusion width = 0.40mm
; perimeters extrusion width = 0.40mm
; infill extrusion width = 0.40mm
; solid infill extrusion width = 0.40mm
; top infill extrusion width = 0.40mm

M107
M83
T0
M116
G21 ; set units to millimeters
G90 ; use absolute coordinates
M83 ; use relative distances for extrusion
G1 E-4.20000 F1500.00000
G1 Z1.000 F15000.000
G1 X3.586 Y0.000 F15000.000
G1 Z0.300 F15000.000
G1 E4.20000 F1500.00000
G1 X3.586 Y11.950 E0.92093 F960.000
G1 X3.191 Y13.597 E0.13052
G1 X2.093 Y14.887 E0.13052
G1 X-0.050 Y15.586 E0.17373
G1 X-19.950 Y15.586 E1.53360
G1 X-21.597 Y15.191 E0.13052
G1 X-22.887 Y14.093 E0.13052
G1 X-23.586 Y11.950 E0.17373
G1 X-23.586 Y-11.950 E1.84187
G1 X-23.191 Y-13.597 E0.13052
G1 X-22.093 Y-14.887 E0.13052
G1 X-19.950 Y-15.586 E0.17373
G1 X-0.050 Y-15.586 E1.53360
G1 X1.597 Y-15.191 E0.13052
G1 X2.887 Y-14.093 E0.13052 F960.000
G1 X3.586 Y-11.950 E0.17373
G1 X3.586 Y-0.060 E0.91631
G1 E-4.20000 F1500.00000
G1 Z1.300 F15000.000
G1 X-11.634 Y3.667 F15000.000
G1 Z0.300 F15000.000
G1 E4.20000 F1500.00000
G1 X-11.508 Y4.373 E0.05525 F600.000
G1 X-11.552 Y5.090 E0.05535
G1 X-11.758 Y5.764 E0.05433
G1 X-12.037 Y6.267 E0.04438
G1 X-12.405 Y6.710 E0.04436
G1 X-12.959 Y7.146 E0.05433
G1 X-13.582 Y7.433 E0.05289
G1 X-14.311 Y7.585 E0.05739
G1 X-15.035 Y7.553 E0.05584
G1 X-15.695 Y7.364 E0.05292
G1 X-16.348 Y7.003 E0.05743
G1 X-16.876 Y6.507 E0.05585
G1 X-17.270 Y5.906 E0.05540
G1 X-17.512 Y5.230 E0.05533
G1 X-17.586 Y4.547 E0.05295
G1 X-17.497 Y3.806 E0.05747
G1 X-17.238 Y3.132 E0.05570
G1 X-16.838 Y2.549 E0.05448
G1 X-16.290 Y2.058 E0.05667
G1 X-15.683 Y1.729 E0.05319
G1 X-14.962 Y1.536 E0.05754
G1 X-14.240 Y1.523 E0.05563 F600.000
G1 X-13.540 Y1.679 E0.05524
G1 X-12.904 Y1.989 E0.05455
G1 X-12.353 Y2.440 E0.05486
G1 X-11.909 Y3.037 E0.05736
G1 X-11.658 Y3.612 E0.04835
G1 X-12.247 Y3.852 F15000.000
G1 X-12.147 Y4.410 E0.04367 F600.000
G1 X-12.181 Y4.976 E0.04371
G1 X-12.346 Y5.514 E0.04333
G1 X-12.564 Y5.907 E0.03464
G1 X-12.851 Y6.252 E0.03462
G1 X-13.293 Y6.600 E0.04332
G1 X-13.782 Y6.825 E0.04154
G1 X-14.363 Y6.946 E0.04573
G1 X-14.933 Y6.921 E0.04391
G1 X-15.451 Y6.773 E0.04155
G1 X-15.970 Y6.485 E0.04576
G1 X-16.386 Y6.095 E0.04391
G1 X-16.697 Y5.621 E0.04375
G1 X-16.888 Y5.086 E0.04372
G1 X-16.946 Y4.550 E0.04156
G1 X-16.875 Y3.961 E0.04577
G1 X-16.671 Y3.429 E0.04385
G1 X-16.357 Y2.971 E0.04285
G1 X-15.922 Y2.581 E0.04503
G1 X-15.446 Y2.324 E0.04164
G1 X-14.873 Y2.170 E0.04577
G1 X-14.304 Y2.160 E0.04380 F600.000
G1 X-13.751 Y2.283 E0.04366
G1 X-13.249 Y2.528 E0.04305
G1 X-12.817 Y2.882 E0.04310
G1 X-12.462 Y3.358 E0.04570
G1 X-12.271 Y3.797 E0.03694
G1 X-11.861 Y3.958 F15000.000
G1 X-6.729 Y-2.495 F15000.000
G1 X-7.278 Y-2.982 E0.05654 F600.000
G1 X-7.698 Y-3.591 E0.05701
G1 X-7.959 Y-4.304 E0.05854
G1 X-8.043 Y-5.000 E0.05401
G1 X-7.955 Y-5.728 E0.05654
G1 X-7.695 Y-6.414 E0.05654
G1 X-7.278 Y-7.018 E0.05654
G1 X-6.729 Y-7.505 E0.05654
G1 X-6.079 Y-7.845 E0.05654
G1 X-5.361 Y-8.023 E0.05701 F600.000
G1 X-4.601 Y-8.013 E0.05854
G1 X-3.921 Y-7.845 E0.05400
G1 X-3.266 Y-7.502 E0.05701
G1 X-2.703 Y-6.991 E0.05854
G1 X-2.305 Y-6.414 E0.05400
G1 X-2.045 Y-5.728 E0.05654
G1 X-1.957 Y-5.000 E0.05654
G1 X-2.045 Y-4.272 E0.05654
G1 X-2.305 Y-3.586 E0.05654
G1 X-2.722 Y-2.982 E0.05654
G1 X-3.271 Y-2.495 E0.05654
G1 X-3.921 Y-2.155 E0.05654
G1 X-4.633 Y-1.979 E0.05654
G1 X-5.367 Y-1.979 E0.05654
G1 X-6.079 Y-2.155 E0.05654
G1 X-6.676 Y-2.468 E0.05191
G1 X-6.365 Y-3.022 F15000.000
G1 X-6.799 Y-3.407 E0.04464 F600.000
G1 X-7.129 Y-3.885 E0.04481
G1 X-7.337 Y-4.454 E0.04665
G1 X-7.403 Y-5.000 E0.04242
G1 X-7.333 Y-5.575 E0.04464
G1 X-7.128 Y-6.117 E0.04464
G1 X-6.799 Y-6.593 E0.04464
G1 X-6.365 Y-6.978 E0.04464
G1 X-5.852 Y-7.247 E0.04464
G1 X-5.288 Y-7.386 E0.04481 F600.000
G1 X-4.682 Y-7.378 E0.04665
G1 X-4.148 Y-7.247 E0.04241
G1 X-3.633 Y-6.977 E0.04481
G1 X-3.185 Y-6.570 E0.04665
G1 X-2.872 Y-6.117 E0.04241
G1 X-2.667 Y-5.575 E0.04464
G1 X-2.597 Y-5.000 E0.04464
G1 X-2.667 Y-4.425 E0.04464
G1 X-2.872 Y-3.883 E0.04464
G1 X-3.201 Y-3.407 E0.04464
G1 X-3.635 Y-3.022 E0.04464
G1 X-4.148 Y-2.753 E0.04464
G1 X-4.710 Y-2.615 E0.04464
G1 X-5.290 Y-2.615 E0.04464
G1 X-5.852 Y-2.753 E0.04464
G1 X-6.312 Y-2.995 E0.04002
G1 X-6.733 Y-2.866 F15000.000
G1 X-18.964 Y-6.485 F15000.000
G1 X-18.964 Y-10.964 E0.34522 F720.000
G1 X-1.036 Y-10.964 E1.38169
G1 X-1.036 Y10.964 E1.68995
G1 X-18.964 Y10.964 E1.38169 F720.000
G1 X-18.964 Y-6.425 E1.34011
G1 X-19.600 Y-6.425 F15000.000
G1 X-19.600 Y-11.600 E0.39882 F720.000
G1 X-0.400 Y-11.600 E1.47966
G1 X-0.400 Y11.600 E1.78792
G1 X-19.600 Y11.600 E1.47966 F720.000
G1 X-19.600 Y-6.365 E1.38447
G1 X-19.254 Y-6.625 F15000.000
G1 X-18.225 Y3.672 F15000.000
G1 X-18.275 Y4.585 E0.14805 F960.000
G1 X-18.229 Y5.432 E0.13738
G1 X-18.215 Y3.278 F15000.000
G1 X-18.579 Y2.914 E0.04061 F960.000
G1 X-18.579 Y1.994 E0.07247
G1 X-17.560 Y3.013 E0.11358
G1 X-17.186 Y2.468 E0.05213
G1 X-18.579 Y1.075 E0.15528
G1 X-18.579 Y0.156 E0.07247
G1 X-16.728 Y2.007 E0.20637
G1 X-16.194 Y1.622 E0.05191
G1 X-18.579 Y-0.764 E0.26591
G1 X-18.579 Y-1.683 E0.07247
G1 X-15.566 Y1.330 E0.33590
G1 X-14.826 Y1.150 E0.06001
G1 X-18.579 Y-2.603 E0.41837
G1 X-18.579 Y-3.522 E0.07247
G1 X-13.882 Y1.175 E0.52357
G1 X-5.634 Y-1.611 F15000.000
G1 X-1.421 Y2.603 E0.46969 F960.000
G1 X-1.421 Y1.683 E0.07247
G1 X-4.699 Y-1.595 E0.36544
G1 X-3.962 Y-1.777 E0.05988
G1 X-1.421 Y0.764 E0.28321
G1 X-1.421 Y-0.156 E0.07247
G1 X-3.342 Y-2.076 E0.21413
G1 X-2.810 Y-2.464 E0.05188
G1 X-1.421 Y-1.075 E0.15480
G1 X-1.421 Y-1.994 E0.07247
G1 X-2.355 Y-2.928 E0.10410
G1 X-1.421 Y-10.269 F15000.000
G1 X-1.731 Y-10.579 E0.03452 F960.000
G1 X-2.650 Y-10.579 E0.07247
G1 X-1.421 Y-9.350 E0.13701
G1 X-1.421 Y-8.430 E0.07247
G1 X-3.570 Y-10.579 E0.23951
G1 X-4.489 Y-10.579 E0.07247
G1 X-1.421 Y-7.511 E0.34200
G1 X-1.904 Y-7.075 E0.05132
G1 X-5.408 Y-10.579 E0.39061
G1 X-6.328 Y-10.579 E0.07247
G1 X-4.064 Y-8.315 E0.25239
G1 X-5.074 Y-8.406 E0.07998
G1 X-7.247 Y-10.579 E0.24222
G1 X-8.167 Y-10.579 E0.07247
G1 X-5.856 Y-8.268 E0.25759
G1 X-6.509 Y-8.002 E0.05559
G1 X-9.086 Y-10.579 E0.28729
G1 X-10.006 Y-10.579 E0.07247
G1 X-7.070 Y-7.643 E0.32727
G1 X-7.552 Y-7.206 E0.05131
G1 X-10.925 Y-10.579 E0.37598
G1 X-11.844 Y-10.579 E0.07247
G1 X-7.928 Y-6.662 E0.43662
G1 X-8.212 Y-6.027 E0.05485
G1 X-12.764 Y-10.579 E0.50743
G1 X-13.683 Y-10.579 E0.07247
G1 X-8.382 Y-5.278 E0.59092
G1 X-8.369 Y-4.346 E0.07350
G1 X-14.603 Y-10.579 E0.69486
G1 X-15.522 Y-10.579 E0.07247
G1 X-1.421 Y3.522 E1.57193
G1 X-1.421 Y4.442 E0.07247
G1 X-16.442 Y-10.579 E1.67442
G1 X-17.361 Y-10.579 E0.07247
G1 X-1.421 Y5.361 E1.77692
G1 X-1.421 Y6.280 E0.07247
G1 X-18.280 Y-10.579 E1.87941
G1 X-18.579 Y-9.958 E0.05430
G1 X-1.421 Y7.200 E1.91269
G1 X-1.421 Y8.119 E0.07247
G1 X-18.579 Y-9.039 E1.91269
G1 X-18.579 Y-8.119 E0.07247
G1 X-1.421 Y9.039 E1.91269
G1 X-1.421 Y9.958 E0.07247
G1 X-18.579 Y-7.200 E1.91269
G1 X-18.579 Y-6.280 E0.07247
G1 X-1.720 Y10.579 E1.87941
G1 X-2.639 Y10.579 E0.07247
G1 X-18.579 Y-5.361 E1.77691
G1 X-18.579 Y-4.442 E0.07247
G1 X-3.558 Y10.579 E1.67442
G1 X-4.478 Y10.579 E0.07247
G1 X-11.179 Y3.878 E0.74702
G1 X-11.157 Y4.819 E0.07423
G1 X-5.397 Y10.579 E0.64206
G1 X-6.317 Y10.579 E0.07247
G1 X-11.329 Y5.566 E0.55877
G1 X-11.615 Y6.200 E0.05480
G1 X-7.236 Y10.579 E0.48811
G1 X-8.156 Y10.579 E0.07247
G1 X-11.998 Y6.737 E0.42831
G1 X-12.471 Y7.183 E0.05127
G1 X-9.075 Y10.579 E0.37855
G1 X-9.994 Y10.579 E0.07247
G1 X-13.022 Y7.551 E0.33753
G1 X-13.673 Y7.820 E0.05549
G1 X-10.914 Y10.579 E0.30757
G1 X-11.833 Y10.579 E0.07247
G1 X-14.442 Y7.971 E0.29076
G1 X-15.453 Y7.878 E0.08008
G1 X-12.753 Y10.579 E0.30105
G1 X-13.672 Y10.579 E0.07247
G1 X-18.429 Y5.822 E0.53032
G1 X-18.579 Y6.592 E0.06182
G1 X-14.592 Y10.579 E0.44449
G1 X-15.511 Y10.579 E0.07247
G1 X-18.579 Y7.511 E0.34200
G1 X-18.579 Y8.430 E0.07247
G1 X-16.430 Y10.579 E0.23951
G1 X-17.350 Y10.579 E0.07247
G1 X-18.579 Y9.350 E0.13701
G1 X-18.579 Y10.269 E0.07247
G1 X-18.269 Y10.579 E0.03452
G1 X-1.709 Y-3.259 F15000.000
G1 X-1.550 Y-4.125 E0.06790 F960.000
G1 X-1.496 Y-4.983 E0.06623
G1 X-1.545 Y-5.828 E0.06524
G1 X-1.709 Y-6.741 E0.07153
G1 E-4.20000 F1500.00000
G1 Z1.300 F15000.000
G1 X-12.669 Y2.734 F15000.000
G1 Z0.500 F15000.000
G1 E4.20000 F1500.00000
G1 X-12.270 Y3.279 E0.01950 F2400.000
G1 X-12.050 Y3.784 E0.01589
G1 X-11.940 Y4.389 E0.01774
G1 X-11.975 Y5.004 E0.01779
G1 X-12.151 Y5.587 E0.01757
G1 X-12.390 Y6.020 E0.01429
G1 X-12.705 Y6.401 E0.01428
G1 X-13.184 Y6.778 E0.01758
G1 X-13.746 Y7.036 E0.01784
G1 X-14.351 Y7.154 E0.01781
G1 X-14.968 Y7.127 E0.01782
G1 X-15.496 Y6.975 E0.01587
G1 X-16.093 Y6.654 E0.01956
G1 X-16.548 Y6.226 E0.01803
G1 X-16.886 Y5.709 E0.01783
G1 X-17.092 Y5.128 E0.01779
G1 X-17.152 Y4.581 E0.01589
G1 X-17.077 Y3.907 E0.01958
G1 X-16.852 Y3.327 E0.01796
G1 X-16.517 Y2.838 E0.01709
G1 X-16.030 Y2.403 E0.01888
G1 X-15.542 Y2.139 E0.01599
G1 X-14.887 Y1.962 E0.01959
G1 X-14.266 Y1.955 E0.01792 F2400.000
G1 X-13.667 Y2.092 E0.01773
G1 X-13.133 Y2.354 E0.01716
G1 X-12.716 Y2.696 E0.01558
G1 X-12.942 Y2.972 F15000.000
G1 X-12.581 Y3.458 E0.01745 F2400.000
G1 X-12.394 Y3.889 E0.01355
G1 X-12.299 Y4.411 E0.01532
G1 X-12.329 Y4.942 E0.01534
G1 X-12.482 Y5.447 E0.01525
G1 X-12.686 Y5.818 E0.01223
G1 X-12.956 Y6.144 E0.01221
G1 X-13.372 Y6.471 E0.01526
G1 X-13.856 Y6.693 E0.01537
G1 X-14.378 Y6.795 E0.01536
G1 X-14.910 Y6.772 E0.01537
G1 X-15.361 Y6.643 E0.01355
G1 X-15.883 Y6.362 E0.01710
G1 X-16.272 Y5.995 E0.01545
G1 X-16.564 Y5.549 E0.01537
G1 X-16.742 Y5.048 E0.01536
G1 X-16.792 Y4.581 E0.01355
G1 X-16.728 Y3.992 E0.01710
G1 X-16.534 Y3.494 E0.01542
G1 X-16.247 Y3.076 E0.01465
G1 X-15.823 Y2.697 E0.01643
G1 X-15.409 Y2.473 E0.01359
G1 X-14.838 Y2.318 E0.01708
G1 X-14.305 Y2.312 E0.01538 F2400.000
G1 X-13.787 Y2.431 E0.01532
G1 X-13.328 Y2.657 E0.01478
G1 X-12.988 Y2.934 E0.01266
G1 X-12.550 Y2.894 F15000.000
G1 X-6.955 Y-3.268 F15000.000
G1 X-7.312 Y-3.786 E0.01817 F2400.000
G1 X-7.536 Y-4.375 E0.01817
G1 X-7.612 Y-5.000 E0.01817
G1 X-7.536 Y-5.625 E0.01817
G1 X-7.312 Y-6.214 E0.01817
G1 X-6.955 Y-6.732 E0.01817
G1 X-6.484 Y-7.149 E0.01817
G1 X-5.926 Y-7.442 E0.01817
G1 X-5.315 Y-7.592 E0.01817
G1 X-4.685 Y-7.592 E0.01817 F2400.000
G1 X-4.074 Y-7.442 E0.01817
G1 X-3.516 Y-7.149 E0.01817
G1 X-3.045 Y-6.732 E0.01817
G1 X-2.688 Y-6.214 E0.01817
G1 X-2.464 Y-5.625 E0.01817
G1 X-2.388 Y-5.000 E0.01817
G1 X-2.464 Y-4.375 E0.01817
G1 X-2.688 Y-3.786 E0.01817
G1 X-3.045 Y-3.268 E0.01817
G1 X-3.516 Y-2.851 E0.01817
G1 X-4.074 Y-2.558 E0.01817
G1 X-4.685 Y-2.408 E0.01817
G1 X-5.315 Y-2.408 E0.01817
G1 X-5.926 Y-2.558 E0.01817
G1 X-6.484 Y-2.851 E0.01817
G1 X-6.910 Y-3.228 E0.01644
G1 X-6.673 Y-3.496 F15000.000
G1 X-6.994 Y-3.954 E0.01614 F2400.000
G1 X-7.186 Y-4.461 E0.01567
G1 X-7.252 Y-5.000 E0.01567
G1 X-7.186 Y-5.539 E0.01567
G1 X-6.994 Y-6.046 E0.01567
G1 X-6.686 Y-6.493 E0.01567
G1 X-6.279 Y-6.853 E0.01567
G1 X-5.799 Y-7.105 E0.01567
G1 X-5.271 Y-7.235 E0.01567
G1 X-4.729 Y-7.235 E0.01567 F2400.000
G1 X-4.201 Y-7.105 E0.01567
G1 X-3.721 Y-6.853 E0.01567
G1 X-3.314 Y-6.493 E0.01567
G1 X-3.006 Y-6.046 E0.01567
G1 X-2.814 Y-5.539 E0.01567
G1 X-2.748 Y-5.000 E0.01567
G1 X-2.814 Y-4.461 E0.01567
G1 X-3.006 Y-3.954 E0.01567
G1 X-3.314 Y-3.507 E0.01567
G1 X-3.721 Y-3.147 E0.01567
G1 X-4.201 Y-2.895 E0.01567
G1 X-4.729 Y-2.765 E0.01567
G1 X-5.271 Y-2.765 E0.01567
G1 X-5.799 Y-2.895 E0.01567
G1 X-6.279 Y-3.147 E0.01567
G1 X-6.628 Y-3.456 E0.01346
G1 X-7.068 Y-3.430 F15000.000
G1 X-0.607 Y2.543 F15000.000
G1 X-0.607 Y11.393 E0.25542 F2400.000
G1 X-19.393 Y11.393 E0.54221 F2400.000
G1 X-19.393 Y-11.393 E0.65766
G1 X-0.607 Y-11.393 E0.54221
G1 X-0.607 Y2.483 E0.40051
G1 X-0.250 Y2.483 F15000.000
G1 X-0.250 Y11.750 E0.26746 F2400.000
G1 X-19.750 Y11.750 E0.56282 F2400.000
G1 X-19.750 Y-11.750 E0.67827
G1 X-0.250 Y-11.750 E0.56282
G1 X-0.250 Y2.423 E0.40908
G1 X-0.596 Y2.683 F15000.000
G1 X-3.697 Y-2.472 F15000.000
G1 X-11.990 Y5.822 E0.34248 F2751.992
G1 X-11.767 Y5.088 E0.02241
G1 X-4.449 Y-2.231 E0.30220
G1 X-4.991 Y-2.200 E0.01585
G1 X-11.736 Y4.546 E0.27855
G1 X-11.795 Y4.094 E0.01331
G1 X-5.456 Y-2.245 E0.26174
G1 X-5.866 Y-2.346 E0.01232
G1 X-11.894 Y3.682 E0.24890
G1 X-12.049 Y3.326 E0.01133
G1 X-6.217 Y-2.506 E0.24082
G1 X-6.552 Y-2.682 E0.01105
G1 X-12.246 Y3.012 E0.23511
G1 X-12.462 Y2.717 E0.01067
G1 X-6.826 Y-2.918 E0.23270
G1 X-7.096 Y-3.159 E0.01056
G1 X-12.720 Y2.464 E0.23221
G1 X-13.001 Y2.234 E0.01060
G1 X-7.305 Y-3.462 E0.23520
G1 X-7.506 Y-3.772 E0.01079
G1 X-13.331 Y2.054 E0.24057
G1 X-13.680 Y1.892 E0.01122
G1 X-7.646 Y-4.142 E0.24915
G1 X-7.757 Y-4.542 E0.01213
G1 X-14.095 Y1.796 E0.26174
G1 X-14.559 Y1.749 E0.01362
G1 X-7.812 Y-4.998 E0.27861
G1 X-7.763 Y-5.558 E0.01641
G1 X-15.102 Y1.781 E0.30305
G1 X-15.849 Y2.017 E0.02286
G1 X-7.539 Y-6.293 E0.34315
G1 X-6.304 Y-7.528 F15000.000
G1 X-2.646 Y-11.185 E0.15102 F2751.992
G1 X-2.135 Y-11.185 E0.01492
G1 X-5.552 Y-7.769 E0.14106
G1 X-5.010 Y-7.800 E0.01585
G1 X-1.625 Y-11.185 E0.13977
G1 X-1.114 Y-11.185 E0.01492
G1 X-4.544 Y-7.755 E0.14163
G1 X-4.134 Y-7.654 E0.01232
G1 X-0.815 Y-10.973 E0.13705
G1 X-0.815 Y-10.462 E0.01492
G1 X-3.783 Y-7.494 E0.12257
G1 X-3.448 Y-7.318 E0.01105
G1 X-0.815 Y-9.951 E0.10874
G1 X-0.815 Y-9.441 E0.01492
G1 X-3.174 Y-7.082 E0.09741
G1 X-2.904 Y-6.841 E0.01056
G1 X-0.815 Y-8.930 E0.08627
G1 X-0.815 Y-8.419 E0.01492
G1 X-2.695 Y-6.538 E0.07765
G1 X-2.494 Y-6.228 E0.01079
G1 X-0.815 Y-7.908 E0.06936
G1 X-0.815 Y-7.397 E0.01492
G1 X-2.354 Y-5.858 E0.06356
G1 X-2.243 Y-5.458 E0.01212
G1 X-0.815 Y-6.886 E0.05899
G1 X-0.815 Y-6.375 E0.01492
G1 X-2.188 Y-5.002 E0.05671
G1 X-2.237 Y-4.442 E0.01641
G1 X-0.815 Y-5.865 E0.05873
G1 X-0.815 Y-5.354 E0.01492
G1 X-2.461 Y-3.707 E0.06799
G1 X-1.006 Y11.185 F15000.000
G1 X-0.815 Y10.994 E0.00791 F2751.992
G1 X-0.815 Y10.483 E0.01492
G1 X-1.517 Y11.185 E0.02900
G1 X-2.028 Y11.185 E0.01492
G1 X-0.815 Y9.972 E0.05010
G1 X-0.815 Y9.461 E0.01492
G1 X-2.539 Y11.185 E0.07119
G1 X-3.050 Y11.185 E0.01492
G1 X-0.815 Y8.950 E0.09229
G1 X-0.815 Y8.439 E0.01492
G1 X-3.561 Y11.185 E0.11338
G1 X-4.071 Y11.185 E0.01492
G1 X-0.815 Y7.929 E0.13448
G1 X-0.815 Y7.418 E0.01492
G1 X-4.582 Y11.185 E0.15557
G1 X-5.093 Y11.185 E0.01492
G1 X-0.815 Y6.907 E0.17666
G1 X-0.815 Y6.396 E0.01492
G1 X-5.604 Y11.185 E0.19776
G1 X-6.115 Y11.185 E0.01492
G1 X-0.815 Y5.885 E0.21885
G1 X-0.815 Y5.374 E0.01492
G1 X-6.626 Y11.185 E0.23995
G1 X-7.137 Y11.185 E0.01492
G1 X-0.815 Y4.863 E0.26104
G1 X-0.815 Y4.353 E0.01492
G1 X-7.647 Y11.185 E0.28214
G1 X-8.158 Y11.185 E0.01492
G1 X-0.815 Y3.842 E0.30323
G1 X-0.815 Y3.331 E0.01492
G1 X-8.669 Y11.185 E0.32433
G1 X-9.180 Y11.185 E0.01492
G1 X-0.815 Y2.820 E0.34542
G1 X-0.815 Y2.309 E0.01492
G1 X-9.691 Y11.185 E0.36652
G1 X-10.202 Y11.185 E0.01492
G1 X-0.815 Y1.798 E0.38761
G1 X-0.815 Y1.287 E0.01492
G1 X-10.713 Y11.185 E0.40871
G1 X-11.223 Y11.185 E0.01492
G1 X-0.815 Y0.777 E0.42980
G1 X-0.815 Y0.266 E0.01492
G1 X-11.734 Y11.185 E0.45089
G1 X-12.245 Y11.185 E0.01492
G1 X-0.815 Y-0.245 E0.47199
G1 X-0.815 Y-0.756 E0.01492
G1 X-12.756 Y11.185 E0.49308
G1 X-13.267 Y11.185 E0.01492
G1 X-0.815 Y-1.267 E0.51418
G1 X-0.815 Y-1.778 E0.01492
G1 X-13.778 Y11.185 E0.53527
G1 X-14.289 Y11.185 E0.01492
G1 X-0.815 Y-2.289 E0.55637
G1 X-0.815 Y-2.799 E0.01492
G1 X-14.799 Y11.185 E0.57746
G1 X-15.310 Y11.185 E0.01492
G1 X-0.815 Y-3.310 E0.59856
G1 X-0.815 Y-3.821 E0.01492
G1 X-15.821 Y11.185 E0.61965
G1 X-16.332 Y11.185 E0.01492
G1 X-0.815 Y-4.332 E0.64075
G1 X-0.815 Y-4.843 E0.01492
G1 X-16.843 Y11.185 E0.66184
G1 X-17.354 Y11.185 E0.01492
G1 X-13.246 Y7.078 E0.16961
G1 X-13.991 Y7.312 E0.02279
G1 X-17.865 Y11.185 E0.15995
G1 X-18.375 Y11.185 E0.01492
G1 X-14.541 Y7.350 E0.15835
G1 X-15.013 Y7.312 E0.01383
G1 X-18.886 Y11.185 E0.15995
G1 X-19.185 Y10.973 E0.01070
G1 X-15.410 Y7.198 E0.15590
G1 X-15.761 Y7.038 E0.01127
G1 X-19.185 Y10.462 E0.14138
G1 X-19.185 Y9.951 E0.01492
G1 X-16.094 Y6.860 E0.12766
G1 X-16.376 Y6.631 E0.01060
G1 X-19.185 Y9.441 E0.11601
