; generated by Slic3r 1.3.0 on 2020-08-21 at 11:09:51

; external perimeters extrusion width = 0.40mm (4.28mm^3/s)
; perimeters extrusion width = 0.40mm (4.28mm^3/s)
; infill extrusion width = 0.40mm (5.71mm^3/s)
; solid infill extrusion width = 0.40mm (5.71mm^3/s)
; top infill extrusion width = 0.40mm (5.71mm^3/s)

M107
M83
T0
M116
; Filament gcode

G21 ; set units to millimeters
G90 ; use absolute coordinates
M83 ; use relative distances for extrusion
G1 E-2.00000 F300.00000
G1 Z2.000 F15000.000
G1 X5.470 Y40.173 F15000.000
G1 Z0.300 F15000.000
G1 E2.00000 F300.00000
G1 F960
G1 X-23.814 Y39.551 E2.25728
G1 X-25.174 Y39.256 E0.10727
G1 X-40.064 Y32.847 E1.24931
G1 X-41.421 Y31.834 E0.13052
G1 X-42.263 Y29.508 E0.19061
G1 X-42.263 Y7.086 E1.72796
G1 X-41.989 Y-38.310 E3.49849
G1 X-41.584 Y-39.954 E0.13052
G1 X-40.479 Y-41.237 E0.13052
G1 X-38.353 Y-41.923 E0.17212
G1 X-28.430 Y-41.923 E0.76473
G1 X37.618 Y-41.504 E5.09012
G1 X39.262 Y-41.099 E0.13052
G1 X40.545 Y-39.993 E0.13052
G1 X41.230 Y-37.949 E0.16609
G1 X42.262 Y8.381 E3.57137
G1 X42.263 Y30.862 E1.73251
G1 X41.868 Y32.509 E0.13052
G1 X40.770 Y33.799 E0.13052
G1 X39.938 Y34.253 E0.07307
G1 X25.258 Y39.929 E1.21294
G1 X23.947 Y40.173 E0.10278
G1 X5.530 Y40.173 E1.41932
G1 E-2.00000 F300.00000
G1 Z2.300 F15000.000
G1 X-7.444 Y21.011 F15000.000
G1 Z0.300 F15000.000
G1 E2.00000 F300.00000
G1 F600
G1 X-8.068 Y21.335 E0.05415
G1 X-8.686 Y21.487 E0.04904
G1 X-9.388 Y21.487 E0.05409
G1 X-10.006 Y21.335 E0.04904
G1 X-10.629 Y21.011 E0.05415
G1 X-11.105 Y20.590 E0.04897
G1 X-11.516 Y20.007 E0.05499
G1 X-11.755 Y19.338 E0.05470
G1 X-11.831 Y18.709 E0.04884
G1 X-11.735 Y18.011 E0.05426
G1 X-11.512 Y17.423 E0.04852
G1 X-11.158 Y16.910 E0.04800
G1 X-10.641 Y16.428 E0.05455
G1 X-10.006 Y16.098 E0.05512
G1 X-9.388 Y15.946 E0.04904
G1 X-8.686 Y15.946 E0.05409
G1 X-8.068 Y16.098 E0.04904
G1 X-7.444 Y16.422 E0.05415
G1 X-6.969 Y16.843 E0.04897
G1 X-6.562 Y17.420 E0.05434
G1 X-6.319 Y18.066 E0.05327
G1 X-6.252 Y18.787 E0.05579
G1 X-6.324 Y19.380 E0.04601
G1 X-6.562 Y20.014 E0.05218
G1 X-6.969 Y20.590 E0.05434
G1 X-7.399 Y20.972 E0.04435
G1 X-7.807 Y20.483 F15000.000
G1 F600
G1 X-8.294 Y20.736 E0.04225
G1 X-8.763 Y20.851 E0.03727
G1 X-9.311 Y20.851 E0.04219
G1 X-9.780 Y20.736 E0.03727
G1 X-10.267 Y20.483 E0.04225
G1 X-10.628 Y20.163 E0.03720
G1 X-10.947 Y19.712 E0.04259
G1 X-11.132 Y19.191 E0.04255
G1 X-11.190 Y18.714 E0.03707
G1 X-11.116 Y18.169 E0.04237
G1 X-10.945 Y17.720 E0.03700
G1 X-10.675 Y17.328 E0.03673
G1 X-10.271 Y16.952 E0.04253
G1 X-9.780 Y16.698 E0.04260
G1 X-9.311 Y16.582 E0.03727
G1 X-8.763 Y16.582 E0.04219
G1 X-8.294 Y16.698 E0.03727
G1 X-7.807 Y16.950 E0.04225
G1 X-7.445 Y17.270 E0.03720
G1 X-7.128 Y17.719 E0.04238
G1 X-6.944 Y18.210 E0.04042
G1 X-6.891 Y18.778 E0.04396
G1 X-6.945 Y19.228 E0.03487
G1 X-7.128 Y19.714 E0.04003
G1 X-7.445 Y20.163 E0.04238
G1 X-7.762 Y20.443 E0.03258
G1 X-7.807 Y20.483 F15000.000
G1 E-2.00000 F300.00000
G1 Z2.300 F15000.000
G1 X-17.312 Y19.284 F15000.000
G1 Z0.300 F15000.000
G1 E2.00000 F300.00000
G1 F600
G1 X-17.324 Y19.380 E0.00745
G1 X-17.562 Y20.014 E0.05218
G1 X-17.969 Y20.590 E0.05434
G1 X-18.444 Y21.011 E0.04897
G1 X-19.068 Y21.335 E0.05415
G1 X-19.686 Y21.487 E0.04904
G1 X-20.388 Y21.487 E0.05409
G1 X-21.006 Y21.335 E0.04904
G1 X-21.629 Y21.011 E0.05415
G1 X-22.105 Y20.590 E0.04897
G1 X-22.516 Y20.007 E0.05499
G1 X-22.755 Y19.338 E0.05470
G1 X-22.831 Y18.709 E0.04884
G1 X-22.735 Y18.011 E0.05426
G1 X-22.512 Y17.423 E0.04852
G1 X-22.158 Y16.910 E0.04800
G1 X-21.641 Y16.428 E0.05455
G1 X-21.006 Y16.098 E0.05512
G1 X-20.388 Y15.946 E0.04904
G1 X-19.686 Y15.946 E0.05409
G1 X-19.068 Y16.098 E0.04904
G1 X-18.444 Y16.422 E0.05415
G1 X-17.969 Y16.843 E0.04897
G1 X-17.562 Y17.420 E0.05434
G1 X-17.319 Y18.066 E0.05327
G1 X-17.252 Y18.787 E0.05579
G1 X-17.305 Y19.224 E0.03393
G1 X-17.936 Y19.148 F15000.000
G1 F600
G1 X-17.945 Y19.228 E0.00619
G1 X-18.128 Y19.714 E0.04003
G1 X-18.445 Y20.163 E0.04238
G1 X-18.807 Y20.483 E0.03720
G1 X-19.294 Y20.736 E0.04225
G1 X-19.763 Y20.851 E0.03727
G1 X-20.311 Y20.851 E0.04219
G1 X-20.780 Y20.736 E0.03727
G1 X-21.267 Y20.483 E0.04225
G1 X-21.628 Y20.163 E0.03720
G1 X-21.947 Y19.712 E0.04259
G1 X-22.132 Y19.191 E0.04255
G1 X-22.190 Y18.714 E0.03707
G1 X-22.116 Y18.169 E0.04237
G1 X-21.945 Y17.720 E0.03700
G1 X-21.675 Y17.328 E0.03673
G1 X-21.271 Y16.952 E0.04253
G1 X-20.780 Y16.698 E0.04260
G1 X-20.311 Y16.582 E0.03727
G1 X-19.763 Y16.582 E0.04219
G1 X-19.294 Y16.698 E0.03727
G1 X-18.807 Y16.950 E0.04225
G1 X-18.445 Y17.270 E0.03720
G1 X-18.128 Y17.719 E0.04238
G1 X-17.944 Y18.210 E0.04042
G1 X-17.891 Y18.778 E0.04396
G1 X-17.929 Y19.088 E0.02406
G1 X-17.870 Y19.193 F15000.000
G1 E-2.00000 F300.00000
G1 Z2.300 F15000.000
G1 X-22.751 Y30.640 F15000.000
G1 Z0.300 F15000.000
G1 E2.00000 F300.00000
G1 F720
G1 X-22.751 Y27.681 E0.22805
G1 X-26.001 Y27.681 E0.25046
G1 X-26.001 Y7.602 E1.54738
G1 X-25.072 Y7.602 E0.07158
G1 X-25.072 Y12.802 E0.40074
G1 X-4.001 Y12.802 E1.62387
G1 X-4.001 Y7.602 E0.40074
G1 X-3.072 Y7.602 E0.07158
G1 X-3.072 Y27.681 E1.54738
G1 X-6.322 Y27.681 E0.25046
G1 X-6.322 Y34.931 E0.55872
G1 X-22.751 Y34.931 E1.26609
G1 X-22.751 Y30.700 E0.32605
G1 X-23.387 Y30.700 F15000.000
G1 F720
G1 X-23.387 Y28.317 E0.18369
G1 X-26.637 Y28.317 E0.25046
G1 X-26.637 Y6.967 E1.64535
G1 X-24.437 Y6.967 E0.16954
G1 X-24.437 Y12.167 E0.40074
G1 X-4.637 Y12.167 E1.52590
G1 X-4.637 Y6.967 E0.40074
G1 X-2.437 Y6.967 E0.16954
G1 X-2.437 Y28.317 E1.64535
G1 X-5.687 Y28.317 E0.25046
G1 X-5.687 Y35.567 E0.55872
G1 X-23.387 Y35.567 E1.36406
G1 X-23.387 Y30.760 E0.37041
G1 X-23.157 Y30.373 F15000.000
G1 E-2.00000 F300.00000
G1 Z2.300 F15000.000
G1 X-15.177 Y34.363 F15000.000
G1 Z0.300 F15000.000
G1 E2.00000 F300.00000
G1 F960
G1 X-3.641 Y22.826 E1.26692
G1 X-3.641 Y21.920 E0.07033
G1 X-16.083 Y34.363 E1.36639
G1 X-16.989 Y34.363 E0.07033
G1 X-3.641 Y21.015 E1.46585
G1 X-3.641 Y20.109 E0.07033
G1 X-17.895 Y34.363 E1.56532
G1 X-18.800 Y34.363 E0.07033
G1 X-3.641 Y19.203 E1.66478
G1 X-3.641 Y18.297 E0.07033
G1 X-19.706 Y34.363 E1.76425
G1 X-20.612 Y34.363 E0.07033
G1 X-8.227 Y21.978 E1.36011
G1 X-8.541 Y22.055 E0.02518
G1 X-9.210 Y22.055 E0.05191
G1 X-21.517 Y34.363 E1.35158
G1 X-22.183 Y34.363 E0.05168
G1 X-22.183 Y34.123 E0.01865
G1 X-9.974 Y21.913 E1.34080
G1 X-10.164 Y21.866 E0.01520
G1 X-10.604 Y21.638 E0.03853
G1 X-22.183 Y33.217 E1.27155
G1 X-22.183 Y32.311 E0.07033
G1 X-11.147 Y21.275 E1.21196
G1 X-11.514 Y20.949 E0.03814
G1 X-11.602 Y20.825 E0.01184
G1 X-22.183 Y31.405 E1.16194
G1 X-22.183 Y30.500 E0.07033
G1 X-11.977 Y20.293 E1.12080
G1 X-12.018 Y20.235 E0.00559
G1 X-12.230 Y19.641 E0.04895
G1 X-22.183 Y29.594 E1.09300
G1 X-22.183 Y28.688 E0.07033
G1 X-12.375 Y18.880 E1.07710
G1 X-12.404 Y18.637 E0.01902
G1 X-12.304 Y17.903 E0.05748
G1 X-22.183 Y27.782 E1.08488
G1 X-22.183 Y27.113 E0.05199
G1 X-22.419 Y27.113 E0.01834
G1 X-8.677 Y13.370 E1.50915
G1 X-9.583 Y13.370 E0.07033
G1 X-23.325 Y27.113 E1.50915
G1 X-24.231 Y27.113 E0.07033
G1 X-19.053 Y21.935 E0.56864
G1 X-19.541 Y22.055 E0.03909
G1 X-20.079 Y22.055 E0.04174
G1 X-25.136 Y27.113 E0.55541
G1 X-25.433 Y27.113 E0.02303
G1 X-25.433 Y26.504 E0.04730
G1 X-20.868 Y21.939 E0.50127
G1 X-21.164 Y21.866 E0.02361
G1 X-21.518 Y21.683 E0.03098
G1 X-25.433 Y25.598 E0.42995
G1 X-25.433 Y24.692 E0.07033
G1 X-22.077 Y21.336 E0.36851
G1 X-22.548 Y20.901 E0.04977
G1 X-25.433 Y23.786 E0.31681
G1 X-25.433 Y22.881 E0.07033
G1 X-22.923 Y20.370 E0.27567
G1 X-23.018 Y20.235 E0.01289
G1 X-23.196 Y19.737 E0.04099
G1 X-25.433 Y21.975 E0.24571
G1 X-25.433 Y21.069 E0.07033
G1 X-23.361 Y18.997 E0.22758
G1 X-23.404 Y18.637 E0.02816
G1 X-23.325 Y18.055 E0.04558
G1 X-25.433 Y20.163 E0.23152
G1 X-25.433 Y19.258 E0.07033
G1 X-19.546 Y13.370 E0.64652
G1 X-20.451 Y13.370 E0.07033
G1 X-25.433 Y18.352 E0.54706
G1 X-25.433 Y17.446 E0.07033
G1 X-21.357 Y13.370 E0.44759
G1 X-22.263 Y13.370 E0.07033
G1 X-25.433 Y16.540 E0.34812
G1 X-25.433 Y15.635 E0.07033
G1 X-23.169 Y13.370 E0.24866
G1 X-24.074 Y13.370 E0.07033
G1 X-25.433 Y14.729 E0.14919
G1 X-25.433 Y13.823 E0.07033
G1 X-25.298 Y13.688 E0.01483
G1 E-2.00000 F300.00000
G1 Z2.300 F15000.000
G1 X-23.460 Y18.190 F15000.000
G1 Z0.300 F15000.000
G1 E2.00000 F300.00000
G1 F960
G1 X-23.423 Y17.921 E0.02108
G1 X-23.147 Y17.193 E0.06049
G1 X-22.710 Y16.560 E0.05972
G1 X-22.078 Y15.971 E0.06708
G1 X-21.298 Y15.567 E0.06816
G1 X-20.685 Y15.416 E0.04903
G1 X-18.640 Y13.370 E0.22461
G1 X-17.734 Y13.370 E0.07033
G1 X-19.742 Y15.378 E0.22047
G1 X-19.676 Y15.378 E0.00510
G1 X-19.002 Y15.544 E0.05390
G1 X-16.828 Y13.370 E0.23871
G1 X-15.923 Y13.370 E0.07033
G1 X-18.389 Y15.837 E0.27086
G1 X-18.149 Y15.961 E0.02099
G1 X-17.862 Y16.216 E0.02978
G1 X-15.017 Y13.370 E0.31245
G1 X-14.111 Y13.370 E0.07033
G1 X-17.421 Y16.680 E0.36345
G1 X-17.052 Y17.217 E0.05058
G1 X-13.206 Y13.370 E0.42242
G1 X-12.300 Y13.370 E0.07033
G1 X-16.804 Y17.875 E0.49469
G1 X-16.761 Y17.990 E0.00954
G1 X-16.698 Y18.674 E0.05334
G1 X-11.394 Y13.370 E0.58242
G1 X-10.488 Y13.370 E0.07033
G1 X-16.801 Y19.683 E0.69319
G1 E-2.00000 F300.00000
G1 Z2.300 F15000.000
G1 X-12.439 Y18.038 F15000.000
G1 Z0.300 F15000.000
G1 E2.00000 F300.00000
G1 F960
G1 X-12.423 Y17.921 E0.00918
G1 X-12.147 Y17.193 E0.06049
G1 X-11.710 Y16.560 E0.05972
G1 X-11.078 Y15.971 E0.06708
G1 X-10.298 Y15.567 E0.06816
G1 X-9.859 Y15.459 E0.03512
G1 X-7.771 Y13.370 E0.22932
G1 X-6.865 Y13.370 E0.07033
G1 X-8.873 Y15.378 E0.22047
G1 X-8.676 Y15.378 E0.01528
G1 X-8.107 Y15.518 E0.04549
G1 X-5.960 Y13.370 E0.23587
G1 X-5.054 Y13.370 E0.07033
G1 X-7.476 Y15.792 E0.26594
G1 X-7.149 Y15.961 E0.02854
G1 X-6.932 Y16.154 E0.02257
G1 X-4.252 Y13.474 E0.29432
G1 X-4.252 Y13.688 E0.01664
G1 X-3.641 Y13.688 E0.04744
G1 X-3.641 Y13.769 E0.00625
G1 X-6.475 Y16.603 E0.31128
G1 X-6.101 Y17.134 E0.05047
G1 X-3.641 Y14.674 E0.27014
G1 X-3.641 Y15.580 E0.07033
G1 X-5.840 Y17.780 E0.24156
G1 X-5.761 Y17.990 E0.01744
G1 X-5.709 Y18.554 E0.04399
G1 X-3.641 Y16.486 E0.22712
G1 X-3.641 Y17.392 E0.07033
G1 X-5.758 Y19.509 E0.23257
G1 E-2.00000 F300.00000
G1 Z2.300 F15000.000
G1 X-6.891 Y26.982 F15000.000
G1 Z0.300 F15000.000
G1 E2.00000 F300.00000
G1 F960
G1 X-14.272 Y34.363 E0.81055
G1 X-13.366 Y34.363 E0.07033
G1 X-6.891 Y27.888 E0.71108
G1 X-6.891 Y28.793 E0.07033
G1 X-12.460 Y34.363 E0.61162
G1 X-11.554 Y34.363 E0.07033
G1 X-6.891 Y29.699 E0.51215
G1 X-6.891 Y30.605 E0.07033
G1 X-10.649 Y34.363 E0.41269
G1 X-9.743 Y34.363 E0.07033
G1 X-6.891 Y31.511 E0.31322
G1 X-6.891 Y32.416 E0.07033
G1 X-8.837 Y34.363 E0.21375
G1 X-7.931 Y34.363 E0.07033
G1 X-6.891 Y33.322 E0.11429
G1 X-6.891 Y34.228 E0.07033
G1 X-7.026 Y34.363 E0.01482
G1 E-2.00000 F300.00000
G1 Z2.300 F15000.000
G1 X-7.025 Y27.117 F15000.000
G1 Z0.300 F15000.000
G1 E2.00000 F300.00000
G1 F960
G1 X-3.641 Y23.732 E0.37171
G1 X-3.641 Y24.638 E0.07033
G1 X-6.116 Y27.113 E0.27182
G1 X-5.210 Y27.113 E0.07033
G1 X-3.641 Y25.543 E0.17235
G1 X-3.641 Y26.449 E0.07033
G1 X-4.304 Y27.113 E0.07289
G1 E-2.00000 F300.00000
G1 Z2.300 F15000.000
G1 X-3.537 Y13.120 F15000.000
G1 Z0.300 F15000.000
G1 E2.00000 F300.00000
G1 F960
G1 X-3.537 Y7.920 E0.14423
G1 E-2.00000 F300.00000
G1 Z2.300 F15000.000
G1 X-25.537 Y7.920 F15000.000
G1 Z0.300 F15000.000
G1 E2.00000 F300.00000
G1 F960
G1 X-25.537 Y13.120 E0.14423
G1 E-2.00000 F300.00000
G1 Z2.300 F15000.000
G1 X17.497 Y19.009 F15000.000
G1 Z0.300 F15000.000
G1 E2.00000 F300.00000
G1 F600
G1 X17.548 Y18.633 E0.02924
G1 X17.772 Y18.044 E0.04852
G1 X18.125 Y17.531 E0.04800
G1 X18.643 Y17.049 E0.05455
G1 X19.278 Y16.720 E0.05512
G1 X19.896 Y16.567 E0.04904
G1 X20.598 Y16.567 E0.05409
G1 X21.216 Y16.720 E0.04904
G1 X21.840 Y17.043 E0.05415
G1 X22.315 Y17.465 E0.04897
G1 X22.722 Y18.041 E0.05434
G1 X22.965 Y18.688 E0.05327
G1 X23.032 Y19.409 E0.05579
G1 X22.960 Y20.001 E0.04601
G1 X22.722 Y20.635 E0.05218
G1 X22.315 Y21.211 E0.05434
G1 X21.840 Y21.633 E0.04897
G1 X21.216 Y21.956 E0.05415
G1 X20.598 Y22.108 E0.04904
G1 X19.896 Y22.108 E0.05409
G1 X19.278 Y21.956 E0.04904
G1 X18.654 Y21.633 E0.05415
G1 X18.179 Y21.211 E0.04897
G1 X17.768 Y20.628 E0.05499
G1 X17.529 Y19.959 E0.05470
G1 X17.453 Y19.330 E0.04884
G1 X17.489 Y19.068 E0.02040
G1 X18.119 Y19.154 F15000.000
G1 F600
G1 X18.168 Y18.791 E0.02829
G1 X18.339 Y18.342 E0.03700
G1 X18.609 Y17.949 E0.03673
G1 X19.013 Y17.573 E0.04253
G1 X19.504 Y17.319 E0.04260
G1 X19.973 Y17.203 E0.03727
G1 X20.521 Y17.203 E0.04219
G1 X20.990 Y17.319 E0.03727
G1 X21.477 Y17.571 E0.04225
G1 X21.838 Y17.891 E0.03720
G1 X22.155 Y18.341 E0.04238
G1 X22.340 Y18.832 E0.04042
G1 X22.393 Y19.400 E0.04396
G1 X22.338 Y19.849 E0.03487
G1 X22.155 Y20.335 E0.04003
G1 X21.838 Y20.784 E0.04238
G1 X21.477 Y21.105 E0.03720
G1 X20.990 Y21.357 E0.04225
G1 X20.521 Y21.473 E0.03727
G1 X19.973 Y21.473 E0.04219
G1 X19.504 Y21.357 E0.03727
G1 X19.017 Y21.105 E0.04225
G1 X18.656 Y20.784 E0.03720
G1 X18.337 Y20.333 E0.04259
G1 X18.152 Y19.813 E0.04255
G1 X18.094 Y19.335 E0.03707
G1 X18.110 Y19.214 E0.00945
G1 X17.815 Y18.948 F15000.000
G1 E-2.00000 F300.00000
G1 Z2.300 F15000.000
G1 X12.032 Y19.409 F15000.000
G1 Z0.300 F15000.000
G1 E2.00000 F300.00000
G1 F600
G1 X11.960 Y20.001 E0.04601
G1 X11.722 Y20.635 E0.05218
G1 X11.315 Y21.211 E0.05434
G1 X10.840 Y21.633 E0.04897
G1 X10.216 Y21.956 E0.05415
G1 X9.598 Y22.108 E0.04904
G1 X8.896 Y22.108 E0.05409
G1 X8.278 Y21.956 E0.04904
G1 X7.654 Y21.633 E0.05415
G1 X7.179 Y21.211 E0.04897
G1 X6.768 Y20.628 E0.05499
G1 X6.529 Y19.959 E0.05470
G1 X6.453 Y19.330 E0.04884
G1 X6.548 Y18.633 E0.05426
G1 X6.772 Y18.044 E0.04852
G1 X7.125 Y17.531 E0.04800
G1 X7.643 Y17.049 E0.05455
G1 X8.278 Y16.720 E0.05512
G1 X8.896 Y16.567 E0.04904
G1 X9.598 Y16.567 E0.05409
G1 X10.216 Y16.720 E0.04904
G1 X10.840 Y17.043 E0.05415
G1 X11.315 Y17.465 E0.04897
G1 X11.722 Y18.041 E0.05434
G1 X11.965 Y18.688 E0.05327
G1 X12.027 Y19.349 E0.05117
G1 X11.393 Y19.400 F15000.000
G1 F600
G1 X11.338 Y19.849 E0.03487
G1 X11.155 Y20.335 E0.04003
G1 X10.838 Y20.784 E0.04238
G1 X10.477 Y21.105 E0.03720
G1 X9.990 Y21.357 E0.04225
G1 X9.521 Y21.473 E0.03727
G1 X8.973 Y21.473 E0.04219
G1 X8.504 Y21.357 E0.03727
G1 X8.017 Y21.105 E0.04225
G1 X7.656 Y20.784 E0.03720
G1 X7.337 Y20.333 E0.04259
G1 X7.152 Y19.813 E0.04255
G1 X7.094 Y19.335 E0.03707
G1 X7.168 Y18.791 E0.04237
G1 X7.339 Y18.342 E0.03700
G1 X7.609 Y17.949 E0.03673
G1 X8.013 Y17.573 E0.04253
G1 X8.504 Y17.319 E0.04260
G1 X8.973 Y17.203 E0.03727
G1 X9.521 Y17.203 E0.04219
G1 X9.990 Y17.319 E0.03727
G1 X10.477 Y17.571 E0.04225
G1 X10.838 Y17.891 E0.03720
G1 X11.155 Y18.341 E0.04238
G1 X11.340 Y18.832 E0.04042
G1 X11.387 Y19.340 E0.03933
G1 X11.393 Y19.400 F15000.000
G1 E-2.00000 F300.00000
G1 Z2.300 F15000.000
G1 X26.211 Y17.642 F15000.000
G1 Z0.300 F15000.000
G1 E2.00000 F300.00000
G1 F720
G1 X26.211 Y28.302 E0.82154
G1 X22.961 Y28.302 E0.25046
G1 X22.961 Y35.552 E0.55872
G1 X6.533 Y35.552 E1.26609
G1 X6.533 Y28.302 E0.55872
G1 X3.283 Y28.302 E0.25046
G1 X3.283 Y8.223 E1.54738
G1 X4.211 Y8.223 E0.07158
G1 X4.211 Y13.423 E0.40074
G1 X25.283 Y13.423 E1.62387
G1 X25.283 Y8.223 E0.40074
G1 X26.211 Y8.223 E0.07158
G1 X26.211 Y17.582 E0.72122
G1 X26.847 Y17.582 F15000.000
G1 F720
G1 X26.847 Y28.938 E0.87515
G1 X23.597 Y28.938 E0.25046
G1 X23.597 Y36.188 E0.55872
G1 X5.897 Y36.188 E1.36406
G1 X5.897 Y28.938 E0.55872
G1 X2.647 Y28.938 E0.25046
G1 X2.647 Y7.588 E1.64535
G1 X4.847 Y7.588 E0.16954
G1 X4.847 Y12.788 E0.40074
G1 X24.647 Y12.788 E1.52590
G1 X24.647 Y7.588 E0.40074
G1 X26.847 Y7.588 E0.16954
G1 X26.847 Y17.522 E0.76558
G1 X26.516 Y17.806 F15000.000
G1 E-2.00000 F300.00000
G1 Z2.300 F15000.000
G1 X25.747 Y13.741 F15000.000
G1 Z0.300 F15000.000
G1 E2.00000 F300.00000
G1 F960
G1 X25.747 Y8.541 E0.14423
G1 E-2.00000 F300.00000
G1 Z2.300 F15000.000
G1 X3.747 Y8.541 F15000.000
G1 Z0.300 F15000.000
G1 E2.00000 F300.00000
G1 F960
G1 X3.747 Y13.741 E0.14423
G1 X3.986 Y14.309 F15000.000
G1 F960
G1 X3.851 Y14.444 E0.01483
G1 X3.851 Y15.350 E0.07033
G1 X5.209 Y13.992 E0.14919
G1 X6.115 Y13.992 E0.07033
G1 X3.851 Y16.256 E0.24866
G1 X3.851 Y17.162 E0.07033
G1 X7.021 Y13.992 E0.34812
