; generated by Slic3r 1.2.9 on 2020-08-03 at 12:32:24

; external perimeters extrusion width = 0.40mm
; perimeters extrusion width = 0.40mm
; infill extrusion width = 0.40mm
; solid infill extrusion width = 0.40mm
; top infill extrusion width = 0.40mm

M107
M83
T0
M116
G21 ; set units to millimeters
G90 ; use absolute coordinates
M83 ; use relative distances for extrusion
G1 E-4.20000 F1500.00000
G1 Z1.000 F15000.000
G1 X0.000 Y-8.586 F15000.000
G1 Z0.300 F15000.000
G1 E4.20000 F1500.00000
G1 X3.999 Y-8.585 E0.30819 F2400.000
G1 X4.618 Y-8.539 E0.04785 F2400.000
G1 X5.412 Y-8.357 E0.06274
G1 X5.613 Y-8.287 E0.01639
G1 X6.346 Y-7.934 E0.06274
G1 X6.526 Y-7.821 E0.01639
G1 X7.163 Y-7.313 E0.06274
G1 X7.313 Y-7.163 E0.01639
G1 X7.821 Y-6.526 E0.06274
G1 X7.934 Y-6.346 E0.01639
G1 X8.287 Y-5.613 E0.06274
G1 X8.357 Y-5.412 E0.01639
G1 X8.539 Y-4.618 E0.06274
G1 X8.586 Y-3.997 E0.04801
G1 X8.586 Y3.997 E0.61609
G1 X8.539 Y4.618 E0.04801
G1 X8.357 Y5.412 E0.06274
G1 X8.287 Y5.613 E0.01639
G1 X7.934 Y6.346 E0.06274
G1 X7.821 Y6.526 E0.01639
G1 X7.313 Y7.163 E0.06274
G1 X7.163 Y7.313 E0.01639
G1 X6.526 Y7.821 E0.06274
G1 X6.346 Y7.934 E0.01639
G1 X5.613 Y8.287 E0.06274
G1 X5.412 Y8.357 E0.01639
G1 X4.618 Y8.539 E0.06274
G1 X3.997 Y8.586 E0.04801
G1 X-3.997 Y8.586 E0.61609
G1 X-4.618 Y8.539 E0.04801
G1 X-5.412 Y8.357 E0.06274
G1 X-5.613 Y8.287 E0.01639
G1 X-6.346 Y7.934 E0.06274
G1 X-6.526 Y7.821 E0.01639
G1 X-7.163 Y7.313 E0.06274
G1 X-7.313 Y7.163 E0.01639
G1 X-7.821 Y6.526 E0.06274
G1 X-7.934 Y6.346 E0.01639
G1 X-8.287 Y5.613 E0.06274
G1 X-8.357 Y5.412 E0.01639
G1 X-8.539 Y4.618 E0.06274
G1 X-8.586 Y3.997 E0.04801
G1 X-8.586 Y-3.997 E0.61609
G1 X-8.539 Y-4.618 E0.04801
G1 X-8.357 Y-5.412 E0.06274
G1 X-8.287 Y-5.613 E0.01639
G1 X-7.934 Y-6.346 E0.06274
G1 X-7.821 Y-6.526 E0.01639
G1 X-7.313 Y-7.163 E0.06274
G1 X-7.163 Y-7.313 E0.01639
G1 X-6.526 Y-7.821 E0.06274
G1 X-6.346 Y-7.934 E0.01639
G1 X-5.613 Y-8.287 E0.06274
G1 X-5.412 Y-8.357 E0.01639
G1 X-4.618 Y-8.539 E0.06274
G1 X-3.997 Y-8.586 E0.04801
G1 X-0.060 Y-8.586 E0.30343
G1 E-4.20000 F1500.00000
G1 Z1.300 F15000.000
G1 X-0.223 Y-3.964 F15000.000
G1 Z0.300 F15000.000
G1 E4.20000 F1500.00000
G1 X3.964 Y-3.964 E0.32272 F2400.000
G1 X3.964 Y3.964 E0.61102 F2400.000
G1 X-3.964 Y3.964 E0.61103
G1 X-3.964 Y-3.964 E0.61103
G1 X-0.283 Y-3.964 E0.28369
G1 X-0.283 Y-4.600 F15000.000
G1 X3.980 Y-4.600 E0.32851 F2400.000
G1 X4.133 Y-4.582 E0.01190 F2400.000
G1 X4.259 Y-4.538 E0.01031
G1 X4.373 Y-4.467 E0.01031
G1 X4.467 Y-4.373 E0.01031
G1 X4.538 Y-4.259 E0.01031
G1 X4.582 Y-4.133 E0.01031
G1 X4.600 Y-3.978 E0.01205
G1 X4.600 Y3.978 E0.61306
G1 X4.582 Y4.133 E0.01205
G1 X4.538 Y4.259 E0.01031
G1 X4.467 Y4.373 E0.01031
G1 X4.373 Y4.467 E0.01031
G1 X4.259 Y4.538 E0.01031
G1 X4.133 Y4.582 E0.01031
G1 X3.978 Y4.600 E0.01205
G1 X-3.978 Y4.600 E0.61306
G1 X-4.133 Y4.582 E0.01205
G1 X-4.259 Y4.538 E0.01031
G1 X-4.373 Y4.467 E0.01031
G1 X-4.467 Y4.373 E0.01031
G1 X-4.538 Y4.259 E0.01031
G1 X-4.582 Y4.133 E0.01031
G1 X-4.600 Y3.978 E0.01205
G1 X-4.600 Y-3.978 E0.61306
G1 X-4.582 Y-4.133 E0.01205
G1 X-4.538 Y-4.259 E0.01031
G1 X-4.467 Y-4.373 E0.01031
G1 X-4.373 Y-4.467 E0.01031
G1 X-4.259 Y-4.538 E0.01031
G1 X-4.133 Y-4.582 E0.01031
G1 X-3.978 Y-4.600 E0.01205
G1 X-0.343 Y-4.600 E0.28008
G1 X-0.083 Y-4.253 F15000.000
G1 X3.579 Y-3.269 F15000.000
G1 X3.269 Y-3.579 E0.03428 F2400.000
G1 X2.356 Y-3.579 E0.07148
G1 X3.579 Y-2.356 E0.13537
G1 X3.579 Y-1.443 E0.07148
G1 X1.443 Y-3.579 E0.23646
G1 X0.530 Y-3.579 E0.07148
G1 X3.579 Y-0.530 E0.33755
G1 X3.579 Y0.383 E0.07148
G1 X-0.383 Y-3.579 E0.43863
G1 X-1.296 Y-3.579 E0.07148
G1 X3.579 Y1.296 E0.53972
G1 X3.579 Y2.209 E0.07148
G1 X-2.209 Y-3.579 E0.64081
G1 X-3.122 Y-3.579 E0.07148
G1 X3.579 Y3.123 E0.74190
G1 X3.122 Y3.579 E0.05054
G1 X-3.579 Y-3.122 E0.74188
G1 X-3.579 Y-2.209 E0.07148
G1 X2.209 Y3.579 E0.64079
G1 X1.296 Y3.579 E0.07148
G1 X-3.579 Y-1.296 E0.53971
G1 X-3.579 Y-0.383 E0.07148
G1 X0.383 Y3.579 E0.43862
G1 X-0.530 Y3.579 E0.07148
G1 X-3.579 Y0.530 E0.33754
G1 X-3.579 Y1.443 E0.07148
G1 X-1.443 Y3.579 E0.23645
G1 X-2.356 Y3.579 E0.07148
G1 X-3.579 Y2.356 E0.13537
G1 X-3.579 Y3.269 E0.07148
G1 X-3.269 Y3.579 E0.03428
G1 E-4.20000 F1500.00000
G1 Z1.300 F15000.000
G1 X1.134 Y-4.392 F15000.000
G1 Z0.500 F15000.000
G1 E4.20000 F1500.00000
G1 X3.976 Y-4.392 E0.08201 F2400.000
G1 X4.169 Y-4.351 E0.00570 F2400.000
G1 X4.304 Y-4.243 E0.00500
G1 X4.379 Y-4.087 E0.00500
G1 X4.393 Y-3.966 E0.00350
G1 X4.393 Y3.966 E0.22893
G1 X4.379 Y4.087 E0.00350
G1 X4.304 Y4.243 E0.00500
G1 X4.169 Y4.351 E0.00500
G1 X3.966 Y4.393 E0.00598
G1 X-3.966 Y4.393 E0.22893
G1 X-4.169 Y4.351 E0.00598
G1 X-4.304 Y4.243 E0.00500
G1 X-4.351 Y4.169 E0.00251
G1 X-4.393 Y3.966 E0.00598
G1 X-4.393 Y-3.966 E0.22893
G1 X-4.351 Y-4.169 E0.00598
G1 X-4.243 Y-4.304 E0.00500
G1 X-4.169 Y-4.351 E0.00251
G1 X-3.966 Y-4.393 E0.00598
G1 X1.074 Y-4.392 E0.14548
G1 X1.075 Y-4.749 F15000.000
G1 X3.996 Y-4.749 E0.08432 F2400.000
G1 X4.167 Y-4.730 E0.00496 F2400.000
G1 X4.325 Y-4.674 E0.00484
G1 X4.467 Y-4.585 E0.00484
G1 X4.585 Y-4.467 E0.00484
G1 X4.674 Y-4.325 E0.00484
G1 X4.730 Y-4.167 E0.00484
G1 X4.750 Y-3.986 E0.00525
G1 X4.750 Y3.986 E0.23009
G1 X4.730 Y4.167 E0.00524
G1 X4.674 Y4.325 E0.00484
G1 X4.585 Y4.467 E0.00484
G1 X4.467 Y4.585 E0.00484
G1 X4.325 Y4.674 E0.00484
G1 X4.167 Y4.730 E0.00484
G1 X3.986 Y4.750 E0.00524
G1 X-3.986 Y4.750 E0.23009
G1 X-4.167 Y4.730 E0.00525
G1 X-4.325 Y4.674 E0.00484
G1 X-4.467 Y4.585 E0.00484
G1 X-4.585 Y4.467 E0.00484
G1 X-4.674 Y4.325 E0.00484
G1 X-4.730 Y4.167 E0.00484
G1 X-4.750 Y3.986 E0.00524
G1 X-4.750 Y-3.986 E0.23009
G1 X-4.730 Y-4.167 E0.00524
G1 X-4.674 Y-4.325 E0.00484
G1 X-4.585 Y-4.467 E0.00484
G1 X-4.467 Y-4.585 E0.00484
G1 X-4.325 Y-4.674 E0.00484
G1 X-4.167 Y-4.730 E0.00484
G1 X-3.986 Y-4.750 E0.00524
G1 X1.015 Y-4.749 E0.14433
G1 X1.274 Y-4.403 F15000.000
G1 X-3.941 Y-4.168 F15000.000
G1 X-4.179 Y-3.931 E0.00975 F2400.000
G1 X-4.185 Y-3.417 E0.01487
G1 X-3.417 Y-4.185 E0.03145
G1 X-2.911 Y-4.185 E0.01468
G1 X-4.185 Y-2.911 E0.05221
G1 X-4.185 Y-2.404 E0.01468
G1 X-2.404 Y-4.185 E0.07297
G1 X-1.897 Y-4.185 E0.01468
G1 X-4.185 Y-1.897 E0.09374
G1 X-4.185 Y-1.390 E0.01468
G1 X-1.390 Y-4.185 E0.11450
G1 X-0.884 Y-4.185 E0.01468
G1 X-4.185 Y-0.883 E0.13526
G1 X-4.185 Y-0.376 E0.01468
G1 X-0.377 Y-4.185 E0.15602
G1 X0.130 Y-4.185 E0.01468
G1 X-4.185 Y0.130 E0.17678
G1 X-4.185 Y0.637 E0.01468
G1 X0.637 Y-4.185 E0.19754
G1 X1.143 Y-4.184 E0.01468
G1 X-4.185 Y1.144 E0.21830
G1 X-4.185 Y1.651 E0.01468
G1 X1.650 Y-4.184 E0.23906
G1 X2.157 Y-4.184 E0.01468
G1 X-4.185 Y2.158 E0.25982
G1 X-4.185 Y2.665 E0.01468
G1 X2.664 Y-4.184 E0.28058
G1 X3.170 Y-4.184 E0.01468
G1 X-4.185 Y3.171 E0.30134
G1 X-4.185 Y3.678 E0.01468
G1 X3.677 Y-4.184 E0.32210
G1 X4.130 Y-4.130 E0.01322
G1 X-4.130 Y4.130 E0.33842
G1 X-3.678 Y4.185 E0.01319
G1 X4.185 Y-3.678 E0.32215
G1 X4.185 Y-3.172 E0.01468
G1 X-3.172 Y4.185 E0.30138
G1 X-2.665 Y4.185 E0.01468
G1 X4.185 Y-2.665 E0.28062
G1 X4.185 Y-2.158 E0.01468
G1 X-2.158 Y4.185 E0.25986
G1 X-1.651 Y4.185 E0.01468
G1 X4.185 Y-1.651 E0.23909
G1 X4.185 Y-1.144 E0.01468
G1 X-1.144 Y4.185 E0.21833
G1 X-0.637 Y4.185 E0.01468
G1 X4.185 Y-0.637 E0.19757
G1 X4.185 Y-0.131 E0.01468
G1 X-0.131 Y4.185 E0.17680
G1 X0.376 Y4.185 E0.01468
G1 X4.185 Y0.376 E0.15604
G1 X4.185 Y0.883 E0.01468
G1 X0.883 Y4.185 E0.13528
G1 X1.390 Y4.185 E0.01468
G1 X4.185 Y1.390 E0.11451
G1 X4.185 Y1.897 E0.01468
G1 X1.897 Y4.185 E0.09375
G1 X2.404 Y4.185 E0.01468
G1 X4.185 Y2.404 E0.07298
G1 X4.185 Y2.910 E0.01468
G1 X2.910 Y4.185 E0.05222
G1 X3.417 Y4.185 E0.01468
G1 X4.185 Y3.417 E0.03146
G1 X4.179 Y3.930 E0.01487
G1 X3.941 Y4.168 E0.00975
G1 E-4.20000 F1500.00000
G1 Z1.500 F15000.000
G1 X-4.393 Y0.871 F15000.000
G1 Z0.700 F15000.000
G1 E4.20000 F1500.00000
G1 X-4.393 Y-3.966 E0.13960 F2400.000
G1 X-4.351 Y-4.169 E0.00598
G1 X-4.304 Y-4.243 E0.00251
G1 X-4.169 Y-4.351 E0.00500
G1 X-3.966 Y-4.393 E0.00598
G1 X3.982 Y-4.391 E0.22940
G1 X4.169 Y-4.351 E0.00551 F2400.000
G1 X4.304 Y-4.243 E0.00500
G1 X4.379 Y-4.087 E0.00500
G1 X4.393 Y-3.966 E0.00351
G1 X4.393 Y3.966 E0.22893
G1 X4.351 Y4.169 E0.00598
G1 X4.243 Y4.304 E0.00500
G1 X4.087 Y4.379 E0.00500
G1 X3.966 Y4.393 E0.00350
G1 X-3.966 Y4.393 E0.22893
G1 X-4.169 Y4.351 E0.00598
G1 X-4.243 Y4.304 E0.00251
G1 X-4.351 Y4.169 E0.00500
G1 X-4.393 Y3.966 E0.00598
G1 X-4.393 Y0.931 E0.08760
G1 X-4.750 Y0.931 F15000.000
G1 X-4.750 Y-3.986 E0.14191 F2400.000
G1 X-4.730 Y-4.167 E0.00524
G1 X-4.674 Y-4.325 E0.00484
G1 X-4.585 Y-4.467 E0.00484
G1 X-4.467 Y-4.585 E0.00484
G1 X-4.325 Y-4.674 E0.00484
G1 X-4.167 Y-4.730 E0.00484
G1 X-3.986 Y-4.750 E0.00524
G1 X4.002 Y-4.748 E0.23056
G1 X4.167 Y-4.730 E0.00477 F2400.000
G1 X4.325 Y-4.674 E0.00484
G1 X4.467 Y-4.585 E0.00484
G1 X4.585 Y-4.467 E0.00484
G1 X4.674 Y-4.325 E0.00484
G1 X4.730 Y-4.167 E0.00484
G1 X4.750 Y-3.986 E0.00525
G1 X4.750 Y3.986 E0.23009
G1 X4.730 Y4.167 E0.00525
G1 X4.674 Y4.325 E0.00484
G1 X4.585 Y4.467 E0.00484
G1 X4.467 Y4.585 E0.00484
G1 X4.325 Y4.674 E0.00484
G1 X4.167 Y4.730 E0.00484
G1 X3.986 Y4.750 E0.00525
G1 X-3.986 Y4.750 E0.23009
G1 X-4.167 Y4.730 E0.00525
G1 X-4.325 Y4.674 E0.00484
G1 X-4.467 Y4.585 E0.00484
G1 X-4.585 Y4.467 E0.00484
G1 X-4.674 Y4.325 E0.00484
G1 X-4.730 Y4.167 E0.00484
G1 X-4.750 Y3.986 E0.00524
G1 X-4.750 Y0.991 E0.08645
G1 X-4.404 Y0.731 F15000.000
G1 X-1.360 Y4.185 F15000.000
G1 X-4.185 Y2.377 E0.09683 F2400.000
G1 X-4.185 Y-0.653 E0.08744
G1 X0.653 Y4.185 E0.19747
G1 X4.185 Y3.531 E0.10369
G1 X-4.185 Y-1.713 E0.28509
G1 X-2.667 Y-4.185 E0.08373
G1 X4.185 Y2.668 E0.27971
G1 X4.185 Y-0.558 E0.09310
G1 X-1.575 Y-4.185 E0.19645
G1 X2.384 Y-4.184 E0.11425
G1 X4.185 Y-2.382 E0.07353
M106 S255
G1 E-4.20000 F1500.00000
G1 Z1.700 F15000.000
G1 X-4.393 Y-3.089 F15000.000
G1 Z0.900 F15000.000
G1 E4.20000 F1500.00000
G1 X-4.379 Y-4.087 E0.02879 F2400.000
G1 X-4.304 Y-4.243 E0.00500
G1 X-4.169 Y-4.351 E0.00500
G1 X-4.087 Y-4.379 E0.00251
G1 X-3.966 Y-4.393 E0.00350
G1 X3.988 Y-4.390 E0.22959
G1 X4.169 Y-4.351 E0.00533 F2400.000
G1 X4.304 Y-4.243 E0.00500
G1 X4.379 Y-4.087 E0.00500
G1 X4.393 Y-3.966 E0.00350
G1 X4.393 Y3.966 E0.22893
G1 X4.379 Y4.087 E0.00350
G1 X4.304 Y4.243 E0.00500
G1 X4.169 Y4.351 E0.00500
G1 X4.087 Y4.379 E0.00251
G1 X3.966 Y4.393 E0.00351
G1 X-3.966 Y4.393 E0.22893
G1 X-4.087 Y4.379 E0.00350
G1 X-4.243 Y4.304 E0.00500
G1 X-4.351 Y4.169 E0.00500
G1 X-4.393 Y3.966 E0.00598
G1 X-4.393 Y-3.029 E0.20190
G1 X-4.750 Y-3.029 F15000.000
G1 X-4.750 Y-3.986 E0.02761 F2400.000
G1 X-4.730 Y-4.167 E0.00525
G1 X-4.674 Y-4.325 E0.00484
G1 X-4.585 Y-4.467 E0.00484
G1 X-4.467 Y-4.585 E0.00484
G1 X-4.325 Y-4.674 E0.00484
G1 X-4.167 Y-4.730 E0.00484
G1 X-3.986 Y-4.750 E0.00524
G1 X4.009 Y-4.747 E0.23074
G1 X4.167 Y-4.730 E0.00459 F2400.000
G1 X4.325 Y-4.674 E0.00484
G1 X4.467 Y-4.585 E0.00484
G1 X4.585 Y-4.467 E0.00484
G1 X4.674 Y-4.325 E0.00484
G1 X4.730 Y-4.167 E0.00484
G1 X4.750 Y-3.986 E0.00524
G1 X4.750 Y3.986 E0.23009
G1 X4.730 Y4.167 E0.00524
G1 X4.674 Y4.325 E0.00484
G1 X4.585 Y4.467 E0.00484
G1 X4.467 Y4.585 E0.00484
G1 X4.325 Y4.674 E0.00484
G1 X4.167 Y4.730 E0.00484
G1 X3.986 Y4.750 E0.00525
G1 X-3.986 Y4.750 E0.23009
G1 X-4.167 Y4.730 E0.00524
G1 X-4.325 Y4.674 E0.00484
G1 X-4.467 Y4.585 E0.00484
G1 X-4.585 Y4.467 E0.00484
G1 X-4.674 Y4.325 E0.00484
G1 X-4.730 Y4.167 E0.00484
G1 X-4.750 Y3.986 E0.00525
G1 X-4.750 Y-2.969 E0.20075
G1 X-4.404 Y-3.229 F15000.000
G1 X-4.185 Y-1.360 F15000.000
G1 X-2.377 Y-4.185 E0.09681 F2400.000
G1 X0.651 Y-4.184 E0.08741
G1 X-4.185 Y0.653 E0.19741
G1 X-3.531 Y4.185 E0.10369
G1 X1.712 Y-4.183 E0.28503
G1 X4.185 Y-2.668 E0.08373
G1 X-2.668 Y4.185 E0.27972
G1 X0.558 Y4.185 E0.09310
G1 X4.185 Y-1.576 E0.19648
G1 X4.185 Y2.382 E0.11423
G1 X2.382 Y4.185 E0.07359
G1 E-4.20000 F1500.00000
G1 Z1.900 F15000.000
G1 X-0.458 Y4.393 F15000.000
G1 Z1.100 F15000.000
G1 E4.20000 F1500.00000
G1 X-3.966 Y4.393 E0.10124 F2400.000
G1 X-4.169 Y4.351 E0.00598
G1 X-4.243 Y4.304 E0.00251
G1 X-4.351 Y4.169 E0.00500
G1 X-4.393 Y3.966 E0.00598
G1 X-4.393 Y-3.966 E0.22893
G1 X-4.351 Y-4.169 E0.00598
G1 X-4.304 Y-4.243 E0.00251
G1 X-4.169 Y-4.351 E0.00500
G1 X-3.966 Y-4.393 E0.00598
G1 X3.995 Y-4.390 E0.22977
G1 X4.169 Y-4.351 E0.00515 F2400.000
G1 X4.304 Y-4.243 E0.00500
G1 X4.379 Y-4.087 E0.00500
G1 X4.393 Y-3.966 E0.00350
G1 X4.393 Y3.966 E0.22893
G1 X4.351 Y4.169 E0.00598
G1 X4.304 Y4.243 E0.00251
G1 X4.169 Y4.351 E0.00500
G1 X3.966 Y4.393 E0.00598
G1 X-0.398 Y4.393 E0.12596
G1 X-0.398 Y4.750 F15000.000
G1 X-3.986 Y4.750 E0.10355 F2400.000
G1 X-4.167 Y4.730 E0.00524
G1 X-4.325 Y4.674 E0.00484
G1 X-4.467 Y4.585 E0.00484
G1 X-4.585 Y4.467 E0.00484
G1 X-4.674 Y4.325 E0.00484
G1 X-4.730 Y4.167 E0.00484
G1 X-4.750 Y3.986 E0.00524
G1 X-4.750 Y-3.986 E0.23009
G1 X-4.730 Y-4.167 E0.00524
G1 X-4.674 Y-4.325 E0.00484
G1 X-4.585 Y-4.467 E0.00484
G1 X-4.467 Y-4.585 E0.00484
G1 X-4.325 Y-4.674 E0.00484
G1 X-4.167 Y-4.730 E0.00484
G1 X-3.986 Y-4.750 E0.00524
G1 X4.015 Y-4.747 E0.23093
G1 X4.167 Y-4.730 E0.00440 F2400.000
G1 X4.325 Y-4.674 E0.00484
G1 X4.467 Y-4.585 E0.00484
G1 X4.585 Y-4.467 E0.00484
G1 X4.674 Y-4.325 E0.00484
G1 X4.730 Y-4.167 E0.00484
G1 X4.750 Y-3.986 E0.00524
G1 X4.750 Y3.986 E0.23009
G1 X4.730 Y4.167 E0.00524
G1 X4.674 Y4.325 E0.00484
G1 X4.585 Y4.467 E0.00484
G1 X4.467 Y4.585 E0.00484
G1 X4.325 Y4.674 E0.00484
G1 X4.167 Y4.730 E0.00484
G1 X3.986 Y4.750 E0.00524
G1 X-0.338 Y4.750 E0.12481
G1 X-0.598 Y4.404 F15000.000
G1 X-1.360 Y4.185 F15000.000
G1 X-4.185 Y2.377 E0.09683 F2400.000
G1 X-4.185 Y-0.653 E0.08744
G1 X0.653 Y4.185 E0.19747
G1 X4.185 Y3.531 E0.10369
G1 X-4.185 Y-1.713 E0.28509
G1 X-2.667 Y-4.185 E0.08373
G1 X4.185 Y2.668 E0.27970
G1 X4.185 Y-0.558 E0.09310
G1 X-1.574 Y-4.184 E0.19643
G1 X2.385 Y-4.183 E0.11426
G1 X4.185 Y-2.382 E0.07349
G1 E-4.20000 F1500.00000
G1 Z2.100 F15000.000
G1 X1.515 Y4.393 F15000.000
G1 Z1.300 F15000.000
G1 E4.20000 F1500.00000
G1 X-3.966 Y4.393 E0.15820 F2400.000
G1 X-4.169 Y4.351 E0.00598
G1 X-4.304 Y4.243 E0.00500
G1 X-4.379 Y4.087 E0.00500
G1 X-4.393 Y3.966 E0.00350
G1 X-4.393 Y-3.966 E0.22893
G1 X-4.379 Y-4.087 E0.00350
G1 X-4.351 Y-4.169 E0.00251
G1 X-4.243 Y-4.304 E0.00500
G1 X-4.087 Y-4.379 E0.00500
G1 X-3.966 Y-4.393 E0.00350
G1 X4.001 Y-4.389 E0.22995
G1 X4.169 Y-4.351 E0.00497 F2400.000
G1 X4.304 Y-4.243 E0.00500
G1 X4.379 Y-4.087 E0.00500
G1 X4.393 Y-3.966 E0.00351
G1 X4.393 Y3.966 E0.22893
G1 X4.379 Y4.087 E0.00351
G1 X4.351 Y4.169 E0.00251
G1 X4.243 Y4.304 E0.00500
G1 X4.087 Y4.379 E0.00500
G1 X3.966 Y4.393 E0.00350
G1 X1.575 Y4.393 E0.06900
G1 X1.575 Y4.750 F15000.000
G1 X-3.986 Y4.750 E0.16051 F2400.000
G1 X-4.167 Y4.730 E0.00525
G1 X-4.325 Y4.674 E0.00484
G1 X-4.467 Y4.585 E0.00484
G1 X-4.585 Y4.467 E0.00484
G1 X-4.674 Y4.325 E0.00484
G1 X-4.730 Y4.167 E0.00484
G1 X-4.750 Y3.986 E0.00524
G1 X-4.750 Y-3.986 E0.23009
G1 X-4.730 Y-4.167 E0.00525
G1 X-4.674 Y-4.325 E0.00484
G1 X-4.585 Y-4.467 E0.00484
G1 X-4.467 Y-4.585 E0.00484
G1 X-4.325 Y-4.674 E0.00484
G1 X-4.167 Y-4.730 E0.00484
G1 X-3.986 Y-4.750 E0.00524
G1 X4.021 Y-4.746 E0.23111
G1 X4.167 Y-4.730 E0.00422 F2400.000
G1 X4.325 Y-4.674 E0.00484
G1 X4.467 Y-4.585 E0.00484
G1 X4.585 Y-4.467 E0.00484
G1 X4.674 Y-4.325 E0.00484
G1 X4.730 Y-4.167 E0.00484
G1 X4.750 Y-3.986 E0.00525
G1 X4.750 Y3.986 E0.23009
G1 X4.730 Y4.167 E0.00525
G1 X4.674 Y4.325 E0.00484
G1 X4.585 Y4.467 E0.00484
G1 X4.467 Y4.585 E0.00484
G1 X4.325 Y4.674 E0.00484
G1 X4.167 Y4.730 E0.00484
G1 X3.986 Y4.750 E0.00524
G1 X1.635 Y4.750 E0.06785
G1 X1.375 Y4.404 F15000.000
G1 X2.382 Y4.185 F15000.000
G1 X4.185 Y2.382 E0.07359 F2400.000
G1 X4.185 Y-1.576 E0.11423
G1 X0.558 Y4.185 E0.19648
G1 X-2.668 Y4.185 E0.09310
G1 X4.185 Y-2.668 E0.27972
G1 X1.711 Y-4.182 E0.08373
G1 X-3.531 Y4.185 E0.28499
G1 X-4.185 Y0.653 E0.10369
G1 X0.650 Y-4.183 E0.19738
G1 X-2.377 Y-4.184 E0.08739
G1 X-4.185 Y-1.360 E0.09680
G1 E-4.20000 F1500.00000
G1 Z2.300 F15000.000
G1 X4.393 Y2.864 F15000.000
G1 Z1.500 F15000.000
G1 E4.20000 F1500.00000
G1 X4.379 Y4.087 E0.03530 F2400.000
G1 X4.304 Y4.243 E0.00500
G1 X4.169 Y4.351 E0.00500
