; generated by Slic3r 1.2.9 on 2017-05-31 at 12:08:15

; external perimeters extrusion width = 0.40mm
; perimeters extrusion width = 0.40mm
; infill extrusion width = 0.40mm
; solid infill extrusion width = 0.40mm
; top infill extrusion width = 0.40mm

; external perimeters extrusion width = 0.50mm
; perimeters extrusion width = 0.85mm
; infill extrusion width = 0.87mm
; solid infill extrusion width = 0.85mm
; top infill extrusion width = 0.85mm

M107
;G28 ; home all axes
;G1 Z5 F5000 ; lift nozzle
G10 P0 S185
T0
M116

G21 ; set units to millimeters
G90 ; use absolute coordinates
M82 ; use absolute distances for extrusion
G92 E0
G1 Z0.300 F6000.000
G1 E-2.00000 F2400.00000
G92 E0
G1 X76.809 Y76.809 F6000.000
G1 E2.00000 F2400.00000
G1 X77.253 Y76.365 E2.02629 F900.000
G1 X77.772 Y75.898 E2.05552
G1 X78.748 Y75.107 E2.10810
G1 X79.313 Y74.697 E2.13733
G1 X80.367 Y74.013 E2.18991
G1 X80.971 Y73.664 E2.21914
G1 X82.091 Y73.093 E2.27172
G1 X82.728 Y72.809 E2.30095
G1 X83.901 Y72.359 E2.35353
G1 X84.565 Y72.143 E2.38276
G1 X85.778 Y71.818 E2.43534
G1 X86.461 Y71.673 E2.46457
G1 X87.702 Y71.477 E2.51715
G1 X88.397 Y71.404 E2.54638
G1 X89.651 Y71.338 E2.59896
G1 X90.349 Y71.338 E2.62819
G1 X91.604 Y71.404 E2.68077 F900.000
G1 X92.298 Y71.477 E2.71000
G1 X93.539 Y71.673 E2.76258
G1 X94.222 Y71.818 E2.79181
G1 X95.435 Y72.143 E2.84439
G1 X96.099 Y72.359 E2.87362
G1 X97.228 Y72.792 E2.92422
G1 X97.910 Y73.093 E2.95542
G1 X99.029 Y73.664 E3.00801
G1 X99.633 Y74.013 E3.03723
G1 X100.687 Y74.697 E3.08981
G1 X101.252 Y75.107 E3.11904
G1 X102.228 Y75.898 E3.17162
G1 X102.747 Y76.365 E3.20085
G1 X103.602 Y77.220 E3.25146
G1 X104.102 Y77.772 E3.28266
G1 X104.893 Y78.748 E3.33524
G1 X105.303 Y79.313 E3.36447
G1 X105.987 Y80.367 E3.41705
G1 X106.336 Y80.971 E3.44628
G1 X106.907 Y82.090 E3.49886
G1 X107.191 Y82.728 E3.52809
G1 X107.641 Y83.901 E3.58067
G1 X107.857 Y84.565 E3.60990
G1 X108.182 Y85.778 E3.66248
G1 X108.327 Y86.461 E3.69171
G1 X108.523 Y87.702 E3.74429
G1 X108.596 Y88.397 E3.77352
G1 X108.662 Y89.651 E3.82610
G1 X108.662 Y90.349 E3.85533
G1 X108.599 Y91.556 E3.90594
G1 X108.523 Y92.298 E3.93714
G1 X108.327 Y93.539 E3.98972
G1 X108.182 Y94.221 E4.01893
G1 X107.857 Y95.435 E4.07153
G1 X107.641 Y96.099 E4.10076
G1 X107.191 Y97.272 E4.15334
G1 X106.907 Y97.910 E4.18257
G1 X106.336 Y99.029 E4.23515
G1 X105.987 Y99.633 E4.26438
G1 X105.303 Y100.687 E4.31696
G1 X104.893 Y101.252 E4.34619
G1 X104.102 Y102.228 E4.39877
G1 X103.635 Y102.747 E4.42800
G1 X102.747 Y103.635 E4.48058
G1 X102.228 Y104.102 E4.50981
G1 X101.252 Y104.893 E4.56239
G1 X100.687 Y105.303 E4.59162
G1 X99.633 Y105.987 E4.64420
G1 X99.029 Y106.336 E4.67343
G1 X97.910 Y106.907 E4.72601
G1 X97.272 Y107.191 E4.75524
G1 X96.099 Y107.641 E4.80782
G1 X95.435 Y107.857 E4.83705
G1 X94.222 Y108.182 E4.88962
G1 X93.539 Y108.327 E4.91886
G1 X92.298 Y108.523 E4.97143
G1 X91.603 Y108.596 E5.00067
G1 X90.349 Y108.662 E5.05325
G1 X89.651 Y108.662 E5.08248
G1 X88.396 Y108.596 E5.13507
G1 X87.702 Y108.523 E5.16429
G1 X86.461 Y108.327 E5.21686
G1 X85.779 Y108.182 E5.24608
G1 X84.565 Y107.857 E5.29867
G1 X83.901 Y107.641 E5.32791
G1 X82.728 Y107.191 E5.38048
G1 X82.090 Y106.907 E5.40971
G1 X80.971 Y106.336 E5.46230
G1 X80.367 Y105.987 E5.49152
G1 X79.313 Y105.303 E5.54411
G1 X78.748 Y104.893 E5.57334
G1 X77.772 Y104.102 E5.62591
G1 X77.253 Y103.635 E5.65514
G1 X76.398 Y102.780 E5.70575
G1 X75.898 Y102.228 E5.73695
G1 X75.107 Y101.252 E5.78953
G1 X74.697 Y100.687 E5.81876
G1 X74.013 Y99.633 E5.87134
G1 X73.664 Y99.029 E5.90057
G1 X73.093 Y97.910 E5.95315
G1 X72.809 Y97.272 E5.98238
G1 X72.359 Y96.099 E6.03496
G1 X72.143 Y95.435 E6.06419
G1 X71.823 Y94.240 E6.11596
G1 X71.673 Y93.539 E6.14600
G1 X71.477 Y92.298 E6.19858
G1 X71.404 Y91.603 E6.22781
G1 X71.338 Y90.349 E6.28040
G1 X71.338 Y89.651 E6.30962
G1 X71.404 Y88.397 E6.36220
G1 X71.514 Y87.467 E6.40137
G1 X71.673 Y86.461 E6.44400
G1 X71.818 Y85.778 E6.47323
G1 X72.143 Y84.565 E6.52581
G1 X72.359 Y83.901 E6.55504
G1 X72.809 Y82.728 E6.60762
G1 X73.093 Y82.090 E6.63685
G1 X73.664 Y80.971 E6.68943
G1 X74.013 Y80.367 E6.71866
G1 X74.697 Y79.313 E6.77124
G1 X75.107 Y78.748 E6.80047
G1 X75.898 Y77.772 E6.85305
G1 X76.365 Y77.253 E6.88228
G1 X76.756 Y76.862 E6.90543
G1 X76.993 Y77.099 F6000.000
G1 X77.491 Y76.602 E6.93486 F900.000
G1 X77.983 Y76.159 E6.96262
G1 X78.959 Y75.368 E7.01520
G1 X79.496 Y74.978 E7.04296
G1 X80.549 Y74.294 E7.09554
G1 X81.124 Y73.963 E7.12330
G1 X82.243 Y73.392 E7.17588
G1 X82.849 Y73.123 E7.20364
G1 X84.021 Y72.673 E7.25622
G1 X84.652 Y72.468 E7.28398
G1 X85.865 Y72.142 E7.33655
G1 X86.514 Y72.005 E7.36432
G1 X87.755 Y71.808 E7.41689
G1 X88.414 Y71.739 E7.44465
G1 X89.669 Y71.673 E7.49724
G1 X90.332 Y71.673 E7.52499
G1 X91.586 Y71.739 E7.57757 F900.000
G1 X92.245 Y71.808 E7.60533
G1 X93.486 Y72.005 E7.65791
G1 X94.135 Y72.142 E7.68567
G1 X95.348 Y72.468 E7.73826
G1 X95.979 Y72.673 E7.76601
G1 X97.107 Y73.106 E7.81662
G1 X97.757 Y73.392 E7.84635
G1 X98.876 Y73.963 E7.89893
G1 X99.451 Y74.294 E7.92669
G1 X100.504 Y74.978 E7.97927
G1 X101.041 Y75.368 E8.00703
G1 X102.017 Y76.159 E8.05961
G1 X102.510 Y76.602 E8.08737
G1 X103.364 Y77.457 E8.13797
G1 X103.841 Y77.983 E8.16770
G1 X104.632 Y78.960 E8.22029
G1 X105.022 Y79.496 E8.24804
G1 X105.706 Y80.549 E8.30062
G1 X106.037 Y81.124 E8.32838
G1 X106.608 Y82.243 E8.38096
G1 X106.877 Y82.849 E8.40872
G1 X107.327 Y84.021 E8.46130
G1 X107.532 Y84.652 E8.48906
G1 X107.858 Y85.865 E8.54164
G1 X107.995 Y86.514 E8.56940
G1 X108.192 Y87.755 E8.62198
G1 X108.261 Y88.414 E8.64974
G1 X108.327 Y89.668 E8.70232
G1 X108.327 Y90.332 E8.73008
G1 X108.261 Y91.586 E8.78266
G1 X108.192 Y92.245 E8.81042
G1 X107.995 Y93.486 E8.86300
G1 X107.853 Y94.153 E8.89156
G1 X107.532 Y95.348 E8.94334
G1 X107.327 Y95.979 E8.97110
G1 X106.877 Y97.151 E9.02367
G1 X106.608 Y97.757 E9.05143
G1 X106.037 Y98.876 E9.10402
G1 X105.706 Y99.451 E9.13177
G1 X105.022 Y100.504 E9.18435
G1 X104.632 Y101.041 E9.21211
G1 X103.841 Y102.017 E9.26469
G1 X103.398 Y102.510 E9.29245
G1 X102.510 Y103.398 E9.34503
G1 X102.017 Y103.841 E9.37279
G1 X101.040 Y104.632 E9.42538
G1 X100.504 Y105.022 E9.45313
G1 X99.451 Y105.706 E9.50571
G1 X98.876 Y106.037 E9.53347
G1 X97.757 Y106.608 E9.58605
G1 X97.151 Y106.877 E9.61381
G1 X95.979 Y107.327 E9.66639
G1 X95.348 Y107.532 E9.69415
G1 X94.135 Y107.858 E9.74673
G1 X93.486 Y107.995 E9.77449
G1 X92.245 Y108.192 E9.82707
G1 X91.586 Y108.261 E9.85483
G1 X90.332 Y108.327 E9.90741
G1 X89.668 Y108.327 E9.93517
G1 X88.414 Y108.261 E9.98776
G1 X87.755 Y108.192 E10.01551
G1 X86.514 Y107.995 E10.06809
G1 X85.866 Y107.858 E10.09583
G1 X84.652 Y107.532 E10.14843
G1 X84.021 Y107.327 E10.17619
G1 X82.849 Y106.877 E10.22876
G1 X82.243 Y106.608 E10.25652
G1 X81.124 Y106.037 E10.30911
G1 X80.549 Y105.706 E10.33686
G1 X79.496 Y105.022 E10.38945
G1 X78.959 Y104.632 E10.41720
G1 X77.983 Y103.841 E10.46978
G1 X77.490 Y103.398 E10.49754
G1 X76.636 Y102.543 E10.54815
G1 X76.159 Y102.017 E10.57788
G1 X75.368 Y101.041 E10.63046
G1 X74.978 Y100.504 E10.65822
G1 X74.294 Y99.451 E10.71080
G1 X73.963 Y98.876 E10.73856
G1 X73.392 Y97.757 E10.79114
G1 X73.123 Y97.151 E10.81890
G1 X72.672 Y95.979 E10.87148
G1 X72.468 Y95.348 E10.89923
G1 X72.148 Y94.154 E10.95099
G1 X72.005 Y93.486 E10.97958
G1 X71.808 Y92.245 E11.03216
G1 X71.739 Y91.586 E11.05991
G1 X71.673 Y90.331 E11.11250
G1 X71.673 Y89.668 E11.14025
G1 X71.739 Y88.414 E11.19283
G1 X71.808 Y87.755 E11.22059
G1 X72.005 Y86.514 E11.27317
G1 X72.142 Y85.865 E11.30093
G1 X72.468 Y84.652 E11.35351
G1 X72.673 Y84.021 E11.38127
G1 X73.123 Y82.849 E11.43385
G1 X73.392 Y82.243 E11.46161
G1 X73.963 Y81.124 E11.51419
G1 X74.294 Y80.549 E11.54195
G1 X74.978 Y79.496 E11.59453
G1 X75.368 Y78.959 E11.62229
G1 X76.159 Y77.983 E11.67487
G1 X76.602 Y77.490 E11.70263
G1 X76.940 Y77.152 E11.72264
G1 E9.72264 F2400.00000
G92 E0
G1 X88.879 Y96.494 F6000.000
G1 E2.00000 F2400.00000
G1 X89.237 Y96.332 E2.03202 F900.000
G1 X89.624 Y96.234 E2.06460
G1 X90.000 Y96.202 E2.09544 F900.000
G1 X90.388 Y96.235 E2.12726
G1 X90.766 Y96.333 E2.15907
G1 X91.121 Y96.494 E2.19089
G1 X91.444 Y96.712 E2.22271
G1 X91.725 Y96.982 E2.25452
G1 X91.957 Y97.295 E2.28634
G1 X92.132 Y97.643 E2.31816
G1 X92.246 Y98.016 E2.34997
G1 X92.296 Y98.402 E2.38179
G1 X92.279 Y98.792 E2.41361
G1 X92.197 Y99.173 E2.44543
G1 X92.052 Y99.535 E2.47724
G1 X91.848 Y99.866 E2.50906
G1 X91.590 Y100.159 E2.54088
G1 X91.287 Y100.404 E2.57269
G1 X90.947 Y100.594 E2.60451
G1 X90.579 Y100.724 E2.63633
G1 X90.195 Y100.790 E2.66814
G1 X89.803 Y100.790 E2.70016
G1 X89.410 Y100.720 E2.73275
G1 X89.053 Y100.594 E2.76358
G1 X88.713 Y100.404 E2.79540
G1 X88.410 Y100.159 E2.82722
G1 X88.152 Y99.866 E2.85903
G1 X87.948 Y99.535 E2.89085
G1 X87.803 Y99.173 E2.92267
G1 X87.721 Y98.792 E2.95449
G1 X87.704 Y98.391 E2.98727
G1 X87.773 Y97.953 E3.02342
G1 X87.868 Y97.643 E3.04989
G1 X88.043 Y97.295 E3.08170
G1 X88.275 Y96.982 E3.11352
G1 X88.556 Y96.712 E3.14534
G1 X88.817 Y96.536 E3.17103
G1 X89.122 Y96.987 F6000.000
G1 X89.417 Y96.849 E3.18874 F900.000
G1 X89.714 Y96.773 E3.20539
G1 X90.000 Y96.749 E3.22097 F900.000
G1 X90.296 Y96.774 E3.23710
G1 X90.583 Y96.849 E3.25324
G1 X90.854 Y96.971 E3.26937
G1 X91.100 Y97.138 E3.28551
G1 X91.314 Y97.343 E3.30164
G1 X91.491 Y97.582 E3.31778
G1 X91.625 Y97.847 E3.33391
G1 X91.712 Y98.131 E3.35005
G1 X91.749 Y98.426 E3.36619
G1 X91.737 Y98.722 E3.38232
G1 X91.674 Y99.013 E3.39846
G1 X91.563 Y99.288 E3.41459
G1 X91.408 Y99.541 E3.43073
G1 X91.212 Y99.764 E3.44686
G1 X90.980 Y99.951 E3.46300
G1 X90.721 Y100.095 E3.47913
G1 X90.441 Y100.194 E3.49527
G1 X90.148 Y100.245 E3.51141
G1 X89.851 Y100.245 E3.52758
G1 X89.549 Y100.191 E3.54423
G1 X89.279 Y100.095 E3.55980
G1 X89.020 Y99.951 E3.57594
G1 X88.788 Y99.764 E3.59208
G1 X88.592 Y99.541 E3.60821
G1 X88.437 Y99.288 E3.62435
G1 X88.326 Y99.013 E3.64048
G1 X88.263 Y98.722 E3.65662
G1 X88.251 Y98.422 E3.67295
G1 X88.305 Y98.076 E3.69197
G1 X88.375 Y97.847 E3.70499
G1 X88.509 Y97.582 E3.72112
G1 X88.686 Y97.343 E3.73726
G1 X88.900 Y97.138 E3.75340
G1 X89.060 Y97.029 E3.76390
G1 X89.133 Y96.662 F6000.000
G1 X89.814 Y92.190 F6000.000
G1 X89.446 Y92.127 E3.79433 F900.000
G1 X89.095 Y92.003 E3.82477
G1 X88.769 Y91.821 E3.85520
G1 X88.479 Y91.587 E3.88563
G1 X88.233 Y91.307 E3.91606
G1 X88.037 Y90.990 E3.94650
G1 X87.898 Y90.644 E3.97693
G1 X87.820 Y90.279 E4.00736
G1 X87.804 Y89.903 E4.03806
G1 X87.856 Y89.523 E4.06944
G1 X87.961 Y89.180 E4.09864
G1 X88.128 Y88.848 E4.12908
G1 X88.350 Y88.548 E4.15951
G1 X88.619 Y88.290 E4.18994
G1 X88.928 Y88.081 E4.22037
G1 X89.271 Y87.926 E4.25107
G1 X89.644 Y87.832 E4.28246
G1 X90.000 Y87.802 E4.31166 F900.000
G1 X90.371 Y87.834 E4.34209
G1 X90.732 Y87.928 E4.37252
G1 X91.072 Y88.081 E4.40295
G1 X91.383 Y88.292 E4.43365
G1 X91.659 Y88.560 E4.46504
G1 X91.872 Y88.848 E4.49424
G1 X92.039 Y89.180 E4.52467
G1 X92.149 Y89.537 E4.55510
G1 X92.196 Y89.907 E4.58554
G1 X92.180 Y90.279 E4.61597
G1 X92.102 Y90.644 E4.64640
G1 X91.961 Y90.993 E4.67710
G1 X91.757 Y91.318 E4.70848
G1 X91.521 Y91.587 E4.73768
G1 X91.231 Y91.821 E4.76812
G1 X90.905 Y92.003 E4.79855
G1 X90.554 Y92.127 E4.82898
G1 X90.186 Y92.190 E4.85941
G1 X89.889 Y92.190 E4.88372
G1 X89.889 Y91.645 F6000.000
G1 X89.584 Y91.598 E4.90047 F900.000
G1 X89.320 Y91.504 E4.91568
G1 X89.076 Y91.368 E4.93090
G1 X88.858 Y91.192 E4.94611
G1 X88.673 Y90.982 E4.96133
G1 X88.526 Y90.743 E4.97654
G1 X88.421 Y90.483 E4.99175
G1 X88.362 Y90.210 E5.00697
G1 X88.351 Y89.929 E5.02224
G1 X88.390 Y89.640 E5.03809
G1 X88.468 Y89.384 E5.05260
G1 X88.594 Y89.134 E5.06781
G1 X88.761 Y88.909 E5.08303
G1 X88.963 Y88.716 E5.09824
G1 X89.195 Y88.559 E5.11346
G1 X89.451 Y88.443 E5.12873
G1 X89.734 Y88.372 E5.14458
G1 X90.000 Y88.349 E5.15909 F900.000
G1 X90.279 Y88.373 E5.17430
G1 X90.550 Y88.443 E5.18952
G1 X90.805 Y88.559 E5.20473
G1 X91.038 Y88.716 E5.22000
G1 X91.247 Y88.920 E5.23585
G1 X91.406 Y89.134 E5.25036
G1 X91.532 Y89.384 E5.26558
G1 X91.614 Y89.652 E5.28079
G1 X91.649 Y89.930 E5.29601
G1 X91.638 Y90.210 E5.31122
G1 X91.579 Y90.483 E5.32643
G1 X91.474 Y90.744 E5.34170
G1 X91.319 Y90.991 E5.35755
G1 X91.142 Y91.192 E5.37207
G1 X90.924 Y91.368 E5.38728
G1 X90.680 Y91.504 E5.40249
G1 X90.416 Y91.598 E5.41771
G1 X90.140 Y91.645 E5.43292
G1 X89.964 Y91.645 E5.44251
G1 X89.708 Y91.895 F6000.000
G1 X96.222 Y90.296 F6000.000
G1 X96.204 Y89.902 E5.47469 F900.000
G1 X96.254 Y89.516 E5.50651
G1 X96.368 Y89.143 E5.53832
G1 X96.543 Y88.795 E5.57014
G1 X96.775 Y88.482 E5.60196
G1 X97.056 Y88.212 E5.63377
G1 X97.379 Y87.994 E5.66559
G1 X97.737 Y87.832 E5.69761
G1 X98.124 Y87.734 E5.73019
G1 X98.500 Y87.702 E5.76103 F900.000
G1 X98.888 Y87.735 E5.79285
G1 X99.266 Y87.833 E5.82466
G1 X99.621 Y87.994 E5.85648
G1 X99.944 Y88.212 E5.88830
G1 X100.227 Y88.484 E5.92031
G1 X100.462 Y88.806 E5.95290
G1 X100.632 Y89.143 E5.98374
G1 X100.746 Y89.516 E6.01555
G1 X100.796 Y89.902 E6.04737
G1 X100.779 Y90.292 E6.07919
G1 X100.697 Y90.673 E6.11101
G1 X100.552 Y91.035 E6.14282
G1 X100.348 Y91.366 E6.17464
G1 X100.090 Y91.659 E6.20646
G1 X99.787 Y91.904 E6.23827
G1 X99.447 Y92.094 E6.27009
G1 X99.079 Y92.224 E6.30191
G1 X98.695 Y92.290 E6.33372
G1 X98.305 Y92.290 E6.36554
G1 X97.921 Y92.224 E6.39736
G1 X97.553 Y92.094 E6.42917
G1 X97.213 Y91.904 E6.46099
G1 X96.908 Y91.657 E6.49301
G1 X96.646 Y91.356 E6.52559
G1 X96.448 Y91.035 E6.55643
G1 X96.303 Y90.673 E6.58825
G1 X96.237 Y90.370 E6.61357
G1 X96.770 Y90.255 F6000.000
G1 X96.751 Y89.926 E6.63148 F900.000
G1 X96.788 Y89.631 E6.64762
G1 X96.875 Y89.347 E6.66376
G1 X97.009 Y89.082 E6.67989
G1 X97.186 Y88.843 E6.69603
G1 X97.400 Y88.638 E6.71216
G1 X97.646 Y88.471 E6.72830
G1 X97.917 Y88.349 E6.74447
G1 X98.214 Y88.273 E6.76112
G1 X98.500 Y88.249 E6.77670 F900.000
G1 X98.796 Y88.274 E6.79283
G1 X99.083 Y88.349 E6.80897
G1 X99.354 Y88.471 E6.82510
G1 X99.600 Y88.638 E6.84124
G1 X99.815 Y88.844 E6.85742
G1 X99.996 Y89.091 E6.87406
G1 X100.125 Y89.347 E6.88964
G1 X100.212 Y89.631 E6.90577
G1 X100.249 Y89.926 E6.92191
G1 X100.237 Y90.222 E6.93804
G1 X100.174 Y90.513 E6.95418
G1 X100.063 Y90.788 E6.97032
G1 X99.908 Y91.041 E6.98645
G1 X99.712 Y91.264 E7.00259
G1 X99.480 Y91.451 E7.01872
G1 X99.221 Y91.595 E7.03486
G1 X98.941 Y91.694 E7.05099
G1 X98.648 Y91.745 E7.06713
G1 X98.352 Y91.745 E7.08326
G1 X98.059 Y91.694 E7.09940
G1 X97.779 Y91.595 E7.11553
G1 X97.520 Y91.451 E7.13167
G1 X97.288 Y91.264 E7.14785
G1 X97.087 Y91.032 E7.16449
G1 X96.937 Y90.788 E7.18007
G1 X96.826 Y90.513 E7.19620
G1 X96.786 Y90.328 E7.20646
G1 X96.468 Y90.122 F6000.000
G1 X91.287 Y83.404 F6000.000
G1 X90.947 Y83.594 E7.23828 F900.000
G1 X90.579 Y83.724 E7.27010
G1 X90.195 Y83.790 E7.30191
G1 X89.803 Y83.790 E7.33393
G1 X89.410 Y83.720 E7.36652
G1 X89.053 Y83.594 E7.39735
G1 X88.713 Y83.404 E7.42917
G1 X88.410 Y83.159 E7.46099
G1 X88.152 Y82.866 E7.49280
G1 X87.948 Y82.535 E7.52462
G1 X87.803 Y82.173 E7.55644
G1 X87.721 Y81.792 E7.58826
G1 X87.704 Y81.391 E7.62104
G1 X87.773 Y80.953 E7.65719
G1 X87.868 Y80.643 E7.68366
G1 X88.043 Y80.295 E7.71548
G1 X88.275 Y79.982 E7.74729
G1 X88.556 Y79.712 E7.77911
G1 X88.879 Y79.494 E7.81093
G1 X89.237 Y79.332 E7.84294
G1 X89.624 Y79.234 E7.87553
G1 X90.000 Y79.202 E7.90637 F900.000
G1 X90.388 Y79.235 E7.93818
G1 X90.766 Y79.333 E7.97000
G1 X91.121 Y79.494 E8.00182
G1 X91.444 Y79.712 E8.03363
G1 X91.725 Y79.982 E8.06545
G1 X91.957 Y80.295 E8.09727
G1 X92.132 Y80.643 E8.12908
G1 X92.246 Y81.016 E8.16090
G1 X92.296 Y81.402 E8.19272
G1 X92.279 Y81.792 E8.22453
G1 X92.197 Y82.173 E8.25635
G1 X92.051 Y82.537 E8.28837
G1 X91.840 Y82.875 E8.32095
G1 X91.590 Y83.159 E8.35179
G1 X91.345 Y83.357 E8.37749
G1 X91.003 Y82.933 F6000.000
G1 X90.721 Y83.095 E8.39516 F900.000
G1 X90.441 Y83.194 E8.41129
G1 X90.148 Y83.245 E8.42743
G1 X89.851 Y83.245 E8.44360
G1 X89.549 Y83.191 E8.46025
G1 X89.279 Y83.095 E8.47583
G1 X89.020 Y82.951 E8.49196
G1 X88.788 Y82.764 E8.50810
G1 X88.592 Y82.541 E8.52423
G1 X88.437 Y82.288 E8.54037
G1 X88.326 Y82.013 E8.55650
G1 X88.263 Y81.722 E8.57264
G1 X88.251 Y81.422 E8.58898
G1 X88.305 Y81.076 E8.60799
G1 X88.375 Y80.847 E8.62101
