; generated by Slic3r 1.2.9 on 2017-06-06 at 11:11:29

; external perimeters extrusion width = 0.50mm
; perimeters extrusion width = 0.85mm
; infill extrusion width = 0.87mm
; solid infill extrusion width = 0.85mm
; top infill extrusion width = 0.85mm

M107
;G28 ; home all axes
;G1 Z5 F5000 ; lift nozzle
G10 P0 S200
T0
M116

G21 ; set units to millimeters
G90 ; use absolute coordinates
M82 ; use absolute distances for extrusion
G92 E0
G1 Z0.300 F6000.000
G1 E-2.00000 F2400.00000
G92 E0
G1 X51.717 Y29.512 F6000.000
G1 E2.00000 F2400.00000
G1 X52.891 Y27.693 E2.17673 F900.000
G1 X53.651 Y26.711 E2.27811
G1 X55.116 Y25.117 E2.45484
G1 X56.037 Y24.272 E2.55686
G1 X57.752 Y22.951 E2.73358
G1 X58.800 Y22.278 E2.83524
G1 X60.715 Y21.267 E3.01202
G1 X61.861 Y20.782 E3.11366
G1 X63.919 Y20.111 E3.29037
G1 X65.132 Y19.827 E3.39203
G1 X67.275 Y19.515 E3.56882
G1 X68.520 Y19.441 E3.67067
G1 X70.684 Y19.498 E3.84738
G1 X71.920 Y19.636 E3.94889 F900.000
G1 X74.043 Y20.059 E4.12560
G1 X74.694 Y20.221 E4.18037
G1 X135.697 Y38.325 E9.37488
G1 X137.863 Y39.382 E9.57160
G1 X139.567 Y41.086 E9.76832
G1 X140.625 Y43.251 E9.96504
G1 X140.927 Y45.332 E10.13666
G1 X140.927 Y134.668 E17.42947
G1 X140.530 Y137.045 E17.62619
G1 X139.381 Y139.164 E17.82291
G1 X137.606 Y140.794 E18.01963
G1 X135.697 Y141.675 E18.19125
G1 X74.694 Y159.779 E23.38576
G1 X74.043 Y159.941 E23.44053
G1 X71.920 Y160.364 E23.61725
G1 X70.684 Y160.502 E23.71875
G1 X68.520 Y160.559 E23.89546
G1 X67.275 Y160.485 E23.99732
G1 X65.132 Y160.173 E24.17411
G1 X63.919 Y159.889 E24.27576
G1 X61.861 Y159.218 E24.45247
G1 X60.715 Y158.733 E24.55412
G1 X58.800 Y157.722 E24.73089
G1 X57.752 Y157.049 E24.83256
G1 X56.037 Y155.728 E25.00928
G1 X55.116 Y154.883 E25.11129
G1 X53.651 Y153.289 E25.28802
G1 X52.891 Y152.307 E25.38940
G1 X51.717 Y150.488 E25.56613
G1 X51.132 Y149.384 E25.66813
G1 X50.284 Y147.390 E25.84499
G1 X49.897 Y146.210 E25.94642
G1 X49.400 Y144.102 E26.12314
G1 X49.219 Y142.870 E26.22482
G1 X49.073 Y140.264 E26.43794
G1 X49.073 Y39.736 E34.64423
G1 X49.219 Y37.130 E34.85734
G1 X49.400 Y35.897 E34.95903
G1 X49.897 Y33.790 E35.13575
G1 X50.280 Y32.621 E35.23622
G1 X50.401 Y32.335 E35.26158
G1 X51.132 Y30.615 E35.41413
G1 X51.682 Y29.578 E35.50992
G1 X52.258 Y29.884 F6000.000
G1 X53.441 Y28.048 E35.68820 F900.000
G1 X54.132 Y27.153 E35.78050
G1 X55.597 Y25.559 E35.95723
G1 X56.436 Y24.791 E36.05012
G1 X58.151 Y23.470 E36.22684
G1 X59.105 Y22.857 E36.31940
G1 X61.020 Y21.846 E36.49617
G1 X62.064 Y21.404 E36.58872
G1 X64.122 Y20.733 E36.76542
G1 X65.226 Y20.474 E36.85798
G1 X67.369 Y20.162 E37.03477
G1 X68.503 Y20.095 E37.12750
G1 X70.667 Y20.152 E37.30421
G1 X71.792 Y20.278 E37.39663 F900.000
G1 X73.915 Y20.701 E37.57334
G1 X74.508 Y20.848 E37.62321
G1 X135.511 Y38.952 E42.81771
G1 X137.569 Y39.977 E43.00535
G1 X139.155 Y41.640 E43.19300
G1 X140.080 Y43.745 E43.38064
G1 X140.273 Y45.332 E43.51114
G1 X140.273 Y134.668 E50.80394
G1 X139.876 Y136.933 E50.99158
G1 X138.732 Y138.926 E51.17923
G1 X136.978 Y140.412 E51.36687
G1 X135.511 Y141.048 E51.49737
G1 X74.508 Y159.152 E56.69188
G1 X73.915 Y159.299 E56.74174
G1 X71.792 Y159.722 E56.91846
G1 X70.667 Y159.848 E57.01087
G1 X68.503 Y159.905 E57.18758
G1 X67.369 Y159.838 E57.28032
G1 X65.226 Y159.526 E57.45711
G1 X64.122 Y159.267 E57.54966
G1 X62.064 Y158.596 E57.72636
G1 X61.020 Y158.154 E57.81891
G1 X59.105 Y157.143 E57.99568
G1 X58.151 Y156.530 E58.08824
G1 X56.436 Y155.209 E58.26497
G1 X55.597 Y154.441 E58.35785
G1 X54.132 Y152.847 E58.53458
G1 X53.441 Y151.952 E58.62688
G1 X52.267 Y150.133 E58.80361
G1 X51.734 Y149.128 E58.89647
G1 X50.887 Y147.134 E59.07332
G1 X50.534 Y146.059 E59.16567
G1 X50.037 Y143.952 E59.34239
G1 X49.872 Y142.830 E59.43497
G1 X49.728 Y140.264 E59.64483
G1 X49.728 Y39.736 E67.85112
G1 X49.872 Y37.170 E68.06097
G1 X50.037 Y36.048 E68.15356
G1 X50.534 Y33.941 E68.33028
G1 X50.882 Y32.876 E68.42175
G1 X51.003 Y32.590 E68.44711
G1 X51.734 Y30.871 E68.59956
G1 X52.223 Y29.950 E68.68466
G1 E66.68466 F2400.00000
G92 E0
G1 X64.819 Y146.301 F6000.000
G1 E2.00000 F2400.00000
G1 X65.109 Y146.278 E2.02373 F900.000
G1 X65.416 Y146.303 E2.04884
G1 X65.715 Y146.382 E2.07411
G1 X65.994 Y146.508 E2.09914
G1 X66.247 Y146.679 E2.12406
G1 X66.471 Y146.892 E2.14932
G1 X66.654 Y147.141 E2.17449
G1 X66.793 Y147.415 E2.19960
G1 X66.882 Y147.710 E2.22477
G1 X66.921 Y148.014 E2.24973
G1 X66.909 Y148.321 E2.27482
G1 X66.844 Y148.623 E2.30007
G1 X66.728 Y148.908 E2.32517
G1 X66.568 Y149.170 E2.35023
G1 X66.363 Y149.401 E2.37545
G1 X66.125 Y149.594 E2.40044
G1 X65.858 Y149.743 E2.42543
G1 X65.567 Y149.847 E2.45066
G1 X65.262 Y149.899 E2.47586
G1 X64.949 Y149.899 E2.50141
G1 X64.627 Y149.838 E2.52815
G1 X64.361 Y149.743 E2.55121
G1 X64.094 Y149.594 E2.57619
G1 X63.855 Y149.401 E2.60128
G1 X63.650 Y149.170 E2.62649
G1 X63.489 Y148.906 E2.65173
G1 X63.376 Y148.623 E2.67661
G1 X63.309 Y148.323 E2.70171
G1 X63.297 Y148.014 E2.72698
G1 X63.336 Y147.710 E2.75194
G1 X63.425 Y147.415 E2.77711
G1 X63.564 Y147.141 E2.80222
G1 X63.747 Y146.892 E2.82739
G1 X63.972 Y146.678 E2.85275
G1 X64.226 Y146.507 E2.87775
G1 X64.508 Y146.380 E2.90302
G1 X64.747 Y146.320 E2.92310
G1 X64.880 Y146.848 F6000.000
G1 X64.909 Y146.841 E2.92471 F900.000
G1 X65.109 Y146.825 E2.93564 F900.000
G1 X65.323 Y146.842 E2.94732
G1 X65.532 Y146.897 E2.95904
G1 X65.727 Y146.985 E2.97070
G1 X65.904 Y147.105 E2.98230
G1 X66.060 Y147.254 E2.99401
G1 X66.188 Y147.427 E3.00571
G1 X66.285 Y147.619 E3.01739
G1 X66.347 Y147.825 E3.02908
G1 X66.375 Y148.038 E3.04073
G1 X66.366 Y148.252 E3.05239
G1 X66.321 Y148.462 E3.06407
G1 X66.240 Y148.662 E3.07576
G1 X66.128 Y148.845 E3.08742
G1 X65.985 Y149.006 E3.09911
G1 X65.819 Y149.140 E3.11076
G1 X65.632 Y149.245 E3.12239
G1 X65.428 Y149.317 E3.13411
G1 X65.216 Y149.354 E3.14581
G1 X65.000 Y149.354 E3.15757
G1 X64.770 Y149.311 E3.17025
G1 X64.587 Y149.245 E3.18081
G1 X64.400 Y149.141 E3.19248
G1 X64.233 Y149.006 E3.20414
G1 X64.090 Y148.845 E3.21583
G1 X63.978 Y148.661 E3.22753
G1 X63.898 Y148.462 E3.23915
G1 X63.852 Y148.253 E3.25081
G1 X63.843 Y148.038 E3.26252
G1 X63.871 Y147.825 E3.27416
G1 X63.933 Y147.619 E3.28585
G1 X64.030 Y147.427 E3.29754
G1 X64.158 Y147.254 E3.30923
G1 X64.314 Y147.105 E3.32096
G1 X64.492 Y146.985 E3.33261
G1 X64.688 Y146.897 E3.34432
G1 X64.807 Y146.867 E3.35097
G1 X64.888 Y146.820 F6000.000
G1 X66.672 Y144.135 F6000.000
G1 X66.105 Y143.678 E3.41044 F900.000
G1 X65.624 Y143.131 E3.46988
G1 X65.240 Y142.510 E3.52949
G1 X64.969 Y141.833 E3.58903
G1 X64.816 Y141.121 E3.64850
G1 X64.785 Y140.393 E3.70797
G1 X64.877 Y139.670 E3.76748
G1 X65.091 Y138.972 E3.82704
G1 X65.419 Y138.321 E3.88654
G1 X65.852 Y137.735 E3.94605
G1 X66.379 Y137.230 E4.00561
G1 X66.983 Y136.823 E4.06508
G1 X67.651 Y136.520 E4.12498
G1 X68.400 Y136.335 E4.18793
G1 X69.079 Y136.276 E4.24358 F900.000
G1 X69.805 Y136.339 E4.30306
G1 X70.510 Y136.522 E4.36250
G1 X71.174 Y136.823 E4.42203
G1 X71.778 Y137.230 E4.48150
G1 X72.305 Y137.735 E4.54106
G1 X72.738 Y138.321 E4.60057
G1 X73.066 Y138.972 E4.66007
G1 X73.280 Y139.670 E4.71962
G1 X73.372 Y140.393 E4.77913
G1 X73.341 Y141.121 E4.83861
G1 X73.188 Y141.833 E4.89808
G1 X72.917 Y142.510 E4.95761
G1 X72.533 Y143.131 E5.01722
G1 X72.052 Y143.678 E5.07666
G1 X71.485 Y144.135 E5.13614
G1 X70.849 Y144.492 E5.19569
G1 X70.161 Y144.734 E5.25519
G1 X69.443 Y144.858 E5.31466
G1 X68.714 Y144.858 E5.37419
G1 X67.996 Y144.734 E5.43365
G1 X67.308 Y144.492 E5.49316
G1 X66.737 Y144.172 E5.54659
G1 X67.004 Y143.696 F6000.000
G1 X66.483 Y143.283 E5.58270 F900.000
G1 X66.063 Y142.806 E5.61723
G1 X65.729 Y142.263 E5.65185
G1 X65.492 Y141.673 E5.68642
G1 X65.358 Y141.051 E5.72096
G1 X65.331 Y140.416 E5.75552
G1 X65.412 Y139.785 E5.79009
G1 X65.598 Y139.176 E5.82468
G1 X65.884 Y138.608 E5.85924
G1 X66.263 Y138.097 E5.89380
G1 X66.722 Y137.656 E5.92839
G1 X67.250 Y137.300 E5.96295
G1 X67.831 Y137.037 E5.99760
G1 X68.489 Y136.874 E6.03446
G1 X69.079 Y136.824 E6.06663 F900.000
G1 X69.712 Y136.878 E6.10117
G1 X70.328 Y137.038 E6.13570
G1 X70.907 Y137.300 E6.17028
G1 X71.435 Y137.656 E6.20483
G1 X71.894 Y138.097 E6.23943
G1 X72.273 Y138.608 E6.27399
G1 X72.559 Y139.176 E6.30854
G1 X72.745 Y139.785 E6.34314
G1 X72.826 Y140.416 E6.37771
G1 X72.799 Y141.051 E6.41226
G1 X72.665 Y141.673 E6.44681
G1 X72.428 Y142.263 E6.48138
G1 X72.094 Y142.806 E6.51600
G1 X71.674 Y143.283 E6.55053
G1 X71.179 Y143.682 E6.58509
G1 X70.623 Y143.993 E6.61967
G1 X70.023 Y144.204 E6.65423
G1 X69.396 Y144.313 E6.68879
G1 X68.761 Y144.313 E6.72334
G1 X68.134 Y144.204 E6.75790
G1 X67.534 Y143.993 E6.79246
G1 X67.069 Y143.733 E6.82139
G1 X66.549 Y143.904 F6000.000
G1 E4.82139 F2400.00000
G92 E0
G1 X70.578 Y136.328 F6000.000
G1 X71.015 Y135.364 F6000.000
G1 X71.271 Y135.522 F6000.000
G1 X71.915 Y134.731 F6000.000
G1 X72.164 Y134.635 F6000.000
G1 E2.00000 F2400.00000
G1 X72.031 Y134.561 E2.01246 F900.000
G1 X71.793 Y134.367 E2.03751
G1 X71.589 Y134.137 E2.06258
G1 X71.429 Y133.875 E2.08764
G1 X71.313 Y133.590 E2.11274
G1 X71.248 Y133.288 E2.13800
G1 X71.236 Y132.981 E2.16308
G1 X71.275 Y132.677 E2.18805
G1 X71.364 Y132.382 E2.21321
G1 X71.504 Y132.107 E2.23844
G1 X71.686 Y131.861 E2.26341
G1 X71.908 Y131.647 E2.28860
G1 X72.163 Y131.475 E2.31367
G1 X72.448 Y131.346 E2.33924
G1 X72.758 Y131.270 E2.36532
G1 X73.048 Y131.244 E2.38905 F900.000
G1 X73.355 Y131.271 E2.41422
G1 X73.651 Y131.348 E2.43920
G1 X73.931 Y131.474 E2.46425
G1 X74.187 Y131.646 E2.48938
G1 X74.410 Y131.861 E2.51469
G1 X74.592 Y132.107 E2.53966
G1 X74.732 Y132.382 E2.56488
G1 X74.821 Y132.677 E2.59005
G1 X74.860 Y132.981 E2.61502
G1 X74.848 Y133.290 E2.64028
G1 X74.781 Y133.590 E2.66538
G1 X74.668 Y133.873 E2.69027
G1 X74.507 Y134.137 E2.71550
G1 X74.303 Y134.367 E2.74057
G1 X74.065 Y134.561 E2.76571
G1 X73.794 Y134.712 E2.79102
G1 X73.504 Y134.814 E2.81606
G1 X73.201 Y134.866 E2.84114
G1 X72.895 Y134.866 E2.86618
G1 X72.593 Y134.814 E2.89120
G1 X72.229 Y134.672 E2.92304
G1 X72.496 Y134.196 F6000.000
G1 X72.338 Y134.108 E2.93285 F900.000
G1 X72.171 Y133.972 E2.94453
G1 X72.029 Y133.812 E2.95619
G1 X71.917 Y133.629 E2.96785
G1 X71.836 Y133.429 E2.97954
G1 X71.791 Y133.219 E2.99123
G1 X71.782 Y133.005 E3.00289
G1 X71.810 Y132.792 E3.01453
G1 X71.872 Y132.586 E3.02622
G1 X71.969 Y132.394 E3.03793
G1 X72.097 Y132.222 E3.04955
G1 X72.252 Y132.072 E3.06128
G1 X72.430 Y131.952 E3.07291
G1 X72.627 Y131.863 E3.08468
G1 X72.848 Y131.809 E3.09702
G1 X73.048 Y131.792 E3.10795 F900.000
G1 X73.262 Y131.810 E3.11965
G1 X73.469 Y131.864 E3.13126
G1 X73.665 Y131.952 E3.14293
G1 X73.843 Y132.072 E3.15460
G1 X73.999 Y132.222 E3.16635
G1 X74.127 Y132.394 E3.17797
G1 X74.224 Y132.586 E3.18968
G1 X74.286 Y132.792 E3.20137
G1 X74.314 Y133.005 E3.21301
G1 X74.305 Y133.220 E3.22471
G1 X74.259 Y133.429 E3.23637
G1 X74.179 Y133.628 E3.24800
G1 X74.067 Y133.812 E3.25970
G1 X73.925 Y133.972 E3.27136
G1 X73.758 Y134.108 E3.28306
G1 X73.569 Y134.213 E3.29479
G1 X73.367 Y134.284 E3.30643
G1 X73.155 Y134.321 E3.31810
G1 X72.941 Y134.321 E3.32975
G1 X72.729 Y134.284 E3.34141
G1 X72.564 Y134.227 E3.35093
G1 X72.345 Y134.296 F6000.000
G1 X75.993 Y142.833 F6000.000
G1 X76.306 Y142.754 E3.37722 F900.000
G1 X76.595 Y142.731 E3.40091 F900.000
G1 X76.902 Y142.756 E3.42606
G1 X77.200 Y142.835 E3.45126
G1 X77.478 Y142.960 E3.47612
G1 X77.732 Y143.131 E3.50112
G1 X77.957 Y143.345 E3.52648
G1 X78.140 Y143.594 E3.55165
G1 X78.279 Y143.868 E3.57677
G1 X78.368 Y144.163 E3.60191
G1 X78.407 Y144.465 E3.62678
G1 X78.395 Y144.776 E3.65216
G1 X78.328 Y145.076 E3.67726
G1 X78.215 Y145.359 E3.70215
G1 X78.054 Y145.623 E3.72738
G1 X77.849 Y145.854 E3.75260
G1 X77.610 Y146.047 E3.77769
G1 X77.342 Y146.196 E3.80267
G1 X77.053 Y146.300 E3.82774
G1 X76.748 Y146.352 E3.85300
G1 X76.442 Y146.352 E3.87804
G1 X76.137 Y146.300 E3.90324
G1 X75.846 Y146.196 E3.92847
G1 X75.579 Y146.047 E3.95345
G1 X75.341 Y145.854 E3.97844
G1 X75.136 Y145.623 E4.00366
G1 X74.976 Y145.361 E4.02872
G1 X74.860 Y145.076 E4.05382
G1 X74.795 Y144.774 E4.07908
G1 X74.783 Y144.465 E4.10427
G1 X74.822 Y144.163 E4.12915
G1 X74.911 Y143.868 E4.15429
G1 X75.050 Y143.594 E4.17940
G1 X75.233 Y143.345 E4.20457
G1 X75.457 Y143.132 E4.22983
G1 X75.710 Y142.961 E4.25476
G1 X75.925 Y142.864 E4.27405
G1 X76.150 Y143.360 F6000.000
G1 X76.395 Y143.294 E4.28784 F900.000
G1 X76.595 Y143.278 E4.29876 F900.000
G1 X76.810 Y143.295 E4.31045
G1 X77.017 Y143.350 E4.32212
G1 X77.212 Y143.438 E4.33374
G1 X77.390 Y143.558 E4.34539
G1 X77.546 Y143.707 E4.35713
G1 X77.674 Y143.880 E4.36882
G1 X77.771 Y144.072 E4.38050
G1 X77.833 Y144.278 E4.39219
G1 X77.861 Y144.489 E4.40378
G1 X77.852 Y144.706 E4.41554
G1 X77.806 Y144.915 E4.42720
G1 X77.726 Y145.114 E4.43882
G1 X77.614 Y145.298 E4.45053
G1 X77.471 Y145.459 E4.46222
G1 X77.304 Y145.594 E4.47388
G1 X77.117 Y145.698 E4.48554
G1 X76.915 Y145.770 E4.49720
G1 X76.702 Y145.807 E4.50891
G1 X76.488 Y145.807 E4.52056
G1 X76.276 Y145.770 E4.53225
G1 X76.072 Y145.698 E4.54398
G1 X75.885 Y145.593 E4.55561
G1 X75.719 Y145.459 E4.56725
G1 X75.576 Y145.298 E4.57894
G1 X75.464 Y145.115 E4.59061
G1 X75.383 Y144.915 E4.60229
G1 X75.338 Y144.705 E4.61398
G1 X75.329 Y144.489 E4.62570
G1 X75.357 Y144.278 E4.63729
G1 X75.419 Y144.072 E4.64897
G1 X75.516 Y143.880 E4.66066
G1 X75.644 Y143.707 E4.67235
G1 X75.800 Y143.558 E4.68406
G1 X75.977 Y143.438 E4.69567
G1 X76.081 Y143.391 E4.70191
G1 X76.202 Y143.112 F6000.000
G1 X74.875 Y143.486 F6000.000
G1 X71.673 Y148.221 F6000.000
G1 X64.337 Y144.495 F6000.000
G1 X61.959 Y141.260 F6000.000
G1 X63.349 Y139.446 F6000.000
G1 X63.896 Y138.588 F6000.000
G1 X64.049 Y138.335 F6000.000
G1 X64.216 Y138.036 F6000.000
G1 X63.365 Y137.515 F6000.000
G1 X63.181 Y137.422 F6000.000
G1 X63.021 Y137.684 E4.72697 F900.000
G1 X62.817 Y137.914 E4.75204
G1 X62.579 Y138.108 E4.77708
G1 X62.309 Y138.259 E4.80239
G1 X62.017 Y138.361 E4.82760
G1 X61.715 Y138.413 E4.85262
G1 X61.409 Y138.413 E4.87765
G1 X61.106 Y138.361 E4.90273
G1 X60.816 Y138.259 E4.92777
G1 X60.545 Y138.108 E4.95309
G1 X60.307 Y137.914 E4.97823
G1 X60.103 Y137.684 E5.00329
G1 X59.942 Y137.420 E5.02853
G1 X59.829 Y137.137 E5.05341
G1 X59.762 Y136.837 E5.07851
G1 X59.750 Y136.528 E5.10378
G1 X59.789 Y136.224 E5.12875
G1 X59.878 Y135.929 E5.15391
G1 X60.018 Y135.654 E5.17914
G1 X60.200 Y135.408 E5.20411
G1 X60.423 Y135.193 E5.22941
G1 X60.679 Y135.021 E5.25454
G1 X60.963 Y134.893 E5.27996
G1 X61.272 Y134.817 E5.30597
G1 X61.562 Y134.791 E5.32974 F900.000
G1 X61.869 Y134.818 E5.35485
G1 X62.166 Y134.895 E5.37992
G1 X62.447 Y135.022 E5.40513
G1 X62.702 Y135.194 E5.43019
G1 X62.924 Y135.408 E5.45539
G1 X63.106 Y135.654 E5.48036
G1 X63.246 Y135.929 E5.50558
G1 X63.335 Y136.224 E5.53075
G1 X63.374 Y136.528 E5.55571
G1 X63.362 Y136.835 E5.58080
G1 X63.297 Y137.137 E5.60605
G1 X63.209 Y137.353 E5.62503
G1 X62.704 Y137.147 F6000.000
G1 X62.581 Y137.359 E5.63833 F900.000
G1 X62.439 Y137.519 E5.64998
G1 X62.272 Y137.655 E5.66166
G1 X62.084 Y137.760 E5.67336
G1 X61.881 Y137.831 E5.68507
G1 X61.669 Y137.867 E5.69673
G1 X61.455 Y137.867 E5.70837
G1 X61.243 Y137.831 E5.72005
G1 X61.041 Y137.760 E5.73168
G1 X60.852 Y137.655 E5.74342
G1 X60.685 Y137.519 E5.75511
G1 X60.543 Y137.359 E5.76677
G1 X60.431 Y137.175 E5.77847
G1 X60.351 Y136.976 E5.79010
G1 X60.305 Y136.767 E5.80176
G1 X60.296 Y136.552 E5.81346
G1 X60.324 Y136.339 E5.82511
G1 X60.386 Y136.133 E5.83680
G1 X60.483 Y135.941 E5.84851
G1 X60.611 Y135.769 E5.86012
G1 X60.767 Y135.619 E5.87187
G1 X60.945 Y135.499 E5.88355
G1 X61.142 Y135.410 E5.89529
G1 X61.362 Y135.356 E5.90758
G1 X61.562 Y135.339 E5.91852 F900.000
G1 X61.776 Y135.357 E5.93020
G1 X61.984 Y135.411 E5.94187
G1 X62.180 Y135.499 E5.95357
G1 X62.358 Y135.619 E5.96520
G1 X62.513 Y135.769 E5.97692
G1 X62.641 Y135.941 E5.98854
G1 X62.738 Y136.133 E6.00025
G1 X62.800 Y136.339 E6.01194
G1 X62.828 Y136.552 E6.02359
G1 X62.819 Y136.766 E6.03525
G1 X62.774 Y136.976 E6.04693
G1 X62.733 Y137.078 E6.05290
G1 X62.836 Y137.354 F6000.000
G1 X77.500 Y97.076 F6000.000
G1 X77.148 Y96.879 E6.08583 F900.000
G1 X76.832 Y96.625 E6.11889
G1 X76.564 Y96.321 E6.15203
