; generated by Slic3r 1.2.9 on 2017-05-31 at 15:11:25

; external perimeters extrusion width = 0.40mm
; perimeters extrusion width = 0.40mm
; infill extrusion width = 0.40mm
; solid infill extrusion width = 0.40mm
; top infill extrusion width = 0.40mm

M107
;G28 ; home all axes
;G1 Z5 F5000 ; lift nozzle
G10 P0 S185
T0
M116

G21 ; set units to millimeters
G90 ; use absolute coordinates
M82 ; use absolute distances for extrusion
G92 E0
G1 Z0.300 F15000.000
G1 E-2.00000 F2400.00000
G92 E0
G1 X35.489 Y26.205 F15000.000
G1 E2.00000 F2400.00000
G1 X47.173 Y10.381 E3.55939 F960.000
G1 X47.388 Y10.117 E3.58638
G1 X48.806 Y8.532 E3.75493
G1 X49.250 Y8.113 E3.80337
G1 X50.912 Y6.788 E3.97189
G1 X51.418 Y6.450 E4.02017
G1 X53.279 Y5.421 E4.18873
G1 X53.839 Y5.170 E4.23734
G1 X55.845 Y4.469 E4.40581
G1 X56.435 Y4.317 E4.45410
G1 X58.530 Y3.960 E4.62263
G1 X59.140 Y3.909 E4.67115
G1 X61.267 Y3.909 E4.83974
G1 X61.877 Y3.960 E4.88826
G1 X64.143 Y4.350 E5.07061 F960.000
G1 X151.465 Y23.558 E12.15874
G1 X151.811 Y23.652 E12.18716
G1 X153.860 Y24.320 E12.35810
G1 X154.431 Y24.562 E12.40720
G1 X156.338 Y25.569 E12.57819
G1 X156.859 Y25.903 E12.62730
G1 X158.568 Y27.219 E12.79824
G1 X159.026 Y27.639 E12.84753
G1 X160.485 Y29.227 E13.01849
G1 X160.863 Y29.716 E13.06746
G1 X162.032 Y31.527 E13.23841
G1 X162.323 Y32.076 E13.28760
G1 X163.168 Y34.061 E13.45863
G1 X163.361 Y34.651 E13.50788
G1 X163.855 Y36.750 E13.67880
G1 X163.945 Y37.361 E13.72780
G1 X164.083 Y39.734 E13.91623
G1 X164.101 Y90.743 E17.96014
G1 X164.083 Y140.266 E21.88620
G1 X163.945 Y142.639 E22.07464
G1 X163.855 Y143.250 E22.12363
G1 X163.361 Y145.349 E22.29456
G1 X163.168 Y145.939 E22.34381
G1 X162.323 Y147.924 E22.51484
G1 X162.032 Y148.473 E22.56403
G1 X160.863 Y150.284 E22.73498
G1 X160.485 Y150.773 E22.78395
G1 X159.026 Y152.361 E22.95491
G1 X158.568 Y152.781 E23.00420
G1 X156.859 Y154.097 E23.17514
G1 X156.338 Y154.431 E23.22424
G1 X154.431 Y155.438 E23.39524
G1 X153.860 Y155.680 E23.44434
G1 X151.811 Y156.348 E23.61527
G1 X151.465 Y156.442 E23.64370
G1 X63.972 Y175.683 E30.74565
G1 X61.877 Y176.040 E30.91418
G1 X61.267 Y176.091 E30.96270
G1 X59.140 Y176.091 E31.13129
G1 X58.530 Y176.040 E31.17981
G1 X56.435 Y175.683 E31.34834
G1 X55.845 Y175.531 E31.39663
G1 X53.839 Y174.830 E31.56510
G1 X53.280 Y174.580 E31.61360
G1 X51.418 Y173.550 E31.78233
G1 X50.912 Y173.212 E31.83055
G1 X49.250 Y171.887 E31.99907
G1 X48.806 Y171.468 E32.04750
G1 X47.388 Y169.883 E32.21606
G1 X47.173 Y169.619 E32.24305
G1 X16.610 Y128.227 E36.32212
G1 X15.899 Y126.067 E36.50236
G1 X15.899 Y53.933 E42.22108
G1 X16.610 Y51.773 E42.40132
G1 X35.445 Y26.265 E44.91506
G1 E42.91506 F2400.00000
G92 E0
G1 X59.881 Y166.322 F15000.000
G1 E2.00000 F2400.00000
G1 X60.204 Y166.295 E2.02570 F600.000
G1 X60.551 Y166.324 E2.05324
G1 X60.890 Y166.413 E2.08105
G1 X61.204 Y166.555 E2.10844
G1 X61.494 Y166.750 E2.13609
G1 X61.746 Y166.992 E2.16378
G1 X61.955 Y167.274 E2.19158
G1 X62.110 Y167.584 E2.21914
G1 X62.213 Y167.916 E2.24662
G1 X62.258 Y168.264 E2.27444
G1 X62.242 Y168.613 E2.30215
G1 X62.169 Y168.950 E2.32953
G1 X62.039 Y169.276 E2.35732
G1 X61.855 Y169.572 E2.38497
G1 X61.627 Y169.833 E2.41248
G1 X61.354 Y170.053 E2.44026
G1 X61.051 Y170.222 E2.46773
G1 X60.724 Y170.339 E2.49531
G1 X60.379 Y170.398 E2.52304
G1 X60.028 Y170.398 E2.55088
G1 X59.685 Y170.339 E2.57845
G1 X59.355 Y170.222 E2.60618
G1 X59.053 Y170.052 E2.63366
G1 X58.783 Y169.835 E2.66115
G1 X58.553 Y169.574 E2.68871
G1 X58.368 Y169.276 E2.71654
G1 X58.238 Y168.950 E2.74433
G1 X58.165 Y168.610 E2.77194
G1 X58.151 Y168.264 E2.79941
G1 X58.193 Y167.918 E2.82699
G1 X58.297 Y167.584 E2.85470
G1 X58.452 Y167.274 E2.88226
G1 X58.661 Y166.992 E2.91007
G1 X58.913 Y166.750 E2.93776
G1 X59.203 Y166.555 E2.96541
G1 X59.524 Y166.410 E2.99339
G1 X59.808 Y166.340 E3.01660
G1 X59.961 Y166.957 F15000.000
G1 X59.984 Y166.951 E3.01847 F600.000
G1 X60.204 Y166.933 E3.03598 F600.000
G1 X60.443 Y166.953 E3.05497
G1 X60.676 Y167.014 E3.07411
G1 X60.894 Y167.113 E3.09307
G1 X61.094 Y167.247 E3.11213
G1 X61.267 Y167.413 E3.13119
G1 X61.411 Y167.607 E3.15035
G1 X61.518 Y167.822 E3.16937
G1 X61.589 Y168.051 E3.18839
G1 X61.620 Y168.290 E3.20748
G1 X61.609 Y168.531 E3.22660
G1 X61.559 Y168.764 E3.24554
G1 X61.469 Y168.988 E3.26466
G1 X61.343 Y169.193 E3.28375
G1 X61.185 Y169.373 E3.30272
G1 X60.997 Y169.524 E3.32182
G1 X60.788 Y169.641 E3.34084
G1 X60.562 Y169.722 E3.35987
G1 X60.325 Y169.762 E3.37891
G1 X60.082 Y169.762 E3.39819
G1 X59.846 Y169.722 E3.41713
G1 X59.619 Y169.641 E3.43626
G1 X59.410 Y169.524 E3.45524
G1 X59.224 Y169.374 E3.47423
G1 X59.065 Y169.194 E3.49325
G1 X58.938 Y168.988 E3.51241
G1 X58.848 Y168.765 E3.53153
G1 X58.798 Y168.530 E3.55055
G1 X58.788 Y168.290 E3.56959
G1 X58.817 Y168.052 E3.58857
G1 X58.889 Y167.822 E3.60768
G1 X58.996 Y167.607 E3.62670
G1 X59.140 Y167.413 E3.64586
G1 X59.313 Y167.247 E3.66492
G1 X59.513 Y167.113 E3.68398
G1 X59.733 Y167.013 E3.70315
G1 X59.888 Y166.975 E3.71582
G1 X59.968 Y166.934 F15000.000
G1 X59.967 Y165.001 F15000.000
G1 X59.745 Y164.993 E3.73345 F600.000
G1 X58.901 Y164.847 E3.80130
G1 X58.077 Y164.556 E3.87063
G1 X57.318 Y164.132 E3.93949
G1 X56.668 Y163.622 E4.00501
G1 X56.051 Y162.920 E4.07909
G1 X55.592 Y162.176 E4.14846
G1 X55.265 Y161.361 E4.21802
G1 X55.081 Y160.505 E4.28743
G1 X55.044 Y159.631 E4.35686
G1 X55.155 Y158.761 E4.42633
G1 X55.412 Y157.924 E4.49579
G1 X55.806 Y157.143 E4.56515
G1 X56.327 Y156.438 E4.63460
G1 X56.959 Y155.832 E4.70405
G1 X57.685 Y155.341 E4.77352
G1 X58.488 Y154.978 E4.84342
G1 X59.391 Y154.755 E4.91715
G1 X60.204 Y154.685 E4.98182 F600.000
G1 X61.077 Y154.760 E5.05127
G1 X61.924 Y154.980 E5.12067
G1 X62.722 Y155.341 E5.19008
G1 X63.448 Y155.832 E5.25955
G1 X64.080 Y156.437 E5.32892
G1 X64.601 Y157.143 E5.39848
G1 X64.995 Y157.924 E5.46782
G1 X65.252 Y158.761 E5.53728
G1 X65.363 Y159.631 E5.60675
G1 X65.326 Y160.505 E5.67617
G1 X65.172 Y161.222 E5.73432
G1 X65.847 Y161.222 E5.78784
G1 X63.777 Y163.579 E6.03646
G1 X63.096 Y164.129 E6.10591
G1 X62.331 Y164.556 E6.17536
G1 X61.505 Y164.847 E6.24476
G1 X60.662 Y164.993 E6.31258
G1 X60.042 Y165.004 E6.36176
G1 X60.067 Y164.369 F15000.000
G1 X59.812 Y164.359 E6.38204 F600.000
G1 X59.063 Y164.230 E6.44231
G1 X58.340 Y163.974 E6.50310
G1 X57.671 Y163.601 E6.56376
G1 X57.107 Y163.159 E6.62067
G1 X56.564 Y162.541 E6.68582
G1 X56.162 Y161.888 E6.74663
G1 X55.875 Y161.175 E6.80758
G1 X55.714 Y160.424 E6.86843
G1 X55.681 Y159.657 E6.92929
G1 X55.779 Y158.896 E6.99017
G1 X56.004 Y158.162 E7.05104
G1 X56.349 Y157.477 E7.11184
G1 X56.806 Y156.859 E7.17272
G1 X57.360 Y156.328 E7.23359
G1 X57.996 Y155.898 E7.29448
G1 X58.697 Y155.581 E7.35548
G1 X59.495 Y155.384 E7.42066
G1 X60.204 Y155.323 E7.47704 F600.000
G1 X60.969 Y155.389 E7.53791
G1 X61.712 Y155.582 E7.59875
G1 X62.411 Y155.898 E7.65957
G1 X63.047 Y156.328 E7.72047
G1 X63.601 Y156.859 E7.78129
G1 X63.737 Y157.042 E7.79931
G1 X64.058 Y157.477 E7.84222
G1 X64.403 Y158.162 E7.90301
G1 X64.628 Y158.896 E7.96389
G1 X64.726 Y159.658 E8.02476
G1 X64.693 Y160.424 E8.08562
G1 X64.532 Y161.175 E8.14647
G1 X64.258 Y161.858 E8.20484
G1 X64.443 Y161.858 E8.21952
G1 X63.336 Y163.118 E8.35248
G1 X62.739 Y163.600 E8.41332
G1 X62.068 Y163.974 E8.47419
G1 X61.344 Y164.230 E8.53506
G1 X60.595 Y164.359 E8.59532
G1 X60.142 Y164.372 E8.63123
G1 X59.935 Y164.588 F15000.000
G1 E6.63123 F2400.00000
G92 E0
G1 X60.142 Y153.398 F15000.000
G1 E2.00000 F2400.00000
G1 X60.028 Y153.398 E2.00908 F600.000
G1 X59.685 Y153.339 E2.03668
G1 X59.355 Y153.222 E2.06440
G1 X59.053 Y153.052 E2.09188
G1 X58.783 Y152.835 E2.11937
G1 X58.553 Y152.574 E2.14693
G1 X58.368 Y152.276 E2.17476
G1 X58.238 Y151.950 E2.20260
G1 X58.165 Y151.608 E2.23028
G1 X58.151 Y151.264 E2.25759
G1 X58.193 Y150.917 E2.28533
G1 X58.297 Y150.584 E2.31300
G1 X58.452 Y150.274 E2.34048
G1 X58.661 Y149.992 E2.36829
G1 X58.911 Y149.752 E2.39578
G1 X59.200 Y149.556 E2.42348
G1 X59.526 Y149.408 E2.45184
G1 X59.880 Y149.322 E2.48072
G1 X60.204 Y149.294 E2.50650 F600.000
G1 X60.551 Y149.324 E2.53406
G1 X60.887 Y149.411 E2.56161
G1 X61.207 Y149.556 E2.58943
G1 X61.496 Y149.752 E2.61712
G1 X61.746 Y149.992 E2.64462
G1 X61.955 Y150.274 E2.67242
G1 X62.110 Y150.584 E2.69990
G1 X62.213 Y150.914 E2.72733
G1 X62.258 Y151.264 E2.75532
G1 X62.242 Y151.611 E2.78287
G1 X62.169 Y151.950 E2.81031
G1 X62.039 Y152.276 E2.83815
G1 X61.855 Y152.572 E2.86580
G1 X61.627 Y152.833 E2.89331
G1 X61.354 Y153.053 E2.92110
G1 X61.051 Y153.222 E2.94857
G1 X60.724 Y153.339 E2.97614
G1 X60.379 Y153.398 E3.00390
G1 X60.217 Y153.398 E3.01667
G1 X60.217 Y152.762 F15000.000
G1 X60.082 Y152.762 E3.02740 F600.000
G1 X59.846 Y152.722 E3.04636
G1 X59.619 Y152.641 E3.06549
G1 X59.410 Y152.524 E3.08447
G1 X59.224 Y152.374 E3.10346
G1 X59.065 Y152.194 E3.12248
G1 X58.938 Y151.988 E3.14164
G1 X58.848 Y151.764 E3.16078
G1 X58.798 Y151.529 E3.17988
G1 X58.788 Y151.290 E3.19880
G1 X58.817 Y151.051 E3.21790
G1 X58.889 Y150.822 E3.23694
G1 X58.996 Y150.607 E3.25594
G1 X59.140 Y150.413 E3.27510
G1 X59.312 Y150.247 E3.29408
G1 X59.512 Y150.112 E3.31318
G1 X59.734 Y150.012 E3.33250
G1 X59.983 Y149.951 E3.35285
G1 X60.204 Y149.932 E3.37041 F600.000
G1 X60.443 Y149.953 E3.38941
G1 X60.675 Y150.013 E3.40844
G1 X60.895 Y150.112 E3.42757
G1 X61.095 Y150.247 E3.44667
G1 X61.267 Y150.413 E3.46566
G1 X61.411 Y150.607 E3.48481
G1 X61.518 Y150.822 E3.50381
G1 X61.589 Y151.050 E3.52276
G1 X61.620 Y151.290 E3.54196
G1 X61.609 Y151.530 E3.56098
G1 X61.559 Y151.764 E3.57998
G1 X61.469 Y151.988 E3.59912
G1 X61.343 Y152.193 E3.61821
G1 X61.185 Y152.373 E3.63718
G1 X60.997 Y152.524 E3.65629
G1 X60.788 Y152.641 E3.67531
G1 X60.562 Y152.722 E3.69433
G1 X60.292 Y152.762 E3.71592
G1 X60.154 Y152.882 F15000.000
G1 X67.159 Y158.493 F15000.000
G1 X67.413 Y158.250 E3.74381 F600.000
G1 X67.703 Y158.055 E3.77146
G1 X68.024 Y157.910 E3.79941
G1 X68.378 Y157.822 E3.82832
G1 X68.704 Y157.794 E3.85431 F600.000
G1 X69.053 Y157.825 E3.88210
G1 X69.390 Y157.913 E3.90966
G1 X69.704 Y158.055 E3.93705
G1 X69.994 Y158.250 E3.96470
G1 X70.246 Y158.492 E3.99239
G1 X70.455 Y158.774 E4.02019
G1 X70.610 Y159.084 E4.04768
G1 X70.713 Y159.414 E4.07511
G1 X70.758 Y159.764 E4.10309
G1 X70.742 Y160.113 E4.13077
G1 X70.669 Y160.450 E4.15814
G1 X70.540 Y160.773 E4.18572
G1 X70.357 Y161.072 E4.21352
G1 X70.125 Y161.335 E4.24128
G1 X69.854 Y161.553 E4.26889
G1 X69.551 Y161.722 E4.29635
G1 X69.224 Y161.839 E4.32393
G1 X68.879 Y161.898 E4.35168
G1 X68.529 Y161.898 E4.37936
G1 X68.185 Y161.839 E4.40703
G1 X67.855 Y161.722 E4.43480
G1 X67.553 Y161.553 E4.46228
G1 X67.283 Y161.335 E4.48977
G1 X67.051 Y161.072 E4.51754
G1 X66.869 Y160.776 E4.54510
G1 X66.738 Y160.453 E4.57272
G1 X66.665 Y160.110 E4.60055
G1 X66.651 Y159.761 E4.62823
G1 X66.695 Y159.417 E4.65574
G1 X66.797 Y159.084 E4.68336
G1 X66.954 Y158.774 E4.71091
G1 X67.115 Y158.554 E4.73252
G1 X67.627 Y158.930 F15000.000
G1 X67.813 Y158.747 E4.75320 F600.000
G1 X68.013 Y158.613 E4.77226
G1 X68.233 Y158.513 E4.79142
G1 X68.482 Y158.451 E4.81180
G1 X68.704 Y158.432 E4.82944 F600.000
G1 X68.944 Y158.453 E4.84852
G1 X69.176 Y158.514 E4.86757
G1 X69.394 Y158.613 E4.88653
G1 X69.594 Y158.747 E4.90559
G1 X69.767 Y158.913 E4.92465
G1 X69.911 Y159.107 E4.94381
G1 X70.018 Y159.322 E4.96280
G1 X70.089 Y159.550 E4.98175
G1 X70.120 Y159.790 E5.00095
G1 X70.109 Y160.031 E5.02007
G1 X70.059 Y160.264 E5.03900
G1 X69.970 Y160.487 E5.05804
G1 X69.844 Y160.693 E5.07716
G1 X69.684 Y160.874 E5.09626
G1 X69.497 Y161.024 E5.11530
G1 X69.288 Y161.141 E5.13431
G1 X69.062 Y161.222 E5.15334
G1 X68.825 Y161.262 E5.17240
G1 X68.583 Y161.262 E5.19155
G1 X68.347 Y161.222 E5.21059
G1 X68.119 Y161.141 E5.22973
G1 X67.910 Y161.024 E5.24871
G1 X67.724 Y160.874 E5.26770
G1 X67.564 Y160.693 E5.28680
G1 X67.439 Y160.488 E5.30584
G1 X67.348 Y160.266 E5.32490
G1 X67.298 Y160.030 E5.34401
G1 X67.288 Y159.789 E5.36313
G1 X67.319 Y159.551 E5.38214
G1 X67.388 Y159.322 E5.40116
G1 X67.497 Y159.107 E5.42020
G1 X67.583 Y158.990 E5.43171
G1 X67.548 Y158.681 F15000.000
G1 E3.43171 F2400.00000
G92 E0
G1 X53.758 Y159.764 F15000.000
G1 E2.00000 F2400.00000
G1 X53.742 Y160.113 E2.02768 F600.000
G1 X53.669 Y160.450 E2.05505
G1 X53.539 Y160.776 E2.08284
G1 X53.355 Y161.072 E2.11049
G1 X53.126 Y161.335 E2.13815
G1 X52.852 Y161.553 E2.16588
G1 X52.553 Y161.721 E2.19313
G1 X52.224 Y161.839 E2.22083
G1 X51.879 Y161.898 E2.24858
G1 X51.528 Y161.898 E2.27634
G1 X51.183 Y161.839 E2.30409
G1 X50.854 Y161.721 E2.33178
G1 X50.555 Y161.553 E2.35903
G1 X50.281 Y161.335 E2.38676
G1 X50.052 Y161.072 E2.41442
G1 X49.868 Y160.776 E2.44207
G1 X49.738 Y160.450 E2.46986
G1 X49.665 Y160.113 E2.49723
G1 X49.649 Y159.764 E2.52492
G1 X49.694 Y159.414 E2.55289
G1 X49.797 Y159.084 E2.58032
G1 X49.952 Y158.774 E2.60781
G1 X50.161 Y158.492 E2.63561
G1 X50.413 Y158.250 E2.66330
G1 X50.703 Y158.055 E2.69095
G1 X51.024 Y157.910 E2.71891
G1 X51.378 Y157.822 E2.74782
G1 X51.704 Y157.794 E2.77380 F600.000
G1 X52.053 Y157.825 E2.80159
G1 X52.390 Y157.913 E2.82916
G1 X52.704 Y158.055 E2.85654
G1 X52.994 Y158.250 E2.88419
G1 X53.246 Y158.492 E2.91188
G1 X53.455 Y158.774 E2.93969
G1 X53.610 Y159.084 E2.96717
G1 X53.713 Y159.414 E2.99460
G1 X53.748 Y159.690 E3.01664
G1 X53.118 Y159.771 F15000.000
G1 X53.109 Y160.031 E3.03728 F600.000
G1 X53.059 Y160.264 E3.05621
G1 X52.969 Y160.488 E3.07533
G1 X52.843 Y160.693 E3.09442
G1 X52.685 Y160.874 E3.11345
G1 X52.496 Y161.024 E3.13257
G1 X52.288 Y161.141 E3.15146
G1 X52.062 Y161.222 E3.17053
G1 X51.825 Y161.262 E3.18960
G1 X51.582 Y161.262 E3.20882
G1 X51.345 Y161.222 E3.22789
G1 X51.119 Y161.141 E3.24696
G1 X50.911 Y161.024 E3.26585
G1 X50.722 Y160.874 E3.28497
G1 X50.564 Y160.693 E3.30400
G1 X50.438 Y160.488 E3.32309
G1 X50.348 Y160.265 E3.34221
G1 X50.298 Y160.031 E3.36114
G1 X50.287 Y159.790 E3.38026
G1 X50.318 Y159.550 E3.39946
G1 X50.389 Y159.322 E3.41841
G1 X50.496 Y159.107 E3.43740
G1 X50.640 Y158.913 E3.45656
G1 X50.813 Y158.747 E3.47562
G1 X51.013 Y158.613 E3.49468
G1 X51.233 Y158.513 E3.51384
G1 X51.482 Y158.451 E3.53422
G1 X51.704 Y158.432 E3.55186 F600.000
G1 X51.944 Y158.453 E3.57094
G1 X52.176 Y158.514 E3.58999
G1 X52.394 Y158.613 E3.60895
G1 X52.594 Y158.747 E3.62801
G1 X52.767 Y158.913 E3.64707
G1 X52.911 Y159.107 E3.66623
G1 X53.018 Y159.322 E3.68522
G1 X53.089 Y159.550 E3.70417
G1 X53.108 Y159.696 E3.71588
G1 X53.346 Y159.896 F15000.000
G1 X31.872 Y97.445 F15000.000
G1 X31.432 Y97.519 E3.75124 F600.000
G1 X30.987 Y97.519 E3.78653
G1 X30.547 Y97.445 E3.82190
G1 X30.127 Y97.295 E3.85721
G1 X29.740 Y97.079 E3.89236
G1 X29.393 Y96.800 E3.92772
G1 X29.097 Y96.464 E3.96319
G1 X28.863 Y96.083 E3.99859
G1 X28.698 Y95.672 E4.03374
G1 X28.604 Y95.237 E4.06903
G1 X28.584 Y94.790 E4.10449
G1 X28.642 Y94.348 E4.13980
G1 X28.771 Y93.923 E4.17501
G1 X28.974 Y93.524 E4.21054
G1 X29.238 Y93.167 E4.24575
G1 X29.559 Y92.859 E4.28096
G1 X29.928 Y92.609 E4.31633
G1 X30.341 Y92.423 E4.35222
G1 X30.795 Y92.311 E4.38934
G1 X31.210 Y92.275 E4.42236 F600.000
G1 X31.655 Y92.313 E4.45772
G1 X32.084 Y92.426 E4.49294
G1 X32.491 Y92.609 E4.52830
G1 X32.860 Y92.859 E4.56367
G1 X33.181 Y93.167 E4.59888
G1 X33.445 Y93.524 E4.63409
G1 X33.648 Y93.923 E4.66962
G1 X33.777 Y94.348 E4.70483
G1 X33.835 Y94.790 E4.74014
G1 X33.815 Y95.237 E4.77560
G1 X33.721 Y95.672 E4.81089
G1 X33.555 Y96.083 E4.84604
G1 X33.322 Y96.464 E4.88144
G1 X33.026 Y96.800 E4.91691
G1 X32.679 Y97.079 E4.95227
G1 X32.292 Y97.295 E4.98742
G1 X31.943 Y97.419 E5.01679
G1 X31.730 Y96.821 F15000.000
G1 X31.379 Y96.883 E5.04504 F600.000
G1 X31.040 Y96.883 E5.07187
G1 X30.708 Y96.827 E5.09860
G1 X30.390 Y96.714 E5.12531
G1 X30.097 Y96.550 E5.15198
G1 X29.834 Y96.339 E5.17875
G1 X29.610 Y96.085 E5.20555
G1 X29.433 Y95.797 E5.23235
G1 X29.308 Y95.485 E5.25898
G1 X29.237 Y95.155 E5.28575
G1 X29.222 Y94.817 E5.31255
G1 X29.266 Y94.483 E5.33929
G1 X29.363 Y94.161 E5.36596
G1 X29.516 Y93.859 E5.39283
G1 X29.717 Y93.588 E5.41950
G1 X29.960 Y93.355 E5.44618
G1 X30.239 Y93.166 E5.47295
G1 X30.549 Y93.026 E5.49993
G1 X30.899 Y92.940 E5.52849
G1 X31.210 Y92.913 E5.55323 F600.000
