; generated by Slic3r 1.2.9 on 2017-06-08 at 15:02:23

; external perimeters extrusion width = 0.50mm
; perimeters extrusion width = 0.85mm
; infill extrusion width = 0.87mm
; solid infill extrusion width = 0.85mm
; top infill extrusion width = 0.85mm

M107
;G28 ; home all axes
;G1 Z5 F5000 ; lift nozzle
G10 P0 S200
T0
M116

G21 ; set units to millimeters
G90 ; use absolute coordinates
M82 ; use absolute distances for extrusion
G92 E0
G1 Z0.300 F6000.000
G1 E-2.00000 F2400.00000
G92 E0
G1 X67.537 Y47.590 F6000.000
G1 E2.00000 F2400.00000
G1 X90.504 Y25.282 E4.61370 F900.000
G1 X92.485 Y23.566 E4.82759
G1 X93.494 Y22.840 E4.92904
G1 X95.167 Y21.841 E5.08812
G1 X95.355 Y21.729 E5.10597
G1 X96.473 Y21.185 E5.20751
G1 X98.493 Y20.407 E5.38422
G1 X99.692 Y20.059 E5.48610
G1 X101.815 Y19.636 E5.66282
G1 X103.051 Y19.498 E5.76433
G1 X105.216 Y19.441 E5.94113
G1 X106.462 Y19.515 E6.04301
G1 X108.604 Y19.827 E6.21972 F900.000
G1 X109.816 Y20.111 E6.32134
G1 X111.874 Y20.782 E6.49804
G1 X113.012 Y21.263 E6.59896
G1 X114.940 Y22.280 E6.77687
G1 X115.983 Y22.951 E6.87813
G1 X117.698 Y24.272 E7.05485
G1 X118.619 Y25.117 E7.15687
G1 X120.084 Y26.711 E7.33360
G1 X120.844 Y27.693 E7.43498
G1 X122.018 Y29.512 E7.61171
G1 X122.603 Y30.614 E7.71353
G1 X123.451 Y32.607 E7.89034
G1 X123.840 Y33.794 E7.99229
G1 X124.336 Y35.901 E8.16899
G1 X124.516 Y37.130 E8.27041
G1 X124.648 Y39.291 E8.44715
G1 X124.662 Y39.734 E8.48334
G1 X124.679 Y89.250 E12.52546
G1 X124.662 Y140.266 E16.69004
G1 X124.516 Y142.870 E16.90295
G1 X124.336 Y144.099 E17.00437
G1 X123.840 Y146.206 E17.18108
G1 X123.451 Y147.393 E17.28303
G1 X122.603 Y149.386 E17.45984
G1 X122.018 Y150.488 E17.56166
G1 X120.844 Y152.307 E17.73839
G1 X120.084 Y153.289 E17.83976
G1 X118.619 Y154.883 E18.01650
G1 X117.698 Y155.728 E18.11852
G1 X115.983 Y157.049 E18.29523
G1 X114.940 Y157.720 E18.39649
G1 X113.707 Y158.372 E18.51036
G1 X113.013 Y158.737 E18.57439
G1 X111.874 Y159.218 E18.67533
G1 X109.816 Y159.889 E18.85203
G1 X108.604 Y160.173 E18.95365
G1 X106.462 Y160.485 E19.13035
G1 X105.216 Y160.559 E19.23224
G1 X103.051 Y160.502 E19.40904
G1 X101.815 Y160.364 E19.51055
G1 X99.692 Y159.941 E19.68727
G1 X98.493 Y159.593 E19.78914
G1 X96.473 Y158.815 E19.96585
G1 X95.354 Y158.271 E20.06741
G1 X93.493 Y157.160 E20.24434
G1 X92.485 Y156.434 E20.34577
G1 X90.504 Y154.718 E20.55966
G1 X67.537 Y132.410 E23.17337
G1 X66.109 Y130.469 E23.37008
G1 X65.321 Y127.167 E23.64720
G1 X65.321 Y52.833 E29.71531
G1 X65.718 Y50.456 E29.91203
G1 X67.497 Y47.653 E30.18303
G1 X67.994 Y48.059 F6000.000
G1 X90.960 Y25.751 E32.79673 F900.000
G1 X92.911 Y24.063 E33.00729
G1 X93.829 Y23.402 E33.09966
G1 X95.502 Y22.403 E33.25874
G1 X95.690 Y22.291 E33.27657
G1 X96.708 Y21.796 E33.36902
G1 X98.728 Y21.018 E33.54573
G1 X99.820 Y20.701 E33.63849
G1 X101.943 Y20.278 E33.81520
G1 X103.068 Y20.152 E33.90762
G1 X105.233 Y20.095 E34.08442
G1 X106.367 Y20.162 E34.17718
G1 X108.509 Y20.475 E34.35389 F900.000
G1 X109.613 Y20.733 E34.44641
G1 X111.671 Y21.404 E34.62311
G1 X112.708 Y21.842 E34.71500
G1 X114.634 Y22.859 E34.89280
G1 X115.584 Y23.470 E34.98500
G1 X117.299 Y24.791 E35.16171
G1 X118.138 Y25.559 E35.25460
G1 X119.603 Y27.153 E35.43133
G1 X120.294 Y28.048 E35.52363
G1 X121.468 Y29.867 E35.70036
G1 X122.000 Y30.870 E35.79306
G1 X122.848 Y32.863 E35.96987
G1 X123.202 Y33.944 E36.06269
G1 X123.698 Y36.051 E36.23940
G1 X123.863 Y37.170 E36.33173
G1 X123.995 Y39.331 E36.50847
G1 X124.024 Y89.250 E40.58353
G1 X124.008 Y140.266 E44.74807
G1 X123.863 Y142.830 E44.95774
G1 X123.698 Y143.949 E45.05008
G1 X123.202 Y146.056 E45.22678
G1 X122.848 Y147.137 E45.31960
G1 X122.000 Y149.130 E45.49641
G1 X121.468 Y150.133 E45.58912
G1 X120.294 Y151.952 E45.76585
G1 X119.603 Y152.847 E45.85815
G1 X118.138 Y154.441 E46.03488
G1 X117.299 Y155.209 E46.12776
G1 X115.584 Y156.530 E46.30448
G1 X114.634 Y157.141 E46.39666
G1 X113.401 Y157.793 E46.51054
G1 X112.708 Y158.158 E46.57447
G1 X111.671 Y158.596 E46.66637
G1 X109.613 Y159.267 E46.84307
G1 X108.509 Y159.526 E46.93559
G1 X106.367 Y159.838 E47.11229
G1 X105.233 Y159.905 E47.20506
G1 X103.068 Y159.848 E47.38185
G1 X101.943 Y159.722 E47.47428
G1 X99.820 Y159.299 E47.65099
G1 X98.728 Y158.982 E47.74375
G1 X96.708 Y158.204 E47.92045
G1 X95.690 Y157.709 E48.01292
G1 X93.829 Y156.598 E48.18983
G1 X92.911 Y155.937 E48.28218
G1 X90.961 Y154.249 E48.49275
G1 X67.994 Y131.941 E51.10645
G1 X66.646 Y130.078 E51.29409
G1 X65.975 Y127.167 E51.53796
G1 X65.975 Y52.833 E57.60607
G1 X66.372 Y50.569 E57.79371
G1 X67.953 Y48.122 E58.03146
G1 E56.03146 F2400.00000
G92 E0
G1 X108.025 Y146.380 F6000.000
G1 E2.00000 F2400.00000
G1 X108.336 Y146.301 E2.02621 F900.000
G1 X108.626 Y146.278 E2.04994 F900.000
G1 X108.933 Y146.303 E2.07505
G1 X109.232 Y146.382 E2.10032
G1 X109.511 Y146.508 E2.12535
G1 X109.764 Y146.679 E2.15027
G1 X109.988 Y146.892 E2.17553
G1 X110.171 Y147.141 E2.20070
G1 X110.310 Y147.415 E2.22581
G1 X110.399 Y147.710 E2.25097
G1 X110.438 Y148.014 E2.27594
G1 X110.426 Y148.321 E2.30102
G1 X110.361 Y148.623 E2.32628
G1 X110.245 Y148.908 E2.35138
G1 X110.085 Y149.170 E2.37644
G1 X109.880 Y149.401 E2.40165
G1 X109.642 Y149.594 E2.42665
G1 X109.375 Y149.743 E2.45163
G1 X109.084 Y149.847 E2.47687
G1 X108.779 Y149.899 E2.50206
G1 X108.473 Y149.899 E2.52710
G1 X108.168 Y149.847 E2.55236
G1 X107.879 Y149.743 E2.57742
G1 X107.611 Y149.594 E2.60241
G1 X107.372 Y149.401 E2.62750
G1 X107.167 Y149.170 E2.65272
G1 X107.006 Y148.906 E2.67795
G1 X106.893 Y148.623 E2.70284
G1 X106.826 Y148.323 E2.72794
G1 X106.814 Y148.014 E2.75320
G1 X106.853 Y147.710 E2.77817
G1 X106.942 Y147.415 E2.80333
G1 X107.081 Y147.141 E2.82844
G1 X107.264 Y146.892 E2.85362
G1 X107.489 Y146.678 E2.87898
G1 X107.743 Y146.507 E2.90397
G1 X107.957 Y146.411 E2.92312
G1 X108.181 Y146.907 F6000.000
G1 X108.426 Y146.841 E2.93688 F900.000
G1 X108.626 Y146.825 E2.94780 F900.000
G1 X108.840 Y146.842 E2.95948
G1 X109.049 Y146.897 E2.97121
G1 X109.244 Y146.985 E2.98286
G1 X109.421 Y147.105 E2.99446
G1 X109.577 Y147.254 E3.00618
G1 X109.705 Y147.427 E3.01787
G1 X109.802 Y147.619 E3.02955
G1 X109.864 Y147.825 E3.04124
G1 X109.892 Y148.038 E3.05289
G1 X109.883 Y148.252 E3.06455
G1 X109.838 Y148.462 E3.07623
G1 X109.757 Y148.662 E3.08792
G1 X109.645 Y148.845 E3.09959
G1 X109.502 Y149.006 E3.11127
G1 X109.336 Y149.140 E3.12292
G1 X109.149 Y149.245 E3.13455
G1 X108.945 Y149.317 E3.14627
G1 X108.733 Y149.354 E3.15797
G1 X108.519 Y149.354 E3.16962
G1 X108.306 Y149.317 E3.18133
G1 X108.104 Y149.245 E3.19298
G1 X107.917 Y149.141 E3.20465
G1 X107.750 Y149.006 E3.21631
G1 X107.607 Y148.845 E3.22800
G1 X107.495 Y148.661 E3.23970
G1 X107.415 Y148.462 E3.25133
G1 X107.369 Y148.253 E3.26299
G1 X107.360 Y148.038 E3.27469
G1 X107.388 Y147.825 E3.28634
G1 X107.450 Y147.619 E3.29802
G1 X107.547 Y147.427 E3.30971
G1 X107.675 Y147.254 E3.32140
G1 X107.831 Y147.105 E3.33314
G1 X108.113 Y146.938 E3.35092
G1 X108.225 Y146.658 F6000.000
G1 X106.670 Y144.356 F6000.000
G1 X106.426 Y144.492 E3.37368 F900.000
G1 X105.740 Y144.734 E3.43308
G1 X105.022 Y144.858 E3.49256
G1 X104.292 Y144.858 E3.55218
G1 X103.574 Y144.734 E3.61164
G1 X102.886 Y144.492 E3.67114
G1 X102.250 Y144.135 E3.73070
G1 X101.683 Y143.678 E3.79017
G1 X101.202 Y143.131 E3.84961
G1 X100.818 Y142.510 E3.90922
G1 X100.547 Y141.833 E3.96875
G1 X100.394 Y141.121 E4.02823
G1 X100.363 Y140.393 E4.08770
G1 X100.455 Y139.670 E4.14721
G1 X100.669 Y138.972 E4.20677
G1 X100.997 Y138.321 E4.26627
G1 X101.430 Y137.735 E4.32577
G1 X101.957 Y137.230 E4.38534
G1 X102.561 Y136.823 E4.44481
G1 X103.229 Y136.520 E4.50471
G1 X103.978 Y136.335 E4.56765
G1 X104.657 Y136.276 E4.62330 F900.000
G1 X105.383 Y136.339 E4.68277
G1 X106.089 Y136.522 E4.74229
G1 X106.753 Y136.823 E4.80184
G1 X107.357 Y137.231 E4.86134
G1 X107.883 Y137.736 E4.92085
G1 X108.317 Y138.322 E4.98038
G1 X108.647 Y138.979 E5.04040
G1 X108.858 Y139.669 E5.09931
G1 X108.951 Y140.393 E5.15888
G1 X108.919 Y141.121 E5.21842
G1 X108.766 Y141.833 E5.27784
G1 X108.495 Y142.509 E5.33732
G1 X108.113 Y143.131 E5.39689
G1 X107.631 Y143.678 E5.45638
G1 X107.064 Y144.136 E5.51588
G1 X106.735 Y144.319 E5.54660
G1 X106.469 Y143.843 F6000.000
G1 X106.201 Y143.993 E5.56329 F900.000
G1 X105.602 Y144.204 E5.59780
G1 X104.975 Y144.313 E5.63236
G1 X104.339 Y144.313 E5.66696
G1 X103.712 Y144.204 E5.70152
G1 X103.112 Y143.993 E5.73608
G1 X102.556 Y143.682 E5.77066
G1 X102.061 Y143.283 E5.80522
G1 X101.641 Y142.806 E5.83975
G1 X101.307 Y142.263 E5.87437
G1 X101.070 Y141.673 E5.90894
G1 X100.936 Y141.051 E5.94349
G1 X100.909 Y140.416 E5.97805
G1 X100.990 Y139.785 E6.01262
G1 X101.176 Y139.176 E6.04721
G1 X101.462 Y138.608 E6.08177
G1 X101.841 Y138.097 E6.11632
G1 X102.300 Y137.656 E6.15092
G1 X102.828 Y137.300 E6.18547
G1 X103.409 Y137.037 E6.22013
G1 X104.067 Y136.874 E6.25699
G1 X104.657 Y136.824 E6.28915 F900.000
G1 X105.290 Y136.878 E6.32369
G1 X105.907 Y137.038 E6.35828
G1 X106.486 Y137.300 E6.39286
G1 X107.014 Y137.656 E6.42742
G1 X107.472 Y138.097 E6.46198
G1 X107.851 Y138.608 E6.49654
G1 X108.139 Y139.182 E6.53144
G1 X108.323 Y139.785 E6.56566
G1 X108.405 Y140.416 E6.60025
G1 X108.377 Y141.052 E6.63482
G1 X108.243 Y141.673 E6.66935
G1 X108.006 Y142.263 E6.70392
G1 X107.673 Y142.806 E6.73851
G1 X107.253 Y143.283 E6.77304
G1 X106.757 Y143.682 E6.80762
G1 X106.535 Y143.807 E6.82147
G1 X106.465 Y144.151 F6000.000
G1 E4.82147 F2400.00000
G92 E0
G1 X102.461 Y136.643 F6000.000
G1 X102.051 Y135.739 F6000.000
G1 X102.003 Y135.764 F6000.000
G1 X101.518 Y134.900 F6000.000
G1 X101.440 Y134.709 F6000.000
G1 E2.00000 F2400.00000
G1 X101.143 Y134.814 E2.02576 F900.000
G1 X100.842 Y134.866 E2.05070
G1 X100.534 Y134.866 E2.07584
G1 X100.231 Y134.814 E2.10093
G1 X99.941 Y134.712 E2.12596
G1 X99.670 Y134.561 E2.15128
G1 X99.430 Y134.366 E2.17656
G1 X99.230 Y134.137 E2.20141
G1 X99.068 Y133.875 E2.22655
G1 X98.953 Y133.588 E2.25178
G1 X98.889 Y133.290 E2.27667
G1 X98.875 Y132.983 E2.30175
G1 X98.914 Y132.675 E2.32709
G1 X99.005 Y132.382 E2.35211
G1 X99.143 Y132.107 E2.37727
G1 X99.326 Y131.861 E2.40233
G1 X99.547 Y131.647 E2.42742
G1 X99.804 Y131.474 E2.45269
G1 X100.088 Y131.346 E2.47815
G1 X100.398 Y131.270 E2.50421
G1 X100.687 Y131.244 E2.52786 F900.000
G1 X100.994 Y131.271 E2.55300
G1 X101.291 Y131.348 E2.57806
G1 X101.571 Y131.474 E2.60316
G1 X101.828 Y131.647 E2.62842
G1 X102.049 Y131.861 E2.65352
G1 X102.232 Y132.107 E2.67858
G1 X102.370 Y132.382 E2.70374
G1 X102.461 Y132.677 E2.72894
G1 X102.499 Y132.983 E2.75408
G1 X102.487 Y133.288 E2.77897
G1 X102.422 Y133.588 E2.80406
G1 X102.307 Y133.875 E2.82929
G1 X102.144 Y134.138 E2.85456
G1 X101.942 Y134.367 E2.87947
G1 X101.704 Y134.561 E2.90452
G1 X101.506 Y134.672 E2.92311
G1 X101.239 Y134.196 F6000.000
G1 X101.006 Y134.284 E2.93667 F900.000
G1 X100.795 Y134.321 E2.94828
G1 X100.580 Y134.321 E2.95999
G1 X100.368 Y134.284 E2.97166
G1 X100.166 Y134.213 E2.98330
G1 X99.977 Y134.108 E2.99503
G1 X99.810 Y133.972 E3.00676
G1 X99.669 Y133.812 E3.01835
G1 X99.556 Y133.629 E3.03005
G1 X99.476 Y133.429 E3.04175
G1 X99.431 Y133.220 E3.05336
G1 X99.421 Y133.005 E3.06502
G1 X99.449 Y132.791 E3.07674
G1 X99.512 Y132.586 E3.08841
G1 X99.608 Y132.394 E3.10009
G1 X99.737 Y132.222 E3.11175
G1 X99.891 Y132.072 E3.12343
G1 X100.070 Y131.952 E3.13513
G1 X100.267 Y131.863 E3.14688
G1 X100.488 Y131.809 E3.15922
G1 X100.687 Y131.792 E3.17009 F900.000
G1 X100.901 Y131.810 E3.18179
G1 X101.109 Y131.864 E3.19345
G1 X101.305 Y131.952 E3.20513
G1 X101.484 Y132.072 E3.21683
G1 X101.638 Y132.222 E3.22851
G1 X101.767 Y132.394 E3.24017
G1 X101.863 Y132.586 E3.25185
G1 X101.926 Y132.792 E3.26355
G1 X101.953 Y133.005 E3.27523
G1 X101.944 Y133.219 E3.28685
G1 X101.899 Y133.429 E3.29850
G1 X101.819 Y133.629 E3.31020
G1 X101.705 Y133.812 E3.32193
G1 X101.564 Y133.972 E3.33356
G1 X101.305 Y134.160 E3.35092
G1 X101.219 Y134.445 F6000.000
G1 X97.746 Y142.835 F6000.000
G1 X98.024 Y142.960 E3.37583 F900.000
G1 X98.280 Y143.132 E3.40096
G1 X98.503 Y143.347 E3.42626
G1 X98.685 Y143.594 E3.45130
G1 X98.823 Y143.866 E3.47623
G1 X98.914 Y144.163 E3.50159
G1 X98.952 Y144.468 E3.52663
G1 X98.940 Y144.774 E3.55163
G1 X98.875 Y145.074 E3.57672
G1 X98.760 Y145.361 E3.60195
G1 X98.597 Y145.624 E3.62723
G1 X98.384 Y145.866 E3.65354
G1 X98.064 Y146.104 E3.68611
G1 X97.625 Y146.295 E3.72519
G1 X97.295 Y146.352 E3.75254
G1 X96.987 Y146.352 E3.77769
G1 X96.682 Y146.300 E3.80295
G1 X96.393 Y146.196 E3.82802
G1 X96.125 Y146.047 E3.85300
G1 X95.886 Y145.854 E3.87809
G1 X95.681 Y145.623 E3.90331
G1 X95.520 Y145.359 E3.92855
G1 X95.406 Y145.074 E3.95362
G1 X95.342 Y144.776 E3.97851
G1 X95.328 Y144.468 E4.00370
G1 X95.367 Y144.161 E4.02895
G1 X95.458 Y143.868 E4.05395
G1 X95.595 Y143.594 E4.07900
G1 X95.779 Y143.345 E4.10425
G1 X96.001 Y143.132 E4.12940
G1 X96.257 Y142.960 E4.15453
G1 X96.539 Y142.833 E4.17983
G1 X96.851 Y142.754 E4.20610
G1 X97.140 Y142.731 E4.22971 F900.000
G1 X97.447 Y142.756 E4.25484
G1 X97.673 Y142.816 E4.27399
G1 X97.535 Y143.343 F6000.000
G1 X97.758 Y143.438 E4.28720 F900.000
G1 X97.936 Y143.558 E4.29887
G1 X98.092 Y143.707 E4.31057
G1 X98.219 Y143.880 E4.32223
G1 X98.316 Y144.071 E4.33388
G1 X98.379 Y144.278 E4.34562
G1 X98.406 Y144.490 E4.35724
G1 X98.397 Y144.705 E4.36892
G1 X98.352 Y144.915 E4.38057
G1 X98.272 Y145.115 E4.39227
G1 X98.158 Y145.298 E4.40400
G1 X98.013 Y145.463 E4.41592
G1 X97.789 Y145.629 E4.43110
G1 X97.468 Y145.769 E4.45012
G1 X97.248 Y145.807 E4.46223
G1 X97.033 Y145.807 E4.47394
G1 X96.820 Y145.770 E4.48565
G1 X96.618 Y145.698 E4.49730
G1 X96.431 Y145.594 E4.50897
G1 X96.264 Y145.459 E4.52063
G1 X96.121 Y145.298 E4.53232
G1 X96.009 Y145.114 E4.54402
G1 X95.929 Y144.915 E4.55569
G1 X95.884 Y144.706 E4.56730
G1 X95.874 Y144.490 E4.57902
G1 X95.902 Y144.277 E4.59069
G1 X95.965 Y144.072 E4.60235
G1 X96.061 Y143.880 E4.61401
G1 X96.190 Y143.707 E4.62574
G1 X96.345 Y143.558 E4.63741
G1 X96.523 Y143.438 E4.64908
G1 X96.719 Y143.349 E4.66079
G1 X96.941 Y143.294 E4.67318
G1 X97.140 Y143.278 E4.68405 F900.000
G1 X97.354 Y143.295 E4.69574
G1 X97.462 Y143.323 E4.70179
G1 X97.722 Y143.188 F6000.000
G1 X98.860 Y143.486 F6000.000
G1 X102.403 Y148.346 F6000.000
G1 X109.614 Y144.430 F6000.000
G1 X111.327 Y140.718 F6000.000
G1 X110.252 Y139.249 F6000.000
G1 X109.839 Y138.588 F6000.000
G1 X109.686 Y138.335 F6000.000
G1 X109.518 Y138.033 F6000.000
G1 X110.369 Y137.512 F6000.000
G1 X110.553 Y137.420 F6000.000
G1 X110.440 Y137.137 E4.72667 F900.000
G1 X110.373 Y136.837 E4.75177
G1 X110.361 Y136.528 E4.77703
G1 X110.400 Y136.224 E4.80200
G1 X110.489 Y135.929 E4.82717
G1 X110.629 Y135.654 E4.85239
G1 X110.811 Y135.408 E4.87736
G1 X111.034 Y135.193 E4.90267
G1 X111.290 Y135.021 E4.92779
G1 X111.574 Y134.893 E4.95322
G1 X111.883 Y134.817 E4.97923
G1 X112.173 Y134.791 E5.00299 F900.000
G1 X112.480 Y134.818 E5.02811
G1 X112.777 Y134.895 E5.05318
G1 X113.058 Y135.022 E5.07838
G1 X113.313 Y135.194 E5.10344
G1 X113.535 Y135.408 E5.12864
G1 X113.717 Y135.654 E5.15361
G1 X113.857 Y135.929 E5.17884
G1 X113.946 Y136.224 E5.20400
G1 X113.985 Y136.528 E5.22897
G1 X113.973 Y136.835 E5.25405
G1 X113.908 Y137.137 E5.27931
G1 X113.792 Y137.422 E5.30441
G1 X113.632 Y137.684 E5.32947
G1 X113.428 Y137.914 E5.35454
G1 X113.190 Y138.108 E5.37958
G1 X112.920 Y138.259 E5.40489
G1 X112.628 Y138.361 E5.43010
G1 X112.326 Y138.413 E5.45512
G1 X112.020 Y138.413 E5.48015
G1 X111.717 Y138.361 E5.50523
G1 X111.427 Y138.259 E5.53027
G1 X111.156 Y138.108 E5.55558
G1 X110.918 Y137.914 E5.58072
G1 X110.714 Y137.684 E5.60579
G1 X110.592 Y137.484 E5.62491
G1 X111.057 Y137.200 F6000.000
G1 X110.962 Y136.976 E5.63808 F900.000
G1 X110.916 Y136.767 E5.64974
G1 X110.907 Y136.552 E5.66144
G1 X110.935 Y136.339 E5.67309
G1 X110.997 Y136.133 E5.68478
G1 X111.094 Y135.941 E5.69649
G1 X111.222 Y135.769 E5.70811
G1 X111.378 Y135.619 E5.71986
G1 X111.556 Y135.499 E5.73153
G1 X111.753 Y135.410 E5.74327
G1 X111.973 Y135.356 E5.75556
G1 X112.173 Y135.339 E5.76650 F900.000
G1 X112.387 Y135.357 E5.77819
G1 X112.595 Y135.411 E5.78986
G1 X112.791 Y135.499 E5.80155
G1 X112.969 Y135.619 E5.81318
G1 X113.124 Y135.769 E5.82491
