; generated by Slic3r 1.2.9 on 2017-05-31 at 16:46:53

; external perimeters extrusion width = 0.40mm
; perimeters extrusion width = 0.40mm
; infill extrusion width = 0.40mm
; solid infill extrusion width = 0.40mm
; top infill extrusion width = 0.40mm

M107
;G28 ; home all axes
;G1 Z5 F5000 ; lift nozzle
G10 P0 S185
T0
M116

G21 ; set units to millimeters
G90 ; use absolute coordinates
M82 ; use absolute distances for extrusion
G92 E0
G1 Z0.300 F15000.000
G1 E-2.00000 F2400.00000
G92 E0
G1 X35.966 Y14.908 F15000.000
G1 E2.00000 F2400.00000
G1 X36.778 Y12.948 E2.16818 F960.000
G1 X37.059 Y12.406 E2.21663
G1 X38.190 Y10.606 E2.38517
G1 X38.558 Y10.117 E2.43368
G1 X39.976 Y8.532 E2.60223
G1 X40.420 Y8.113 E2.65066
G1 X42.082 Y6.788 E2.81918
G1 X42.588 Y6.450 E2.86746
G1 X44.449 Y5.421 E3.03603
G1 X45.009 Y5.170 E3.08464
G1 X47.015 Y4.469 E3.25310
G1 X47.605 Y4.317 E3.30142
G1 X49.702 Y3.960 E3.47002
G1 X50.311 Y3.909 E3.51852
G1 X52.437 Y3.909 E3.68703
G1 X53.047 Y3.960 E3.73555
G1 X55.313 Y4.350 E3.91790 F960.000
G1 X142.635 Y23.558 E11.00603
G1 X142.981 Y23.652 E11.03446
G1 X145.030 Y24.320 E11.20539
G1 X145.601 Y24.562 E11.25449
G1 X147.508 Y25.569 E11.42549
G1 X148.029 Y25.903 E11.47460
G1 X149.738 Y27.219 E11.64554
G1 X150.196 Y27.639 E11.69482
G1 X151.655 Y29.227 E11.86578
G1 X152.033 Y29.716 E11.91475
G1 X153.202 Y31.527 E12.08570
G1 X153.493 Y32.076 E12.13489
G1 X154.338 Y34.061 E12.30592
G1 X154.531 Y34.651 E12.35517
G1 X155.025 Y36.750 E12.52610
G1 X155.115 Y37.361 E12.57509
G1 X155.253 Y39.734 E12.76353
G1 X155.271 Y90.743 E16.80744
G1 X155.247 Y140.486 E20.75097
G1 X155.115 Y142.639 E20.92193
G1 X155.025 Y143.250 E20.97092
G1 X154.531 Y145.349 E21.14185
G1 X154.338 Y145.939 E21.19110
G1 X153.493 Y147.924 E21.36213
G1 X153.202 Y148.473 E21.41132
G1 X152.033 Y150.284 E21.58228
G1 X151.655 Y150.773 E21.63125
G1 X150.196 Y152.361 E21.80220
G1 X149.738 Y152.781 E21.85149
G1 X148.029 Y154.097 E22.02243
G1 X147.508 Y154.431 E22.07154
G1 X145.601 Y155.438 E22.24253
G1 X145.030 Y155.680 E22.29163
G1 X142.981 Y156.348 E22.46257
G1 X142.635 Y156.442 E22.49099
G1 X55.313 Y175.650 E29.57912
G1 X53.047 Y176.040 E29.76147
G1 X52.437 Y176.091 E29.80999
G1 X50.311 Y176.091 E29.97850
G1 X49.702 Y176.040 E30.02700
G1 X47.605 Y175.683 E30.19561
G1 X47.015 Y175.531 E30.24392
G1 X45.009 Y174.830 E30.41238
G1 X44.449 Y174.579 E30.46100
G1 X42.588 Y173.550 E30.62956
G1 X42.082 Y173.212 E30.67784
G1 X40.420 Y171.887 E30.84636
G1 X39.976 Y171.468 E30.89480
G1 X38.558 Y169.883 E31.06335
G1 X38.190 Y169.394 E31.11185
G1 X37.059 Y167.594 E31.28039
G1 X36.778 Y167.052 E31.32884
G1 X35.921 Y164.979 E31.50661
G1 X24.963 Y135.932 E33.96785
G1 X24.729 Y134.649 E34.07125
G1 X24.729 Y45.351 E41.15056
G1 X24.963 Y44.068 E41.25397
G1 X35.938 Y14.978 E43.71885
G1 E41.71885 F2400.00000
G92 E0
G1 X32.324 Y113.411 F15000.000
G1 E2.00000 F2400.00000
G1 X32.660 Y113.440 E2.02675 F600.000
G1 X32.986 Y113.525 E2.05343
G1 X33.293 Y113.664 E2.08017
G1 X33.573 Y113.852 E2.10693
G1 X33.817 Y114.087 E2.13371
G1 X34.017 Y114.357 E2.16035
G1 X34.170 Y114.659 E2.18721
G1 X34.267 Y114.981 E2.21388
G1 X34.311 Y115.315 E2.24062
G1 X34.296 Y115.652 E2.26738
G1 X34.226 Y115.982 E2.29409
G1 X34.099 Y116.296 E2.32090
G1 X33.923 Y116.582 E2.34756
G1 X33.700 Y116.836 E2.37435
G1 X33.438 Y117.048 E2.40110
G1 X33.143 Y117.212 E2.42782
G1 X32.818 Y117.328 E2.45518
G1 X32.324 Y117.390 E2.49467
G1 X31.830 Y117.328 E2.53415
G1 X31.505 Y117.212 E2.56151
G1 X31.211 Y117.048 E2.58820
G1 X30.947 Y116.836 E2.61501
G1 X30.724 Y116.582 E2.64184
G1 X30.547 Y116.295 E2.66855
G1 X30.422 Y115.982 E2.69528
G1 X30.351 Y115.652 E2.72201
G1 X30.337 Y115.315 E2.74876
G1 X30.380 Y114.981 E2.77548
G1 X30.479 Y114.659 E2.80218
G1 X30.630 Y114.357 E2.82895
G1 X30.830 Y114.087 E2.85564
G1 X31.074 Y113.852 E2.88243
G1 X31.354 Y113.664 E2.90919
G1 X31.652 Y113.529 E2.93517
G1 X31.910 Y113.446 E2.95659
G1 X32.249 Y113.417 E2.98361 F600.000
G1 X32.501 Y113.124 F15000.000
G1 X32.249 Y66.581 F15000.000
G1 X31.823 Y66.525 E3.01770 F600.000
G1 X31.505 Y66.412 E3.04448
G1 X31.211 Y66.248 E3.07116
G1 X30.947 Y66.036 E3.09798
G1 X30.724 Y65.782 E3.12480
G1 X30.547 Y65.495 E3.15152
G1 X30.422 Y65.182 E3.17824
G1 X30.351 Y64.852 E3.20498
G1 X30.337 Y64.515 E3.23173
G1 X30.380 Y64.181 E3.25845
G1 X30.479 Y63.859 E3.28515
G1 X30.630 Y63.557 E3.31192
G1 X30.830 Y63.287 E3.33861
G1 X31.074 Y63.052 E3.36540
G1 X31.354 Y62.864 E3.39216
G1 X31.663 Y62.724 E3.41909
G1 X32.013 Y62.638 E3.44765
G1 X32.324 Y62.611 E3.47239 F600.000
G1 X32.660 Y62.640 E3.49914
G1 X32.986 Y62.725 E3.52582
G1 X33.293 Y62.864 E3.55256
G1 X33.573 Y63.052 E3.57932
G1 X33.817 Y63.287 E3.60610
G1 X34.017 Y63.557 E3.63274
G1 X34.170 Y63.859 E3.65960
G1 X34.267 Y64.181 E3.68627
G1 X34.311 Y64.515 E3.71301
G1 X34.296 Y64.852 E3.73977
G1 X34.249 Y65.076 E3.75785
G1 X34.542 Y65.076 E3.78113
G1 X33.700 Y66.036 E3.88240
G1 X33.438 Y66.248 E3.90915
G1 X33.143 Y66.412 E3.93588
G1 X32.825 Y66.525 E3.96266
G1 X32.493 Y66.581 E3.98937
G1 X32.324 Y66.581 E4.00272
G1 X32.003 Y66.934 F15000.000
G1 E2.00272 F2400.00000
G92 E0
G1 X51.051 Y166.322 F15000.000
G1 E2.00000 F2400.00000
G1 X51.374 Y166.295 E2.02570 F600.000
G1 X51.721 Y166.324 E2.05325
G1 X52.060 Y166.413 E2.08105
G1 X52.374 Y166.555 E2.10844
G1 X52.664 Y166.750 E2.13609
G1 X52.916 Y166.992 E2.16378
G1 X53.125 Y167.274 E2.19159
G1 X53.280 Y167.584 E2.21914
G1 X53.383 Y167.916 E2.24662
G1 X53.428 Y168.264 E2.27444
G1 X53.412 Y168.613 E2.30216
G1 X53.339 Y168.950 E2.32953
G1 X53.209 Y169.276 E2.35732
G1 X53.025 Y169.572 E2.38497
G1 X52.797 Y169.833 E2.41247
G1 X52.524 Y170.053 E2.44027
G1 X52.221 Y170.222 E2.46773
G1 X51.894 Y170.339 E2.49531
G1 X51.549 Y170.398 E2.52303
G1 X51.198 Y170.398 E2.55088
G1 X50.855 Y170.339 E2.57845
G1 X50.525 Y170.222 E2.60618
G1 X50.223 Y170.052 E2.63366
G1 X49.953 Y169.835 E2.66115
G1 X49.723 Y169.574 E2.68871
G1 X49.538 Y169.276 E2.71654
G1 X49.408 Y168.950 E2.74433
G1 X49.335 Y168.610 E2.77194
G1 X49.321 Y168.264 E2.79941
G1 X49.363 Y167.918 E2.82699
G1 X49.467 Y167.584 E2.85470
G1 X49.622 Y167.274 E2.88226
G1 X49.831 Y166.992 E2.91007
G1 X50.083 Y166.750 E2.93776
G1 X50.373 Y166.555 E2.96540
G1 X50.694 Y166.410 E2.99339
G1 X50.978 Y166.340 E3.01660
G1 X51.131 Y166.957 F15000.000
G1 X51.154 Y166.951 E3.01847 F600.000
G1 X51.374 Y166.933 E3.03598 F600.000
G1 X51.613 Y166.953 E3.05497
G1 X51.846 Y167.014 E3.07411
G1 X52.064 Y167.113 E3.09307
G1 X52.264 Y167.247 E3.11213
G1 X52.437 Y167.413 E3.13119
G1 X52.581 Y167.607 E3.15035
G1 X52.688 Y167.822 E3.16937
G1 X52.759 Y168.051 E3.18839
G1 X52.790 Y168.290 E3.20748
G1 X52.779 Y168.531 E3.22661
G1 X52.729 Y168.764 E3.24554
G1 X52.639 Y168.988 E3.26466
G1 X52.513 Y169.193 E3.28375
G1 X52.355 Y169.373 E3.30272
G1 X52.167 Y169.524 E3.32182
G1 X51.958 Y169.641 E3.34084
G1 X51.732 Y169.722 E3.35987
G1 X51.495 Y169.762 E3.37891
G1 X51.252 Y169.762 E3.39819
G1 X51.016 Y169.722 E3.41713
G1 X50.789 Y169.641 E3.43626
G1 X50.580 Y169.524 E3.45523
G1 X50.394 Y169.374 E3.47423
G1 X50.235 Y169.194 E3.49325
G1 X50.108 Y168.988 E3.51241
G1 X50.018 Y168.764 E3.53153
G1 X49.968 Y168.530 E3.55055
G1 X49.958 Y168.290 E3.56959
G1 X49.987 Y168.052 E3.58857
G1 X50.059 Y167.822 E3.60768
G1 X50.166 Y167.607 E3.62670
G1 X50.310 Y167.413 E3.64586
G1 X50.483 Y167.247 E3.66492
G1 X50.683 Y167.113 E3.68398
G1 X50.903 Y167.013 E3.70315
G1 X51.058 Y166.975 E3.71582
G1 X51.138 Y166.934 F15000.000
G1 X51.058 Y164.373 F15000.000
G1 X50.230 Y164.243 E3.78225 F600.000
G1 X49.498 Y163.984 E3.84386
G1 X48.790 Y163.577 E3.90861
G1 X48.233 Y163.127 E3.96535
G1 X47.725 Y162.550 E4.02631
G1 X47.320 Y161.893 E4.08746
G1 X47.033 Y161.179 E4.14853
G1 X46.871 Y160.426 E4.20953
G1 X46.839 Y159.658 E4.27053
G1 X46.936 Y158.894 E4.33156
G1 X47.162 Y158.157 E4.39265
G1 X47.508 Y157.470 E4.45369
G1 X47.966 Y156.851 E4.51473
G1 X48.522 Y156.317 E4.57582
G1 X49.160 Y155.887 E4.63682
G1 X49.867 Y155.567 E4.69836
G1 X50.661 Y155.371 E4.76314
G1 X51.374 Y155.311 E4.81989 F600.000
G1 X52.140 Y155.376 E4.88081
G1 X52.886 Y155.569 E4.94193
G1 X53.588 Y155.887 E5.00304
G1 X54.225 Y156.318 E5.06397
G1 X54.781 Y156.851 E5.12503
G1 X55.239 Y157.470 E5.18607
G1 X55.585 Y158.157 E5.24710
G1 X55.811 Y158.894 E5.30819
G1 X55.908 Y159.658 E5.36923
G1 X55.876 Y160.426 E5.43023
G1 X55.714 Y161.179 E5.49123
G1 X55.427 Y161.893 E5.55223
G1 X55.023 Y162.550 E5.61339
G1 X54.514 Y163.127 E5.67443
G1 X53.917 Y163.610 E5.73534
G1 X53.244 Y163.986 E5.79646
G1 X52.518 Y164.243 E5.85748
G1 X51.759 Y164.373 E5.91854
G1 X51.133 Y164.373 E5.96813
G1 X51.133 Y163.737 F15000.000
G1 X51.042 Y163.737 E5.97536 F600.000
G1 X50.391 Y163.626 E6.02773
G1 X49.764 Y163.404 E6.08041
G1 X49.150 Y163.051 E6.13659
G1 X48.674 Y162.666 E6.18510
G1 X48.237 Y162.170 E6.23750
G1 X47.890 Y161.606 E6.29004
G1 X47.643 Y160.992 E6.34252
G1 X47.504 Y160.345 E6.39495
G1 X47.476 Y159.685 E6.44739
G1 X47.560 Y159.028 E6.49985
G1 X47.753 Y158.395 E6.55235
G1 X48.051 Y157.804 E6.60480
G1 X48.445 Y157.272 E6.65725
G1 X48.923 Y156.814 E6.70976
G1 X49.471 Y156.444 E6.76219
G1 X50.076 Y156.170 E6.81485
G1 X50.764 Y156.001 E6.87101
G1 X51.374 Y155.949 E6.91953 F600.000
G1 X52.033 Y156.005 E6.97193
G1 X52.674 Y156.171 E7.02443
G1 X53.277 Y156.444 E7.07693
G1 X53.824 Y156.814 E7.12931
G1 X54.302 Y157.272 E7.18180
G1 X54.696 Y157.804 E7.23425
G1 X54.994 Y158.395 E7.28670
G1 X55.187 Y159.028 E7.33920
G1 X55.271 Y159.685 E7.39166
G1 X55.243 Y160.345 E7.44410
G1 X55.104 Y160.992 E7.49653
G1 X54.858 Y161.606 E7.54898
G1 X54.511 Y162.170 E7.60151
G1 X54.073 Y162.666 E7.65397
G1 X53.559 Y163.082 E7.70635
G1 X52.981 Y163.405 E7.75888
G1 X52.357 Y163.626 E7.81131
G1 X51.705 Y163.737 E7.86377
G1 X51.208 Y163.737 E7.90314
G1 X51.088 Y163.816 F15000.000
G1 E5.90314 F2400.00000
G92 E0
G1 X51.208 Y153.398 F15000.000
G1 E2.00000 F2400.00000
G1 X50.855 Y153.339 E2.02840 F600.000
G1 X50.525 Y153.222 E2.05613
G1 X50.223 Y153.052 E2.08361
G1 X49.953 Y152.835 E2.11110
G1 X49.723 Y152.574 E2.13866
G1 X49.538 Y152.276 E2.16649
G1 X49.408 Y151.950 E2.19433
G1 X49.335 Y151.608 E2.22201
G1 X49.321 Y151.264 E2.24932
G1 X49.363 Y150.917 E2.27706
G1 X49.467 Y150.584 E2.30473
G1 X49.622 Y150.274 E2.33221
G1 X49.831 Y149.992 E2.36001
G1 X50.081 Y149.752 E2.38751
G1 X50.370 Y149.556 E2.41520
G1 X50.696 Y149.408 E2.44357
G1 X51.050 Y149.322 E2.47245
G1 X51.374 Y149.294 E2.49823 F600.000
G1 X51.721 Y149.324 E2.52579
G1 X52.057 Y149.411 E2.55334
G1 X52.377 Y149.556 E2.58115
G1 X52.666 Y149.752 E2.60885
G1 X52.916 Y149.992 E2.63634
G1 X53.125 Y150.274 E2.66415
G1 X53.280 Y150.584 E2.69163
G1 X53.383 Y150.914 E2.71906
G1 X53.428 Y151.264 E2.74705
G1 X53.412 Y151.611 E2.77460
G1 X53.339 Y151.950 E2.80204
G1 X53.209 Y152.276 E2.82988
G1 X53.025 Y152.572 E2.85753
G1 X52.797 Y152.833 E2.88504
G1 X52.524 Y153.053 E2.91283
G1 X52.221 Y153.222 E2.94029
G1 X51.894 Y153.339 E2.96787
G1 X51.549 Y153.398 E2.99562
G1 X51.283 Y153.398 E3.01666
G1 X51.283 Y152.762 F15000.000
G1 X51.016 Y152.722 E3.03806 F600.000
G1 X50.789 Y152.641 E3.05718
G1 X50.580 Y152.524 E3.07616
G1 X50.394 Y152.374 E3.09515
G1 X50.235 Y152.194 E3.11418
G1 X50.108 Y151.988 E3.13334
G1 X50.018 Y151.764 E3.15248
G1 X49.968 Y151.529 E3.17157
G1 X49.958 Y151.290 E3.19050
G1 X49.987 Y151.051 E3.20960
G1 X50.059 Y150.822 E3.22864
G1 X50.166 Y150.607 E3.24763
G1 X50.310 Y150.413 E3.26679
G1 X50.482 Y150.247 E3.28577
G1 X50.682 Y150.112 E3.30488
G1 X50.904 Y150.012 E3.32420
G1 X51.153 Y149.951 E3.34455
G1 X51.374 Y149.932 E3.36211 F600.000
G1 X51.613 Y149.953 E3.38110
G1 X51.845 Y150.013 E3.40014
G1 X52.065 Y150.112 E3.41926
G1 X52.265 Y150.247 E3.43837
G1 X52.437 Y150.413 E3.45735
G1 X52.581 Y150.607 E3.47651
G1 X52.688 Y150.822 E3.49550
G1 X52.759 Y151.050 E3.51445
G1 X52.790 Y151.290 E3.53365
G1 X52.779 Y151.530 E3.55267
G1 X52.729 Y151.764 E3.57168
G1 X52.639 Y151.988 E3.59082
G1 X52.513 Y152.193 E3.60991
G1 X52.355 Y152.373 E3.62888
G1 X52.167 Y152.524 E3.64798
G1 X51.958 Y152.641 E3.66700
G1 X51.732 Y152.722 E3.68603
G1 X51.495 Y152.762 E3.70509
G1 X51.358 Y152.762 E3.71591
G1 X51.126 Y152.981 F15000.000
G1 X58.329 Y158.493 F15000.000
G1 X58.583 Y158.250 E3.74380 F600.000
G1 X58.873 Y158.055 E3.77144
G1 X59.194 Y157.910 E3.79940
G1 X59.548 Y157.822 E3.82831
G1 X59.877 Y157.794 E3.85452 F600.000
G1 X60.224 Y157.825 E3.88214
G1 X60.560 Y157.913 E3.90965
G1 X60.874 Y158.055 E3.93704
G1 X61.164 Y158.250 E3.96469
G1 X61.416 Y158.492 E3.99238
G1 X61.625 Y158.774 E4.02019
G1 X61.780 Y159.084 E4.04767
G1 X61.883 Y159.414 E4.07510
G1 X61.928 Y159.764 E4.10308
G1 X61.912 Y160.113 E4.13076
G1 X61.839 Y160.450 E4.15813
G1 X61.710 Y160.774 E4.18572
G1 X61.527 Y161.072 E4.21350
G1 X61.295 Y161.335 E4.24127
G1 X61.024 Y161.553 E4.26888
G1 X60.721 Y161.722 E4.29634
G1 X60.394 Y161.839 E4.32392
G1 X60.049 Y161.898 E4.35166
G1 X59.699 Y161.898 E4.37935
G1 X59.355 Y161.839 E4.40702
G1 X59.025 Y161.722 E4.43479
G1 X58.723 Y161.552 E4.46227
G1 X58.453 Y161.335 E4.48976
G1 X58.221 Y161.072 E4.51753
G1 X58.039 Y160.776 E4.54509
G1 X57.908 Y160.453 E4.57271
G1 X57.835 Y160.110 E4.60054
G1 X57.821 Y159.761 E4.62822
G1 X57.865 Y159.417 E4.65573
G1 X57.967 Y159.084 E4.68335
G1 X58.124 Y158.774 E4.71090
G1 X58.285 Y158.554 E4.73251
G1 X58.797 Y158.930 F15000.000
G1 X58.983 Y158.747 E4.75319 F600.000
G1 X59.183 Y158.613 E4.77225
G1 X59.403 Y158.513 E4.79141
G1 X59.653 Y158.451 E4.81179
G1 X59.876 Y158.432 E4.82961 F600.000
G1 X60.114 Y158.453 E4.84853
G1 X60.346 Y158.514 E4.86757
G1 X60.564 Y158.613 E4.88653
G1 X60.764 Y158.747 E4.90559
G1 X60.937 Y158.913 E4.92464
G1 X61.081 Y159.107 E4.94380
G1 X61.188 Y159.322 E4.96280
G1 X61.259 Y159.550 E4.98175
G1 X61.290 Y159.790 E5.00094
G1 X61.279 Y160.031 E5.02006
G1 X61.229 Y160.264 E5.03899
G1 X61.140 Y160.487 E5.05803
G1 X61.014 Y160.693 E5.07715
G1 X60.854 Y160.874 E5.09625
G1 X60.667 Y161.024 E5.11529
G1 X60.458 Y161.141 E5.13431
G1 X60.232 Y161.222 E5.15333
G1 X59.995 Y161.262 E5.17239
G1 X59.753 Y161.262 E5.19154
G1 X59.517 Y161.222 E5.21058
G1 X59.289 Y161.141 E5.22972
G1 X59.080 Y161.024 E5.24870
G1 X58.894 Y160.874 E5.26769
G1 X58.734 Y160.693 E5.28679
G1 X58.609 Y160.488 E5.30583
G1 X58.518 Y160.266 E5.32490
G1 X58.468 Y160.030 E5.34401
G1 X58.458 Y159.789 E5.36312
G1 X58.489 Y159.551 E5.38214
G1 X58.559 Y159.322 E5.40115
G1 X58.667 Y159.107 E5.42019
G1 X58.753 Y158.990 E5.43170
G1 X58.718 Y158.681 F15000.000
G1 E3.43170 F2400.00000
G92 E0
G1 X44.928 Y159.764 F15000.000
G1 E2.00000 F2400.00000
G1 X44.912 Y160.113 E2.02768 F600.000
G1 X44.839 Y160.450 E2.05505
G1 X44.709 Y160.776 E2.08284
G1 X44.525 Y161.072 E2.11049
G1 X44.296 Y161.335 E2.13815
G1 X44.022 Y161.553 E2.16589
G1 X43.723 Y161.721 E2.19313
G1 X43.394 Y161.839 E2.22083
G1 X43.049 Y161.898 E2.24858
G1 X42.698 Y161.898 E2.27634
G1 X42.353 Y161.839 E2.30409
G1 X42.024 Y161.721 E2.33178
G1 X41.725 Y161.553 E2.35903
G1 X41.451 Y161.335 E2.38676
G1 X41.222 Y161.072 E2.41442
G1 X41.038 Y160.776 E2.44207
G1 X40.908 Y160.450 E2.46986
G1 X40.835 Y160.113 E2.49723
G1 X40.819 Y159.764 E2.52492
G1 X40.864 Y159.414 E2.55289
G1 X40.967 Y159.084 E2.58032
G1 X41.122 Y158.774 E2.60781
G1 X41.331 Y158.492 E2.63561
G1 X41.583 Y158.250 E2.66331
G1 X41.873 Y158.055 E2.69095
G1 X42.194 Y157.910 E2.71891
G1 X42.548 Y157.822 E2.74782
G1 X42.874 Y157.794 E2.77380 F600.000
G1 X43.223 Y157.825 E2.80159
G1 X43.560 Y157.913 E2.82916
G1 X43.874 Y158.055 E2.85655
G1 X44.164 Y158.250 E2.88419
G1 X44.416 Y158.492 E2.91188
G1 X44.625 Y158.774 E2.93969
G1 X44.780 Y159.084 E2.96718
G1 X44.883 Y159.414 E2.99461
G1 X44.918 Y159.690 E3.01664
G1 X44.288 Y159.771 F15000.000
G1 X44.279 Y160.031 E3.03728 F600.000
G1 X44.229 Y160.264 E3.05621
G1 X44.139 Y160.488 E3.07533
G1 X44.013 Y160.693 E3.09442
G1 X43.855 Y160.874 E3.11345
G1 X43.666 Y161.024 E3.13258
G1 X43.458 Y161.141 E3.15147
G1 X43.232 Y161.222 E3.17054
G1 X42.995 Y161.262 E3.18960
G1 X42.752 Y161.262 E3.20883
G1 X42.515 Y161.222 E3.22789
G1 X42.289 Y161.141 E3.24696
G1 X42.081 Y161.024 E3.26585
G1 X41.892 Y160.874 E3.28498
G1 X41.734 Y160.693 E3.30400
G1 X41.608 Y160.488 E3.32310
