; generated by Slic3r 1.2.9 on 2017-06-08 at 11:12:00

; external perimeters extrusion width = 0.50mm
; perimeters extrusion width = 0.85mm
; infill extrusion width = 0.87mm
; solid infill extrusion width = 0.85mm
; top infill extrusion width = 0.85mm

M107
;G28 ; home all axes
;G1 Z5 F5000 ; lift nozzle
G10 P0 S200
T0
M116

G21 ; set units to millimeters
G90 ; use absolute coordinates
M82 ; use absolute distances for extrusion
G92 E0
G1 Z0.300 F6000.000
G1 E-2.00000 F2400.00000
G92 E0
G1 X17.961 Y23.318 F6000.000
G1 E2.00000 F2400.00000
G1 X18.437 Y22.951 E2.04905 F900.000
G1 X19.485 Y22.278 E2.15072
G1 X21.400 Y21.267 E2.32749
G1 X22.546 Y20.782 E2.42914
G1 X24.604 Y20.111 E2.60584
G1 X25.300 Y19.921 E2.66469
G1 X112.620 Y0.714 E9.96325
G1 X115.070 Y0.289 E10.16623
G1 X116.295 Y0.185 E10.26661
G1 X118.429 Y0.185 E10.44082
G1 X119.655 Y0.289 E10.54126
G1 X121.759 Y0.647 E10.71548 F900.000
G1 X122.945 Y0.953 E10.81545
G1 X124.959 Y1.657 E10.98961
G1 X126.084 Y2.160 E11.09024
G1 X127.952 Y3.193 E11.26449
G1 X128.968 Y3.872 E11.36427
G1 X130.957 Y5.472 E11.57265
G1 X177.806 Y47.386 E16.70419
G1 X179.313 Y49.266 E16.90091
G1 X180.126 Y51.535 E17.09763
G1 X180.242 Y52.833 E17.20400
G1 X180.242 Y127.167 E23.27211
G1 X179.845 Y129.544 E23.46883
G1 X178.696 Y131.663 E23.66555
G1 X177.806 Y132.614 E23.77192
G1 X130.957 Y174.528 E28.90346
G1 X128.968 Y176.128 E29.11184
G1 X127.952 Y176.807 E29.21161
G1 X126.084 Y177.840 E29.38587
G1 X124.959 Y178.343 E29.48651
G1 X122.945 Y179.047 E29.66067
G1 X121.759 Y179.353 E29.76063
G1 X119.655 Y179.711 E29.93485
G1 X118.429 Y179.814 E30.03529
G1 X116.295 Y179.814 E30.20950
G1 X115.070 Y179.711 E30.30989
G1 X112.620 Y179.286 E30.51286
G1 X25.300 Y160.079 E37.81142
G1 X24.604 Y159.889 E37.87027
G1 X22.546 Y159.218 E38.04697
G1 X21.400 Y158.733 E38.14862
G1 X19.485 Y157.722 E38.32540
G1 X18.437 Y157.049 E38.42706
G1 X16.722 Y155.728 E38.60377
G1 X15.801 Y154.883 E38.70580
G1 X14.336 Y153.289 E38.88253
G1 X13.576 Y152.307 E38.98390
G1 X12.402 Y150.488 E39.16063
G1 X11.817 Y149.385 E39.26258
G1 X10.969 Y147.390 E39.43949
G1 X10.582 Y146.209 E39.54092
G1 X10.085 Y144.102 E39.71765
G1 X9.904 Y142.870 E39.81933
G1 X9.772 Y140.709 E39.99606
G1 X9.758 Y140.264 E40.03246
G1 X9.758 Y39.736 E48.23874
G1 X9.772 Y39.291 E48.27514
G1 X9.904 Y37.130 E48.45188
G1 X10.085 Y35.898 E48.55356
G1 X10.582 Y33.791 E48.73028
G1 X10.965 Y32.621 E48.83075
G1 X11.817 Y30.615 E49.00866
G1 X12.402 Y29.512 E49.11057
G1 X13.576 Y27.693 E49.28731
G1 X14.336 Y26.711 E49.38868
G1 X15.801 Y25.117 E49.56541
G1 X16.722 Y24.272 E49.66743
G1 X17.901 Y23.364 E49.78897
G1 X18.301 Y23.882 F6000.000
G1 X18.836 Y23.470 E49.84415 F900.000
G1 X19.790 Y22.857 E49.93671
G1 X21.705 Y21.846 E50.11349
G1 X22.749 Y21.404 E50.20603
G1 X24.807 Y20.733 E50.38273
G1 X25.440 Y20.560 E50.43631
G1 X112.760 Y1.353 E57.73488
G1 X115.179 Y0.934 E57.93528
G1 X116.295 Y0.840 E58.02668
G1 X118.429 Y0.840 E58.20088
G1 X119.545 Y0.934 E58.29233
G1 X121.649 Y1.292 E58.46655 F900.000
G1 X122.729 Y1.571 E58.55756
G1 X124.743 Y2.275 E58.73173
G1 X125.767 Y2.733 E58.82335
G1 X127.635 Y3.766 E58.99760
G1 X128.561 Y4.384 E59.08844
G1 X130.521 Y5.960 E59.29376
G1 X177.370 Y47.873 E64.42530
G1 X178.793 Y49.679 E64.61295
G1 X179.588 Y52.833 E64.87846
G1 X179.588 Y127.167 E70.94658
G1 X179.191 Y129.431 E71.13422
G1 X177.370 Y132.127 E71.39974
G1 X130.521 Y174.040 E76.53128
G1 X128.561 Y175.616 E76.73660
G1 X127.635 Y176.234 E76.82744
G1 X125.767 Y177.267 E77.00169
G1 X124.743 Y177.725 E77.09332
G1 X122.729 Y178.429 E77.26748
G1 X121.649 Y178.708 E77.35849
G1 X119.545 Y179.066 E77.53271
G1 X118.429 Y179.160 E77.62416
G1 X116.295 Y179.160 E77.79836
G1 X115.179 Y179.066 E77.88977
G1 X112.760 Y178.647 E78.09017
G1 X25.440 Y159.440 E85.38873
G1 X24.807 Y159.267 E85.44231
G1 X22.749 Y158.596 E85.61901
G1 X21.705 Y158.154 E85.71156
G1 X19.790 Y157.143 E85.88833
G1 X18.836 Y156.530 E85.98089
G1 X17.121 Y155.209 E86.15761
G1 X16.282 Y154.440 E86.25050
G1 X14.817 Y152.846 E86.42723
G1 X14.126 Y151.952 E86.51952
G1 X12.952 Y150.133 E86.69625
G1 X12.419 Y149.129 E86.78907
G1 X11.572 Y147.134 E86.96597
G1 X11.219 Y146.059 E87.05832
G1 X10.722 Y143.952 E87.23505
G1 X10.557 Y142.830 E87.32762
G1 X10.425 Y140.669 E87.50436
G1 X10.425 Y39.331 E95.77688
G1 X10.557 Y37.170 E95.95362
G1 X10.722 Y36.048 E96.04620
G1 X11.219 Y33.941 E96.22292
G1 X11.567 Y32.876 E96.31440
G1 X12.419 Y30.871 E96.49220
G1 X12.952 Y29.867 E96.58499
G1 X14.126 Y28.048 E96.76172
G1 X14.817 Y27.153 E96.85402
G1 X16.282 Y25.559 E97.03075
G1 X17.121 Y24.791 E97.12363
G1 X18.241 Y23.928 E97.23905
G1 E95.23905 F2400.00000
G92 E0
G1 X116.222 Y166.938 F6000.000
G1 E2.00000 F2400.00000
G1 X116.478 Y166.766 E2.02512 F900.000
G1 X116.760 Y166.639 E2.05043
G1 X117.073 Y166.560 E2.07672
G1 X117.362 Y166.537 E2.10043 F900.000
G1 X117.668 Y166.562 E2.12545
G1 X117.967 Y166.641 E2.15071
G1 X118.245 Y166.766 E2.17563
G1 X118.501 Y166.938 E2.20075
G1 X118.723 Y167.151 E2.22590
G1 X118.907 Y167.400 E2.25116
G1 X119.044 Y167.674 E2.27621
G1 X119.135 Y167.967 E2.30120
G1 X119.174 Y168.274 E2.32645
G1 X119.160 Y168.582 E2.35164
G1 X119.096 Y168.880 E2.37654
G1 X118.981 Y169.167 E2.40177
G1 X118.819 Y169.429 E2.42691
G1 X118.618 Y169.659 E2.45191
G1 X118.377 Y169.853 E2.47714
G1 X118.109 Y170.002 E2.50213
G1 X117.820 Y170.106 E2.52719
G1 X117.515 Y170.158 E2.55245
G1 X117.207 Y170.158 E2.57760
G1 X116.904 Y170.106 E2.60272
G1 X116.613 Y170.002 E2.62792
G1 X116.346 Y169.853 E2.65290
G1 X116.108 Y169.660 E2.67790
G1 X115.905 Y169.430 E2.70295
G1 X115.742 Y169.167 E2.72823
G1 X115.627 Y168.880 E2.75346
G1 X115.562 Y168.580 E2.77855
G1 X115.550 Y168.274 E2.80355
G1 X115.588 Y167.969 E2.82860
G1 X115.679 Y167.674 E2.85378
G1 X115.816 Y167.400 E2.87883
G1 X116.000 Y167.151 E2.90409
G1 X116.168 Y166.990 E2.92311
G1 X116.546 Y167.383 F6000.000
G1 X116.744 Y167.244 E2.93627 F900.000
G1 X116.940 Y167.155 E2.94798
G1 X117.162 Y167.100 E2.96038
G1 X117.362 Y167.084 E2.97130 F900.000
G1 X117.575 Y167.101 E2.98293
G1 X117.784 Y167.156 E2.99465
G1 X117.979 Y167.244 E3.00628
G1 X118.157 Y167.364 E3.01795
G1 X118.312 Y167.513 E3.02962
G1 X118.441 Y167.686 E3.04135
G1 X118.537 Y167.878 E3.05300
G1 X118.600 Y168.083 E3.06467
G1 X118.628 Y168.296 E3.07634
G1 X118.618 Y168.512 E3.08806
G1 X118.573 Y168.721 E3.09967
G1 X118.493 Y168.921 E3.11137
G1 X118.380 Y169.104 E3.12307
G1 X118.239 Y169.265 E3.13469
G1 X118.071 Y169.400 E3.14638
G1 X117.884 Y169.504 E3.15805
G1 X117.682 Y169.576 E3.16970
G1 X117.469 Y169.613 E3.18141
G1 X117.254 Y169.613 E3.19312
G1 X117.042 Y169.576 E3.20476
G1 X116.839 Y169.504 E3.21648
G1 X116.652 Y169.399 E3.22811
G1 X116.486 Y169.265 E3.23976
G1 X116.344 Y169.104 E3.25141
G1 X116.230 Y168.921 E3.26314
G1 X116.150 Y168.721 E3.27484
G1 X116.105 Y168.511 E3.28649
G1 X116.096 Y168.296 E3.29817
G1 X116.123 Y168.084 E3.30980
G1 X116.186 Y167.878 E3.32150
G1 X116.282 Y167.686 E3.33316
G1 X116.492 Y167.435 E3.35092
G1 X116.505 Y167.145 F6000.000
G1 X116.993 Y164.133 F6000.000
G1 X116.234 Y163.994 E3.41392 F900.000
G1 X115.591 Y163.766 E3.46958
G1 X114.955 Y163.410 E3.52908
G1 X114.388 Y162.953 E3.58855
G1 X113.907 Y162.406 E3.64799
G1 X113.523 Y161.785 E3.70760
G1 X113.252 Y161.108 E3.76714
G1 X113.099 Y160.396 E3.82661
G1 X113.068 Y159.668 E3.88608
G1 X113.160 Y158.945 E3.94559
G1 X113.374 Y158.247 E4.00515
G1 X113.702 Y157.596 E4.06465
G1 X114.135 Y157.010 E4.12416
G1 X114.662 Y156.505 E4.18372
G1 X115.266 Y156.098 E4.24319
G1 X115.934 Y155.795 E4.30309
G1 X116.684 Y155.610 E4.36609
G1 X117.362 Y155.553 E4.42168 F900.000
G1 X118.087 Y155.614 E4.48108
G1 X118.794 Y155.797 E4.54066
G1 X119.458 Y156.098 E4.60023
G1 X120.061 Y156.506 E4.65964
G1 X120.588 Y157.010 E4.71917
G1 X121.021 Y157.596 E4.77868
G1 X121.349 Y158.247 E4.83818
G1 X121.563 Y158.945 E4.89773
G1 X121.655 Y159.668 E4.95724
G1 X121.624 Y160.396 E5.01672
G1 X121.471 Y161.108 E5.07619
G1 X121.200 Y161.784 E5.13567
G1 X120.817 Y162.406 E5.19528
G1 X120.335 Y162.953 E5.25479
G1 X119.769 Y163.410 E5.31419
G1 X119.132 Y163.766 E5.37377
G1 X118.445 Y164.010 E5.43326
G1 X117.725 Y164.133 E5.49286
G1 X117.068 Y164.133 E5.54653
G1 X117.068 Y163.587 F6000.000
G1 X116.375 Y163.465 E5.58479 F900.000
G1 X115.817 Y163.268 E5.61694
G1 X115.261 Y162.957 E5.65151
G1 X114.766 Y162.558 E5.68607
G1 X114.346 Y162.081 E5.72060
G1 X114.012 Y161.538 E5.75522
G1 X113.775 Y160.948 E5.78979
G1 X113.641 Y160.326 E5.82434
G1 X113.614 Y159.691 E5.85889
G1 X113.695 Y159.060 E5.89347
G1 X113.881 Y158.451 E5.92806
G1 X114.167 Y157.883 E5.96262
G1 X114.546 Y157.372 E5.99717
G1 X115.005 Y156.931 E6.03177
G1 X115.533 Y156.575 E6.06632
G1 X116.114 Y156.312 E6.10098
G1 X116.772 Y156.149 E6.13785
G1 X117.362 Y156.100 E6.17000 F900.000
G1 X117.995 Y156.153 E6.20452
G1 X118.612 Y156.313 E6.23912
G1 X119.191 Y156.576 E6.27370
G1 X119.718 Y156.931 E6.30821
G1 X120.177 Y157.372 E6.34280
G1 X120.556 Y157.883 E6.37736
G1 X120.842 Y158.451 E6.41192
G1 X121.028 Y159.060 E6.44651
G1 X121.109 Y159.691 E6.48108
G1 X121.082 Y160.326 E6.51564
G1 X120.948 Y160.948 E6.55018
G1 X120.711 Y161.538 E6.58475
G1 X120.378 Y162.081 E6.61934
G1 X119.957 Y162.558 E6.65391
G1 X119.463 Y162.957 E6.68843
G1 X118.906 Y163.268 E6.72305
G1 X118.307 Y163.480 E6.75759
G1 X117.679 Y163.587 E6.79220
G1 X117.143 Y163.587 E6.82134
G1 X116.769 Y163.989 F6000.000
G1 E4.82134 F2400.00000
G92 E0
G1 X116.729 Y155.400 F6000.000
G1 X116.640 Y154.344 F6000.000
G1 X117.001 Y154.359 F6000.000
G1 X117.173 Y153.360 F6000.000
G1 X117.207 Y153.158 F6000.000
G1 E2.00000 F2400.00000
G1 X116.904 Y153.106 E2.02512 F900.000
G1 X116.613 Y153.002 E2.05032
G1 X116.346 Y152.853 E2.07530
G1 X116.108 Y152.660 E2.10030
G1 X115.905 Y152.430 E2.12535
G1 X115.742 Y152.167 E2.15063
G1 X115.627 Y151.880 E2.17590
G1 X115.562 Y151.578 E2.20106
G1 X115.550 Y151.274 E2.22591
G1 X115.588 Y150.968 E2.25111
G1 X115.679 Y150.674 E2.27624
G1 X115.816 Y150.400 E2.30123
G1 X116.000 Y150.151 E2.32649
G1 X116.221 Y149.939 E2.35148
G1 X116.476 Y149.766 E2.37665
G1 X116.762 Y149.637 E2.40228
G1 X117.072 Y149.561 E2.42835
G1 X117.362 Y149.535 E2.45210 F900.000
G1 X117.668 Y149.562 E2.47714
G1 X117.965 Y149.639 E2.50218
G1 X118.247 Y149.766 E2.52744
G1 X118.502 Y149.939 E2.55261
G1 X118.723 Y150.151 E2.57760
G1 X118.907 Y150.400 E2.60286
G1 X119.044 Y150.674 E2.62785
G1 X119.135 Y150.965 E2.65279
G1 X119.174 Y151.274 E2.67819
G1 X119.160 Y151.581 E2.70324
G1 X119.096 Y151.880 E2.72820
G1 X118.981 Y152.167 E2.75348
G1 X118.819 Y152.429 E2.77861
G1 X118.618 Y152.659 E2.80361
G1 X118.377 Y152.853 E2.82884
G1 X118.109 Y153.002 E2.85383
G1 X117.820 Y153.106 E2.87890
G1 X117.515 Y153.158 E2.90416
G1 X117.282 Y153.158 E2.92319
G1 X117.282 Y152.613 F6000.000
G1 X117.042 Y152.576 E2.93636 F900.000
G1 X116.839 Y152.504 E2.94808
G1 X116.652 Y152.399 E2.95971
G1 X116.486 Y152.265 E2.97135
G1 X116.344 Y152.104 E2.98301
G1 X116.230 Y151.921 E2.99474
G1 X116.150 Y151.720 E3.00645
G1 X116.105 Y151.510 E3.01815
G1 X116.096 Y151.296 E3.02976
G1 X116.123 Y151.083 E3.04145
G1 X116.186 Y150.878 E3.05311
G1 X116.282 Y150.686 E3.06475
G1 X116.411 Y150.513 E3.07648
G1 X116.565 Y150.364 E3.08811
G1 X116.743 Y150.244 E3.09982
G1 X116.941 Y150.154 E3.11160
G1 X117.162 Y150.100 E3.12395
G1 X117.362 Y150.083 E3.13488 F900.000
G1 X117.575 Y150.101 E3.14651
G1 X117.783 Y150.155 E3.15818
G1 X117.980 Y150.244 E3.16988
G1 X118.158 Y150.364 E3.18158
G1 X118.312 Y150.513 E3.19322
G1 X118.441 Y150.686 E3.20495
G1 X118.537 Y150.878 E3.21659
G1 X118.600 Y151.082 E3.22821
G1 X118.628 Y151.296 E3.23994
G1 X118.618 Y151.511 E3.25160
G1 X118.573 Y151.720 E3.26326
G1 X118.493 Y151.921 E3.27497
G1 X118.380 Y152.104 E3.28667
G1 X118.239 Y152.265 E3.29829
G1 X118.071 Y152.400 E3.30998
G1 X117.884 Y152.504 E3.32165
G1 X117.682 Y152.576 E3.33330
G1 X117.357 Y152.613 E3.35104
G1 X117.147 Y152.814 F6000.000
G1 X124.499 Y158.653 F6000.000
G1 X124.722 Y158.438 E3.37633 F900.000
G1 X124.978 Y158.266 E3.40146
G1 X125.260 Y158.139 E3.42675
G1 X125.570 Y158.061 E3.45285
G1 X125.862 Y158.035 E3.47677 F900.000
G1 X126.170 Y158.062 E3.50199
G1 X126.467 Y158.141 E3.52706
G1 X126.745 Y158.266 E3.55197
G1 X127.001 Y158.438 E3.57710
G1 X127.223 Y158.651 E3.60225
G1 X127.407 Y158.900 E3.62751
G1 X127.544 Y159.174 E3.65250
G1 X127.635 Y159.465 E3.67744
G1 X127.674 Y159.774 E3.70283
G1 X127.660 Y160.082 E3.72799
G1 X127.596 Y160.380 E3.75289
G1 X127.482 Y160.665 E3.77796
G1 X127.321 Y160.929 E3.80320
G1 X127.116 Y161.160 E3.82841
G1 X126.877 Y161.353 E3.85350
G1 X126.609 Y161.502 E3.87849
G1 X126.320 Y161.606 E3.90355
G1 X126.015 Y161.658 E3.92882
G1 X125.709 Y161.658 E3.95385
G1 X125.404 Y161.606 E3.97905
G1 X125.113 Y161.502 E4.00428
G1 X124.846 Y161.353 E4.02926
G1 X124.608 Y161.160 E4.05426
G1 X124.403 Y160.929 E4.07947
G1 X124.243 Y160.667 E4.10453
G1 X124.127 Y160.382 E4.12964
G1 X124.062 Y160.080 E4.15490
G1 X124.050 Y159.772 E4.18006
G1 X124.089 Y159.468 E4.20508
G1 X124.179 Y159.174 E4.23016
G1 X124.317 Y158.900 E4.25522
G1 X124.454 Y158.713 E4.27414
G1 X124.894 Y159.035 F6000.000
G1 X125.066 Y158.864 E4.28733 F900.000
G1 X125.244 Y158.744 E4.29900
G1 X125.440 Y158.655 E4.31071
G1 X125.661 Y158.600 E4.32307
G1 X125.862 Y158.583 E4.33404 F900.000
G1 X126.076 Y158.601 E4.34571
G1 X126.284 Y158.656 E4.35739
G1 X126.479 Y158.744 E4.36902
G1 X126.657 Y158.864 E4.38070
G1 X126.812 Y159.013 E4.39236
G1 X126.941 Y159.186 E4.40409
G1 X127.037 Y159.378 E4.41573
G1 X127.100 Y159.582 E4.42735
G1 X127.128 Y159.796 E4.43909
G1 X127.118 Y160.012 E4.45080
G1 X127.073 Y160.221 E4.46241
G1 X126.993 Y160.420 E4.47408
G1 X126.881 Y160.604 E4.48578
G1 X126.738 Y160.765 E4.49747
G1 X126.571 Y160.900 E4.50913
G1 X126.384 Y161.004 E4.52080
G1 X126.182 Y161.076 E4.53245
G1 X125.969 Y161.113 E4.54416
G1 X125.755 Y161.113 E4.55581
G1 X125.543 Y161.076 E4.56751
G1 X125.339 Y161.004 E4.57923
G1 X125.152 Y160.899 E4.59086
G1 X124.986 Y160.765 E4.60251
G1 X124.843 Y160.604 E4.61420
G1 X124.731 Y160.421 E4.62586
G1 X124.650 Y160.221 E4.63755
G1 X124.605 Y160.011 E4.64923
G1 X124.596 Y159.796 E4.66095
G1 X124.624 Y159.583 E4.67261
G1 X124.686 Y159.378 E4.68424
G1 X124.849 Y159.096 E4.70195
G1 X124.813 Y158.807 F6000.000
G1 X123.844 Y159.763 F6000.000
G1 X122.919 Y165.734 F6000.000
G1 X115.654 Y165.442 F6000.000
G1 X111.334 Y164.013 F6000.000
G1 X111.777 Y161.448 F6000.000
G1 X111.846 Y160.648 F6000.000
G1 X111.873 Y160.155 F6000.000
G1 X111.873 Y159.811 F6000.000
G1 X110.880 Y159.765 F6000.000
G1 X110.674 Y159.774 F6000.000
G1 X110.660 Y160.082 E4.72711 F900.000
G1 X110.596 Y160.380 E4.75201
G1 X110.481 Y160.667 E4.77724
G1 X110.319 Y160.929 E4.80238
G1 X110.117 Y161.160 E4.82750
G1 X109.876 Y161.353 E4.85270
G1 X109.611 Y161.502 E4.87750
G1 X109.320 Y161.606 E4.90265
G1 X109.015 Y161.658 E4.92792
G1 X108.707 Y161.658 E4.95307
G1 X108.404 Y161.606 E4.97818
G1 X108.113 Y161.502 E5.00338
G1 X107.846 Y161.353 E5.02836
G1 X107.608 Y161.160 E5.05336
G1 X107.405 Y160.930 E5.07841
G1 X107.242 Y160.667 E5.10369
G1 X107.127 Y160.380 E5.12893
G1 X107.063 Y160.082 E5.15382
G1 X107.049 Y159.774 E5.17899
G1 X107.088 Y159.465 E5.20438
G1 X107.179 Y159.174 E5.22932
G1 X107.316 Y158.900 E5.25431
G1 X107.500 Y158.651 E5.27957
G1 X107.722 Y158.438 E5.30472
G1 X107.978 Y158.266 E5.32984
G1 X108.260 Y158.139 E5.35514
G1 X108.570 Y158.061 E5.38123
G1 X108.862 Y158.035 E5.40515 F900.000
G1 X109.170 Y158.062 E5.43037
G1 X109.467 Y158.141 E5.45544
G1 X109.745 Y158.266 E5.48036
G1 X110.001 Y158.438 E5.50548
G1 X110.223 Y158.651 E5.53063
G1 X110.407 Y158.900 E5.55589
G1 X110.544 Y159.174 E5.58088
G1 X110.635 Y159.465 E5.60582
G1 X110.665 Y159.700 E5.62509
G1 X110.124 Y159.769 F6000.000
G1 X110.118 Y160.012 E5.63827 F900.000
G1 X110.073 Y160.221 E5.64988
G1 X109.993 Y160.421 E5.66158
G1 X109.880 Y160.604 E5.67328
G1 X109.738 Y160.765 E5.68493
G1 X109.570 Y160.900 E5.69664
G1 X109.384 Y161.004 E5.70824
G1 X109.182 Y161.076 E5.71991
G1 X108.969 Y161.113 E5.73162
G1 X108.754 Y161.113 E5.74333
G1 X108.542 Y161.076 E5.75497
G1 X108.339 Y161.004 E5.76669
G1 X108.152 Y160.899 E5.77832
