; generated by Slic3r 1.2.9 on 2017-06-05 at 11:25:12

; external perimeters extrusion width = 0.50mm
; perimeters extrusion width = 0.85mm
; infill extrusion width = 0.87mm
; solid infill extrusion width = 0.85mm
; top infill extrusion width = 0.85mm

M107
;G28 ; home all axes
;G1 Z5 F5000 ; lift nozzle
G10 P0 S200
T0
M116

G21 ; set units to millimeters
G90 ; use absolute coordinates
M82 ; use absolute distances for extrusion
G92 E0
G1 Z0.300 F6000.000
G1 E-2.00000 F2400.00000
G92 E0
G1 X12.060 Y22.278 F6000.000
G1 E2.00000 F2400.00000
G1 X13.975 Y21.267 E2.17677 F900.000
G1 X15.121 Y20.782 E2.27842
G1 X17.179 Y20.111 E2.45513
G1 X17.875 Y19.921 E2.51397
G1 X105.195 Y0.714 E9.81254
G1 X107.645 Y0.289 E10.01551
G1 X108.870 Y0.185 E10.11590
G1 X111.004 Y0.185 E10.29010
G1 X112.230 Y0.289 E10.39054
G1 X114.334 Y0.647 E10.56476 F900.000
G1 X115.520 Y0.953 E10.66473
G1 X117.534 Y1.657 E10.83889
G1 X118.540 Y2.096 E10.92850
G1 X183.776 Y36.607 E16.95317
G1 X185.691 Y38.070 E17.14989
G1 X187.026 Y40.076 E17.34661
G1 X187.667 Y43.068 E17.59640
G1 X187.667 Y136.932 E25.25878
G1 X187.270 Y139.309 E25.45549
G1 X186.121 Y141.427 E25.65221
G1 X183.776 Y143.393 E25.90200
G1 X118.540 Y177.904 E31.92668
G1 X117.534 Y178.343 E32.01628
G1 X115.520 Y179.047 E32.19045
G1 X114.334 Y179.353 E32.29040
G1 X112.230 Y179.711 E32.46463
G1 X111.004 Y179.814 E32.56507
G1 X108.870 Y179.814 E32.73927
G1 X107.644 Y179.711 E32.83967
G1 X105.195 Y179.286 E33.04263
G1 X17.875 Y160.079 E40.34120
G1 X17.179 Y159.889 E40.40004
G1 X15.121 Y159.218 E40.57675
G1 X13.975 Y158.733 E40.67840
G1 X12.060 Y157.722 E40.85517
G1 X11.012 Y157.049 E40.95683
G1 X9.297 Y155.728 E41.13355
G1 X8.376 Y154.883 E41.23557
G1 X6.911 Y153.289 E41.41231
G1 X6.151 Y152.307 E41.51368
G1 X4.977 Y150.488 E41.69041
G1 X4.392 Y149.385 E41.79236
G1 X3.544 Y147.390 E41.96927
G1 X3.157 Y146.210 E42.07069
G1 X2.660 Y144.102 E42.24742
G1 X2.479 Y142.870 E42.34910
G1 X2.347 Y140.709 E42.52584
G1 X2.333 Y140.264 E42.56224
G1 X2.333 Y39.736 E50.76852
G1 X2.347 Y39.291 E50.80491
G1 X2.479 Y37.130 E50.98165
G1 X2.660 Y35.897 E51.08334
G1 X3.157 Y33.790 E51.26007
G1 X3.544 Y32.611 E51.36137
G1 X4.392 Y30.616 E51.53834
G1 X4.977 Y29.512 E51.64035
G1 X6.151 Y27.693 E51.81708
G1 X6.911 Y26.711 E51.91845
G1 X8.376 Y25.117 E52.09518
G1 X9.297 Y24.272 E52.19721
G1 X11.012 Y22.951 E52.37393
G1 X11.997 Y22.318 E52.46946
G1 X12.349 Y22.867 F6000.000
G1 X14.280 Y21.846 E52.64780 F900.000
G1 X15.324 Y21.404 E52.74035
G1 X17.382 Y20.733 E52.91705
G1 X18.015 Y20.560 E52.97063
G1 X105.335 Y1.353 E60.26920
G1 X107.754 Y0.934 E60.46960
G1 X108.870 Y0.840 E60.56100
G1 X111.004 Y0.840 E60.73520
G1 X112.120 Y0.934 E60.82665
G1 X114.224 Y1.292 E61.00087 F900.000
G1 X115.304 Y1.571 E61.09188
G1 X117.318 Y2.275 E61.26605
G1 X118.234 Y2.674 E61.34763
G1 X183.470 Y37.186 E67.37230
G1 X185.285 Y38.595 E67.55994
G1 X186.513 Y40.539 E67.74759
G1 X187.012 Y43.068 E67.95804
G1 X187.012 Y136.932 E75.62041
G1 X186.616 Y139.196 E75.80806
G1 X185.472 Y141.190 E75.99570
G1 X183.470 Y142.814 E76.20615
G1 X118.234 Y177.326 E82.23082
G1 X117.318 Y177.725 E82.31241
G1 X115.304 Y178.429 E82.48657
G1 X114.224 Y178.708 E82.57757
G1 X112.120 Y179.066 E82.75180
G1 X111.004 Y179.160 E82.84325
G1 X108.870 Y179.160 E83.01745
G1 X107.754 Y179.066 E83.10886
G1 X105.335 Y178.647 E83.30925
G1 X18.015 Y159.440 E90.60782
G1 X17.382 Y159.267 E90.66139
G1 X15.324 Y158.596 E90.83810
G1 X14.280 Y158.154 E90.93065
G1 X12.365 Y157.143 E91.10742
G1 X11.411 Y156.530 E91.19998
G1 X9.696 Y155.209 E91.37669
G1 X8.857 Y154.440 E91.46958
G1 X7.392 Y152.846 E91.64632
G1 X6.701 Y151.952 E91.73861
G1 X5.527 Y150.133 E91.91534
G1 X4.994 Y149.129 E92.00816
G1 X4.147 Y147.134 E92.18506
G1 X3.794 Y146.059 E92.27740
G1 X3.297 Y143.952 E92.45413
G1 X3.132 Y142.830 E92.54671
G1 X3.000 Y140.669 E92.72345
G1 X3.000 Y39.331 E100.99597
G1 X3.132 Y37.170 E101.17270
G1 X3.297 Y36.048 E101.26529
G1 X3.794 Y33.941 E101.44201
G1 X4.146 Y32.867 E101.53425
G1 X4.994 Y30.872 E101.71119
G1 X5.527 Y29.867 E101.80407
G1 X6.701 Y28.048 E101.98080
G1 X7.392 Y27.153 E102.07310
G1 X8.857 Y25.559 E102.24983
G1 X9.696 Y24.791 E102.34272
G1 X11.411 Y23.470 E102.51944
G1 X12.286 Y22.908 E102.60430
G1 E100.60430 F2400.00000
G92 E0
G1 X108.933 Y166.847 F6000.000
G1 E2.00000 F2400.00000
G1 X109.053 Y166.766 E2.01181 F900.000
G1 X109.335 Y166.639 E2.03712
G1 X109.648 Y166.560 E2.06341
G1 X109.937 Y166.537 E2.08711 F900.000
G1 X110.243 Y166.562 E2.11214
G1 X110.542 Y166.641 E2.13740
G1 X110.820 Y166.766 E2.16231
G1 X111.076 Y166.938 E2.18744
G1 X111.298 Y167.151 E2.21258
G1 X111.482 Y167.400 E2.23785
G1 X111.619 Y167.674 E2.26289
G1 X111.710 Y167.967 E2.28789
G1 X111.749 Y168.274 E2.31314
G1 X111.735 Y168.582 E2.33833
G1 X111.671 Y168.880 E2.36323
G1 X111.556 Y169.167 E2.38846
G1 X111.394 Y169.429 E2.41360
G1 X111.193 Y169.659 E2.43859
G1 X110.952 Y169.853 E2.46383
G1 X110.684 Y170.002 E2.48881
G1 X110.395 Y170.106 E2.51388
G1 X110.090 Y170.158 E2.53914
G1 X109.782 Y170.158 E2.56429
G1 X109.479 Y170.106 E2.58941
G1 X109.188 Y170.002 E2.61461
G1 X108.921 Y169.853 E2.63959
G1 X108.683 Y169.660 E2.66459
G1 X108.480 Y169.430 E2.68964
G1 X108.317 Y169.167 E2.71492
G1 X108.202 Y168.880 E2.74015
G1 X108.137 Y168.580 E2.76524
G1 X108.125 Y168.274 E2.79023
G1 X108.163 Y167.969 E2.81528
G1 X108.254 Y167.674 E2.84047
G1 X108.391 Y167.400 E2.86552
G1 X108.575 Y167.151 E2.89078
G1 X108.871 Y166.889 E2.92303
G1 X109.174 Y167.341 F6000.000
G1 X109.319 Y167.244 E2.93249 F900.000
G1 X109.515 Y167.155 E2.94421
G1 X109.737 Y167.100 E2.95661
G1 X109.937 Y167.084 E2.96752 F900.000
G1 X110.150 Y167.101 E2.97915
G1 X110.359 Y167.156 E2.99087
G1 X110.554 Y167.244 E3.00251
G1 X110.732 Y167.364 E3.01418
G1 X110.887 Y167.513 E3.02584
G1 X111.016 Y167.686 E3.03757
G1 X111.112 Y167.878 E3.04923
G1 X111.175 Y168.083 E3.06089
G1 X111.203 Y168.296 E3.07256
G1 X111.193 Y168.512 E3.08429
G1 X111.148 Y168.721 E3.09590
G1 X111.068 Y168.921 E3.10760
G1 X110.955 Y169.104 E3.11930
G1 X110.814 Y169.265 E3.13092
G1 X110.646 Y169.400 E3.14261
G1 X110.459 Y169.504 E3.15427
G1 X110.257 Y169.576 E3.16593
G1 X110.044 Y169.613 E3.17764
G1 X109.829 Y169.613 E3.18935
G1 X109.617 Y169.576 E3.20099
G1 X109.414 Y169.504 E3.21271
G1 X109.227 Y169.399 E3.22434
G1 X109.061 Y169.265 E3.23598
G1 X108.919 Y169.104 E3.24764
G1 X108.805 Y168.921 E3.25937
G1 X108.725 Y168.721 E3.27107
G1 X108.680 Y168.511 E3.28272
G1 X108.671 Y168.296 E3.29440
G1 X108.698 Y168.084 E3.30602
G1 X108.761 Y167.878 E3.31773
G1 X108.857 Y167.686 E3.32938
G1 X108.986 Y167.513 E3.34111
G1 X109.116 Y167.388 E3.35091
G1 X109.154 Y167.168 F6000.000
G1 X109.503 Y164.753 F6000.000
G1 X108.695 Y164.614 E3.41782 F900.000
G1 X107.909 Y164.336 E3.48588
G1 X107.181 Y163.929 E3.55400
G1 X106.530 Y163.405 E3.62223
G1 X105.978 Y162.777 E3.69044
G1 X105.541 Y162.067 E3.75853
G1 X105.229 Y161.291 E3.82680
G1 X105.054 Y160.475 E3.89494
G1 X105.018 Y159.641 E3.96309
G1 X105.124 Y158.812 E4.03127
G1 X105.369 Y158.014 E4.09945
G1 X105.745 Y157.269 E4.16754
G1 X106.241 Y156.597 E4.23571
G1 X106.844 Y156.020 E4.30388
G1 X107.536 Y155.552 E4.37207
G1 X108.296 Y155.208 E4.44020
G1 X109.104 Y154.998 E4.50832
G1 X109.933 Y154.927 E4.57629 F900.000
G1 X110.769 Y154.998 E4.64472
G1 X111.577 Y155.208 E4.71287
G1 X112.337 Y155.552 E4.78100
G1 X113.029 Y156.020 E4.84919
G1 X113.632 Y156.597 E4.91729
G1 X113.787 Y156.807 E4.93861
G1 X114.129 Y157.269 E4.98555
G1 X114.504 Y158.014 E5.05362
G1 X114.749 Y158.812 E5.12179
G1 X114.855 Y159.641 E5.18998
G1 X114.819 Y160.475 E5.25813
G1 X114.644 Y161.291 E5.32626
G1 X114.332 Y162.067 E5.39453
G1 X113.895 Y162.777 E5.46263
G1 X113.343 Y163.404 E5.53081
G1 X112.694 Y163.929 E5.59897
G1 X111.964 Y164.336 E5.66713
G1 X111.177 Y164.614 E5.73527
G1 X110.370 Y164.753 E5.80216
G1 X109.937 Y164.770 E5.83752
G1 X109.578 Y164.756 E5.86685
G1 X109.600 Y164.211 F6000.000
G1 X108.834 Y164.084 E5.90905 F900.000
G1 X108.135 Y163.837 E5.94933
G1 X107.487 Y163.475 E5.98965
G1 X106.908 Y163.010 E6.02999
G1 X106.418 Y162.452 E6.07035
G1 X106.029 Y161.821 E6.11064
G1 X105.752 Y161.131 E6.15101
G1 X105.596 Y160.405 E6.19133
G1 X105.564 Y159.664 E6.23166
G1 X105.659 Y158.928 E6.27199
G1 X105.876 Y158.218 E6.31232
G1 X106.210 Y157.556 E6.35261
G1 X106.652 Y156.959 E6.39295
G1 X107.187 Y156.445 E6.43327
G1 X107.803 Y156.029 E6.47362
G1 X108.478 Y155.724 E6.51391
G1 X109.197 Y155.537 E6.55423
G1 X109.934 Y155.474 E6.59442 F900.000
G1 X110.676 Y155.537 E6.63493
G1 X111.395 Y155.724 E6.67524
G1 X112.070 Y156.029 E6.71554
G1 X112.686 Y156.445 E6.75589
G1 X113.221 Y156.959 E6.79619
G1 X113.349 Y157.131 E6.80785
G1 X113.663 Y157.556 E6.83656
G1 X113.997 Y158.218 E6.87684
G1 X114.214 Y158.928 E6.91717
G1 X114.309 Y159.664 E6.95750
G1 X114.277 Y160.405 E6.99782
G1 X114.121 Y161.131 E7.03814
G1 X113.844 Y161.821 E7.07852
G1 X113.455 Y162.452 E7.11881
G1 X112.965 Y163.010 E7.15916
G1 X112.387 Y163.475 E7.19946
G1 X111.739 Y163.837 E7.23979
G1 X111.039 Y164.084 E7.28012
G1 X110.312 Y164.210 E7.32020
G1 X109.675 Y164.214 E7.35484
G1 X109.304 Y164.615 F6000.000
G1 E5.35484 F2400.00000
G92 E0
G1 X108.934 Y154.831 F6000.000
G1 X108.934 Y154.634 F6000.000
G1 X109.194 Y153.959 F6000.000
G1 X109.427 Y153.304 F6000.000
G1 X109.782 Y153.158 F6000.000
G1 E2.00000 F2400.00000
G1 X109.479 Y153.106 E2.02512 F900.000
G1 X109.188 Y153.002 E2.05032
G1 X108.921 Y152.853 E2.07530
G1 X108.683 Y152.660 E2.10030
G1 X108.480 Y152.430 E2.12535
G1 X108.317 Y152.167 E2.15063
G1 X108.202 Y151.880 E2.17590
G1 X108.137 Y151.578 E2.20106
G1 X108.125 Y151.274 E2.22591
G1 X108.163 Y150.968 E2.25111
G1 X108.254 Y150.674 E2.27624
G1 X108.391 Y150.400 E2.30123
G1 X108.575 Y150.151 E2.32649
G1 X108.796 Y149.939 E2.35148
G1 X109.051 Y149.766 E2.37665
G1 X109.337 Y149.637 E2.40228
G1 X109.647 Y149.561 E2.42835
G1 X109.937 Y149.535 E2.45210 F900.000
G1 X110.243 Y149.562 E2.47714
G1 X110.540 Y149.639 E2.50218
G1 X110.822 Y149.766 E2.52744
G1 X111.077 Y149.939 E2.55261
G1 X111.298 Y150.151 E2.57760
G1 X111.482 Y150.400 E2.60286
G1 X111.619 Y150.674 E2.62785
G1 X111.710 Y150.965 E2.65279
G1 X111.749 Y151.274 E2.67819
G1 X111.735 Y151.580 E2.70324
G1 X111.671 Y151.880 E2.72820
G1 X111.556 Y152.167 E2.75348
G1 X111.394 Y152.429 E2.77861
G1 X111.193 Y152.659 E2.80361
G1 X110.952 Y152.853 E2.82884
G1 X110.684 Y153.002 E2.85383
G1 X110.395 Y153.106 E2.87889
G1 X110.090 Y153.158 E2.90416
G1 X109.857 Y153.158 E2.92319
G1 X109.857 Y152.613 F6000.000
G1 X109.617 Y152.576 E2.93636 F900.000
G1 X109.414 Y152.504 E2.94808
G1 X109.227 Y152.399 E2.95971
G1 X109.061 Y152.265 E2.97135
G1 X108.919 Y152.104 E2.98301
G1 X108.805 Y151.921 E2.99474
G1 X108.725 Y151.720 E3.00645
G1 X108.680 Y151.510 E3.01815
G1 X108.671 Y151.296 E3.02976
G1 X108.698 Y151.083 E3.04145
G1 X108.761 Y150.878 E3.05311
G1 X108.857 Y150.686 E3.06475
G1 X108.986 Y150.513 E3.07648
G1 X109.140 Y150.364 E3.08812
G1 X109.318 Y150.244 E3.09982
G1 X109.516 Y150.154 E3.11160
G1 X109.737 Y150.100 E3.12395
G1 X109.937 Y150.083 E3.13488 F900.000
G1 X110.150 Y150.101 E3.14651
G1 X110.358 Y150.155 E3.15818
G1 X110.555 Y150.244 E3.16988
G1 X110.733 Y150.364 E3.18158
G1 X110.887 Y150.513 E3.19322
G1 X111.016 Y150.686 E3.20495
G1 X111.112 Y150.878 E3.21659
G1 X111.175 Y151.082 E3.22821
G1 X111.203 Y151.296 E3.23994
G1 X111.193 Y151.511 E3.25160
G1 X111.148 Y151.720 E3.26326
G1 X111.068 Y151.921 E3.27497
G1 X110.955 Y152.104 E3.28667
G1 X110.814 Y152.265 E3.29829
G1 X110.646 Y152.400 E3.30998
G1 X110.459 Y152.504 E3.32165
G1 X110.257 Y152.576 E3.33330
G1 X109.932 Y152.613 E3.35104
G1 X109.722 Y152.814 F6000.000
G1 X117.074 Y158.653 F6000.000
G1 X117.297 Y158.438 E3.37633 F900.000
G1 X117.553 Y158.266 E3.40146
G1 X117.835 Y158.139 E3.42675
G1 X118.145 Y158.061 E3.45285
G1 X118.437 Y158.035 E3.47677 F900.000
G1 X118.745 Y158.062 E3.50199
G1 X119.042 Y158.141 E3.52706
G1 X119.320 Y158.266 E3.55197
G1 X119.576 Y158.438 E3.57710
G1 X119.798 Y158.651 E3.60225
G1 X119.982 Y158.900 E3.62751
G1 X120.119 Y159.174 E3.65250
G1 X120.210 Y159.465 E3.67744
G1 X120.249 Y159.774 E3.70283
G1 X120.235 Y160.082 E3.72799
G1 X120.171 Y160.380 E3.75289
G1 X120.057 Y160.665 E3.77796
G1 X119.896 Y160.929 E3.80320
G1 X119.691 Y161.160 E3.82841
G1 X119.452 Y161.353 E3.85350
G1 X119.184 Y161.502 E3.87849
G1 X118.895 Y161.606 E3.90355
G1 X118.590 Y161.658 E3.92881
G1 X118.284 Y161.658 E3.95385
G1 X117.979 Y161.606 E3.97905
G1 X117.688 Y161.502 E4.00428
G1 X117.421 Y161.353 E4.02926
G1 X117.183 Y161.160 E4.05426
G1 X116.978 Y160.929 E4.07947
G1 X116.818 Y160.667 E4.10453
G1 X116.702 Y160.382 E4.12964
G1 X116.637 Y160.080 E4.15490
G1 X116.625 Y159.772 E4.18006
G1 X116.664 Y159.468 E4.20508
G1 X116.754 Y159.174 E4.23016
G1 X116.892 Y158.900 E4.25522
G1 X117.029 Y158.713 E4.27414
G1 X117.469 Y159.035 F6000.000
G1 X117.641 Y158.864 E4.28732 F900.000
G1 X117.819 Y158.744 E4.29900
G1 X118.015 Y158.655 E4.31071
G1 X118.236 Y158.600 E4.32307
G1 X118.437 Y158.583 E4.33404 F900.000
G1 X118.651 Y158.601 E4.34571
G1 X118.859 Y158.656 E4.35739
G1 X119.054 Y158.744 E4.36902
G1 X119.232 Y158.864 E4.38069
G1 X119.387 Y159.013 E4.39236
G1 X119.516 Y159.186 E4.40409
G1 X119.612 Y159.378 E4.41573
G1 X119.675 Y159.582 E4.42735
G1 X119.703 Y159.796 E4.43908
G1 X119.693 Y160.012 E4.45080
G1 X119.648 Y160.221 E4.46241
G1 X119.568 Y160.420 E4.47408
G1 X119.456 Y160.604 E4.48578
G1 X119.313 Y160.765 E4.49747
G1 X119.146 Y160.900 E4.50913
G1 X118.959 Y161.004 E4.52080
G1 X118.757 Y161.076 E4.53245
G1 X118.544 Y161.113 E4.54416
G1 X118.330 Y161.113 E4.55581
G1 X118.118 Y161.076 E4.56751
G1 X117.914 Y161.004 E4.57923
G1 X117.727 Y160.899 E4.59086
G1 X117.561 Y160.765 E4.60251
G1 X117.418 Y160.604 E4.61420
G1 X117.306 Y160.421 E4.62586
G1 X117.225 Y160.221 E4.63755
G1 X117.180 Y160.011 E4.64923
G1 X117.171 Y159.796 E4.66095
G1 X117.199 Y159.583 E4.67261
G1 X117.261 Y159.378 E4.68424
G1 X117.425 Y159.096 E4.70195
G1 X117.388 Y158.807 F6000.000
G1 X116.419 Y159.763 F6000.000
G1 X115.943 Y165.711 F6000.000
G1 X108.025 Y165.819 F6000.000
G1 X103.485 Y163.856 F6000.000
G1 X103.990 Y161.575 F6000.000
G1 X104.104 Y160.598 F6000.000
G1 X104.136 Y160.140 F6000.000
G1 X104.136 Y159.797 F6000.000
G1 X103.455 Y159.765 F6000.000
G1 X103.249 Y159.774 F6000.000
G1 X103.235 Y160.082 E4.72711 F900.000
G1 X103.171 Y160.380 E4.75201
G1 X103.056 Y160.667 E4.77724
G1 X102.894 Y160.929 E4.80238
G1 X102.692 Y161.160 E4.82750
G1 X102.451 Y161.353 E4.85270
G1 X102.186 Y161.502 E4.87750
G1 X101.895 Y161.606 E4.90265
G1 X101.590 Y161.658 E4.92792
G1 X101.283 Y161.658 E4.95303
G1 X100.978 Y161.606 E4.97830
G1 X100.687 Y161.502 E5.00345
G1 X100.422 Y161.353 E5.02825
G1 X100.181 Y161.160 E5.05345
G1 X99.979 Y160.929 E5.07857
G1 X99.817 Y160.667 E5.10371
G1 X99.702 Y160.380 E5.12894
G1 X99.638 Y160.082 E5.15384
G1 X99.624 Y159.774 E5.17900
G1 X99.663 Y159.465 E5.20439
G1 X99.754 Y159.174 E5.22933
G1 X99.891 Y158.900 E5.25432
G1 X100.075 Y158.651 E5.27958
G1 X100.297 Y158.438 E5.30473
G1 X100.553 Y158.266 E5.32985
G1 X100.835 Y158.139 E5.35515
G1 X101.145 Y158.061 E5.38125
G1 X101.437 Y158.035 E5.40517 F900.000
G1 X101.745 Y158.062 E5.43039
G1 X102.042 Y158.141 E5.45545
G1 X102.320 Y158.266 E5.48037
G1 X102.576 Y158.438 E5.50549
G1 X102.798 Y158.651 E5.53064
G1 X102.982 Y158.900 E5.55591
G1 X103.119 Y159.174 E5.58090
G1 X103.210 Y159.465 E5.60584
G1 X103.240 Y159.700 E5.62510
G1 X102.699 Y159.769 F6000.000
G1 X102.693 Y160.012 E5.63829 F900.000
G1 X102.648 Y160.221 E5.64990
G1 X102.568 Y160.421 E5.66160
G1 X102.455 Y160.604 E5.67330
G1 X102.313 Y160.765 E5.68494
G1 X102.145 Y160.900 E5.69666
G1 X101.959 Y161.004 E5.70825
G1 X101.757 Y161.076 E5.71992
G1 X101.544 Y161.113 E5.73164
G1 X101.329 Y161.113 E5.74334
G1 X101.116 Y161.076 E5.75505
G1 X100.914 Y161.004 E5.76672
G1 X100.728 Y160.900 E5.77831
G1 X100.560 Y160.765 E5.79003
G1 X100.418 Y160.604 E5.80167
G1 X100.305 Y160.421 E5.81337
G1 X100.225 Y160.221 E5.82507
G1 X100.180 Y160.012 E5.83668
G1 X100.170 Y159.796 E5.84840
G1 X100.198 Y159.582 E5.86014
G1 X100.261 Y159.378 E5.87175
G1 X100.357 Y159.186 E5.88340
