; generated by Slic3r 1.2.9 on 2019-05-07 at 15:01:29

; external perimeters extrusion width = 0.40mm
; perimeters extrusion width = 0.40mm
; infill extrusion width = 0.40mm
; solid infill extrusion width = 0.40mm
; top infill extrusion width = 0.40mm

M107
M83
T0
M116
G21 ; set units to millimeters
G90 ; use absolute coordinates
M83 ; use relative distances for extrusion
G1 E-3.50000 F1500.00000
G1 Z0.400 F15000.000
G1 X0.000 Y11.086 F15000.000
G1 Z0.300 F15000.000
G1 E3.50000 F1500.00000
G1 X-14.450 Y11.086 E1.11360 F960.000
G1 X-16.097 Y10.691 E0.13052
G1 X-17.387 Y9.593 E0.13052
G1 X-18.086 Y7.450 E0.17373
G1 X-18.086 Y-7.450 E1.14828
G1 X-17.691 Y-9.097 E0.13052
G1 X-16.593 Y-10.387 E0.13052
G1 X-14.450 Y-11.086 E0.17373
G1 X14.450 Y-11.086 E2.22719
G1 X16.097 Y-10.691 E0.13052
G1 X17.387 Y-9.593 E0.13052 F960.000
G1 X18.086 Y-7.450 E0.17373
G1 X18.086 Y7.450 E1.14828
G1 X17.691 Y9.097 E0.13052
G1 X16.593 Y10.387 E0.13052
G1 X14.450 Y11.086 E0.17373
G1 X0.060 Y11.086 E1.10897
G1 E-3.50000 F1500.00000
G1 Z0.700 F15000.000
G1 X-10.125 Y-6.464 F15000.000
G1 Z0.300 F15000.000
G1 E3.50000 F1500.00000
G1 X13.464 Y-6.464 E1.81791 F720.000
G1 X13.464 Y6.464 E0.99636
G1 X-13.464 Y6.464 E2.07528 F720.000
G1 X-13.464 Y-6.464 E0.99636
G1 X-10.185 Y-6.464 E0.25274
G1 X-10.185 Y-7.100 F15000.000
G1 X14.100 Y-7.100 E1.87152 F720.000
G1 X14.100 Y7.100 E1.09433
G1 X-14.100 Y7.100 E2.17325 F720.000
G1 X-14.100 Y-7.100 E1.09433
G1 X-10.245 Y-7.100 E0.29710
G1 X-9.985 Y-6.754 F15000.000
G1 X-12.769 Y6.079 F15000.000
G1 X-13.079 Y5.769 E0.03452 F960.000
G1 X-13.079 Y4.850 E0.07247
G1 X-11.850 Y6.079 E0.13701
G1 X-10.930 Y6.079 E0.07247
G1 X-13.079 Y3.930 E0.23951
G1 X-13.079 Y3.011 E0.07247
G1 X-10.011 Y6.079 E0.34200
G1 X-9.092 Y6.079 E0.07247
G1 X-13.079 Y2.092 E0.44449
G1 X-13.079 Y1.172 E0.07247
G1 X-8.172 Y6.079 E0.54699
G1 X-7.253 Y6.079 E0.07247
G1 X-13.079 Y0.253 E0.64948
G1 X-13.079 Y-0.667 E0.07247
G1 X-6.333 Y6.079 E0.75197
G1 X-5.414 Y6.079 E0.07247
G1 X-13.079 Y-1.586 E0.85447
G1 X-13.079 Y-2.506 E0.07247
G1 X-4.494 Y6.079 E0.95696
G1 X-3.575 Y6.079 E0.07247
G1 X-13.079 Y-3.425 E1.05946
G1 X-13.079 Y-4.344 E0.07247
G1 X-2.656 Y6.079 E1.16195
G1 X-1.736 Y6.079 E0.07247
G1 X-13.079 Y-5.264 E1.26444
G1 X-12.975 Y-6.079 E0.06478
G1 X-0.817 Y6.079 E1.35531
G1 X0.103 Y6.079 E0.07247
G1 X-12.055 Y-6.079 E1.35531
G1 X-11.136 Y-6.079 E0.07247
G1 X1.022 Y6.079 E1.35531
G1 X1.942 Y6.079 E0.07247
G1 X-10.216 Y-6.079 E1.35531
G1 X-9.297 Y-6.079 E0.07247
G1 X2.861 Y6.079 E1.35531
G1 X3.780 Y6.079 E0.07247
G1 X-8.378 Y-6.079 E1.35531
G1 X-7.458 Y-6.079 E0.07247
G1 X4.700 Y6.079 E1.35531
G1 X5.619 Y6.079 E0.07247
G1 X-6.539 Y-6.079 E1.35531
G1 X-5.619 Y-6.079 E0.07247
G1 X6.539 Y6.079 E1.35531
G1 X7.458 Y6.079 E0.07247
G1 X-4.700 Y-6.079 E1.35531
G1 X-3.780 Y-6.079 E0.07247
G1 X8.378 Y6.079 E1.35531
G1 X9.297 Y6.079 E0.07247
G1 X-2.861 Y-6.079 E1.35531
G1 X-1.942 Y-6.079 E0.07247
G1 X10.216 Y6.079 E1.35531
G1 X11.136 Y6.079 E0.07247
G1 X-1.022 Y-6.079 E1.35531
G1 X-0.103 Y-6.079 E0.07247
G1 X12.055 Y6.079 E1.35531
G1 X12.975 Y6.079 E0.07247
G1 X0.817 Y-6.079 E1.35531
G1 X1.736 Y-6.079 E0.07247
G1 X13.079 Y5.264 E1.26445
G1 X13.079 Y4.344 E0.07247
G1 X2.656 Y-6.079 E1.16195
G1 X3.575 Y-6.079 E0.07247
G1 X13.079 Y3.425 E1.05946
G1 X13.079 Y2.506 E0.07247
G1 X4.494 Y-6.079 E0.95697
G1 X5.414 Y-6.079 E0.07247
G1 X13.079 Y1.586 E0.85447
G1 X13.079 Y0.667 E0.07247
G1 X6.333 Y-6.079 E0.75198
G1 X7.253 Y-6.079 E0.07247
G1 X13.079 Y-0.253 E0.64948
G1 X13.079 Y-1.172 E0.07247
G1 X8.172 Y-6.079 E0.54699
G1 X9.092 Y-6.079 E0.07247
G1 X13.079 Y-2.092 E0.44450
G1 X13.079 Y-3.011 E0.07247
G1 X10.011 Y-6.079 E0.34200
G1 X10.930 Y-6.079 E0.07247
G1 X13.079 Y-3.930 E0.23951
G1 X13.079 Y-4.850 E0.07247
G1 X11.850 Y-6.079 E0.13701
G1 X12.769 Y-6.079 E0.07247
G1 X13.079 Y-5.769 E0.03452
G1 E-3.50000 F1500.00000
G1 Z0.700 F15000.000
G1 X-5.577 Y6.893 F15000.000
G1 Z0.500 F15000.000
G1 E3.50000 F1500.00000
G1 X-13.893 Y6.893 E0.24001 F2400.000
G1 X-13.893 Y-6.893 E0.39790
G1 X13.893 Y-6.893 E0.80197
G1 X13.893 Y6.893 E0.39790
G1 X-5.517 Y6.893 E0.56023 F2400.000
G1 X-5.517 Y7.250 F15000.000
G1 X-14.250 Y7.250 E0.25205 F2400.000
G1 X-14.250 Y-7.250 E0.41851
G1 X14.250 Y-7.250 E0.82259
G1 X14.250 Y7.250 E0.41851
G1 X-5.457 Y7.250 E0.56881 F2400.000
G1 X-5.717 Y6.904 F15000.000
G1 X-13.685 Y-6.494 F15000.000
G1 X-13.494 Y-6.685 E0.00790 F2557.501
G1 X-12.983 Y-6.685 E0.01492
G1 X-13.685 Y-5.983 E0.02900
G1 X-13.685 Y-5.472 E0.01492
G1 X-12.472 Y-6.685 E0.05009
G1 X-11.961 Y-6.685 E0.01492
G1 X-13.685 Y-4.961 E0.07119
G1 X-13.685 Y-4.450 E0.01492
G1 X-11.450 Y-6.685 E0.09228
G1 X-10.939 Y-6.685 E0.01492
G1 X-13.685 Y-3.939 E0.11338
G1 X-13.685 Y-3.429 E0.01492
G1 X-10.429 Y-6.685 E0.13447
G1 X-9.918 Y-6.685 E0.01492
G1 X-13.685 Y-2.918 E0.15557
G1 X-13.685 Y-2.407 E0.01492
G1 X-9.407 Y-6.685 E0.17666
G1 X-8.896 Y-6.685 E0.01492
G1 X-13.685 Y-1.896 E0.19776
G1 X-13.685 Y-1.385 E0.01492
G1 X-8.385 Y-6.685 E0.21885
G1 X-7.874 Y-6.685 E0.01492
G1 X-13.685 Y-0.874 E0.23995
G1 X-13.685 Y-0.363 E0.01492
G1 X-7.363 Y-6.685 E0.26104
G1 X-6.853 Y-6.685 E0.01492
G1 X-13.685 Y0.147 E0.28213
G1 X-13.685 Y0.658 E0.01492
G1 X-6.342 Y-6.685 E0.30323
G1 X-5.831 Y-6.685 E0.01492
G1 X-13.685 Y1.169 E0.32432
G1 X-13.685 Y1.680 E0.01492
G1 X-5.320 Y-6.685 E0.34542
G1 X-4.809 Y-6.685 E0.01492
G1 X-13.685 Y2.191 E0.36651
G1 X-13.685 Y2.702 E0.01492
G1 X-4.298 Y-6.685 E0.38761
G1 X-3.787 Y-6.685 E0.01492
G1 X-13.685 Y3.213 E0.40870
G1 X-13.685 Y3.723 E0.01492
G1 X-3.277 Y-6.685 E0.42980
G1 X-2.766 Y-6.685 E0.01492
G1 X-13.685 Y4.234 E0.45089
G1 X-13.685 Y4.745 E0.01492
G1 X-2.255 Y-6.685 E0.47199
G1 X-1.744 Y-6.685 E0.01492
G1 X-13.685 Y5.256 E0.49308
G1 X-13.685 Y5.767 E0.01492
G1 X-1.233 Y-6.685 E0.51418
G1 X-0.722 Y-6.685 E0.01492
G1 X-13.685 Y6.278 E0.53527
G1 X-13.582 Y6.685 E0.01227
G1 X-0.211 Y-6.685 E0.55210
G1 X0.299 Y-6.685 E0.01492
G1 X-13.071 Y6.685 E0.55210
G1 X-12.560 Y6.685 E0.01492
G1 X0.810 Y-6.685 E0.55210
G1 X1.321 Y-6.685 E0.01492
G1 X-12.049 Y6.685 E0.55210
G1 X-11.538 Y6.685 E0.01492
G1 X1.832 Y-6.685 E0.55210
G1 X2.343 Y-6.685 E0.01492
G1 X-11.028 Y6.685 E0.55210
G1 X-10.517 Y6.685 E0.01492
G1 X2.854 Y-6.685 E0.55210
G1 X3.365 Y-6.685 E0.01492
G1 X-10.006 Y6.685 E0.55210
G1 X-9.495 Y6.685 E0.01492
G1 X3.875 Y-6.685 E0.55210
G1 X4.386 Y-6.685 E0.01492
G1 X-8.984 Y6.685 E0.55210
G1 X-8.473 Y6.685 E0.01492
G1 X4.897 Y-6.685 E0.55210
G1 X5.408 Y-6.685 E0.01492
G1 X-7.962 Y6.685 E0.55210
G1 X-7.451 Y6.685 E0.01492
G1 X5.919 Y-6.685 E0.55210
G1 X6.430 Y-6.685 E0.01492
G1 X-6.941 Y6.685 E0.55210
G1 X-6.430 Y6.685 E0.01492
G1 X6.941 Y-6.685 E0.55210
G1 X7.451 Y-6.685 E0.01492
G1 X-5.919 Y6.685 E0.55210
G1 X-5.408 Y6.685 E0.01492
G1 X7.962 Y-6.685 E0.55210
G1 X8.473 Y-6.685 E0.01492
G1 X-4.897 Y6.685 E0.55210
G1 X-4.386 Y6.685 E0.01492
G1 X8.984 Y-6.685 E0.55210
G1 X9.495 Y-6.685 E0.01492
G1 X-3.875 Y6.685 E0.55210
G1 X-3.365 Y6.685 E0.01492
G1 X10.006 Y-6.685 E0.55210
G1 X10.517 Y-6.685 E0.01492
G1 X-2.854 Y6.685 E0.55210
G1 X-2.343 Y6.685 E0.01492
G1 X11.027 Y-6.685 E0.55210
G1 X11.538 Y-6.685 E0.01492
G1 X-1.832 Y6.685 E0.55210
G1 X-1.321 Y6.685 E0.01492
G1 X12.049 Y-6.685 E0.55210
G1 X12.560 Y-6.685 E0.01492
G1 X-0.810 Y6.685 E0.55210
G1 X-0.299 Y6.685 E0.01492
G1 X13.071 Y-6.685 E0.55210
G1 X13.582 Y-6.685 E0.01492
G1 X0.211 Y6.685 E0.55210
G1 X0.722 Y6.685 E0.01492
G1 X13.685 Y-6.278 E0.53527
G1 X13.685 Y-5.767 E0.01492
G1 X1.233 Y6.685 E0.51418
G1 X1.744 Y6.685 E0.01492
G1 X13.685 Y-5.256 E0.49308
G1 X13.685 Y-4.745 E0.01492
G1 X2.255 Y6.685 E0.47199
G1 X2.766 Y6.685 E0.01492
G1 X13.685 Y-4.234 E0.45089
G1 X13.685 Y-3.723 E0.01492
G1 X3.277 Y6.685 E0.42980
G1 X3.787 Y6.685 E0.01492
G1 X13.685 Y-3.213 E0.40871
G1 X13.685 Y-2.702 E0.01492
G1 X4.298 Y6.685 E0.38761
G1 X4.809 Y6.685 E0.01492
G1 X13.685 Y-2.191 E0.36652
G1 X13.685 Y-1.680 E0.01492
G1 X5.320 Y6.685 E0.34542
G1 X5.831 Y6.685 E0.01492
G1 X13.685 Y-1.169 E0.32433
G1 X13.685 Y-0.658 E0.01492
G1 X6.342 Y6.685 E0.30323
G1 X6.853 Y6.685 E0.01492
G1 X13.685 Y-0.147 E0.28214
G1 X13.685 Y0.363 E0.01492
G1 X7.363 Y6.685 E0.26104
G1 X7.874 Y6.685 E0.01492
G1 X13.685 Y0.874 E0.23995
G1 X13.685 Y1.385 E0.01492
G1 X8.385 Y6.685 E0.21885
G1 X8.896 Y6.685 E0.01492
G1 X13.685 Y1.896 E0.19776
G1 X13.685 Y2.407 E0.01492
G1 X9.407 Y6.685 E0.17666
G1 X9.918 Y6.685 E0.01492
G1 X13.685 Y2.918 E0.15557
G1 X13.685 Y3.429 E0.01492
G1 X10.429 Y6.685 E0.13448
G1 X10.939 Y6.685 E0.01492
G1 X13.685 Y3.939 E0.11338
G1 X13.685 Y4.450 E0.01492
G1 X11.450 Y6.685 E0.09229
G1 X11.961 Y6.685 E0.01492
G1 X13.685 Y4.961 E0.07119
G1 X13.685 Y5.472 E0.01492
G1 X12.472 Y6.685 E0.05010
G1 X12.983 Y6.685 E0.01492
G1 X13.685 Y5.983 E0.02900
G1 X13.685 Y6.494 E0.01492
G1 X13.494 Y6.685 E0.00791
G1 E-3.50000 F1500.00000
G1 Z0.900 F15000.000
G1 X-13.893 Y-5.668 F15000.000
G1 Z0.700 F15000.000
G1 E3.50000 F1500.00000
G1 X-13.893 Y-6.893 E0.03534 F2400.000
G1 X13.893 Y-6.893 E0.80197
G1 X13.893 Y6.893 E0.39790
G1 X-13.893 Y6.893 E0.80197 F2400.000
G1 X-13.893 Y-5.608 E0.36082
G1 X-14.250 Y-5.608 F15000.000
G1 X-14.250 Y-7.250 E0.04738 F2400.000
G1 X14.250 Y-7.250 E0.82259
G1 X14.250 Y7.250 E0.41851
G1 X-14.250 Y7.250 E0.82259 F2400.000
G1 X-14.250 Y-5.548 E0.36939
G1 X-13.904 Y-5.808 F15000.000
G1 X-13.685 Y3.376 F15000.000
G1 X-10.376 Y6.685 E0.13507 F2400.000
G1 X-8.050 Y6.685 E0.06715
G1 X-13.685 Y2.025 E0.21107
G1 X-13.685 Y-1.674 E0.10675
G1 X-5.326 Y6.685 E0.34119
G1 X-2.454 Y6.685 E0.08291
G1 X-13.685 Y-2.576 E0.42016
G1 X-13.646 Y-6.684 E0.11859
G1 X-0.276 Y6.685 E0.54572
G1 X3.142 Y6.685 E0.09868
G1 X-13.087 Y-6.685 E0.60692
G1 X-8.597 Y-6.685 E0.12961
G1 X4.773 Y6.685 E0.54575
G1 X8.739 Y6.685 E0.11444
G1 X-7.491 Y-6.685 E0.60692
G1 X-3.547 Y-6.685 E0.11384
G1 X9.823 Y6.685 E0.54575
G1 X13.685 Y6.151 E0.11252
G1 X-1.895 Y-6.685 E0.58266
G1 X1.503 Y-6.685 E0.09808
G1 X13.685 Y5.497 E0.49726
G1 X13.685 Y1.550 E0.11391
G1 X3.701 Y-6.685 E0.37356
G1 X6.553 Y-6.685 E0.08231
G1 X13.685 Y0.447 E0.29113
G1 X13.685 Y-3.050 E0.10095
G1 X9.297 Y-6.685 E0.16446
G1 X11.603 Y-6.685 E0.06655
G1 X13.685 Y-4.603 E0.08501
M106 S255
G1 E-3.50000 F1500.00000
G1 Z1.100 F15000.000
G1 X12.043 Y6.893 F15000.000
G1 Z0.900 F15000.000
G1 E3.50000 F1500.00000
G1 X-13.893 Y6.893 E0.74859 F2400.000
G1 X-13.893 Y-6.893 E0.39790
G1 X13.893 Y-6.893 E0.80197
G1 X13.893 Y6.893 E0.39790
G1 X12.103 Y6.893 E0.05165 F2400.000
G1 X12.103 Y7.250 F15000.000
G1 X-14.250 Y7.250 E0.76063 F2400.000
G1 X-14.250 Y-7.250 E0.41851
G1 X14.250 Y-7.250 E0.82259
G1 X14.250 Y7.250 E0.41851
G1 X12.163 Y7.250 E0.06023 F2400.000
G1 X11.903 Y6.904 F15000.000
G1 X13.406 Y6.685 F15000.000
G1 X13.685 Y6.379 E0.01196 F2400.000
G1 X13.685 Y4.603 E0.05126
G1 X11.603 Y6.685 E0.08500
G1 X8.805 Y6.685 E0.08073
G1 X13.685 Y0.783 E0.22104
G1 X13.685 Y-0.447 E0.03550
G1 X6.553 Y6.685 E0.29113
G1 X4.205 Y6.685 E0.06777
G1 X13.685 Y-4.813 E0.43014
G1 X13.685 Y-5.497 E0.01974
G1 X1.503 Y6.685 E0.49726
G1 X-0.396 Y6.685 E0.05481
G1 X10.623 Y-6.685 E0.50008
G1 X9.823 Y-6.685 E0.02309
G1 X-3.547 Y6.685 E0.54575
G1 X-4.997 Y6.685 E0.04185
G1 X6.022 Y-6.685 E0.50008
G1 X4.773 Y-6.685 E0.03605
G1 X-8.597 Y6.685 E0.54575
G1 X-9.598 Y6.685 E0.02889
G1 X1.422 Y-6.685 E0.50008
G1 X-0.276 Y-6.685 E0.04901
G1 X-13.647 Y6.685 E0.54575
G1 X-13.685 Y6.061 E0.01806
G1 X-3.179 Y-6.685 E0.47674
G1 X-5.326 Y-6.685 E0.06197
G1 X-13.685 Y1.674 E0.34119
G1 X-13.685 Y0.465 E0.03490
G1 X-7.780 Y-6.685 E0.26764
G1 X-10.376 Y-6.685 E0.07493
G1 X-13.685 Y-3.376 E0.13507
G1 X-13.685 Y-5.131 E0.05066
G1 X-12.381 Y-6.685 E0.05855
G1 E-3.50000 F1500.00000
G1 Z1.300 F15000.000
G1 X-13.893 Y3.626 F15000.000
G1 Z1.100 F15000.000
G1 E3.50000 F1500.00000
G1 X-13.893 Y-6.893 E0.30361 F2400.000
G1 X13.893 Y-6.893 E0.80197
G1 X13.893 Y6.893 E0.39790
G1 X-13.893 Y6.893 E0.80197 F2400.000
G1 X-13.893 Y3.686 E0.09255
G1 X-14.250 Y3.686 F15000.000
G1 X-14.250 Y-7.250 E0.31565 F2400.000
G1 X14.250 Y-7.250 E0.82259
G1 X14.250 Y7.250 E0.41851
G1 X-14.250 Y7.250 E0.82259 F2400.000
G1 X-14.250 Y3.746 E0.10113
G1 X-13.904 Y3.486 F15000.000
G1 X-13.685 Y3.376 F15000.000
G1 X-10.376 Y6.685 E0.13507 F2400.000
G1 X-8.050 Y6.685 E0.06715
G1 X-13.685 Y2.025 E0.21107
G1 X-13.685 Y-1.674 E0.10675
G1 X-5.326 Y6.685 E0.34119
G1 X-2.454 Y6.685 E0.08291
G1 X-13.685 Y-2.576 E0.42016
G1 X-13.646 Y-6.684 E0.11859
G1 X-0.276 Y6.685 E0.54572
G1 X3.142 Y6.685 E0.09868
G1 X-13.087 Y-6.685 E0.60692
G1 X-8.597 Y-6.685 E0.12961
G1 X4.773 Y6.685 E0.54575
G1 X8.739 Y6.685 E0.11444
G1 X-7.491 Y-6.685 E0.60692
G1 X-3.547 Y-6.685 E0.11384
G1 X9.823 Y6.685 E0.54575
G1 X13.685 Y6.151 E0.11252
G1 X-1.895 Y-6.685 E0.58266
G1 X1.503 Y-6.685 E0.09808
G1 X13.685 Y5.497 E0.49726
G1 X13.685 Y1.550 E0.11391
G1 X3.701 Y-6.685 E0.37356
G1 X6.553 Y-6.685 E0.08231
G1 X13.685 Y0.447 E0.29113
G1 X13.685 Y-3.050 E0.10095
G1 X9.297 Y-6.685 E0.16446
G1 X11.603 Y-6.685 E0.06655
G1 X13.685 Y-4.603 E0.08501
G1 E-3.50000 F1500.00000
G1 Z1.500 F15000.000
G1 X10.112 Y-6.893 F15000.000
G1 Z1.300 F15000.000
G1 E3.50000 F1500.00000
G1 X13.893 Y-6.893 E0.10914 F2400.000
G1 X13.893 Y6.893 E0.39790
G1 X-13.893 Y6.893 E0.80197 F2400.000
G1 X-13.893 Y-6.893 E0.39790
G1 X10.052 Y-6.893 E0.69111
G1 X10.052 Y-7.250 F15000.000
G1 X14.250 Y-7.250 E0.12117 F2400.000
G1 X14.250 Y7.250 E0.41851
G1 X-14.250 Y7.250 E0.82259 F2400.000
G1 X-14.250 Y-7.250 E0.41851
G1 X9.992 Y-7.250 E0.69968
G1 X10.252 Y-6.904 F15000.000
G1 X13.406 Y6.685 F15000.000
G1 X13.685 Y6.379 E0.01196 F2400.000
G1 X13.685 Y4.603 E0.05126
G1 X11.603 Y6.685 E0.08500
G1 X8.805 Y6.685 E0.08073
G1 X13.685 Y0.783 E0.22104
G1 X13.685 Y-0.447 E0.03550
G1 X6.553 Y6.685 E0.29113
G1 X4.205 Y6.685 E0.06777
G1 X13.685 Y-4.813 E0.43014
G1 X13.685 Y-5.497 E0.01974
G1 X1.503 Y6.685 E0.49726
G1 X-0.396 Y6.685 E0.05481
G1 X10.623 Y-6.685 E0.50008
G1 X9.823 Y-6.685 E0.02309
G1 X-3.547 Y6.685 E0.54575
G1 X-4.997 Y6.685 E0.04185
G1 X6.022 Y-6.685 E0.50008
G1 X4.773 Y-6.685 E0.03605
G1 X-8.597 Y6.685 E0.54575
G1 X-9.598 Y6.685 E0.02889
G1 X1.422 Y-6.685 E0.50008
G1 X-0.276 Y-6.685 E0.04901
G1 X-13.647 Y6.685 E0.54575
G1 X-13.685 Y6.061 E0.01806
G1 X-3.179 Y-6.685 E0.47674
G1 X-5.326 Y-6.685 E0.06197
G1 X-13.685 Y1.674 E0.34119
G1 X-13.685 Y0.465 E0.03490
G1 X-7.780 Y-6.685 E0.26764
G1 X-10.376 Y-6.685 E0.07493
G1 X-13.685 Y-3.376 E0.13507
G1 X-13.685 Y-5.131 E0.05066
G1 X-12.381 Y-6.685 E0.05855
G1 E-3.50000 F1500.00000
G1 Z1.700 F15000.000
G1 X8.873 Y-6.893 F15000.000
G1 Z1.500 F15000.000
G1 E3.50000 F1500.00000
G1 X13.893 Y-6.893 E0.14490 F2400.000
G1 X13.893 Y6.893 E0.39790
G1 X-13.893 Y6.893 E0.80197 F2400.000
G1 X-13.893 Y-6.893 E0.39790
G1 X8.813 Y-6.893 E0.65534
G1 X8.813 Y-7.250 F15000.000
G1 X14.250 Y-7.250 E0.15694 F2400.000
G1 X14.250 Y7.250 E0.41851
G1 X-14.250 Y7.250 E0.82259 F2400.000
G1 X-14.250 Y-7.250 E0.41851
G1 X8.753 Y-7.250 E0.66392
G1 X9.013 Y-6.904 F15000.000
G1 X13.685 Y-4.603 F15000.000
G1 X11.603 Y-6.685 E0.08501 F2400.000
G1 X9.297 Y-6.685 E0.06655
G1 X13.685 Y-3.050 E0.16446
G1 X13.685 Y0.447 E0.10095
G1 X6.553 Y-6.685 E0.29113
G1 X3.701 Y-6.685 E0.08231
G1 X13.685 Y1.550 E0.37356
G1 X13.685 Y5.497 E0.11391
G1 X1.503 Y-6.685 E0.49726
G1 X-1.895 Y-6.685 E0.09808
G1 X13.685 Y6.151 E0.58266
G1 X9.823 Y6.685 E0.11252
G1 X-3.547 Y-6.685 E0.54575
G1 X-7.491 Y-6.685 E0.11384
G1 X8.739 Y6.685 E0.60692
G1 X4.773 Y6.685 E0.11444
G1 X-8.597 Y-6.685 E0.54575
G1 X-13.087 Y-6.685 E0.12961
G1 X3.142 Y6.685 E0.60692
G1 X-0.276 Y6.685 E0.09868
G1 X-13.646 Y-6.684 E0.54572
G1 X-13.685 Y-2.576 E0.11859
G1 X-2.454 Y6.685 E0.42016
G1 X-5.326 Y6.685 E0.08291
G1 X-13.685 Y-1.674 E0.34119
G1 X-13.685 Y2.025 E0.10675
G1 X-8.050 Y6.685 E0.21107
G1 X-10.376 Y6.685 E0.06715
G1 X-13.685 Y3.376 E0.13507
G1 E-3.50000 F1500.00000
G1 Z1.900 F15000.000
G1 X-7.825 Y6.893 F15000.000
G1 Z1.700 F15000.000
G1 E3.50000 F1500.00000
G1 X-13.893 Y6.893 E0.17513 F2400.000
G1 X-13.893 Y-6.893 E0.39790
G1 X13.893 Y-6.893 E0.80197
G1 X13.893 Y6.893 E0.39790
G1 X-7.765 Y6.893 E0.62511 F2400.000
G1 X-7.765 Y7.250 F15000.000
G1 X-14.250 Y7.250 E0.18717 F2400.000
