;(.../Engineering/Matt/pcb-gcode/pcb-gcode.ulp)
;(Copyright 2005 - 2012 by John Johnson)
;(See readme.txt for licensing terms.)
;(This file generated from the board:)
;(.../Engineering/Matt/Carrier/carrier.brd)
;(Current profile is .../pcb-gcode/profiles/generic.pp  )
;(This file generated 04/07/2016 10:53)
;(Settings from pcb-machine.h)
;(spindle on time = 1000.0000)
;(  Tool Size)
;(0.1778 )
;(spindle speed = 30000.0000)
;(tool change at 0.0000 0.0000 5.0000 )
;(feed rate xy = F500.00 )
;(feed rate z  = F200.00 )
;(Z Axis Settings)
;(  High     Up        Down     Drill)
;(5.0000 	2.0000 	-0.2000 	-2.0000 )
;(Settings from pcb-defaults.h)
;(isolate min = 0.0250)
;(isolate max = 0.5000)
;(isolate step = 0.1200)
;(Generated top outlines, top drill, )
;(Unit of measure: mm)
;(Metric Mode)
G21
;(Absolute Coordinates)
G90
;S30000
G00 Z5.0000  F3000 F3000
G00 X0.0000 Y0.0000  F3000 F3000
;M03 S1
G04 P1000.000000
G00 Z2.0000  F3000 F3000
G00 X2.5403 Y2.5993  F3000 F3000
G01 Z-0.2000 F200.00 
G01 X2.4985 Y2.6716 F500.00 
G01 X2.4769 Y2.7522 
G01 X2.4769 Y12.4877 
G01 X2.4985 Y12.5684 
G01 X2.5403 Y12.6407 
G01 X2.5993 Y12.6997 
G01 X2.6716 Y12.7415 
G01 X2.7522 Y12.7631 
G01 X3.5990 Y12.7631 
G01 X3.6797 Y12.7415 
G01 X3.7520 Y12.6997 
G01 X3.8110 Y12.6407 
G01 X3.8518 Y12.5700 
G01 X3.8537 Y12.5650 
G01 X3.8744 Y12.4877 
G01 X3.8744 Y12.4042 
G01 X3.8528 Y12.3236 
G01 X3.8110 Y12.2513 
G01 X3.8082 Y12.2485 
G01 X3.7520 Y12.1923 
G01 X3.5250 Y11.9652 
G01 X3.3811 Y11.6179 
G01 X3.3811 Y11.2420 
G01 X3.5250 Y10.8948 
G01 X3.7908 Y10.6289 
G01 X4.1380 Y10.4851 
G01 X6.0219 Y10.4851 
G01 X6.3692 Y10.6289 
G01 X6.6350 Y10.8948 
G01 X6.7789 Y11.2420 
G01 X6.7789 Y11.6179 
G01 X6.6350 Y11.9652 
G01 X6.4080 Y12.1923 
G01 X6.3490 Y12.2513 
G01 X6.3072 Y12.3236 
G01 X6.2865 Y12.4008 
G01 X6.2856 Y12.4042 
G01 X6.2856 Y12.4877 
G01 X6.3072 Y12.5684 
G01 X6.3490 Y12.6407 
G01 X6.4080 Y12.6997 
G01 X6.4803 Y12.7415 
G01 X6.5575 Y12.7622 
G01 X6.5610 Y12.7631 
G01 X18.8390 Y12.7631 
G01 X18.9197 Y12.7415 
G01 X18.9920 Y12.6997 
G01 X19.0510 Y12.6407 
G01 X19.0918 Y12.5700 
G01 X19.0937 Y12.5650 
G01 X19.1144 Y12.4877 
G01 X19.1144 Y12.4042 
G01 X19.0928 Y12.3236 
G01 X19.0510 Y12.2513 
G01 X19.0482 Y12.2485 
G01 X18.9920 Y12.1923 
G01 X18.7649 Y11.9652 
G01 X18.6211 Y11.6179 
G01 X18.6211 Y11.2420 
G01 X18.7649 Y10.8948 
G01 X19.0308 Y10.6289 
G01 X19.3780 Y10.4851 
G01 X21.2619 Y10.4851 
G01 X21.6092 Y10.6289 
G01 X21.8750 Y10.8948 
G01 X22.0189 Y11.2420 
G01 X22.0189 Y11.6179 
G01 X21.8750 Y11.9652 
G01 X21.6480 Y12.1923 
G01 X21.5890 Y12.2513 
G01 X21.5472 Y12.3236 
G01 X21.5266 Y12.4008 
G01 X21.5256 Y12.4042 
G01 X21.5256 Y12.4877 
G01 X21.5472 Y12.5684 
G01 X21.5890 Y12.6407 
G01 X21.6480 Y12.6997 
G01 X21.7203 Y12.7415 
G01 X21.7975 Y12.7622 
G01 X21.8010 Y12.7631 
G01 X22.6477 Y12.7631 
G01 X22.7284 Y12.7415 
G01 X22.8007 Y12.6997 
G01 X22.8597 Y12.6407 
G01 X22.9015 Y12.5684 
G01 X22.9231 Y12.4877 
G01 X22.9231 Y2.7522 
G01 X22.9015 Y2.6716 
G01 X22.8597 Y2.5993 
G01 X22.8007 Y2.5403 
G01 X22.7284 Y2.4985 
G01 X22.6477 Y2.4769 
G01 X21.8010 Y2.4769 
G01 X21.7203 Y2.4985 
G01 X21.6480 Y2.5403 
G01 X21.5890 Y2.5993 
G01 X21.5482 Y2.6700 
G01 X21.5463 Y2.6750 
G01 X21.5256 Y2.7522 
G01 X21.5256 Y2.8357 
G01 X21.5472 Y2.9164 
G01 X21.5890 Y2.9887 
G01 X21.5918 Y2.9915 
G01 X21.6480 Y3.0477 
G01 X21.8750 Y3.2748 
G01 X22.0189 Y3.6220 
G01 X22.0189 Y3.9979 
G01 X21.8750 Y4.3452 
G01 X21.6092 Y4.6110 
G01 X21.2619 Y4.7549 
G01 X19.3780 Y4.7549 
G01 X19.0308 Y4.6110 
G01 X18.7649 Y4.3452 
G01 X18.6211 Y3.9979 
G01 X18.6211 Y3.6220 
G01 X18.7649 Y3.2748 
G01 X18.9920 Y3.0477 
G01 X19.0510 Y2.9887 
G01 X19.0928 Y2.9164 
G01 X19.1134 Y2.8392 
G01 X19.1144 Y2.8357 
G01 X19.1144 Y2.7522 
G01 X19.0928 Y2.6716 
G01 X19.0510 Y2.5993 
G01 X18.9920 Y2.5403 
G01 X18.9197 Y2.4985 
G01 X18.8424 Y2.4778 
G01 X18.8390 Y2.4769 
G01 X6.5128 Y2.4769 
G01 X6.4878 Y2.4743 
G01 X6.4712 Y2.4769 
G01 X6.4545 Y2.4769 
G01 X6.4302 Y2.4834 
G01 X6.4054 Y2.4873 
G01 X6.3900 Y2.4942 
G01 X6.3738 Y2.4985 
G01 X6.3520 Y2.5111 
G01 X6.3291 Y2.5213 
G01 X6.3160 Y2.5319 
G01 X6.3015 Y2.5403 
G01 X6.2837 Y2.5580 
G01 X6.2642 Y2.5738 
G01 X6.2543 Y2.5874 
G01 X6.2425 Y2.5993 
G01 X6.2299 Y2.6211 
G01 X6.2151 Y2.6414 
G01 X6.2091 Y2.6571 
G01 X6.2007 Y2.6716 
G01 X6.1942 Y2.6959 
G01 X6.1852 Y2.7193 
G01 X6.1834 Y2.7360 
G01 X6.1791 Y2.7522 
G01 X6.1791 Y2.7774 
G01 X6.1765 Y2.8024 
G01 X6.1791 Y2.8190 
G01 X6.1791 Y2.8357 
G01 X6.1856 Y2.8600 
G01 X6.1895 Y2.8848 
G01 X6.1964 Y2.9002 
G01 X6.2007 Y2.9164 
G01 X6.2133 Y2.9382 
G01 X6.2235 Y2.9611 
G01 X6.2341 Y2.9742 
G01 X6.2425 Y2.9887 
G01 X6.2602 Y3.0065 
G01 X6.2760 Y3.0260 
G01 X6.2896 Y3.0359 
G01 X6.3015 Y3.0477 
G01 X6.3233 Y3.0603 
G01 X6.4165 Y3.1280 
G01 X6.5160 Y3.2275 
G01 X6.5987 Y3.3414 
G01 X6.6521 Y3.4461 
G01 X6.6227 Y3.4461 
G01 X6.6031 Y3.3989 
G01 X6.5081 Y3.2567 
G01 X6.3873 Y3.1359 
G01 X6.2451 Y3.0409 
G01 X6.0872 Y2.9755 
G01 X5.9195 Y2.9421 
G01 X4.2405 Y2.9421 
G01 X4.0728 Y2.9755 
G01 X3.9149 Y3.0409 
G01 X3.7727 Y3.1359 
G01 X3.6519 Y3.2567 
G01 X3.5569 Y3.3989 
G01 X3.5373 Y3.4461 
G01 X3.5079 Y3.4461 
G01 X3.5613 Y3.3414 
G01 X3.6440 Y3.2275 
G01 X3.7435 Y3.1280 
G01 X3.8367 Y3.0603 
G01 X3.8585 Y3.0477 
G01 X3.8704 Y3.0359 
G01 X3.8840 Y3.0260 
G01 X3.8998 Y3.0065 
G01 X3.9175 Y2.9887 
G01 X3.9259 Y2.9742 
G01 X3.9365 Y2.9611 
G01 X3.9467 Y2.9382 
G01 X3.9593 Y2.9164 
G01 X3.9636 Y2.9002 
G01 X3.9705 Y2.8848 
G01 X3.9744 Y2.8600 
G01 X3.9809 Y2.8357 
G01 X3.9809 Y2.8190 
G01 X3.9835 Y2.8024 
G01 X3.9809 Y2.7774 
G01 X3.9809 Y2.7522 
G01 X3.9765 Y2.7360 
G01 X3.9748 Y2.7193 
G01 X3.9658 Y2.6959 
G01 X3.9593 Y2.6716 
G01 X3.9509 Y2.6571 
G01 X3.9449 Y2.6414 
G01 X3.9301 Y2.6211 
G01 X3.9175 Y2.5993 
G01 X3.9057 Y2.5874 
G01 X3.8958 Y2.5738 
G01 X3.8763 Y2.5580 
G01 X3.8585 Y2.5403 
G01 X3.8440 Y2.5319 
G01 X3.8309 Y2.5213 
G01 X3.8079 Y2.5111 
G01 X3.7862 Y2.4985 
G01 X3.7700 Y2.4942 
G01 X3.7546 Y2.4873 
G01 X3.7298 Y2.4834 
G01 X3.7055 Y2.4769 
G01 X3.6887 Y2.4769 
G01 X3.6722 Y2.4743 
G01 X3.6472 Y2.4769 
G01 X2.7522 Y2.4769 
G01 X2.6716 Y2.4985 
G01 X2.5993 Y2.5403 
G01 X2.5403 Y2.5993 
G00 Z2.0000  F3000 F3000
G00 X3.5079 Y4.1739  F3000 F3000
G01 Z-0.2000 F200.00 
G01 X3.5373 Y4.1739 F500.00 
G01 X3.5569 Y4.2211 
G01 X3.6519 Y4.3633 
G01 X3.7727 Y4.4841 
G01 X3.9149 Y4.5791 
G01 X4.0728 Y4.6445 
G01 X4.2405 Y4.6779 
G01 X4.7161 Y4.6779 
G01 X4.7161 Y4.7041 
G01 X4.2556 Y4.7041 
G01 X4.1166 Y4.6821 
G01 X3.9828 Y4.6386 
G01 X3.8574 Y4.5747 
G01 X3.7435 Y4.4920 
G01 X3.6440 Y4.3925 
G01 X3.5613 Y4.2786 
G01 X3.5079 Y4.1739 
G00 Z2.0000  F3000 F3000
G00 X3.7908 Y5.5489  F3000 F3000
G01 Z-0.2000 F200.00 
G01 X4.1380 Y5.4051 F500.00 
G01 X6.0219 Y5.4051 
G01 X6.3692 Y5.5489 
G01 X6.6350 Y5.8148 
G01 X6.6895 Y5.9463 
G01 X6.6979 Y5.9728 
G01 X6.7055 Y5.9848 
G01 X6.7109 Y5.9978 
G01 X6.7278 Y6.0199 
G01 X6.7427 Y6.0433 
G01 X6.7531 Y6.0529 
G01 X6.7617 Y6.0641 
G01 X6.7837 Y6.0810 
G01 X6.8042 Y6.0998 
G01 X6.8167 Y6.1063 
G01 X6.8279 Y6.1149 
G01 X6.8536 Y6.1255 
G01 X6.8782 Y6.1384 
G01 X6.8920 Y6.1414 
G01 X6.9051 Y6.1468 
G01 X6.9326 Y6.1505 
G01 X8.0229 Y6.3932 
G01 X8.0578 Y6.4023 
G01 X8.0636 Y6.4022 
G01 X8.0692 Y6.4035 
G01 X8.1052 Y6.4019 
G01 X8.5457 Y6.3988 
G01 X8.5863 Y6.3988 
G01 X8.5885 Y6.3985 
G01 X8.6278 Y6.3877 
G01 X8.6669 Y6.3772 
G01 X8.6690 Y6.3763 
G01 X8.7041 Y6.3557 
G01 X8.7392 Y6.3354 
G01 X8.7696 Y6.3051 
G01 X8.7983 Y6.2764 
G01 X8.8097 Y6.2569 
G01 X10.1772 Y6.2341 
G01 X10.3089 Y6.1964 
G01 X10.4215 Y6.1289 
G01 X11.2227 Y6.1289 
G01 X11.2645 Y6.1116 
G01 X11.2966 Y6.0795 
G01 X11.3139 Y6.0377 
G01 X11.3139 Y6.0321 
G01 X11.3401 Y6.0321 
G01 X11.3306 Y6.0691 
G01 X11.3121 Y6.1010 
G01 X11.2938 Y6.1193 
G01 X11.2775 Y6.1475 
G01 X11.2520 Y6.1917 
G01 X11.2463 Y6.2130 
G01 X11.2304 Y6.2723 
G01 X11.2304 Y6.3145 
G01 X11.2304 Y6.3558 
G01 X11.2465 Y6.4159 
G01 X11.2520 Y6.4364 
G01 X11.2742 Y6.4749 
G01 X11.2937 Y6.5088 
G01 X11.3087 Y6.5237 
G01 X11.3528 Y6.5678 
G01 X11.3909 Y6.6059 
G01 X11.3909 Y7.3641 
G01 X11.3887 Y7.3663 
G01 X11.3297 Y7.4253 
G01 X11.3115 Y7.4568 
G01 X11.2879 Y7.4976 
G01 X11.2663 Y7.5782 
G01 X11.2663 Y7.6617 
G01 X11.2746 Y7.6925 
G01 X11.2879 Y7.7424 
G01 X11.3000 Y7.7634 
G01 X11.3297 Y7.8147 
G01 X11.3325 Y7.8176 
G01 X11.3887 Y7.8737 
G01 X11.3909 Y7.8759 
G01 X11.3909 Y8.6341 
G01 X11.3887 Y8.6363 
G01 X11.3297 Y8.6953 
G01 X11.2982 Y8.7498 
G01 X11.2879 Y8.7676 
G01 X11.2739 Y8.8200 
G01 X11.2663 Y8.8482 
G01 X11.2663 Y8.9317 
G01 X11.2879 Y9.0124 
G01 X11.3126 Y9.0551 
G01 X11.3297 Y9.0847 
G01 X11.3909 Y9.1459 
G01 X11.3909 Y9.9041 
G01 X11.2791 Y10.0159 
G01 X8.9209 Y10.0159 
G01 X8.8091 Y9.9041 
G01 X8.8091 Y9.1657 
G01 X8.8092 Y9.1246 
G01 X8.7983 Y9.0836 
G01 X8.7878 Y9.0439 
G01 X8.7667 Y9.0072 
G01 X8.7462 Y8.9715 
G01 X8.7164 Y8.9416 
G01 X8.6873 Y8.9123 
G01 X8.6509 Y8.8911 
G01 X8.6151 Y8.8704 
G01 X8.5741 Y8.8593 
G01 X8.5345 Y8.8486 
G01 X8.4924 Y8.8485 
G01 X8.1057 Y8.8476 
G01 X8.0708 Y8.8460 
G01 X8.0640 Y8.8475 
G01 X8.0570 Y8.8474 
G01 X8.0233 Y8.8564 
G01 X6.9305 Y9.0959 
G01 X6.9024 Y9.0996 
G01 X6.8898 Y9.1048 
G01 X6.8765 Y9.1077 
G01 X6.8514 Y9.1207 
G01 X6.8253 Y9.1315 
G01 X6.8145 Y9.1398 
G01 X6.8024 Y9.1461 
G01 X6.7815 Y9.1651 
G01 X6.7590 Y9.1824 
G01 X6.7507 Y9.1932 
G01 X6.7407 Y9.2023 
G01 X6.7254 Y9.2262 
G01 X6.7082 Y9.2486 
G01 X6.7030 Y9.2612 
G01 X6.6956 Y9.2727 
G01 X6.6871 Y9.2996 
G01 X6.6350 Y9.4252 
G01 X6.3692 Y9.6910 
G01 X6.0219 Y9.8349 
G01 X4.1380 Y9.8349 
G01 X3.7908 Y9.6910 
G01 X3.5249 Y9.4252 
G01 X3.3811 Y9.0779 
G01 X3.3811 Y8.7020 
G01 X3.5249 Y8.3548 
G01 X3.7908 Y8.0889 
G01 X4.1380 Y7.9451 
G01 X6.0220 Y7.9451 
G01 X6.1044 Y7.9793 
G01 X6.1159 Y7.9866 
G01 X6.1428 Y7.9952 
G01 X6.1690 Y8.0060 
G01 X6.1825 Y8.0078 
G01 X6.1955 Y8.0119 
G01 X6.2237 Y8.0132 
G01 X6.2518 Y8.0169 
G01 X6.2653 Y8.0151 
G01 X6.2789 Y8.0158 
G01 X6.3065 Y8.0097 
G01 X6.3345 Y8.0060 
G01 X6.3471 Y8.0008 
G01 X6.6311 Y7.9386 
G01 X6.6453 Y7.9379 
G01 X6.6717 Y7.9296 
G01 X6.6987 Y7.9237 
G01 X6.7114 Y7.9172 
G01 X6.7250 Y7.9129 
G01 X6.7483 Y7.8981 
G01 X6.7729 Y7.8854 
G01 X6.7834 Y7.8758 
G01 X6.7954 Y7.8681 
G01 X6.8141 Y7.8477 
G01 X6.8346 Y7.8291 
G01 X6.8423 Y7.8171 
G01 X6.8519 Y7.8066 
G01 X6.8647 Y7.7821 
G01 X6.8796 Y7.7588 
G01 X6.8839 Y7.7452 
G01 X6.8905 Y7.7326 
G01 X6.8965 Y7.7056 
G01 X6.9049 Y7.6792 
G01 X6.9056 Y7.6650 
G01 X6.9087 Y7.6511 
G01 X6.9075 Y7.6234 
G01 X6.9087 Y7.5958 
G01 X6.9057 Y7.5819 
G01 X6.9051 Y7.5677 
G01 X6.8968 Y7.5413 
G01 X6.8909 Y7.5142 
G01 X6.8843 Y7.5016 
G01 X6.8800 Y7.4880 
G01 X6.8652 Y7.4647 
G01 X6.8525 Y7.4401 
G01 X6.8429 Y7.4296 
G01 X6.8352 Y7.4175 
G01 X6.8149 Y7.3988 
G01 X6.7962 Y7.3784 
G01 X6.7842 Y7.3707 
G01 X6.7737 Y7.3611 
G01 X6.7492 Y7.3483 
G01 X6.7259 Y7.3334 
G01 X6.7124 Y7.3291 
G01 X6.6997 Y7.3225 
G01 X6.6727 Y7.3165 
G01 X6.6464 Y7.3081 
G01 X6.6321 Y7.3074 
G01 X6.3403 Y7.2425 
G01 X6.3272 Y7.2370 
G01 X6.2996 Y7.2334 
G01 X6.2726 Y7.2274 
G01 X6.2584 Y7.2280 
G01 X6.2444 Y7.2261 
G01 X6.2169 Y7.2298 
G01 X6.1891 Y7.2310 
G01 X6.1756 Y7.2352 
G01 X6.1616 Y7.2370 
G01 X6.1360 Y7.2477 
G01 X6.1095 Y7.2560 
G01 X6.0976 Y7.2636 
G01 X6.0220 Y7.2949 
G01 X4.1380 Y7.2949 
G01 X3.7908 Y7.1510 
G01 X3.5250 Y6.8852 
G01 X3.3811 Y6.5379 
G01 X3.3811 Y6.1620 
G01 X3.5250 Y5.8148 
G01 X3.7908 Y5.5489 
G00 Z2.0000  F3000 F3000
G00 X3.7727 Y5.6759  F3000 F3000
G01 Z-0.2000 F200.00 
G01 X3.6519 Y5.7967 F500.00 
G01 X3.5569 Y5.9389 
G01 X3.4915 Y6.0968 
G01 X3.4581 Y6.2645 
G01 X3.4581 Y6.4355 
G01 X3.4915 Y6.6032 
G01 X3.5569 Y6.7611 
G01 X3.6519 Y6.9033 
G01 X3.7727 Y7.0241 
G01 X3.9149 Y7.1191 
G01 X4.0728 Y7.1845 
G01 X4.2405 Y7.2179 
G01 X5.9195 Y7.2179 
G01 X6.0872 Y7.1845 
G01 X6.2086 Y7.1343 
G01 X7.8779 Y7.5059 
G01 X7.9352 Y7.5208 
G01 X7.9446 Y7.5207 
G01 X7.9538 Y7.5228 
G01 X8.0130 Y7.5202 
G01 X10.1722 Y7.5048 
G01 X10.3043 Y7.4684 
G01 X10.4224 Y7.3990 
G01 X11.2227 Y7.3989 
G01 X11.2645 Y7.3816 
G01 X11.2966 Y7.3495 
G01 X11.3139 Y7.3077 
G01 X11.3139 Y6.6623 
G01 X11.2966 Y6.6205 
G01 X11.2645 Y6.5884 
G01 X11.2227 Y6.5711 
G01 X10.4213 Y6.5711 
G01 X10.4165 Y6.5664 
G01 X10.2974 Y6.4987 
G01 X10.1648 Y6.4642 
G01 X8.0554 Y6.4793 
G01 X6.6839 Y6.1740 
G01 X6.6685 Y6.0968 
G01 X6.6031 Y5.9389 
G01 X6.5081 Y5.7967 
G01 X6.3873 Y5.6759 
G01 X6.2451 Y5.5809 
G01 X6.0872 Y5.5155 
G01 X5.9195 Y5.4821 
G01 X4.2405 Y5.4821 
G01 X4.0728 Y5.5155 
G01 X3.9149 Y5.5809 
G01 X3.7727 Y5.6759 
G00 Z2.0000  F3000 F3000
G00 X3.7727 Y8.2159  F3000 F3000
G01 Z-0.2000 F200.00 
G01 X3.6519 Y8.3367 F500.00 
G01 X3.5569 Y8.4789 
G01 X3.4915 Y8.6368 
G01 X3.4581 Y8.8045 
G01 X3.4581 Y8.9755 
G01 X3.4915 Y9.1432 
G01 X3.5569 Y9.3011 
G01 X3.6519 Y9.4433 
G01 X3.7727 Y9.5641 
G01 X3.9149 Y9.6591 
G01 X4.0728 Y9.7245 
G01 X4.2405 Y9.7579 
G01 X5.9195 Y9.7579 
G01 X6.0872 Y9.7245 
G01 X6.2451 Y9.6591 
G01 X6.3873 Y9.5641 
G01 X6.5081 Y9.4433 
G01 X6.6031 Y9.3011 
G01 X6.6685 Y9.1432 
G01 X6.6828 Y9.0713 
G01 X8.0557 Y8.7704 
G01 X10.1673 Y8.7755 
G01 X10.2997 Y8.7403 
G01 X10.4185 Y8.6721 
G01 X10.4217 Y8.6689 
G01 X11.2227 Y8.6689 
G01 X11.2645 Y8.6516 
G01 X11.2966 Y8.6195 
G01 X11.3139 Y8.5777 
G01 X11.3139 Y7.9323 
G01 X11.2966 Y7.8905 
G01 X11.2645 Y7.8584 
G01 X11.2227 Y7.8411 
G01 X10.4221 Y7.8411 
G01 X10.3020 Y7.7706 
G01 X10.1697 Y7.7349 
G01 X8.0126 Y7.7297 
G01 X7.9555 Y7.7271 
G01 X7.9443 Y7.7296 
G01 X7.9327 Y7.7295 
G01 X7.8775 Y7.7442 
G01 X6.2153 Y8.1085 
G01 X6.0872 Y8.0555 
G01 X5.9195 Y8.0221 
G01 X4.2405 Y8.0221 
G01 X4.0728 Y8.0555 
G01 X3.9149 Y8.1209 
G01 X3.7727 Y8.2159 
G00 Z2.0000  F3000 F3000
G00 X3.7727 Y10.7559  F3000 F3000
G01 Z-0.2000 F200.00 
G01 X3.6519 Y10.8767 F500.00 
G01 X3.5569 Y11.0189 
G01 X3.4915 Y11.1768 
G01 X3.4581 Y11.3445 
G01 X3.4581 Y11.5155 
G01 X3.4915 Y11.6832 
G01 X3.5569 Y11.8411 
G01 X3.6519 Y11.9833 
G01 X3.7727 Y12.1041 
G01 X3.9149 Y12.1991 
G01 X4.0728 Y12.2645 
G01 X4.2405 Y12.2979 
G01 X5.9195 Y12.2979 
G01 X6.0872 Y12.2645 
G01 X6.2451 Y12.1991 
G01 X6.3873 Y12.1041 
G01 X6.5081 Y11.9833 
G01 X6.6031 Y11.8411 
G01 X6.6685 Y11.6832 
G01 X6.7019 Y11.5155 
G01 X6.7019 Y11.3445 
G01 X6.6685 Y11.1768 
G01 X6.6031 Y11.0189 
G01 X6.5081 Y10.8767 
G01 X6.3873 Y10.7559 
G01 X6.2451 Y10.6609 
G01 X6.0872 Y10.5955 
G01 X5.9195 Y10.5621 
G01 X4.2405 Y10.5621 
G01 X4.0728 Y10.5955 
G01 X3.9149 Y10.6609 
G01 X3.7727 Y10.7559 
G00 Z2.0000  F3000 F3000
G00 X8.9355 Y9.9216  F3000 F3000
G01 Z-0.2000 F200.00 
G01 X8.9773 Y9.9389 F500.00 
G01 X11.2227 Y9.9389 
G01 X11.2645 Y9.9216 
G01 X11.2966 Y9.8895 
G01 X11.3139 Y9.8477 
G01 X11.3139 Y9.2023 
G01 X11.2966 Y9.1605 
G01 X11.2645 Y9.1284 
G01 X11.2227 Y9.1111 
G01 X8.9773 Y9.1111 
G01 X8.9355 Y9.1284 
G01 X8.9034 Y9.1605 
G01 X8.8861 Y9.2023 
G01 X8.8861 Y9.8477 
G01 X8.9034 Y9.8895 
G01 X8.9355 Y9.9216 
G00 Z2.0000  F3000 F3000
G00 X14.0091 Y9.9041  F3000 F3000
G01 Z-0.2000 F200.00 
G01 X14.0091 Y9.1459 F500.00 
G01 X14.0113 Y9.1437 
G01 X14.0703 Y9.0847 
G01 X14.0885 Y9.0532 
G01 X14.1121 Y9.0124 
G01 X14.1337 Y8.9317 
G01 X14.1337 Y8.8482 
G01 X14.1254 Y8.8175 
G01 X14.1121 Y8.7676 
G01 X14.1000 Y8.7466 
G01 X14.0703 Y8.6953 
G01 X14.0675 Y8.6924 
G01 X14.0113 Y8.6363 
G01 X14.0091 Y8.6341 
G01 X14.0091 Y7.8759 
G01 X14.0113 Y7.8737 
G01 X14.0703 Y7.8147 
G01 X14.1018 Y7.7602 
G01 X14.1121 Y7.7424 
G01 X14.1261 Y7.6900 
G01 X14.1337 Y7.6617 
G01 X14.1337 Y7.5782 
G01 X14.1121 Y7.4976 
G01 X14.0874 Y7.4549 
G01 X14.0703 Y7.4253 
G01 X14.0091 Y7.3641 
G01 X14.0091 Y6.6059 
G01 X14.0113 Y6.6037 
G01 X14.0703 Y6.5447 
G01 X14.1018 Y6.4902 
G01 X14.1121 Y6.4724 
G01 X14.1261 Y6.4200 
G01 X14.1337 Y6.3918 
G01 X14.1337 Y6.3083 
G01 X14.1121 Y6.2276 
G01 X14.0874 Y6.1849 
G01 X14.0703 Y6.1553 
G01 X14.0091 Y6.0941 
G01 X14.0091 Y5.3359 
G01 X14.1209 Y5.2241 
G01 X16.4791 Y5.2241 
G01 X16.5909 Y5.3359 
G01 X16.5909 Y6.0817 
G01 X16.5906 Y6.1222 
G01 X16.5909 Y6.1247 
G01 X16.6014 Y6.1639 
G01 X16.6116 Y6.2031 
G01 X16.6125 Y6.2053 
G01 X16.6328 Y6.2405 
G01 X16.6528 Y6.2757 
G01 X16.6830 Y6.3063 
G01 X16.7113 Y6.3352 
G01 X16.7483 Y6.3569 
G01 X16.7833 Y6.3775 
G01 X16.7856 Y6.3784 
G01 X16.8247 Y6.3889 
G01 X16.8638 Y6.3997 
G01 X16.8662 Y6.4000 
G01 X16.9068 Y6.4000 
G01 X17.1481 Y6.4019 
G01 X17.1826 Y6.4037 
G01 X17.1897 Y6.4022 
G01 X17.1971 Y6.4023 
G01 X17.2305 Y6.3936 
G01 X18.4742 Y6.1303 
G01 X18.5034 Y6.1264 
G01 X18.5149 Y6.1216 
G01 X18.5271 Y6.1191 
G01 X18.5533 Y6.1057 
G01 X18.5805 Y6.0945 
G01 X18.5904 Y6.0869 
G01 X18.6015 Y6.0812 
G01 X18.6234 Y6.0615 
G01 X18.6468 Y6.0436 
G01 X18.6544 Y6.0337 
G01 X18.6636 Y6.0254 
G01 X18.6797 Y6.0007 
G01 X18.6976 Y5.9774 
G01 X18.7024 Y5.9659 
G01 X18.7092 Y5.9554 
G01 X18.7183 Y5.9274 
G01 X18.7649 Y5.8148 
G01 X19.0308 Y5.5489 
G01 X19.3780 Y5.4051 
G01 X21.2619 Y5.4051 
G01 X21.6092 Y5.5489 
G01 X21.8750 Y5.8148 
G01 X22.0189 Y6.1620 
G01 X22.0189 Y6.5379 
G01 X21.8750 Y6.8852 
G01 X21.6092 Y7.1510 
G01 X21.2619 Y7.2949 
G01 X19.3780 Y7.2949 
G01 X19.2804 Y7.2544 
G01 X19.2699 Y7.2476 
G01 X19.2419 Y7.2385 
G01 X19.2148 Y7.2273 
G01 X19.2024 Y7.2256 
G01 X19.1905 Y7.2218 
G01 X19.1612 Y7.2202 
G01 X19.1320 Y7.2164 
G01 X19.1196 Y7.2180 
G01 X19.1071 Y7.2173 
G01 X19.0784 Y7.2234 
G01 X19.0492 Y7.2273 
G01 X19.0377 Y7.2320 
G01 X18.8451 Y7.2728 
G01 X18.8337 Y7.2730 
G01 X18.8043 Y7.2814 
G01 X18.7745 Y7.2878 
G01 X18.7644 Y7.2929 
G01 X18.7534 Y7.2961 
G01 X18.7273 Y7.3118 
G01 X18.7001 Y7.3256 
G01 X18.6916 Y7.3332 
G01 X18.6819 Y7.3391 
G01 X18.6607 Y7.3610 
G01 X18.6380 Y7.3814 
G01 X18.6318 Y7.3910 
G01 X18.6239 Y7.3992 
G01 X18.6091 Y7.4258 
G01 X18.5925 Y7.4514 
G01 X18.5889 Y7.4622 
G01 X18.5834 Y7.4722 
G01 X18.5760 Y7.5018 
G01 X18.5666 Y7.5308 
G01 X18.5660 Y7.5422 
G01 X18.5632 Y7.5532 
G01 X18.5638 Y7.5837 
G01 X18.5622 Y7.6142 
G01 X18.5645 Y7.6253 
G01 X18.5647 Y7.6367 
G01 X18.5731 Y7.6660 
G01 X18.5795 Y7.6959 
G01 X18.5846 Y7.7060 
G01 X18.5878 Y7.7169 
G01 X18.6035 Y7.7431 
G01 X18.6173 Y7.7703 
G01 X18.6249 Y7.7787 
G01 X18.6308 Y7.7885 
G01 X18.6527 Y7.8097 
G01 X18.6731 Y7.8324 
G01 X18.6827 Y7.8386 
G01 X18.6909 Y7.8465 
G01 X18.7175 Y7.8613 
G01 X18.7431 Y7.8779 
G01 X18.7539 Y7.8814 
G01 X18.7639 Y7.8869 
G01 X18.7935 Y7.8943 
G01 X18.8225 Y7.9038 
G01 X18.8339 Y7.9044 
G01 X19.1108 Y7.9733 
G01 X19.1276 Y7.9803 
G01 X19.1512 Y7.9834 
G01 X19.1742 Y7.9891 
G01 X19.1924 Y7.9888 
G01 X19.2103 Y7.9912 
G01 X19.2339 Y7.9881 
G01 X19.2577 Y7.9876 
G01 X19.2751 Y7.9826 
G01 X19.2931 Y7.9803 
G01 X19.3151 Y7.9712 
G01 X19.3380 Y7.9646 
G01 X19.3535 Y7.9553 
G01 X19.3780 Y7.9451 
G01 X21.2619 Y7.9451 
G01 X21.6092 Y8.0889 
G01 X21.8750 Y8.3548 
G01 X22.0189 Y8.7020 
G01 X22.0189 Y9.0779 
G01 X21.8750 Y9.4252 
G01 X21.6092 Y9.6910 
G01 X21.2619 Y9.8349 
G01 X19.3780 Y9.8349 
G01 X19.0308 Y9.6910 
G01 X18.7649 Y9.4252 
G01 X18.6912 Y9.2473 
G01 X18.6847 Y9.2244 
G01 X18.6753 Y9.2089 
G01 X18.6684 Y9.1921 
G01 X18.6539 Y9.1733 
G01 X18.6417 Y9.1529 
G01 X18.6286 Y9.1403 
G01 X18.6176 Y9.1259 
G01 X18.5987 Y9.1114 
G01 X18.5816 Y9.0949 
G01 X18.5657 Y9.0861 
G01 X18.5513 Y9.0751 
G01 X18.5294 Y9.0660 
G01 X18.5085 Y9.0544 
G01 X18.4909 Y9.0501 
G01 X18.4742 Y9.0431 
G01 X18.4506 Y9.0400 
G01 X17.7178 Y8.8575 
G01 X17.6799 Y8.8474 
G01 X17.6773 Y8.8474 
G01 X17.6749 Y8.8468 
G01 X17.6356 Y8.8475 
G01 X16.9070 Y8.8490 
G01 X16.8662 Y8.8490 
G01 X16.8252 Y8.8600 
G01 X16.7856 Y8.8706 
G01 X16.7491 Y8.8917 
G01 X16.7133 Y8.9124 
G01 X16.6837 Y8.9420 
G01 X16.6543 Y8.9714 
G01 X16.6332 Y9.0080 
G01 X16.6125 Y9.0437 
G01 X16.6016 Y9.0845 
G01 X16.5909 Y9.1244 
G01 X16.5909 Y9.1667 
G01 X16.5909 Y9.9041 
G01 X16.4791 Y10.0159 
G01 X14.1209 Y10.0159 
G01 X14.0091 Y9.9041 
G00 Z2.0000  F3000 F3000
G00 X14.1034 Y9.8895  F3000 F3000
G01 Z-0.2000 F200.00 
G01 X14.1355 Y9.9216 F500.00 
G01 X14.1773 Y9.9389 
G01 X16.4227 Y9.9389 
G01 X16.4645 Y9.9216 
G01 X16.4966 Y9.8895 
G01 X16.5139 Y9.8477 
G01 X16.5139 Y9.2023 
G01 X16.4966 Y9.1605 
G01 X16.4645 Y9.1284 
G01 X16.4227 Y9.1111 
G01 X14.1773 Y9.1111 
G01 X14.1355 Y9.1284 
G01 X14.1034 Y9.1605 
G01 X14.0861 Y9.2023 
G01 X14.0861 Y9.8477 
G01 X14.1034 Y9.8895 
G00 Z2.0000  F3000 F3000
G00 X14.1355 Y8.6516  F3000 F3000
G01 Z-0.2000 F200.00 
G01 X14.1773 Y8.6689 F500.00 
G01 X14.9783 Y8.6689 
G01 X14.9814 Y8.6720 
G01 X15.1002 Y8.7402 
G01 X15.2326 Y8.7754 
G01 X17.6867 Y8.7704 
G01 X18.7079 Y9.0247 
G01 X18.7315 Y9.1432 
G01 X18.7969 Y9.3011 
G01 X18.8919 Y9.4433 
G01 X19.0127 Y9.5641 
G01 X19.1549 Y9.6591 
G01 X19.3128 Y9.7245 
G01 X19.4805 Y9.7579 
G01 X21.1595 Y9.7579 
G01 X21.3272 Y9.7245 
G01 X21.4851 Y9.6591 
G01 X21.6273 Y9.5641 
G01 X21.7481 Y9.4433 
G01 X21.8431 Y9.3011 
G01 X21.9085 Y9.1432 
G01 X21.9419 Y8.9755 
G01 X21.9419 Y8.8045 
G01 X21.9085 Y8.6368 
G01 X21.8431 Y8.4789 
G01 X21.7481 Y8.3367 
G01 X21.6273 Y8.2159 
G01 X21.4851 Y8.1209 
G01 X21.3272 Y8.0555 
G01 X21.1595 Y8.0221 
G01 X19.4805 Y8.0221 
G01 X19.3128 Y8.0555 
G01 X19.2412 Y8.0852 
G01 X17.8795 Y7.7461 
G01 X17.8174 Y7.7296 
G01 X17.8133 Y7.7296 
G01 X17.8093 Y7.7286 
G01 X17.7447 Y7.7297 
G01 X15.2304 Y7.7348 
G01 X15.0982 Y7.7706 
G01 X14.9797 Y7.8393 
G01 X14.1773 Y7.8411 
G01 X14.1355 Y7.8584 
G01 X14.1034 Y7.8905 
G01 X14.0861 Y7.9323 
G01 X14.0861 Y8.5777 
G01 X14.1034 Y8.6195 
G01 X14.1355 Y8.6516 
G00 Z2.0000  F3000 F3000
G00 X14.1355 Y7.3816  F3000 F3000
G01 Z-0.2000 F200.00 
G01 X14.1773 Y7.3989 F500.00 
G01 X14.9774 Y7.3989 
G01 X15.0954 Y7.4683 
G01 X15.2275 Y7.5048 
G01 X17.2342 Y7.5202 
G01 X17.2908 Y7.5232 
G01 X17.3025 Y7.5207 
G01 X17.3145 Y7.5208 
G01 X17.3694 Y7.5066 
G01 X19.1699 Y7.1253 
G01 X19.3128 Y7.1845 
G01 X19.4805 Y7.2179 
G01 X21.1595 Y7.2179 
G01 X21.3272 Y7.1845 
G01 X21.4851 Y7.1191 
G01 X21.6273 Y7.0241 
G01 X21.7481 Y6.9033 
G01 X21.8431 Y6.7611 
G01 X21.9085 Y6.6032 
G01 X21.9419 Y6.4355 
G01 X21.9419 Y6.2645 
G01 X21.9085 Y6.0968 
G01 X21.8431 Y5.9389 
G01 X21.7481 Y5.7967 
G01 X21.6273 Y5.6759 
G01 X21.4851 Y5.5809 
G01 X21.3272 Y5.5155 
G01 X21.1595 Y5.4821 
G01 X19.4805 Y5.4821 
G01 X19.3128 Y5.5155 
G01 X19.1549 Y5.5809 
G01 X19.0127 Y5.6759 
G01 X18.8919 Y5.7967 
G01 X18.7969 Y5.9389 
G01 X18.7315 Y6.0968 
G01 X18.7195 Y6.1570 
G01 X17.1975 Y6.4793 
G01 X15.2355 Y6.4642 
G01 X15.1029 Y6.4986 
G01 X14.9837 Y6.5662 
G01 X14.9788 Y6.5711 
G01 X14.1773 Y6.5711 
G01 X14.1355 Y6.5884 
G01 X14.1034 Y6.6205 
G01 X14.0861 Y6.6623 
G01 X14.0861 Y7.3077 
G01 X14.1034 Y7.3495 
G01 X14.1355 Y7.3816 
G00 Z2.0000  F3000 F3000
G00 X14.1355 Y6.1116  F3000 F3000
G01 Z-0.2000 F200.00 
G01 X14.1773 Y6.1289 F500.00 
G01 X16.4227 Y6.1289 
G01 X16.4645 Y6.1116 
G01 X16.4966 Y6.0795 
G01 X16.5139 Y6.0377 
G01 X16.5139 Y5.3923 
G01 X16.4966 Y5.3505 
G01 X16.4645 Y5.3184 
G01 X16.4227 Y5.3011 
G01 X14.1773 Y5.3011 
G01 X14.1355 Y5.3184 
G01 X14.1034 Y5.3505 
G01 X14.0861 Y5.3923 
G01 X14.0861 Y6.0377 
G01 X14.1034 Y6.0795 
G01 X14.1355 Y6.1116 
G00 Z2.0000  F3000 F3000
G00 X11.3401 Y5.3979  F3000 F3000
G01 Z-0.2000 F200.00 
G01 X11.3139 Y5.3979 F500.00 
G01 X11.3139 Y5.3923 
G01 X11.2966 Y5.3505 
G01 X11.2645 Y5.3184 
G01 X11.2227 Y5.3011 
G01 X10.4205 Y5.3011 
G01 X10.4171 Y5.2979 
G01 X10.4171 Y5.2749 
G01 X11.2184 Y5.2749 
G01 X11.2541 Y5.2844 
G01 X11.2860 Y5.3029 
G01 X11.3121 Y5.3290 
G01 X11.3306 Y5.3609 
G01 X11.3401 Y5.3965 
G00 Z2.0000  F3000 F3000
G00 X6.6308 Y4.2157  F3000 F3000
G01 Z-0.2000 F200.00 
G01 X6.6109 Y4.2024 F500.00 
G01 X6.6227 Y4.1739 
G01 X6.6521 Y4.1739 
G01 X6.6308 Y4.2157 
G00 Z2.0000  F3000 F3000
G00 X5.4855 Y4.7041  F3000 F3000
G01 Z-0.2000 F200.00 
G01 X5.4439 Y4.7041 F500.00 
G01 X5.4439 Y4.6779 
G01 X5.4461 Y4.6779 
G01 X5.4855 Y4.7041 
G00 Z2.0000  F3000 F3000
G00 X19.0127 Y4.4841  F3000 F3000
G01 Z-0.2000 F200.00 
G01 X19.1549 Y4.5791 F500.00 
G01 X19.3128 Y4.6445 
G01 X19.4805 Y4.6779 
G01 X21.1595 Y4.6779 
G01 X21.3272 Y4.6445 
G01 X21.4851 Y4.5791 
G01 X21.6273 Y4.4841 
G01 X21.7481 Y4.3633 
G01 X21.8431 Y4.2211 
G01 X21.9085 Y4.0632 
G01 X21.9419 Y3.8955 
G01 X21.9419 Y3.7245 
G01 X21.9085 Y3.5568 
G01 X21.8431 Y3.3989 
G01 X21.7481 Y3.2567 
G01 X21.6273 Y3.1359 
G01 X21.4851 Y3.0409 
G01 X21.3272 Y2.9755 
G01 X21.1595 Y2.9421 
G01 X19.4805 Y2.9421 
G01 X19.3128 Y2.9755 
G01 X19.1549 Y3.0409 
G01 X19.0127 Y3.1359 
G01 X18.8919 Y3.2567 
G01 X18.7969 Y3.3989 
G01 X18.7315 Y3.5568 
G01 X18.6981 Y3.7245 
G01 X18.6981 Y3.8955 
G01 X18.7315 Y4.0632 
G01 X18.7969 Y4.2211 
G01 X18.8919 Y4.3633 
G01 X19.0127 Y4.4841 
G00 Z2.0000  F3000 F3000
G00 X19.0127 Y10.7559  F3000 F3000
G01 Z-0.2000 F200.00 
G01 X18.8919 Y10.8767 F500.00 
G01 X18.7969 Y11.0189 
G01 X18.7315 Y11.1768 
G01 X18.6981 Y11.3445 
G01 X18.6981 Y11.5155 
G01 X18.7315 Y11.6832 
G01 X18.7969 Y11.8411 
G01 X18.8919 Y11.9833 
G01 X19.0127 Y12.1041 
G01 X19.1549 Y12.1991 
G01 X19.3128 Y12.2645 
G01 X19.4805 Y12.2979 
G01 X21.1595 Y12.2979 
G01 X21.3272 Y12.2645 
G01 X21.4851 Y12.1991 
G01 X21.6273 Y12.1041 
G01 X21.7481 Y11.9833 
G01 X21.8431 Y11.8411 
G01 X21.9085 Y11.6832 
G01 X21.9419 Y11.5155 
G01 X21.9419 Y11.3445 
G01 X21.9085 Y11.1768 
G01 X21.8431 Y11.0189 
G01 X21.7481 Y10.8767 
G01 X21.6273 Y10.7559 
G01 X21.4851 Y10.6609 
G01 X21.3272 Y10.5955 
G01 X21.1595 Y10.5621 
G01 X19.4805 Y10.5621 
G01 X19.3128 Y10.5955 
G01 X19.1549 Y10.6609 
G01 X19.0127 Y10.7559 
G00 Z2.0000  F3000 F3000
G00 X2.4442 Y2.5256  F3000 F3000
G01 Z-0.2000 F200.00 
G01 X2.3867 Y2.6253 F500.00 
G01 X2.3569 Y2.7365 
G01 X2.3569 Y12.5035 
G01 X2.3867 Y12.6147 
G01 X2.4442 Y12.7144 
G01 X2.5256 Y12.7958 
G01 X2.6253 Y12.8533 
G01 X2.7365 Y12.8831 
G01 X3.6148 Y12.8831 
G01 X3.7260 Y12.8533 
G01 X3.7633 Y12.8318 
G01 X3.8257 Y12.7958 
G01 X3.9070 Y12.7144 
G01 X3.9633 Y12.6169 
G01 X3.9646 Y12.6147 
G01 X3.9944 Y12.5035 
G01 X3.9944 Y12.3885 
G01 X3.9864 Y12.3586 
G01 X4.0378 Y12.3799 
G01 X4.2287 Y12.4179 
G01 X5.9313 Y12.4179 
G01 X6.1222 Y12.3799 
G01 X6.1736 Y12.3586 
G01 X6.1656 Y12.3885 
G01 X6.1656 Y12.5035 
G01 X6.1954 Y12.6147 
G01 X6.2530 Y12.7144 
G01 X6.3343 Y12.7958 
G01 X6.3983 Y12.8327 
G01 X6.4340 Y12.8533 
G01 X6.5452 Y12.8831 
G01 X18.8548 Y12.8831 
G01 X18.9660 Y12.8533 
G01 X19.0033 Y12.8318 
G01 X19.0657 Y12.7958 
G01 X19.1470 Y12.7144 
G01 X19.2033 Y12.6169 
G01 X19.2046 Y12.6147 
G01 X19.2344 Y12.5035 
G01 X19.2344 Y12.3885 
G01 X19.2264 Y12.3586 
G01 X19.2778 Y12.3799 
G01 X19.4687 Y12.4179 
G01 X21.1713 Y12.4179 
G01 X21.3622 Y12.3799 
G01 X21.4136 Y12.3586 
G01 X21.4056 Y12.3885 
G01 X21.4056 Y12.5035 
G01 X21.4354 Y12.6147 
G01 X21.4930 Y12.7144 
G01 X21.5743 Y12.7958 
G01 X21.6383 Y12.8327 
G01 X21.6740 Y12.8533 
G01 X21.7852 Y12.8831 
G01 X22.6635 Y12.8831 
G01 X22.7747 Y12.8533 
G01 X22.8744 Y12.7958 
G01 X22.9558 Y12.7144 
G01 X23.0133 Y12.6147 
G01 X23.0431 Y12.5035 
G01 X23.0431 Y2.7365 
G01 X23.0133 Y2.6253 
G01 X22.9558 Y2.5256 
G01 X22.8744 Y2.4442 
G01 X22.7747 Y2.3867 
G01 X22.6635 Y2.3569 
G01 X21.7852 Y2.3569 
G01 X21.6740 Y2.3867 
G01 X21.6367 Y2.4082 
G01 X21.5743 Y2.4442 
G01 X21.4930 Y2.5256 
G01 X21.4367 Y2.6231 
G01 X21.4354 Y2.6253 
G01 X21.4056 Y2.7365 
G01 X21.4056 Y2.8515 
G01 X21.4136 Y2.8814 
G01 X21.3622 Y2.8601 
G01 X21.1713 Y2.8221 
G01 X19.4687 Y2.8221 
G01 X19.2778 Y2.8601 
G01 X19.2264 Y2.8814 
G01 X19.2344 Y2.8515 
G01 X19.2344 Y2.7365 
G01 X19.2046 Y2.6253 
G01 X19.1470 Y2.5256 
G01 X19.0657 Y2.4442 
G01 X19.0017 Y2.4073 
G01 X18.9660 Y2.3867 
G01 X18.8548 Y2.3569 
G01 X6.5191 Y2.3569 
G01 X6.4847 Y2.3533 
G01 X6.4618 Y2.3569 
G01 X6.4387 Y2.3569 
G01 X6.4052 Y2.3659 
G01 X6.3710 Y2.3713 
G01 X6.3498 Y2.3807 
G01 X6.3275 Y2.3867 
G01 X6.2975 Y2.4040 
G01 X6.2658 Y2.4181 
G01 X6.2479 Y2.4327 
G01 X6.2278 Y2.4442 
G01 X6.2033 Y2.4687 
G01 X6.1764 Y2.4905 
G01 X6.1628 Y2.5092 
G01 X6.1464 Y2.5256 
G01 X6.1291 Y2.5556 
G01 X6.1088 Y2.5836 
G01 X6.1005 Y2.6052 
G01 X6.0889 Y2.6253 
G01 X6.0799 Y2.6587 
G01 X6.0675 Y2.6911 
G01 X6.0651 Y2.7141 
G01 X6.0591 Y2.7365 
G01 X6.0591 Y2.7711 
G01 X6.0555 Y2.8055 
G01 X6.0591 Y2.8284 
G01 X6.0591 Y2.8475 
G01 X5.9313 Y2.8221 
G01 X4.2287 Y2.8221 
G01 X4.1009 Y2.8475 
G01 X4.1009 Y2.8284 
G01 X4.1045 Y2.8055 
G01 X4.1009 Y2.7711 
G01 X4.1009 Y2.7365 
G01 X4.0949 Y2.7141 
G01 X4.0925 Y2.6911 
G01 X4.0801 Y2.6587 
G01 X4.0711 Y2.6253 
G01 X4.0595 Y2.6052 
G01 X4.0512 Y2.5836 
G01 X4.0309 Y2.5556 
G01 X4.0136 Y2.5256 
G01 X3.9972 Y2.5092 
G01 X3.9836 Y2.4905 
G01 X3.9567 Y2.4687 
G01 X3.9322 Y2.4442 
G01 X3.9121 Y2.4327 
G01 X3.8942 Y2.4181 
G01 X3.8625 Y2.4040 
G01 X3.8325 Y2.3867 
G01 X3.8102 Y2.3807 
G01 X3.7890 Y2.3713 
G01 X3.7548 Y2.3659 
G01 X3.7213 Y2.3569 
G01 X3.6982 Y2.3569 
G01 X3.6753 Y2.3533 
G01 X3.6409 Y2.3569 
G01 X2.7365 Y2.3569 
G01 X2.6253 Y2.3867 
G01 X2.5256 Y2.4442 
G01 X2.4442 Y2.5256 
G00 Z2.0000  F3000 F3000
G00 X6.9855 Y7.4301  F3000 F3000
G01 Z-0.2000 F200.00 
G01 X7.8087 Y7.6134 F500.00 
G01 X7.8176 Y7.6170 
G01 X7.8596 Y7.6250 
G01 X7.8147 Y7.6339 
G01 X7.8082 Y7.6365 
G01 X6.9848 Y7.8170 
G01 X6.9892 Y7.8102 
G01 X6.9951 Y7.7915 
G01 X7.0042 Y7.7741 
G01 X7.0125 Y7.7369 
G01 X7.0240 Y7.7005 
G01 X7.0249 Y7.6809 
G01 X7.0292 Y7.6617 
G01 X7.0276 Y7.6236 
G01 X7.0293 Y7.5855 
G01 X7.0251 Y7.5664 
G01 X7.0243 Y7.5467 
G01 X7.0129 Y7.5103 
G01 X7.0047 Y7.4731 
G01 X6.9957 Y7.4557 
G01 X6.9898 Y7.4369 
G01 X6.9855 Y7.4301 
G00 Z2.0000  F3000 F3000
G00 X8.8369 Y8.8923  F3000 F3000
G01 Z-0.2000 F200.00 
G01 X10.1615 Y8.8954 F500.00 
G01 X10.2853 Y8.8711 
G01 X10.4019 Y8.8231 
G01 X10.4535 Y8.7889 
G01 X11.1580 Y8.7889 
G01 X11.1463 Y8.8324 
G01 X11.1463 Y8.9475 
G01 X11.1546 Y8.9786 
G01 X11.1580 Y8.9911 
G01 X8.9535 Y8.9911 
G01 X8.9034 Y9.0118 
G01 X8.8997 Y8.9978 
G01 X8.8707 Y8.9474 
G01 X8.8424 Y8.8980 
G01 X8.8369 Y8.8923 
G00 Z2.0000  F3000 F3000
G00 X10.1906 Y7.6201  F3000 F3000
G01 Z-0.2000 F200.00 
G01 X10.2912 Y7.5993 F500.00 
G01 X10.4073 Y7.5502 
G01 X10.4535 Y7.5189 
G01 X11.1580 Y7.5189 
G01 X11.1540 Y7.5339 
G01 X11.1463 Y7.5625 
G01 X11.1463 Y7.6776 
G01 X11.1580 Y7.7211 
G01 X10.4535 Y7.7211 
G01 X10.4046 Y7.6883 
G01 X10.2882 Y7.6398 
G01 X10.1906 Y7.6201 
G00 Z2.0000  F3000 F3000
G00 X10.1908 Y6.3505  F3000 F3000
G01 Z-0.2000 F200.00 
G01 X10.2970 Y6.3275 F500.00 
G01 X10.4127 Y6.2773 
G01 X10.4537 Y6.2489 
G01 X11.1124 Y6.2489 
G01 X11.1104 Y6.2565 
G01 X11.1104 Y6.3144 
G01 X11.1104 Y6.3716 
G01 X11.1220 Y6.4148 
G01 X11.1317 Y6.4511 
G01 X10.4535 Y6.4511 
G01 X10.3992 Y6.4154 
G01 X10.2824 Y6.3680 
G01 X10.1908 Y6.3505 
G00 Z2.0000  F3000 F3000
G00 X14.2537 Y6.4075  F3000 F3000
G01 Z-0.2000 F200.00 
G01 X14.2537 Y6.2925 F500.00 
G01 X14.2454 Y6.2614 
G01 X14.2420 Y6.2489 
G01 X16.4465 Y6.2489 
G01 X16.4944 Y6.2291 
G01 X16.4994 Y6.2485 
G01 X16.5007 Y6.2517 
G01 X16.5286 Y6.3000 
G01 X16.5562 Y6.3486 
G01 X16.5582 Y6.3513 
G01 X16.5613 Y6.3544 
G01 X15.2419 Y6.3442 
G01 X15.1180 Y6.3679 
G01 X15.0011 Y6.4153 
G01 X14.9465 Y6.4511 
G01 X14.2420 Y6.4511 
G01 X14.2537 Y6.4075 
G00 Z2.0000  F3000 F3000
G00 X14.2420 Y7.5189  F3000 F3000
G01 Z-0.2000 F200.00 
G01 X14.9465 Y7.5189 F500.00 
G01 X14.9923 Y7.5501 
G01 X15.1085 Y7.5992 
G01 X15.2094 Y7.6201 
G01 X15.1120 Y7.6397 
G01 X14.9955 Y7.6882 
G01 X14.9465 Y7.7211 
G01 X14.2420 Y7.7211 
G01 X14.2537 Y7.6776 
G01 X14.2537 Y7.5625 
G01 X14.2454 Y7.5314 
G01 X14.2420 Y7.5189 
G00 Z2.0000  F3000 F3000
G00 X14.2420 Y8.7889  F3000 F3000
G01 Z-0.2000 F200.00 
G01 X14.9465 Y8.7889 F500.00 
G01 X14.9979 Y8.8230 
G01 X15.1145 Y8.8711 
G01 X15.2382 Y8.8954 
G01 X16.5632 Y8.8927 
G01 X16.5582 Y8.8977 
G01 X16.5293 Y8.9479 
G01 X16.5007 Y8.9974 
G01 X16.4967 Y9.0119 
G01 X16.4465 Y8.9911 
G01 X14.2420 Y8.9911 
G01 X14.2460 Y8.9761 
G01 X14.2537 Y8.9475 
G01 X14.2537 Y8.8324 
G01 X14.2420 Y8.7889 
G00 Z2.0000  F3000 F3000
G00 X17.4587 Y7.6103  F3000 F3000
G01 Z-0.2000 F200.00 
G01 X18.4877 Y7.3924 F500.00 
G01 X18.4833 Y7.3992 
G01 X18.4784 Y7.4141 
G01 X18.4708 Y7.4279 
G01 X18.4606 Y7.4687 
G01 X18.4476 Y7.5086 
G01 X18.4468 Y7.5243 
G01 X18.4430 Y7.5396 
G01 X18.4437 Y7.5816 
G01 X18.4415 Y7.6236 
G01 X18.4447 Y7.6389 
G01 X18.4450 Y7.6546 
G01 X18.4566 Y7.6950 
G01 X18.4653 Y7.7362 
G01 X18.4724 Y7.7502 
G01 X18.4768 Y7.7652 
G01 X18.4809 Y7.7722 
G01 X17.9504 Y7.6400 
G01 X17.9355 Y7.6339 
G01 X17.8892 Y7.6248 
G01 X17.8435 Y7.6134 
G01 X17.8275 Y7.6127 
G01 X17.8118 Y7.6096 
G01 X17.7646 Y7.6097 
G01 X17.7175 Y7.6074 
G01 X17.7017 Y7.6098 
G01 X17.4587 Y7.6103 
G00 Z2.0000  F3000 F3000
G00 X2.3482 Y2.4519  F3000 F3000
G01 Z-0.2000 F200.00 
G01 X2.2749 Y2.5790 F500.00 
G01 X2.2369 Y2.7207 
G01 X2.2369 Y12.5193 
G01 X2.2749 Y12.6610 
G01 X2.3482 Y12.7881 
G01 X2.4519 Y12.8918 
G01 X2.5790 Y12.9651 
G01 X2.7207 Y13.0031 
G01 X3.6306 Y13.0031 
G01 X3.7723 Y12.9651 
G01 X3.8993 Y12.8918 
G01 X4.0031 Y12.7881 
G01 X4.0350 Y12.7328 
G01 X4.0764 Y12.6610 
G01 X4.1144 Y12.5193 
G01 X4.2388 Y12.5379 
G01 X5.9212 Y12.5379 
G01 X6.0456 Y12.5182 
G01 X6.0836 Y12.6610 
G01 X6.1269 Y12.7360 
G01 X6.1569 Y12.7881 
G01 X6.2607 Y12.8918 
G01 X6.3877 Y12.9651 
G01 X6.5294 Y13.0031 
G01 X18.8706 Y13.0031 
G01 X19.0123 Y12.9651 
G01 X19.1393 Y12.8918 
G01 X19.2431 Y12.7881 
G01 X19.2750 Y12.7328 
G01 X19.3164 Y12.6610 
G01 X19.3544 Y12.5193 
G01 X19.4788 Y12.5379 
G01 X21.1612 Y12.5379 
G01 X21.2856 Y12.5182 
G01 X21.3236 Y12.6610 
G01 X21.3669 Y12.7360 
G01 X21.3969 Y12.7881 
G01 X21.5007 Y12.8918 
G01 X21.6277 Y12.9651 
G01 X21.7694 Y13.0031 
G01 X22.6793 Y13.0031 
G01 X22.8210 Y12.9651 
G01 X22.9481 Y12.8918 
G01 X23.0518 Y12.7881 
G01 X23.1251 Y12.6610 
G01 X23.1631 Y12.5193 
G01 X23.1631 Y2.7207 
G01 X23.1251 Y2.5790 
G01 X23.0518 Y2.4519 
G01 X22.9481 Y2.3482 
G01 X22.8210 Y2.2749 
G01 X22.6793 Y2.2369 
G01 X21.7694 Y2.2369 
G01 X21.6277 Y2.2749 
G01 X21.5007 Y2.3482 
G01 X21.3969 Y2.4519 
G01 X21.3650 Y2.5072 
G01 X21.3236 Y2.5790 
G01 X21.2856 Y2.7207 
G01 X21.1612 Y2.7021 
G01 X19.4788 Y2.7021 
G01 X19.3544 Y2.7218 
G01 X19.3164 Y2.5790 
G01 X19.2731 Y2.5040 
G01 X19.2431 Y2.4519 
G01 X19.1393 Y2.3482 
G01 X19.0123 Y2.2749 
G01 X18.8706 Y2.2369 
G01 X6.5254 Y2.2369 
G01 X6.4815 Y2.2323 
G01 X6.4523 Y2.2369 
G01 X6.4229 Y2.2369 
G01 X6.3802 Y2.2483 
G01 X6.3366 Y2.2552 
G01 X6.3097 Y2.2672 
G01 X6.2812 Y2.2749 
G01 X6.2429 Y2.2969 
G01 X6.2026 Y2.3149 
G01 X6.1797 Y2.3335 
G01 X6.1541 Y2.3482 
G01 X6.1229 Y2.3794 
G01 X6.0886 Y2.4072 
G01 X6.0713 Y2.4311 
G01 X6.0504 Y2.4519 
G01 X6.0283 Y2.4902 
G01 X6.0024 Y2.5259 
G01 X5.9918 Y2.5534 
G01 X5.9771 Y2.5790 
G01 X5.9656 Y2.6216 
G01 X5.9498 Y2.6628 
G01 X5.9467 Y2.6922 
G01 X5.9431 Y2.7056 
G01 X5.9212 Y2.7021 
G01 X4.2388 Y2.7021 
G01 X4.2168 Y2.7056 
G01 X4.2133 Y2.6922 
G01 X4.2102 Y2.6628 
G01 X4.1944 Y2.6216 
G01 X4.1829 Y2.5790 
G01 X4.1682 Y2.5534 
G01 X4.1576 Y2.5259 
G01 X4.1317 Y2.4902 
G01 X4.1096 Y2.4519 
G01 X4.0887 Y2.4311 
G01 X4.0714 Y2.4072 
G01 X4.0371 Y2.3794 
G01 X4.0059 Y2.3482 
G01 X3.9803 Y2.3335 
G01 X3.9574 Y2.3149 
G01 X3.9171 Y2.2969 
G01 X3.8788 Y2.2749 
G01 X3.8503 Y2.2672 
G01 X3.8234 Y2.2552 
G01 X3.7798 Y2.2483 
G01 X3.7371 Y2.2369 
G01 X3.7076 Y2.2369 
G01 X3.6785 Y2.2323 
G01 X3.6346 Y2.2369 
G01 X2.7207 Y2.2369 
G01 X2.5790 Y2.2749 
G01 X2.4519 Y2.3482 
G01 X2.3482 Y2.4519 
G00 Z2.0000  F3000 F3000
G00 X7.1493 Y7.5895  F3000 F3000
G01 Z-0.2000 F200.00 
G01 X7.3045 Y7.6241 F500.00 
G01 X7.1492 Y7.6581 
G01 X7.1477 Y7.6238 
G01 X7.1493 Y7.5895 
G00 Z2.0000  F3000 F3000
G00 X18.1945 Y7.5772  F3000 F3000
G01 Z-0.2000 F200.00 
G01 X18.3231 Y7.5499 F500.00 
G01 X18.3237 Y7.5795 
G01 X18.3221 Y7.6090 
G01 X18.1945 Y7.5772 
G00 Z2.0000  F3000 F3000
G00 X2.2681 Y2.3624  F3000 F3000
G01 Z-0.2000 F200.00 
G01 X2.1940 Y2.4733 F500.00 
G01 X2.1429 Y2.5965 
G01 X2.1169 Y2.7273 
G01 X2.1169 Y12.5127 
G01 X2.1429 Y12.6435 
G01 X2.1940 Y12.7667 
G01 X2.2681 Y12.8776 
G01 X2.3624 Y12.9719 
G01 X2.4733 Y13.0460 
G01 X2.5965 Y13.0971 
G01 X2.7273 Y13.1231 
G01 X3.6240 Y13.1231 
G01 X3.7548 Y13.0971 
G01 X3.8780 Y13.0460 
G01 X3.9889 Y12.9719 
G01 X4.0832 Y12.8776 
G01 X4.1573 Y12.7667 
G01 X4.2040 Y12.6539 
G01 X4.2294 Y12.6579 
G01 X5.9306 Y12.6579 
G01 X5.9559 Y12.6539 
G01 X6.0027 Y12.7667 
G01 X6.0768 Y12.8776 
G01 X6.1711 Y12.9719 
G01 X6.2820 Y13.0460 
G01 X6.4052 Y13.0971 
G01 X6.5360 Y13.1231 
G01 X18.8640 Y13.1231 
G01 X18.9948 Y13.0971 
G01 X19.1180 Y13.0460 
G01 X19.2289 Y12.9719 
G01 X19.3232 Y12.8776 
G01 X19.3973 Y12.7667 
G01 X19.4440 Y12.6539 
G01 X19.4694 Y12.6579 
G01 X21.1706 Y12.6579 
G01 X21.1959 Y12.6539 
G01 X21.2427 Y12.7667 
G01 X21.3168 Y12.8776 
G01 X21.4111 Y12.9719 
G01 X21.5220 Y13.0460 
G01 X21.6452 Y13.0971 
G01 X21.7760 Y13.1231 
G01 X22.6727 Y13.1231 
G01 X22.8035 Y13.0971 
G01 X22.9267 Y13.0460 
G01 X23.0376 Y12.9719 
G01 X23.1319 Y12.8776 
G01 X23.2060 Y12.7667 
G01 X23.2571 Y12.6435 
G01 X23.2831 Y12.5127 
G01 X23.2831 Y2.7273 
G01 X23.2571 Y2.5965 
G01 X23.2060 Y2.4733 
G01 X23.1319 Y2.3624 
G01 X23.0376 Y2.2681 
G01 X22.9267 Y2.1940 
G01 X22.8035 Y2.1429 
G01 X22.6727 Y2.1169 
G01 X21.7760 Y2.1169 
G01 X21.6452 Y2.1429 
G01 X21.5220 Y2.1940 
G01 X21.4111 Y2.2681 
G01 X21.3168 Y2.3624 
G01 X21.2427 Y2.4733 
G01 X21.1959 Y2.5861 
G01 X21.1706 Y2.5821 
G01 X19.4694 Y2.5821 
G01 X19.4440 Y2.5861 
G01 X19.3973 Y2.4733 
G01 X19.3232 Y2.3624 
G01 X19.2289 Y2.2681 
G01 X19.1180 Y2.1940 
G01 X18.9948 Y2.1429 
G01 X18.8640 Y2.1169 
G01 X6.5095 Y2.1169 
G01 X6.4561 Y2.1148 
G01 X6.4429 Y2.1169 
G01 X6.4295 Y2.1169 
G01 X6.3772 Y2.1273 
G01 X6.3244 Y2.1357 
G01 X6.3118 Y2.1403 
G01 X6.2987 Y2.1429 
G01 X6.2494 Y2.1633 
G01 X6.1993 Y2.1818 
G01 X6.1878 Y2.1888 
G01 X6.1755 Y2.1940 
G01 X6.1311 Y2.2236 
G01 X6.0855 Y2.2515 
G01 X6.0757 Y2.2606 
G01 X6.0646 Y2.2681 
G01 X6.0268 Y2.3058 
G01 X5.9876 Y2.3421 
G01 X5.9797 Y2.3529 
G01 X5.9703 Y2.3624 
G01 X5.9406 Y2.4067 
G01 X5.9092 Y2.4500 
G01 X5.9036 Y2.4621 
G01 X5.8962 Y2.4733 
G01 X5.8758 Y2.5226 
G01 X5.8534 Y2.5711 
G01 X5.8507 Y2.5821 
G01 X4.3093 Y2.5821 
G01 X4.3066 Y2.5711 
G01 X4.2842 Y2.5226 
G01 X4.2638 Y2.4733 
G01 X4.2564 Y2.4621 
G01 X4.2508 Y2.4500 
G01 X4.2194 Y2.4067 
G01 X4.1897 Y2.3624 
G01 X4.1803 Y2.3529 
G01 X4.1724 Y2.3421 
G01 X4.1332 Y2.3058 
G01 X4.0954 Y2.2681 
G01 X4.0843 Y2.2606 
G01 X4.0744 Y2.2515 
G01 X4.0289 Y2.2236 
G01 X3.9845 Y2.1940 
G01 X3.9722 Y2.1888 
G01 X3.9607 Y2.1818 
G01 X3.9106 Y2.1633 
G01 X3.8613 Y2.1429 
G01 X3.8482 Y2.1403 
G01 X3.8356 Y2.1357 
G01 X3.7828 Y2.1273 
G01 X3.7305 Y2.1169 
G01 X3.7171 Y2.1169 
G01 X3.7039 Y2.1148 
G01 X3.6505 Y2.1169 
G01 X2.7273 Y2.1169 
G01 X2.5965 Y2.1429 
G01 X2.4733 Y2.1940 
G01 X2.3624 Y2.2681 
G01 X2.2681 Y2.3624 
G00 Z2.0000  F3000 F3000
G00 X2.1748 Y2.2859  F3000 F3000
G01 Z-0.2000 F200.00 
G01 X2.0876 Y2.4164 F500.00 
G01 X2.0275 Y2.5615 
G01 X1.9969 Y2.7155 
G01 X1.9969 Y12.5245 
G01 X2.0275 Y12.6785 
G01 X2.0876 Y12.8236 
G01 X2.1748 Y12.9541 
G01 X2.2859 Y13.0651 
G01 X2.4164 Y13.1524 
G01 X2.5615 Y13.2125 
G01 X2.7155 Y13.2431 
G01 X3.6358 Y13.2431 
G01 X3.6988 Y13.2306 
G01 X3.7898 Y13.2125 
G01 X3.9348 Y13.1524 
G01 X4.0032 Y13.1067 
G01 X4.0654 Y13.0651 
G01 X4.1764 Y12.9541 
G01 X4.2335 Y12.8686 
G01 X4.2637 Y12.8236 
G01 X4.2826 Y12.7779 
G01 X5.8774 Y12.7779 
G01 X5.8963 Y12.8236 
G01 X5.9241 Y12.8651 
G01 X5.9836 Y12.9541 
G01 X6.0946 Y13.0651 
G01 X6.1620 Y13.1102 
G01 X6.2252 Y13.1524 
G01 X6.3702 Y13.2125 
G01 X6.4647 Y13.2313 
G01 X6.5242 Y13.2431 
G01 X18.8758 Y13.2431 
G01 X18.9388 Y13.2306 
G01 X19.0298 Y13.2125 
G01 X19.1748 Y13.1524 
G01 X19.2432 Y13.1067 
G01 X19.3054 Y13.0651 
G01 X19.4164 Y12.9541 
G01 X19.4735 Y12.8686 
G01 X19.5037 Y12.8236 
G01 X19.5226 Y12.7779 
G01 X21.1174 Y12.7779 
G01 X21.1363 Y12.8236 
G01 X21.1641 Y12.8651 
G01 X21.2236 Y12.9541 
G01 X21.3346 Y13.0651 
G01 X21.4020 Y13.1102 
G01 X21.4652 Y13.1524 
G01 X21.6102 Y13.2125 
G01 X21.7047 Y13.2313 
G01 X21.7642 Y13.2431 
G01 X22.6845 Y13.2431 
G01 X22.8385 Y13.2125 
G01 X22.9836 Y13.1524 
G01 X23.1141 Y13.0651 
G01 X23.2251 Y12.9541 
G01 X23.3124 Y12.8236 
G01 X23.3725 Y12.6785 
G01 X23.4031 Y12.5245 
G01 X23.4031 Y2.7155 
G01 X23.3725 Y2.5615 
G01 X23.3124 Y2.4164 
G01 X23.2251 Y2.2859 
G01 X23.1141 Y2.1748 
G01 X22.9836 Y2.0876 
G01 X22.8385 Y2.0275 
G01 X22.6845 Y1.9969 
G01 X21.7642 Y1.9969 
G01 X21.7012 Y2.0094 
G01 X21.6102 Y2.0275 
G01 X21.4652 Y2.0876 
G01 X21.3968 Y2.1333 
G01 X21.3346 Y2.1748 
G01 X21.2236 Y2.2859 
G01 X21.1665 Y2.3714 
G01 X21.1363 Y2.4164 
G01 X21.1174 Y2.4621 
G01 X19.5226 Y2.4621 
G01 X19.5037 Y2.4164 
G01 X19.4759 Y2.3748 
G01 X19.4164 Y2.2859 
G01 X19.3054 Y2.1748 
G01 X19.2380 Y2.1298 
G01 X19.1748 Y2.0876 
G01 X19.0298 Y2.0275 
G01 X18.9353 Y2.0087 
G01 X18.8758 Y1.9969 
G01 X6.5118 Y1.9969 
G01 X6.4490 Y1.9944 
G01 X6.4335 Y1.9969 
G01 X6.4177 Y1.9969 
G01 X6.3560 Y2.0092 
G01 X6.2940 Y2.0190 
G01 X6.2792 Y2.0245 
G01 X6.2637 Y2.0275 
G01 X6.2057 Y2.0516 
G01 X6.1466 Y2.0733 
G01 X6.1332 Y2.0816 
G01 X6.1186 Y2.0876 
G01 X6.0664 Y2.1225 
G01 X6.0128 Y2.1554 
G01 X6.0012 Y2.1661 
G01 X5.9881 Y2.1748 
G01 X5.9436 Y2.2193 
G01 X5.8975 Y2.2620 
G01 X5.8882 Y2.2747 
G01 X5.8771 Y2.2859 
G01 X5.8421 Y2.3381 
G01 X5.8052 Y2.3890 
G01 X5.7986 Y2.4033 
G01 X5.7898 Y2.4164 
G01 X5.7709 Y2.4621 
G01 X4.3891 Y2.4621 
G01 X4.3702 Y2.4164 
G01 X4.3614 Y2.4033 
G01 X4.3548 Y2.3890 
G01 X4.3179 Y2.3381 
G01 X4.2829 Y2.2859 
G01 X4.2718 Y2.2747 
G01 X4.2625 Y2.2620 
G01 X4.2163 Y2.2193 
G01 X4.1719 Y2.1748 
G01 X4.1588 Y2.1661 
G01 X4.1472 Y2.1554 
G01 X4.0936 Y2.1225 
G01 X4.0414 Y2.0876 
G01 X4.0268 Y2.0816 
G01 X4.0133 Y2.0733 
G01 X3.9543 Y2.0516 
G01 X3.8963 Y2.0275 
G01 X3.8808 Y2.0245 
G01 X3.8660 Y2.0190 
G01 X3.8039 Y2.0092 
G01 X3.7423 Y1.9969 
G01 X3.7265 Y1.9969 
G01 X3.7110 Y1.9944 
G01 X3.6482 Y1.9969 
G01 X2.7155 Y1.9969 
G01 X2.5615 Y2.0275 
G01 X2.4164 Y2.0876 
G01 X2.2859 Y2.1748 
G01 X2.1748 Y2.2859 
G00 Z2.0000  F3000 F3000
G00 Z5.0000  F3000 F3000
;M03 S0
M0
