; generated by Slic3r 0.9.10b on 2013-08-26 at 12:57:53

; layer_height = 0.12
; perimeters = 1
; top_solid_layers = 0
; bottom_solid_layers = 3
; fill_density = 0
; perimeter_speed = 30
; infill_speed = 40
; travel_speed = 60
; nozzle_diameter = 0.3
; filament_diameter = 1.75
; extrusion_multiplier = 1
; perimeters extrusion width = 0.51mm
; infill extrusion width = 0.61mm
; solid infill extrusion width = 0.51mm
; top infill extrusion width = 0.51mm
; first layer extrusion width = 0.48mm

G21 ; set units to millimeters
M107
M104 S205 ; set temperature
G28 ; home all axes
G1 Z5 F200 ; lift nozzle
M109 S205 ; wait for temperature to be reached
G90 ; use absolute coordinates
M83 ; use relative distances for extrusion
G1 Z0.240 F3600.000
G1 F1800.000 E-1.00000
G1 X55.500 Y62.420 F3600.000
G1 F1800.000 E1.00000
G1 X56.010 Y62.020 F540.000 E0.02854
G1 X56.270 Y61.840 E0.01393
G1 X56.870 Y61.480 E0.03082
G1 X57.510 Y61.170 E0.03132
G1 X57.780 Y61.060 E0.01284
G1 X58.640 Y60.780 E0.03983
G1 X59.520 Y60.630 E0.03931
G1 X60.490 Y60.560 E0.04283
G1 X79.490 Y60.560 E0.83676
G1 X80.440 Y60.620 E0.04192
G1 X81.340 Y60.780 E0.04026
G1 X82.210 Y61.060 E0.04025
G1 X82.480 Y61.170 E0.01284
G1 X83.120 Y61.480 E0.03132
G1 X83.720 Y61.840 E0.03082
G1 X83.980 Y62.020 E0.01393
G1 X84.490 Y62.420 E0.02854
G1 X84.960 Y62.860 E0.02835
G1 X85.200 Y63.110 E0.01526
G1 X85.740 Y63.760 E0.03722
G1 X85.960 Y64.060 E0.01638
G1 X86.530 Y64.990 E0.04804
G1 X86.710 Y65.350 E0.01773
G1 X86.980 Y65.970 E0.02978
G1 X87.130 Y66.370 E0.01881
G1 X87.370 Y67.140 E0.03552
G1 X87.470 Y67.560 E0.01901
G1 X87.450 Y67.560 E0.00088
G1 X87.600 Y68.240 E0.03067
G1 X87.660 Y68.700 E0.02043
G1 X87.730 Y69.710 E0.04459
G1 X87.710 Y70.730 E0.04493
G1 X87.600 Y71.750 E0.04518
G1 X87.370 Y72.850 E0.04949
G1 X87.130 Y73.620 E0.03552
G1 X86.980 Y74.020 E0.01881
G1 X86.710 Y74.640 E0.02978
G1 X86.530 Y75.000 E0.01773
G1 X85.960 Y75.930 E0.04804
G1 X85.740 Y76.230 E0.01638
G1 X85.200 Y76.880 E0.03722
G1 X84.490 Y77.570 E0.04360
G1 X83.980 Y77.970 E0.02854
G1 X83.720 Y78.150 E0.01393
G1 X83.120 Y78.510 E0.03082
G1 X82.480 Y78.820 E0.03132
G1 X82.210 Y78.930 E0.01284
G1 X81.450 Y79.180 E0.03523
G1 X80.660 Y79.340 E0.03550
G1 X80.370 Y79.380 E0.01289
G1 X79.490 Y79.440 E0.03885
G1 X60.490 Y79.440 E0.83676
G1 X59.580 Y79.380 E0.04016
G1 X59.300 Y79.340 E0.01246
G1 X58.530 Y79.180 E0.03464
G1 X57.780 Y78.930 E0.03482
G1 X57.510 Y78.820 E0.01284
G1 X56.870 Y78.510 E0.03132
G1 X56.270 Y78.150 E0.03082
G1 X56.010 Y77.970 E0.01393
G1 X55.500 Y77.570 E0.02854
G1 X55.030 Y77.130 E0.02835
G1 X54.790 Y76.880 E0.01526
G1 X54.250 Y76.230 E0.03722
G1 X54.030 Y75.930 E0.01638
G1 X53.460 Y75.000 E0.04804
G1 X53.280 Y74.640 E0.01773
G1 X53.010 Y74.020 E0.02978
G1 X52.860 Y73.620 E0.01881
G1 X52.640 Y72.920 E0.03231
G1 X52.530 Y72.480 E0.01997
G1 X52.390 Y71.750 E0.03274
G1 X52.280 Y70.730 E0.04518
G1 X52.260 Y70.260 E0.02072
G1 X52.280 Y69.250 E0.04449
G1 X52.390 Y68.240 E0.04474
G1 X52.530 Y67.510 E0.03274
G1 X52.640 Y67.070 E0.01997
G1 X52.860 Y66.370 E0.03231
G1 X53.010 Y65.970 E0.01881
G1 X53.280 Y65.350 E0.02978
G1 X53.460 Y64.990 E0.01773
G1 X54.030 Y64.060 E0.04804
G1 X54.250 Y63.760 E0.01638
G1 X54.790 Y63.110 E0.03722
G1 X55.452 Y62.465 E0.04069
G1 F1800.000 E-1.00000
G1 X73.699 Y67.296 F3600.000
G1 F1800.000 E1.00000
G1 X79.538 Y67.250 F378.000 E0.25715
G1 X79.988 Y67.378 E0.02061
G1 X80.354 Y67.645 E0.01995
G1 X80.757 Y68.219 E0.03087
G1 X81.050 Y68.990 E0.03635
G1 X81.153 Y69.646 E0.02925
G1 X81.128 Y70.565 E0.04045
G1 X80.995 Y71.220 E0.02943
G1 X80.663 Y71.952 E0.03542
G1 X80.228 Y72.466 E0.02963
G1 X79.762 Y72.716 E0.02330
G1 X60.321 Y72.724 E0.85618
G1 X59.871 Y72.539 E0.02142
G1 X59.543 Y72.242 E0.01951
G1 X59.157 Y71.608 E0.03269
G1 X58.949 Y71.003 E0.02819
G1 X58.850 Y69.660 E0.05927
G1 X59.003 Y68.788 E0.03902
G1 X59.540 Y67.763 E0.05094
G1 X60.234 Y67.285 E0.03710
G1 X73.699 Y67.296 E0.59300
G1 Z0.360 F3600.000
G1 F1800.000 E-1.00000
G1 X79.490 Y60.560 F3600.000
G1 F1800.000 E1.00000
G1 X80.440 Y60.620 F672.000 E0.02096
G1 X81.340 Y60.780 E0.02013
G1 X82.210 Y61.060 E0.02013
G1 X82.480 Y61.170 E0.00642
G1 X83.120 Y61.480 E0.01566
G1 X83.720 Y61.840 E0.01541
G1 X83.980 Y62.020 E0.00696
G1 X84.490 Y62.420 E0.01427
G1 X85.200 Y63.110 E0.02180
G1 X85.740 Y63.760 E0.01861
G1 X85.960 Y64.060 E0.00819
G1 X86.530 Y64.990 E0.02402
G1 X86.710 Y65.350 E0.00886
G1 X86.980 Y65.970 E0.01489
G1 X87.130 Y66.370 E0.00941
G1 X87.370 Y67.140 E0.01776
G1 X87.470 Y67.560 E0.00951
G1 X87.450 Y67.560 E0.00044
G1 X87.600 Y68.240 E0.01533
G1 X87.710 Y69.250 E0.02237
G1 X87.730 Y69.710 E0.01014
G1 X87.710 Y70.730 E0.02246
G1 X87.600 Y71.750 E0.02259
G1 X87.450 Y72.430 E0.01533
G1 X87.470 Y72.430 E0.00044
G1 X87.370 Y72.850 E0.00951
G1 X87.130 Y73.620 E0.01776
G1 X86.980 Y74.020 E0.00941
G1 X86.710 Y74.640 E0.01489
G1 X86.530 Y75.000 E0.00886
G1 X85.960 Y75.930 E0.02402
G1 X85.740 Y76.230 E0.00819
G1 X85.200 Y76.880 E0.01861
G1 X84.490 Y77.570 E0.02180
G1 X83.980 Y77.970 E0.01427
G1 X83.720 Y78.150 E0.00696
G1 X83.120 Y78.510 E0.01541
G1 X82.480 Y78.820 E0.01566
G1 X82.210 Y78.930 E0.00642
G1 X81.450 Y79.180 E0.01762
G1 X80.660 Y79.340 E0.01775
G1 X80.370 Y79.380 E0.00645
G1 X79.490 Y79.440 E0.01942
G1 X60.490 Y79.440 E0.41838
G1 X59.580 Y79.380 E0.02008
G1 X59.300 Y79.340 E0.00623
G1 X58.530 Y79.180 E0.01732
G1 X57.780 Y78.930 E0.01741
G1 X57.510 Y78.820 E0.00642
G1 X56.870 Y78.510 E0.01566
G1 X56.270 Y78.150 E0.01541
G1 X56.010 Y77.970 E0.00696
G1 X55.500 Y77.570 E0.01427
G1 X54.790 Y76.880 E0.02180
G1 X54.250 Y76.230 E0.01861
G1 X54.030 Y75.930 E0.00819
G1 X53.460 Y75.000 E0.02402
G1 X53.280 Y74.640 E0.00886
G1 X53.010 Y74.020 E0.01489
G1 X52.860 Y73.620 E0.00941
G1 X52.640 Y72.920 E0.01616
G1 X52.530 Y72.480 E0.00999
G1 X52.390 Y71.750 E0.01637
G1 X52.330 Y71.290 E0.01022
G1 X52.260 Y70.260 E0.02273
G1 X52.280 Y69.250 E0.02224
G1 X52.390 Y68.240 E0.02237
G1 X52.530 Y67.510 E0.01637
G1 X52.640 Y67.070 E0.00999
G1 X52.860 Y66.370 E0.01616
G1 X53.010 Y65.970 E0.00941
G1 X53.280 Y65.350 E0.01489
G1 X53.460 Y64.990 E0.00886
G1 X54.030 Y64.060 E0.02402
G1 X54.250 Y63.760 E0.00819
G1 X54.790 Y63.110 E0.01861
G1 X55.500 Y62.420 E0.02180
G1 X56.010 Y62.020 E0.01427
G1 X56.270 Y61.840 E0.00696
G1 X56.870 Y61.480 E0.01541
G1 X57.510 Y61.170 E0.01566
G1 X57.780 Y61.060 E0.00642
G1 X58.640 Y60.780 E0.01992
G1 X59.520 Y60.630 E0.01966
G1 X60.490 Y60.560 E0.02142
G1 X79.424 Y60.560 E0.41692
G1 F1800.000 E-1.00000
G1 X74.560 Y67.290 F3600.000
G1 F1800.000 E1.00000
G1 X79.536 Y67.250 F600.000 E0.12021
G1 X79.981 Y67.376 E0.01119
G1 X80.348 Y67.640 E0.01092
G1 X80.754 Y68.209 E0.01690
G1 X81.046 Y68.980 E0.01991
G1 X81.153 Y69.635 E0.01604
G1 X81.126 Y70.564 E0.02246
G1 X80.996 Y71.220 E0.01614
G1 X80.661 Y71.951 E0.01943
G1 X80.228 Y72.466 E0.01624
G1 X79.762 Y72.716 E0.01278
G1 X60.321 Y72.724 E0.46968
G1 X59.871 Y72.540 E0.01175
G1 X59.427 Y72.095 E0.01518
G1 X58.901 Y70.794 E0.03391
G1 X58.852 Y69.670 E0.02719
G1 X59.067 Y68.606 E0.02621
G1 X59.534 Y67.770 E0.02314
G1 X60.228 Y67.287 E0.02042
G1 X74.560 Y67.290 E0.34626
G1 Z0.480 F3600.000
G1 X74.593 Y67.302
G1 X79.535 Y67.250 F600.000 E0.11939
G1 X79.982 Y67.376 E0.01122
G1 X80.346 Y67.638 E0.01084
G1 X80.752 Y68.203 E0.01681
G1 X81.044 Y68.973 E0.01989
G1 X81.153 Y69.627 E0.01603
G1 X81.125 Y70.564 E0.02265
G1 X80.996 Y71.220 E0.01614
G1 X80.662 Y71.952 E0.01943
G1 X80.228 Y72.466 E0.01625
G1 X79.762 Y72.716 E0.01278
G1 X60.321 Y72.724 E0.46967
G1 X59.871 Y72.540 E0.01176
G1 X59.427 Y72.095 E0.01519
G1 X58.901 Y70.794 E0.03391
G1 X58.854 Y69.676 E0.02704
G1 X59.064 Y68.613 E0.02617
G1 X59.531 Y67.775 E0.02317
G1 X60.224 Y67.288 E0.02046
G1 X74.593 Y67.302 E0.34715
M106 S255
G1 Z0.48 F3600.000
G1 X74.059 Y67.305
G1 Z0.494 X79.533 Y67.250 F600.000 E0.13227
G1 X79.973 Y67.373 E0.01104
G1 X80.341 Y67.632 E0.01088
G1 Z0.496 X80.750 Y68.197 E0.01684
G1 Z0.498 X81.041 Y68.966 E0.01986
G1 X81.153 Y69.619 E0.01602
G1 Z0.501 X81.123 Y70.564 E0.02283
G1 X80.996 Y71.220 E0.01614
G1 Z0.503 X80.663 Y71.952 E0.01944
G1 X80.228 Y72.466 E0.01625
G1 X79.762 Y72.716 E0.01278
G1 Z0.554 X60.463 Y72.736 E0.46625
G1 X60.009 Y72.620 E0.01133
G1 Z0.556 X59.543 Y72.242 E0.01449
G1 X59.237 Y71.777 E0.01344
G1 Z0.558 X58.951 Y71.002 E0.01997
G1 Z0.560 X58.842 Y70.111 E0.02169
G1 Z0.564 X58.995 Y68.813 E0.03158
G1 X59.527 Y67.780 E0.02807
G1 X60.220 Y67.290 E0.02050
G1 Z0.600 X74.059 Y67.305 E0.33434
G1 Z0.6 F3600.000
G1 X73.805 Y67.304
G1 Z0.615 X79.532 Y67.250 F600.000 E0.13836
G1 X79.969 Y67.371 E0.01096
G1 X80.338 Y67.628 E0.01085
G1 Z0.617 X80.748 Y68.191 E0.01682
G1 Z0.619 X81.038 Y68.959 E0.01984
G1 X81.153 Y69.612 E0.01601
G1 Z0.622 X81.122 Y70.564 E0.02301
G1 X80.996 Y71.220 E0.01614
G1 Z0.624 X80.664 Y71.953 E0.01944
G1 X80.228 Y72.466 E0.01626
G1 X79.762 Y72.715 E0.01278
G1 Z0.676 X60.463 Y72.736 E0.46625
G1 X60.009 Y72.620 E0.01133
G1 Z0.678 X59.543 Y72.242 E0.01449
G1 X59.236 Y71.778 E0.01344
G1 Z0.680 X58.952 Y71.002 E0.01997
G1 Z0.683 X58.858 Y69.688 E0.03182
G1 X59.059 Y68.627 E0.02610
G1 X59.526 Y67.787 E0.02322
G1 X60.222 Y67.305 E0.02044
G1 Z0.720 X73.805 Y67.304 E0.32817
G1 Z0.72 F3600.000
G1 X73.805 Y67.304
G1 Z0.735 X79.539 Y67.250 F600.000 E0.13852
G1 X79.965 Y67.370 E0.01070
G1 Z0.736 X80.334 Y67.625 E0.01083
G1 Z0.738 X80.745 Y68.185 E0.01679
G1 Z0.740 X81.035 Y68.952 E0.01982
G1 X81.153 Y69.604 E0.01600
G1 Z0.743 X81.120 Y70.563 E0.02319
G1 X80.995 Y71.220 E0.01614
G1 Z0.745 X80.665 Y71.953 E0.01944
G1 X80.228 Y72.466 E0.01626
G1 X79.762 Y72.715 E0.01278
G1 Z0.795 X60.463 Y72.736 E0.46625
G1 X60.009 Y72.620 E0.01133
G1 Z0.796 X59.543 Y72.242 E0.01449
G1 X59.235 Y71.778 E0.01345
G1 Z0.798 X58.953 Y71.002 E0.01997
G1 Z0.801 X58.841 Y70.111 E0.02169
G1 Z0.805 X59.057 Y68.633 E0.03607
G1 X59.521 Y67.791 E0.02325
G1 X60.218 Y67.307 E0.02050
G1 Z0.840 X73.805 Y67.304 E0.32826
G1 Z0.84 F3600.000
G1 X73.805 Y67.304
G1 Z0.856 X79.539 Y67.250 F600.000 E0.13852
G1 X80.330 Y67.621 E0.02112
G1 X80.743 Y68.179 E0.01676
G1 Z0.859 X81.085 Y69.151 E0.02490
G1 X81.163 Y69.830 E0.01651
G1 Z0.862 X81.093 Y70.793 E0.02332
G1 X80.850 Y71.610 E0.02060
G1 X80.572 Y72.094 E0.01348
G1 X80.228 Y72.466 E0.01222
G1 Z0.863 X79.762 Y72.715 E0.01278
G1 Z0.917 X60.321 Y72.724 E0.46967
G1 X59.870 Y72.541 E0.01176
G1 Z0.919 X59.426 Y72.096 E0.01520
G1 Z0.923 X58.904 Y70.794 E0.03390
G1 X58.875 Y69.495 E0.03139
G1 X59.129 Y68.439 E0.02624
G1 X59.743 Y67.563 E0.02585
G1 X60.433 Y67.255 E0.01826
G1 Z0.960 X73.805 Y67.304 E0.32307
G1 Z0.96 F3600.000
G1 X75.320 Y67.265
G1 Z0.971 X79.539 Y67.250 F600.000 E0.10192
G1 X80.100 Y67.441 E0.01432
G1 Z0.973 X80.545 Y67.864 E0.01484
G1 Z0.977 X81.082 Y69.144 E0.03353
G1 X81.162 Y69.822 E0.01650
G1 Z0.980 X81.091 Y70.793 E0.02351
G1 X80.850 Y71.610 E0.02059
G1 X80.572 Y72.094 E0.01348
G1 X80.228 Y72.466 E0.01222
G1 Z0.981 X79.762 Y72.715 E0.01278
G1 Z1.034 X60.321 Y72.724 E0.46967
G1 X59.870 Y72.541 E0.01176
G1 Z1.036 X59.426 Y72.096 E0.01520
G1 Z1.039 X58.905 Y70.793 E0.03389
G1 X58.872 Y69.502 E0.03121
G1 X59.126 Y68.445 E0.02626
G1 X59.738 Y67.566 E0.02589
G1 X60.429 Y67.255 E0.01830
G1 Z1.080 X75.320 Y67.265 E0.35975
G1 Z1.08 F3600.000
G1 X75.320 Y67.265
G1 Z1.092 X79.539 Y67.250 F600.000 E0.10192
G1 X80.097 Y67.439 E0.01423
G1 Z1.093 X80.542 Y67.860 E0.01480
G1 Z1.097 X81.079 Y69.137 E0.03348
G1 X81.161 Y69.815 E0.01649
G1 Z1.100 X81.090 Y70.793 E0.02369
G1 X80.850 Y71.610 E0.02059
G1 X80.572 Y72.094 E0.01348
G1 X80.228 Y72.466 E0.01222
G1 Z1.101 X79.762 Y72.715 E0.01278
G1 Z1.154 X60.463 Y72.737 E0.46625
G1 X59.870 Y72.541 E0.01508
G1 Z1.156 X59.426 Y72.096 E0.01520
G1 Z1.159 X58.906 Y70.793 E0.03388
G1 X58.869 Y69.510 E0.03102
G1 X59.123 Y68.452 E0.02628
G1 X59.733 Y67.569 E0.02594
G1 X60.425 Y67.256 E0.01835
G1 Z1.200 X75.320 Y67.265 E0.35984
G1 Z1.2 F3600.000
G1 X79.120 Y67.269
G1 Z1.202 X79.762 Y67.286 F600.000 E0.01551
G1 Z1.204 X80.418 Y67.715 E0.01895
G1 Z1.206 X80.898 Y68.523 E0.02269
G1 Z1.209 X81.149 Y69.573 E0.02610
G1 X81.122 Y70.564 E0.02394
G1 Z1.212 X80.850 Y71.610 E0.02613
G1 X80.357 Y72.351 E0.02149
G1 X79.679 Y72.729 E0.01876
G1 Z1.264 X60.463 Y72.737 E0.46425
G1 X59.870 Y72.541 E0.01508
G1 Z1.266 X59.426 Y72.096 E0.01520
G1 Z1.270 X58.908 Y70.793 E0.03388
G1 X58.866 Y69.517 E0.03084
G1 X59.120 Y68.458 E0.02630
G1 X59.729 Y67.572 E0.02598
G1 X60.461 Y67.251 E0.01932
G1 Z1.320 X79.120 Y67.269 E0.45078
G1 Z1.32 F3600.000
G1 X75.299 Y67.274
G1 Z1.331 X79.539 Y67.250 F600.000 E0.10244
G1 X80.129 Y67.461 E0.01513
G1 X80.534 Y67.850 E0.01359
G1 X80.815 Y68.321 E0.01323
G1 Z1.334 X81.073 Y69.123 E0.02035
G1 Z1.338 X81.123 Y70.564 E0.03484
G1 X80.993 Y71.219 E0.01614
G1 Z1.340 X80.664 Y71.952 E0.01942
G1 X80.228 Y72.466 E0.01626
G1 X79.762 Y72.714 E0.01277
G1 Z1.392 X60.463 Y72.737 E0.46624
G1 X59.870 Y72.541 E0.01508
G1 Z1.394 X59.426 Y72.096 E0.01520
G1 X59.154 Y71.609 E0.01348
G1 Z1.396 X58.909 Y70.793 E0.02059
G1 Z1.400 X58.864 Y69.525 E0.03066
G1 X59.118 Y68.465 E0.02632
G1 X59.724 Y67.575 E0.02602
G1 X60.418 Y67.257 E0.01843
G1 Z1.440 X75.299 Y67.274 E0.35951
G1 Z1.44 F3600.000
G1 X75.042 Y67.275
G1 Z1.452 X79.539 Y67.250 F600.000 E0.10863
G1 X80.129 Y67.461 E0.01513
G1 X80.531 Y67.846 E0.01346
G1 Z1.454 X80.895 Y68.509 E0.01827
G1 X81.069 Y69.116 E0.01526
G1 Z1.458 X81.125 Y70.564 E0.03501
G1 X80.992 Y71.219 E0.01614
G1 Z1.460 X80.664 Y71.952 E0.01942
G1 X80.228 Y72.466 E0.01626
G1 X79.761 Y72.714 E0.01277
G1 Z1.513 X60.463 Y72.737 E0.46624
G1 X59.870 Y72.541 E0.01508
G1 Z1.515 X59.426 Y72.096 E0.01520
G1 X59.153 Y71.609 E0.01348
G1 Z1.517 X58.911 Y70.793 E0.02058
G1 Z1.520 X58.861 Y69.532 E0.03047
G1 X59.115 Y68.472 E0.02634
G1 X59.720 Y67.579 E0.02606
G1 X60.414 Y67.258 E0.01847
G1 Z1.560 X75.042 Y67.275 E0.35341
G1 Z1.56 F3600.000
G1 X75.039 Y67.276
G1 Z1.572 X79.539 Y67.250 F600.000 E0.10870
G1 X80.129 Y67.461 E0.01513
G1 X80.527 Y67.842 E0.01332
G1 Z1.574 X80.893 Y68.502 E0.01825
G1 X81.066 Y69.109 E0.01524
G1 Z1.578 X81.126 Y70.564 E0.03519
G1 X80.991 Y71.218 E0.01614
G1 Z1.580 X80.664 Y71.952 E0.01941
G1 X80.228 Y72.466 E0.01626
G1 X79.761 Y72.713 E0.01277
G1 Z1.633 X60.463 Y72.738 E0.46624
G1 X59.870 Y72.541 E0.01508
G1 Z1.635 X59.426 Y72.096 E0.01519
G1 Z1.637 X59.074 Y71.410 E0.01861
G1 X58.913 Y70.792 E0.01543
G1 Z1.640 X58.859 Y69.540 E0.03029
G1 X59.113 Y68.478 E0.02636
G1 X59.716 Y67.582 E0.02610
G1 X60.410 Y67.258 E0.01851
G1 Z1.680 X75.039 Y67.276 E0.35343
G1 Z1.68 F3600.000
G1 X75.036 Y67.277
G1 Z1.692 X79.539 Y67.250 F600.000 E0.10878
G1 X80.129 Y67.461 E0.01513
G1 X80.523 Y67.837 E0.01318
G1 Z1.694 X80.891 Y68.495 E0.01822
G1 X81.062 Y69.102 E0.01522
G1 Z1.698 X81.127 Y70.564 E0.03537
G1 X80.929 Y71.411 E0.02102
G1 X80.664 Y71.952 E0.01455
G1 Z1.700 X80.228 Y72.466 E0.01626
G1 X79.761 Y72.713 E0.01277
G1 Z1.751 X60.627 Y72.751 E0.46228
G1 X60.238 Y72.716 E0.00944
G1 Z1.753 X59.643 Y72.351 E0.01686
G1 Z1.755 X59.233 Y71.780 E0.01699
G1 Z1.757 X58.960 Y71.000 E0.01996
G1 Z1.761 X58.857 Y69.547 E0.03518
G1 X59.111 Y68.485 E0.02638
G1 X59.711 Y67.585 E0.02614
G1 X60.407 Y67.259 E0.01855
G1 Z1.800 X75.036 Y67.277 E0.35345
G1 Z1.8 F3600.000
G1 X75.033 Y67.278
G1 Z1.812 X79.539 Y67.250 F600.000 E0.10885
G1 X79.991 Y67.381 E0.01137
G1 Z1.813 X80.438 Y67.741 E0.01387
G1 Z1.815 X80.804 Y68.297 E0.01607
G1 X81.016 Y68.889 E0.01521
G1 Z1.817 X81.140 Y69.535 E0.01588
G1 Z1.820 X81.129 Y70.565 E0.02488
G1 X80.929 Y71.411 E0.02102
G1 X80.664 Y71.952 E0.01455
G1 Z1.821 X80.228 Y72.466 E0.01626
G1 X79.761 Y72.713 E0.01277
G1 Z1.872 X60.627 Y72.752 E0.46227
G1 X60.238 Y72.716 E0.00944
G1 Z1.874 X59.643 Y72.350 E0.01686
G1 Z1.875 X59.233 Y71.780 E0.01699
G1 Z1.878 X58.958 Y71.000 E0.01996
G1 Z1.881 X58.856 Y69.555 E0.03500
G1 X59.109 Y68.492 E0.02640
G1 X59.707 Y67.589 E0.02618
G1 X60.403 Y67.260 E0.01859
G1 Z1.920 X75.033 Y67.278 E0.35347
G1 Z1.92 F3600.000
G1 X79.761 Y67.288
G1 Z1.922 X80.357 Y67.649 F600.000 E0.01684
G1 Z1.924 X80.800 Y68.291 E0.01884
G1 Z1.926 X81.060 Y69.087 E0.02023
G1 Z1.928 X81.148 Y70.066 E0.02376
G1 Z1.931 X80.987 Y71.218 E0.02808
G1 X80.664 Y71.952 E0.01940
