; generated by Slic3r 1.0.0RC2 on 2014-08-08 at 21:44:27

; layer_height = 0.24
; perimeters = 2
; top_solid_layers = 4
; bottom_solid_layers = 3
; fill_density = 0.4
; perimeter_speed = 30
; infill_speed = 40
; travel_speed = 60
; nozzle_diameter = 0.3
; filament_diameter = 1.75
; extrusion_multiplier = 1
; perimeters extrusion width = 0.30mm
; infill extrusion width = 0.32mm
; solid infill extrusion width = 0.32mm
; top infill extrusion width = 0.32mm
; first layer extrusion width = 0.48mm

G21 ; set units to millimeters
M107
M104 S205 ; set temperature
M140 S65; Set bed temperature
G28 ; Home all axes
G1 Z5 F200 ; lift nozzle
G1 X2 Y50 F2000; Go to wait for warm position
M116; Wait for all temperatures
G10 P0 S190 R0 ; Set extruder temperature
T0; Select extruder
M116; Wait for all temperatures
M109 S205 ; wait for temperature to be reached
G90 ; use absolute coordinates
M83 ; use relative distances for extrusion
G1 F1800.000 E-1.00000
G1 Z0.240 F3600.000
G1 X41.000 Y73.811 F3600.000
G1 E1.00000 F1800.000
G1 X105.670 Y30.191 E3.43540 F540.000
G1 X106.780 Y29.591 E0.05557
G1 X107.990 Y29.221 E0.05572
G1 X109.240 Y29.091 E0.05535
G1 X110.500 Y29.211 E0.05574
G1 X111.710 Y29.571 E0.05560
G1 X112.830 Y30.161 E0.05575
G1 X113.800 Y30.961 E0.05537
G1 X114.610 Y31.931 E0.05565
G1 X200.730 Y159.591 E6.78187
G1 X201.330 Y160.701 E0.05557
G1 X201.700 Y161.911 E0.05572
G1 X201.830 Y163.171 E0.05579
G1 X201.710 Y164.421 E0.05530
G1 X201.350 Y165.631 E0.05560
G1 X200.760 Y166.751 E0.05575
G1 X199.960 Y167.731 E0.05571
G1 X198.980 Y168.541 E0.05599
G1 X197.820 Y169.321 E0.06156
G1 X196.720 Y169.911 E0.05497
G1 X195.520 Y170.281 E0.05530
G1 X194.260 Y170.411 E0.05579
G1 X102.190 Y170.911 E4.05485
G1 X100.940 Y170.791 E0.05530
G1 X99.730 Y170.431 E0.05560
G1 X98.610 Y169.841 E0.05575
G1 X97.630 Y169.051 E0.05544
G1 X96.820 Y168.071 E0.05599
G1 X39.260 Y82.751 E4.53265
G1 X38.660 Y81.641 E0.05557
G1 X38.290 Y80.431 E0.05572
G1 X38.160 Y79.181 E0.05535
G1 X38.280 Y77.921 E0.05574
G1 X38.640 Y76.711 E0.05560
G1 X39.230 Y75.591 E0.05575
G1 X40.030 Y74.621 E0.05537
G1 X40.949 Y73.854 E0.05274
G1 F1800.000 E-1.00000
G1 X45.556 Y79.328 F3600.000
G1 E1.00000 F1800.000
G1 X109.091 Y36.473 E3.37512 F540.000
G1 X194.444 Y163.015 E6.72218
G1 X194.029 Y163.295 E0.02208
G1 X102.526 Y163.790 E4.02986
G1 X45.593 Y79.383 E4.48390
G1 X44.943 Y79.209 F3600.000
G1 X109.210 Y35.860 E3.41400 F378.000
G1 X195.057 Y163.134 E6.76106
G1 X194.165 Y163.736 E0.04740
G1 X102.292 Y164.233 E4.04615
G1 X44.980 Y79.263 E4.51374
G1 X45.383 Y79.178 F3600.000
G1 X46.113 Y79.311 F3600.000
G1 X130.144 Y163.343 E5.25473 F720.000
G1 X130.768 Y163.339 E0.02756
G1 X46.487 Y79.059 E5.27030
G1 X46.861 Y78.806 E0.01996
G1 X131.391 Y163.336 E5.28588
G1 X132.014 Y163.333 E0.02756
G1 X47.235 Y78.554 E5.30145
G1 X47.610 Y78.301 E0.01996
G1 X132.638 Y163.329 E5.31703
G1 X133.261 Y163.326 E0.02756
G1 X47.984 Y78.049 E5.33260
G1 X48.358 Y77.796 E0.01996
G1 X133.884 Y163.322 E5.34818
G1 X134.508 Y163.319 E0.02756
G1 X48.732 Y77.544 E5.36376
G1 X49.107 Y77.292 E0.01996
G1 X135.131 Y163.316 E5.37933
G1 X135.754 Y163.312 E0.02756
G1 X49.481 Y77.039 E5.39491
G1 X49.855 Y76.787 E0.01996
G1 X136.378 Y163.309 E5.41048
G1 X137.001 Y163.306 E0.02756
G1 X50.230 Y76.534 E5.42606
G1 X50.604 Y76.282 E0.01996
G1 X137.624 Y163.302 E5.44163
G1 X138.248 Y163.299 E0.02756
G1 X50.978 Y76.029 E5.45721
G1 X51.352 Y75.777 E0.01996
G1 X138.871 Y163.296 E5.47278
G1 X139.494 Y163.292 E0.02756
G1 X51.727 Y75.524 E5.48836
G1 X52.101 Y75.272 E0.01996
G1 X140.118 Y163.289 E5.50393
G1 X140.741 Y163.285 E0.02756
G1 X52.475 Y75.020 E5.51951
G1 X52.849 Y74.767 E0.01996
G1 X141.364 Y163.282 E5.53508
G1 X141.988 Y163.279 E0.02756
G1 X53.224 Y74.515 E5.55066
G1 X53.598 Y74.262 E0.01996
G1 X142.611 Y163.275 E5.56623
G1 X143.234 Y163.272 E0.02756
G1 X53.972 Y74.010 E5.58181
G1 X54.346 Y73.757 E0.01996
G1 X143.858 Y163.269 E5.59738
G1 X144.481 Y163.265 E0.02756
G1 X54.721 Y73.505 E5.61296
G1 X55.095 Y73.252 E0.01996
G1 X145.104 Y163.262 E5.62853
G1 X145.728 Y163.258 E0.02756
G1 X55.469 Y73.000 E5.64411
G1 X55.843 Y72.748 E0.01996
G1 X146.351 Y163.255 E5.65968
G1 X146.974 Y163.252 E0.02756
G1 X56.218 Y72.495 E5.67526
G1 X56.592 Y72.243 E0.01996
G1 X147.598 Y163.248 E5.69083
G1 X148.221 Y163.245 E0.02756
G1 X56.966 Y71.990 E5.70641
G1 X57.340 Y71.738 E0.01996
G1 X148.844 Y163.242 E5.72198
G1 X149.468 Y163.238 E0.02756
G1 X57.715 Y71.485 E5.73756
G1 X58.089 Y71.233 E0.01996
G1 X150.091 Y163.235 E5.75313
G1 X150.714 Y163.231 E0.02756
G1 X58.463 Y70.980 E5.76871
G1 X58.838 Y70.728 E0.01996
G1 X151.338 Y163.228 E5.78428
G1 X151.961 Y163.225 E0.02756
G1 X59.212 Y70.476 E5.79986
G1 X59.586 Y70.223 E0.01996
G1 X152.584 Y163.221 E5.81543
G1 X153.208 Y163.218 E0.02756
G1 X59.960 Y69.971 E5.83101
G1 X60.335 Y69.718 E0.01996
G1 X153.831 Y163.215 E5.84658
G1 X154.454 Y163.211 E0.02756
G1 X60.709 Y69.466 E5.86216
G1 X61.083 Y69.213 E0.01996
G1 X155.078 Y163.208 E5.87773
G1 X155.701 Y163.204 E0.02756
G1 X61.457 Y68.961 E5.89331
G1 X61.832 Y68.709 E0.01996
G1 X156.324 Y163.201 E5.90888
G1 X156.948 Y163.198 E0.02756
G1 X62.206 Y68.456 E5.92446
G1 X62.580 Y68.204 E0.01996
G1 X157.571 Y163.194 E5.94003
G1 X158.194 Y163.191 E0.02756
G1 X62.954 Y67.951 E5.95561
G1 X63.329 Y67.699 E0.01996
G1 X158.818 Y163.188 E5.97118
G1 X159.441 Y163.184 E0.02756
G1 X63.703 Y67.446 E5.98676
G1 X64.077 Y67.194 E0.01996
G1 X160.064 Y163.181 E6.00233
G1 X160.688 Y163.178 E0.02756
G1 X64.451 Y66.941 E6.01791
G1 X64.826 Y66.689 E0.01996
G1 X161.311 Y163.174 E6.03348
G1 X161.934 Y163.171 E0.02756
G1 X65.200 Y66.437 E6.04906
G1 X65.574 Y66.184 E0.01996
G1 X162.558 Y163.167 E6.06463
G1 X163.181 Y163.164 E0.02756
G1 X65.949 Y65.932 E6.08021
G1 X66.323 Y65.679 E0.01996
G1 X163.804 Y163.161 E6.09578
G1 X164.428 Y163.157 E0.02756
G1 X66.697 Y65.427 E6.11136
G1 X67.071 Y65.174 E0.01996
G1 X165.051 Y163.154 E6.12693
G1 X165.674 Y163.151 E0.02756
G1 X67.446 Y64.922 E6.14251
G1 X67.820 Y64.669 E0.01996
G1 X166.298 Y163.147 E6.15808
G1 X166.921 Y163.144 E0.02756
G1 X68.194 Y64.417 E6.17366
G1 X68.568 Y64.165 E0.01996
G1 X167.544 Y163.140 E6.18923
G1 X168.168 Y163.137 E0.02756
G1 X68.943 Y63.912 E6.20481
G1 X69.317 Y63.660 E0.01996
G1 X168.791 Y163.134 E6.22038
G1 X169.414 Y163.130 E0.02756
G1 X69.691 Y63.407 E6.23596
G1 X70.065 Y63.155 E0.01996
G1 X170.038 Y163.127 E6.25153
G1 X170.661 Y163.124 E0.02756
G1 X70.440 Y62.902 E6.26711
G1 X70.814 Y62.650 E0.01996
G1 X171.284 Y163.120 E6.28268
G1 X171.908 Y163.117 E0.02756
G1 X71.188 Y62.397 E6.29826
G1 X71.562 Y62.145 E0.01996
G1 X172.531 Y163.113 E6.31383
G1 X173.154 Y163.110 E0.02756
G1 X71.937 Y61.893 E6.32941
G1 X72.311 Y61.640 E0.01996
G1 X173.778 Y163.107 E6.34498
G1 X174.401 Y163.103 E0.02756
G1 X72.685 Y61.388 E6.36056
G1 X73.059 Y61.135 E0.01996
G1 X175.024 Y163.100 E6.37613
G1 X175.648 Y163.097 E0.02756
G1 X73.434 Y60.883 E6.39171
G1 X73.808 Y60.630 E0.01996
G1 X176.271 Y163.093 E6.40728
G1 X176.894 Y163.090 E0.02756
G1 X74.182 Y60.378 E6.42286
G1 X74.557 Y60.125 E0.01996
G1 X177.518 Y163.086 E6.43843
G1 X178.141 Y163.083 E0.02756
G1 X74.931 Y59.873 E6.45401
G1 X75.305 Y59.621 E0.01996
G1 X178.764 Y163.080 E6.46959
G1 X179.388 Y163.076 E0.02756
G1 X75.679 Y59.368 E6.48516
G1 X76.054 Y59.116 E0.01996
G1 X180.011 Y163.073 E6.50074
G1 X180.634 Y163.070 E0.02756
G1 X76.428 Y58.863 E6.51631
G1 X76.802 Y58.611 E0.01996
G1 X181.258 Y163.066 E6.53189
G1 X181.881 Y163.063 E0.02756
G1 X77.176 Y58.358 E6.54746
G1 X77.551 Y58.106 E0.01996
G1 X182.504 Y163.059 E6.56304
G1 X183.128 Y163.056 E0.02756
G1 X77.925 Y57.853 E6.57861
G1 X78.299 Y57.601 E0.01996
G1 X183.751 Y163.053 E6.59419
G1 X184.374 Y163.049 E0.02756
G1 X78.673 Y57.349 E6.60976
G1 X79.048 Y57.096 E0.01996
G1 X184.997 Y163.046 E6.62534
G1 X185.621 Y163.043 E0.02756
G1 X79.422 Y56.844 E6.64091
G1 X79.796 Y56.591 E0.01996
G1 X186.244 Y163.039 E6.65649
G1 X186.867 Y163.036 E0.02756
G1 X80.170 Y56.339 E6.67206
G1 X80.545 Y56.086 E0.01996
G1 X187.491 Y163.033 E6.68764
G1 X188.114 Y163.029 E0.02756
G1 X80.919 Y55.834 E6.70321
G1 X81.293 Y55.582 E0.01996
G1 X188.737 Y163.026 E6.71879
G1 X189.361 Y163.022 E0.02756
G1 X81.667 Y55.329 E6.73436
G1 X82.042 Y55.077 E0.01996
G1 X189.984 Y163.019 E6.74994
G1 X190.607 Y163.016 E0.02756
G1 X82.416 Y54.824 E6.76551
G1 X82.790 Y54.572 E0.01996
G1 X191.231 Y163.012 E6.78109
G1 X191.854 Y163.009 E0.02756
G1 X83.165 Y54.319 E6.79666
G1 X83.539 Y54.067 E0.01996
G1 X192.477 Y163.006 E6.81224
G1 X193.101 Y163.002 E0.02756
G1 X83.913 Y53.814 E6.82781
G1 X84.287 Y53.562 E0.01996
G1 X193.724 Y162.999 E6.84339
G1 X193.502 Y162.150 E0.03881
G1 X84.662 Y53.310 E6.80608
G1 X85.036 Y53.057 E0.01996
G1 X192.203 Y160.224 E6.70147
G1 X190.904 Y158.299 F3600.000
G1 X85.410 Y52.805 E6.59685 F720.000
G1 X85.784 Y52.552 E0.01996
G1 X189.606 Y156.374 E6.49224
G1 X188.307 Y154.448 F3600.000
G1 X86.159 Y52.300 E6.38762 F720.000
G1 X86.533 Y52.047 E0.01996
G1 X187.008 Y152.523 E6.28301
G1 X185.710 Y150.597 F3600.000
G1 X86.907 Y51.795 E6.17839 F720.000
G1 X87.281 Y51.542 E0.01996
G1 X184.411 Y148.672 E6.07378
G1 X183.112 Y146.747 F3600.000
G1 X87.656 Y51.290 E5.96916 F720.000
G1 X88.030 Y51.038 E0.01996
G1 X181.814 Y144.821 E5.86455
G1 X180.515 Y142.896 F3600.000
G1 X88.404 Y50.785 E5.75993 F720.000
G1 X88.778 Y50.533 E0.01996
G1 X179.216 Y140.970 E5.65532
G1 X177.917 Y139.045 F3600.000
G1 X89.153 Y50.280 E5.55070 F720.000
G1 X89.527 Y50.028 E0.01996
G1 X176.619 Y137.119 E5.44609
G1 X175.320 Y135.194 F3600.000
G1 X89.901 Y49.775 E5.34147 F720.000
G1 X90.275 Y49.523 E0.01996
G1 X174.021 Y133.269 E5.23685
G1 X172.723 Y131.343 F3600.000
G1 X90.650 Y49.270 E5.13224 F720.000
G1 X91.024 Y49.018 E0.01996
G1 X171.424 Y129.418 E5.02762
G1 X170.125 Y127.492 F3600.000
G1 X91.398 Y48.766 E4.92301 F720.000
G1 X91.773 Y48.513 E0.01996
G1 X168.826 Y125.567 E4.81839
G1 X167.528 Y123.642 F3600.000
G1 X92.147 Y48.261 E4.71378 F720.000
G1 X92.521 Y48.008 E0.01996
G1 X166.229 Y121.716 E4.60916
G1 X164.930 Y119.791 F3600.000
G1 X92.895 Y47.756 E4.50455 F720.000
G1 X93.270 Y47.503 E0.01996
G1 X163.632 Y117.865 E4.39993
G1 X162.333 Y115.940 F3600.000
G1 X93.644 Y47.251 E4.29532 F720.000
G1 X94.018 Y46.998 E0.01996
G1 X161.034 Y114.015 E4.19070
G1 X159.736 Y112.089 F3600.000
G1 X94.392 Y46.746 E4.08609 F720.000
G1 X94.767 Y46.494 E0.01996
G1 X158.437 Y110.164 E3.98147
G1 X157.138 Y108.238 F3600.000
G1 X95.141 Y46.241 E3.87686 F720.000
G1 X95.515 Y45.989 E0.01996
G1 X155.839 Y106.313 E3.77224
G1 X154.541 Y104.388 F3600.000
G1 X95.889 Y45.736 E3.66763 F720.000
G1 X96.264 Y45.484 E0.01996
G1 X153.242 Y102.462 E3.56301
G1 X151.943 Y100.537 F3600.000
G1 X96.638 Y45.231 E3.45840 F720.000
G1 X97.012 Y44.979 E0.01996
G1 X150.645 Y98.611 E3.35378
G1 X149.346 Y96.686 F3600.000
G1 X97.386 Y44.726 E3.24917 F720.000
G1 X97.761 Y44.474 E0.01996
G1 X148.047 Y94.761 E3.14455
G1 X146.749 Y92.835 F3600.000
G1 X98.135 Y44.222 E3.03994 F720.000
G1 X98.509 Y43.969 E0.01996
G1 X145.450 Y90.910 E2.93532
G1 X144.151 Y88.984 F3600.000
G1 X98.884 Y43.717 E2.83071 F720.000
G1 X99.258 Y43.464 E0.01996
G1 X142.852 Y87.059 E2.72609
G1 X141.554 Y85.133 F3600.000
G1 X99.632 Y43.212 E2.62148 F720.000
G1 X100.006 Y42.959 E0.01996
G1 X140.255 Y83.208 E2.51686
G1 X138.956 Y81.283 F3600.000
G1 X100.381 Y42.707 E2.41225 F720.000
G1 X100.755 Y42.455 E0.01996
G1 X137.658 Y79.357 E2.30763
G1 X136.359 Y77.432 F3600.000
G1 X101.129 Y42.202 E2.20302 F720.000
G1 X101.503 Y41.950 E0.01996
G1 X135.060 Y75.506 E2.09840
G1 X133.761 Y73.581 F3600.000
G1 X101.878 Y41.697 E1.99379 F720.000
G1 X102.252 Y41.445 E0.01996
G1 X132.463 Y71.656 E1.88917
G1 X131.164 Y69.730 F3600.000
G1 X102.626 Y41.192 E1.78456 F720.000
G1 X103.000 Y40.940 E0.01996
G1 X129.865 Y67.805 E1.67994
G1 X128.567 Y65.879 F3600.000
G1 X103.375 Y40.687 E1.57533 F720.000
G1 X103.749 Y40.435 E0.01996
G1 X127.268 Y63.954 E1.47071
G1 X125.969 Y62.029 F3600.000
G1 X104.123 Y40.183 E1.36610 F720.000
G1 X104.497 Y39.930 E0.01996
G1 X124.671 Y60.103 E1.26148
G1 X123.372 Y58.178 F3600.000
G1 X104.872 Y39.678 E1.15687 F720.000
G1 X105.246 Y39.425 E0.01996
G1 X122.073 Y56.252 E1.05225
G1 X120.774 Y54.327 F3600.000
G1 X105.620 Y39.173 E0.94764 F720.000
G1 X105.994 Y38.920 E0.01996
G1 X119.476 Y52.402 E0.84302
G1 X118.177 Y50.476 F3600.000
G1 X106.369 Y38.668 E0.73841 F720.000
G1 X106.743 Y38.415 E0.01996
G1 X116.878 Y48.551 E0.63379
G1 X115.580 Y46.625 F3600.000
G1 X107.117 Y38.163 E0.52917 F720.000
G1 X107.492 Y37.911 E0.01996
G1 X114.281 Y44.700 E0.42456
G1 X112.982 Y42.775 F3600.000
G1 X107.866 Y37.658 E0.31994 F720.000
G1 X108.240 Y37.406 E0.01996
G1 X111.684 Y40.849 E0.21533
G1 X110.385 Y38.924 F3600.000
G1 X108.614 Y37.153 E0.11071 F720.000
G1 X46.769 Y80.594 F3600.000
G1 X129.521 Y163.346 E5.17469 F720.000
G1 X128.898 Y163.349 E0.02756
G1 X48.068 Y82.520 E5.05450
G1 X49.367 Y84.445 F3600.000
G1 X128.274 Y163.353 E4.93431 F720.000
G1 X127.651 Y163.356 E0.02756
G1 X50.665 Y86.371 E4.81412
G1 X51.964 Y88.296 F3600.000
G1 X127.028 Y163.360 E4.69393 F720.000
G1 X126.404 Y163.363 E0.02756
G1 X53.263 Y90.221 E4.57374
G1 X54.562 Y92.147 F3600.000
G1 X125.781 Y163.366 E4.45355 F720.000
G1 X125.158 Y163.370 E0.02756
G1 X55.860 Y94.072 E4.33336
G1 X57.159 Y95.998 F3600.000
G1 X124.534 Y163.373 E4.21317 F720.000
G1 X123.911 Y163.376 E0.02756
G1 X58.458 Y97.923 E4.09298
G1 X59.756 Y99.849 F3600.000
G1 X123.288 Y163.380 E3.97279 F720.000
G1 X122.664 Y163.383 E0.02756
G1 X61.055 Y101.774 E3.85260
G1 X62.354 Y103.699 F3600.000
G1 X122.041 Y163.387 E3.73241 F720.000
G1 X121.418 Y163.390 E0.02756
G1 X63.652 Y105.625 E3.61222
G1 X64.951 Y107.550 F3600.000
G1 X120.794 Y163.393 E3.49203 F720.000
G1 X120.171 Y163.397 E0.02756
G1 X66.250 Y109.476 E3.37184
G1 X67.549 Y111.401 F3600.000
G1 X119.548 Y163.400 E3.25165 F720.000
G1 X118.924 Y163.403 E0.02756
G1 X68.847 Y113.326 E3.13146
G1 X70.146 Y115.252 F3600.000
G1 X118.301 Y163.407 E3.01127 F720.000
G1 X117.678 Y163.410 E0.02756
G1 X71.445 Y117.177 E2.89108
G1 X72.743 Y119.103 F3600.000
G1 X117.054 Y163.414 E2.77089 F720.000
G1 X116.431 Y163.417 E0.02756
G1 X74.042 Y121.028 E2.65070
G1 X75.341 Y122.953 F3600.000
G1 X115.808 Y163.420 E2.53051 F720.000
G1 X115.184 Y163.424 E0.02756
G1 X76.639 Y124.879 E2.41032
G1 X77.938 Y126.804 F3600.000
G1 X114.561 Y163.427 E2.29013 F720.000
G1 X113.938 Y163.430 E0.02756
G1 X79.237 Y128.730 E2.16994
G1 X80.536 Y130.655 F3600.000
G1 X113.314 Y163.434 E2.04975 F720.000
G1 X112.691 Y163.437 E0.02756
G1 X81.834 Y132.580 E1.92956
G1 X83.133 Y134.506 F3600.000
G1 X112.068 Y163.441 E1.80937 F720.000
G1 X111.444 Y163.444 E0.02756
G1 X84.432 Y136.431 E1.68918
G1 X85.730 Y138.357 F3600.000
G1 X110.821 Y163.447 E1.56898 F720.000
G1 X110.198 Y163.451 E0.02756
G1 X87.029 Y140.282 E1.44879
G1 X88.328 Y142.207 F3600.000
G1 X109.574 Y163.454 E1.32860 F720.000
G1 X108.951 Y163.457 E0.02756
G1 X89.626 Y144.133 E1.20841
G1 X90.925 Y146.058 F3600.000
G1 X108.328 Y163.461 E1.08822 F720.000
G1 X107.704 Y163.464 E0.02756
G1 X92.224 Y147.984 E0.96803
G1 X93.523 Y149.909 F3600.000
G1 X107.081 Y163.467 E0.84784 F720.000
G1 X106.458 Y163.471 E0.02756
G1 X94.821 Y151.834 E0.72765
G1 X96.120 Y153.760 F3600.000
G1 X105.834 Y163.474 E0.60746 F720.000
G1 X105.211 Y163.478 E0.02756
G1 X97.419 Y155.685 E0.48727
G1 X98.717 Y157.611 F3600.000
G1 X104.588 Y163.481 E0.36708 F720.000
G1 X103.964 Y163.484 E0.02756
G1 X100.016 Y159.536 E0.24689
G1 X101.315 Y161.462 F3600.000
G1 X103.341 Y163.488 E0.12670 F720.000
G1 X102.614 Y163.387 E0.03247
G1 X102.718 Y163.491 E0.00651
G1 F1800.000 E-1.00000
G1 Z0.480 F3600.000
G1 X102.190 Y170.911 F3600.000
G1 E1.00000 F1800.000
G1 X100.940 Y170.791 E0.05530 F1800
G1 X99.730 Y170.431 E0.05560
G1 X98.610 Y169.841 E0.05575
G1 X97.630 Y169.051 E0.05544
G1 X96.820 Y168.071 E0.05599
G1 X39.260 Y82.751 E4.53265
G1 X38.660 Y81.641 E0.05557
G1 X38.290 Y80.431 E0.05572
G1 X38.160 Y79.181 E0.05535
G1 X38.280 Y77.921 E0.05574
G1 X38.640 Y76.711 E0.05560
G1 X39.230 Y75.591 E0.05575
G1 X40.030 Y74.621 E0.05537
G1 X41.000 Y73.811 E0.05565
G1 X105.670 Y30.191 E3.43540
G1 X106.780 Y29.591 E0.05557
