; generated by Slic3r 1.2.9 on 2017-06-12 at 14:45:59

; external perimeters extrusion width = 0.40mm
; perimeters extrusion width = 0.40mm
; infill extrusion width = 0.40mm
; solid infill extrusion width = 0.40mm
; top infill extrusion width = 0.40mm

M107
M83
T0
M116
G21 ; set units to millimeters
G90 ; use absolute coordinates
M83 ; use relative distances for extrusion
G1 E-3.20000 F3000.00000
G1 Z0.400 F15000.000
G1 X18.531 Y0.000 F15000.000
G1 Z0.300 F15000.000
G1 E3.20000 F3000.00000
G1 X18.513 Y50.266 E3.87377 F960.000
G1 X18.375 Y52.639 E0.18318
G1 X18.285 Y53.250 E0.04763
G1 X17.791 Y55.349 E0.16616
G1 X17.598 Y55.939 E0.04788
G1 X16.753 Y57.924 E0.16626
G1 X16.462 Y58.472 E0.04781
G1 X15.293 Y60.284 E0.16618
G1 X14.915 Y60.773 E0.04761
G1 X13.456 Y62.361 E0.16619
G1 X12.998 Y62.781 E0.04791
G1 X11.289 Y64.097 E0.16617
G1 X10.768 Y64.431 E0.04774
G1 X8.861 Y65.438 E0.16622
G1 X8.290 Y65.680 E0.04773
G1 X6.241 Y66.348 E0.16616
G1 X5.638 Y66.489 E0.04772
G1 X3.504 Y66.800 E0.16616
G1 X2.884 Y66.837 E0.04785
G1 X0.728 Y66.780 E0.16625
G1 X0.113 Y66.711 E0.04767
G1 X-2.001 Y66.290 E0.16617
G1 X-2.598 Y66.117 E0.04784
G1 X-4.610 Y65.342 E0.16616
G1 X-5.166 Y65.071 E0.04770
G1 X-7.019 Y63.965 E0.16626
G1 X-7.521 Y63.604 E0.04765
G1 X-9.158 Y62.201 E0.16620
G1 X-9.593 Y61.758 E0.04786
G1 X-10.968 Y60.096 E0.16618
G1 X-11.258 Y59.693 E0.03827
G1 X-17.986 Y48.829 E0.98479
G1 X-18.531 Y46.915 E0.15338
G1 X-18.531 Y-46.915 E7.23107
G1 X-17.986 Y-48.829 E0.15338
G1 X-11.258 Y-59.693 E0.98479
G1 X-10.968 Y-60.096 E0.03827
G1 X-9.593 Y-61.758 E0.16618
G1 X-9.158 Y-62.201 E0.04786
G1 X-7.521 Y-63.604 E0.16620
G1 X-7.019 Y-63.965 E0.04766
G1 X-5.167 Y-65.071 E0.16620
G1 X-4.610 Y-65.342 E0.04775
G1 X-2.598 Y-66.117 E0.16616
G1 X-2.001 Y-66.290 E0.04784
G1 X0.113 Y-66.711 E0.16617
G1 X0.728 Y-66.780 E0.04767
G1 X2.884 Y-66.837 E0.16625
G1 X3.504 Y-66.800 E0.04784
G1 X5.638 Y-66.489 E0.16616 F960.000
G1 X6.241 Y-66.348 E0.04772
G1 X8.290 Y-65.680 E0.16616
G1 X8.861 Y-65.438 E0.04773
G1 X10.768 Y-64.431 E0.16622
G1 X11.289 Y-64.097 E0.04774
G1 X12.998 Y-62.781 E0.16617
G1 X13.456 Y-62.361 E0.04791
G1 X14.915 Y-60.773 E0.16619
G1 X15.293 Y-60.284 E0.04761
G1 X16.462 Y-58.472 E0.16618
G1 X16.753 Y-57.924 E0.04781
G1 X17.598 Y-55.939 E0.16626
G1 X17.791 Y-55.349 E0.04788
G1 X18.285 Y-53.250 E0.16615
G1 X18.375 Y-52.639 E0.04763
G1 X18.513 Y-50.266 E0.18318
G1 X18.531 Y-0.060 E3.86915
G1 E-3.20000 F3000.00000
G1 Z0.700 F15000.000
G1 X6.548 Y56.065 F15000.000
G1 Z0.300 F15000.000
G1 E3.20000 F3000.00000
G1 X6.888 Y56.154 E0.02705 F600.000
G1 X7.204 Y56.297 E0.02676
G1 X7.491 Y56.491 E0.02665
G1 X7.745 Y56.733 E0.02703
G1 X7.951 Y57.015 E0.02693
G1 X8.109 Y57.325 E0.02686
G1 X8.210 Y57.660 E0.02693
G1 X8.254 Y58.003 E0.02668
G1 X8.240 Y58.351 E0.02683
G1 X8.167 Y58.694 E0.02705
G1 X8.036 Y59.017 E0.02684
G1 X7.854 Y59.313 E0.02680
G1 X7.623 Y59.574 E0.02684
G1 X7.380 Y59.772 E0.02412
G1 X7.058 Y59.960 E0.02876
G1 X6.720 Y60.080 E0.02767
G1 X6.376 Y60.139 E0.02688
G1 X6.026 Y60.139 E0.02695
G1 X5.681 Y60.080 E0.02695
G1 X5.354 Y59.963 E0.02681
G1 X5.051 Y59.794 E0.02670
G1 X4.780 Y59.576 E0.02684
G1 X4.548 Y59.313 E0.02699
G1 X4.365 Y59.014 E0.02701
G1 X4.237 Y58.694 E0.02658
G1 X4.162 Y58.354 E0.02685
G1 X4.148 Y58.003 E0.02706
G1 X4.192 Y57.660 E0.02668
G1 X4.293 Y57.325 E0.02693
G1 X4.451 Y57.015 E0.02685
G1 X4.657 Y56.733 E0.02693
G1 X4.913 Y56.490 E0.02716
G1 X5.201 Y56.296 E0.02672
G1 X5.522 Y56.151 E0.02715
G1 X5.878 Y56.063 E0.02827
G1 X6.201 Y56.036 E0.02501 F600.000
G1 X6.488 Y56.060 E0.02223
G1 X6.437 Y56.693 F15000.000
G1 X6.674 Y56.755 E0.01891 F600.000
G1 X6.893 Y56.854 E0.01849
G1 X7.091 Y56.988 E0.01840
G1 X7.265 Y57.154 E0.01861
G1 X7.408 Y57.348 E0.01856
G1 X7.517 Y57.563 E0.01854
G1 X7.586 Y57.793 E0.01856
G1 X7.617 Y58.031 E0.01846
G1 X7.607 Y58.271 E0.01851
G1 X7.557 Y58.507 E0.01858
G1 X7.466 Y58.729 E0.01853
G1 X7.341 Y58.934 E0.01851
G1 X7.182 Y59.114 E0.01851
G1 X7.018 Y59.247 E0.01630
G1 X6.789 Y59.381 E0.02041
G1 X6.558 Y59.463 E0.01885
G1 X6.322 Y59.503 E0.01848
G1 X6.080 Y59.503 E0.01866
G1 X5.843 Y59.463 E0.01851
G1 X5.617 Y59.382 E0.01849
G1 X5.408 Y59.265 E0.01849
G1 X5.221 Y59.115 E0.01851
G1 X5.061 Y58.934 E0.01857
G1 X4.935 Y58.728 E0.01859
G1 X4.846 Y58.507 E0.01842
G1 X4.795 Y58.272 E0.01851
G1 X4.785 Y58.031 E0.01859
G1 X4.816 Y57.793 E0.01846
G1 X4.885 Y57.563 E0.01856
G1 X4.994 Y57.348 E0.01854
G1 X5.136 Y57.154 E0.01856
G1 X5.312 Y56.987 E0.01865
G1 X5.511 Y56.854 E0.01847
G1 X5.731 Y56.754 E0.01862
G1 X5.981 Y56.692 E0.01984
G1 X6.201 Y56.674 E0.01703 F600.000
G1 X6.377 Y56.689 E0.01362
G1 X6.599 Y56.509 F15000.000
G1 X5.124 Y54.854 F15000.000
G1 X4.359 Y55.281 E0.06755 F600.000
G1 X3.533 Y55.572 E0.06752
G1 X2.692 Y55.716 E0.06573
G1 X2.232 Y55.736 E0.03548
G1 X1.772 Y55.716 E0.03547
G1 X0.930 Y55.572 E0.06582
G1 X0.105 Y55.281 E0.06745
G1 X-0.660 Y54.854 E0.06750
G1 X-1.342 Y54.303 E0.06758
G1 X-1.921 Y53.646 E0.06748
G1 X-2.380 Y52.899 E0.06757
G1 X-2.706 Y52.087 E0.06744
G1 X-2.891 Y51.231 E0.06746
G1 X-2.928 Y50.356 E0.06754
G1 X-2.896 Y50.099 E0.01994
G1 X-3.292 Y50.099 E0.03058
G1 X-2.166 Y47.868 E0.19263
G1 X-1.645 Y47.163 E0.06751
G1 X-1.013 Y46.557 E0.06751
G1 X-0.287 Y46.066 E0.06756
G1 X0.518 Y45.703 E0.06801
G1 X1.420 Y45.480 E0.07164
G1 X2.232 Y45.410 E0.06279 F600.000
G1 X3.105 Y45.485 E0.06752
G1 X3.952 Y45.705 E0.06746
G1 X4.750 Y46.066 E0.06748
G1 X5.476 Y46.557 E0.06753
G1 X6.108 Y47.163 E0.06751
G1 X6.629 Y47.868 E0.06751
G1 X7.023 Y48.649 E0.06743
G1 X7.280 Y49.486 E0.06752
G1 X7.391 Y50.355 E0.06753
G1 X7.354 Y51.230 E0.06750
G1 X7.170 Y52.087 E0.06749
G1 X6.843 Y52.900 E0.06752
G1 X6.384 Y53.646 E0.06751
G1 X5.805 Y54.303 E0.06744
G1 X5.171 Y54.816 E0.06290
G1 X4.771 Y54.322 F15000.000
G1 X4.096 Y54.699 E0.05961 F600.000
G1 X3.372 Y54.955 E0.05918
G1 X2.624 Y55.083 E0.05845
G1 X2.232 Y55.100 E0.03028
G1 X1.840 Y55.083 E0.03027
G1 X1.091 Y54.955 E0.05853
G1 X0.368 Y54.699 E0.05911
G1 X-0.303 Y54.325 E0.05917
G1 X-0.901 Y53.842 E0.05923
G1 X-1.408 Y53.266 E0.05914
G1 X-1.811 Y52.612 E0.05920
G1 X-2.096 Y51.900 E0.05912
G1 X-2.258 Y51.150 E0.05916
G1 X-2.291 Y50.383 E0.05917
G1 X-2.173 Y49.463 E0.07143
G1 X-2.260 Y49.463 E0.00665
G1 X-1.623 Y48.202 E0.10888
G1 X-1.166 Y47.584 E0.05919
G1 X-0.612 Y47.053 E0.05916
G1 X0.024 Y46.623 E0.05920
G1 X0.726 Y46.306 E0.05936
G1 X1.524 Y46.109 E0.06334
G1 X2.232 Y46.048 E0.05474 F600.000
G1 X2.997 Y46.114 E0.05917
G1 X3.740 Y46.307 E0.05914
G1 X4.439 Y46.623 E0.05913
G1 X5.075 Y47.053 E0.05920
G1 X5.629 Y47.584 E0.05916
G1 X6.086 Y48.202 E0.05919
G1 X6.431 Y48.887 E0.05911
G1 X6.656 Y49.621 E0.05918
G1 X6.754 Y50.382 E0.05917
G1 X6.721 Y51.149 E0.05917
G1 X6.560 Y51.900 E0.05916
G1 X6.273 Y52.612 E0.05917
G1 X5.871 Y53.266 E0.05918
G1 X5.364 Y53.842 E0.05913
G1 X4.818 Y54.284 E0.05413
G1 X4.788 Y54.721 F15000.000
G1 E-3.20000 F3000.00000
G1 Z0.700 F15000.000
G1 X-0.585 Y44.760 F15000.000
G1 Z0.300 F15000.000
G1 E3.20000 F3000.00000
G1 X-0.892 Y44.932 E0.02711 F600.000
G1 X-1.222 Y45.048 E0.02693
G1 X-1.562 Y45.106 E0.02658
G1 X-1.913 Y45.106 E0.02706
G1 X-2.255 Y45.048 E0.02674
G1 X-2.583 Y44.932 E0.02678
G1 X-2.890 Y44.761 E0.02710
G1 X-3.162 Y44.540 E0.02707
G1 X-3.389 Y44.280 E0.02656
G1 X-3.573 Y43.984 E0.02688
G1 X-3.703 Y43.658 E0.02701
G1 X-3.776 Y43.321 E0.02660
G1 X-3.792 Y42.973 E0.02684
G1 X-3.747 Y42.624 E0.02714
G1 X-3.644 Y42.292 E0.02674
G1 X-3.488 Y41.980 E0.02693
G1 X-3.280 Y41.701 E0.02680
G1 X-3.030 Y41.459 E0.02683
G1 X-2.738 Y41.263 E0.02705
G1 X-2.415 Y41.117 E0.02738
G1 X-2.061 Y41.031 E0.02805
G1 X-1.738 Y41.003 E0.02498 F600.000
G1 X-1.391 Y41.033 E0.02689
G1 X-1.054 Y41.120 E0.02680
G1 X-0.737 Y41.263 E0.02685
G1 X-0.445 Y41.459 E0.02705
G1 X-0.195 Y41.701 E0.02683
G1 X0.013 Y41.980 E0.02680
G1 X0.169 Y42.292 E0.02692
G1 X0.273 Y42.627 E0.02697
G1 X0.315 Y42.973 E0.02690
G1 X0.301 Y43.318 E0.02659
G1 X0.228 Y43.658 E0.02683
G1 X0.098 Y43.984 E0.02701
G1 X-0.087 Y44.282 E0.02705
G1 X-0.315 Y44.541 E0.02661
G1 X-0.538 Y44.723 E0.02215
G1 X-0.939 Y44.229 F15000.000
G1 X-1.154 Y44.351 E0.01899 F600.000
G1 X-1.381 Y44.430 E0.01857
G1 X-1.616 Y44.470 E0.01832
G1 X-1.859 Y44.470 E0.01874
G1 X-2.095 Y44.430 E0.01843
G1 X-2.321 Y44.351 E0.01847
G1 X-2.532 Y44.233 E0.01864
G1 X-2.720 Y44.080 E0.01862
G1 X-2.877 Y43.901 E0.01837
G1 X-3.003 Y43.696 E0.01856
G1 X-3.093 Y43.473 E0.01858
G1 X-3.143 Y43.239 E0.01840
G1 X-3.154 Y42.999 E0.01851
G1 X-3.123 Y42.759 E0.01864
G1 X-3.052 Y42.530 E0.01850
G1 X-2.945 Y42.315 E0.01855
G1 X-2.801 Y42.122 E0.01850
G1 X-2.629 Y41.955 E0.01852
G1 X-2.428 Y41.821 E0.01860
G1 X-2.207 Y41.721 E0.01871
G1 X-1.958 Y41.660 E0.01977
G1 X-1.738 Y41.641 E0.01699 F600.000
G1 X-1.498 Y41.662 E0.01855
G1 X-1.266 Y41.722 E0.01851
G1 X-1.047 Y41.821 E0.01852
G1 X-0.846 Y41.955 E0.01859
G1 X-0.674 Y42.122 E0.01853
G1 X-0.530 Y42.315 E0.01849
G1 X-0.423 Y42.530 E0.01854
G1 X-0.351 Y42.760 E0.01859
G1 X-0.322 Y42.999 E0.01854
G1 X-0.332 Y43.238 E0.01841
G1 X-0.382 Y43.473 E0.01849
G1 X-0.472 Y43.696 E0.01858
G1 X-0.599 Y43.902 E0.01863
G1 X-0.757 Y44.081 E0.01842
G1 X-0.893 Y44.192 E0.01349
G1 X-0.928 Y44.476 F15000.000
G1 X-4.598 Y52.607 F15000.000
G1 X-4.284 Y52.749 E0.02662 F600.000
G1 X-3.994 Y52.944 E0.02688
G1 X-3.740 Y53.187 E0.02711
G1 X-3.535 Y53.468 E0.02677
G1 X-3.378 Y53.776 E0.02663
G1 X-3.274 Y54.112 E0.02715
G1 X-3.232 Y54.458 E0.02681
G1 X-3.246 Y54.804 E0.02670
G1 X-3.319 Y55.144 E0.02685
G1 X-3.449 Y55.470 E0.02701
G1 X-3.634 Y55.768 E0.02705
G1 X-3.864 Y56.029 E0.02679
G1 X-4.134 Y56.247 E0.02673
G1 X-4.436 Y56.416 E0.02671
G1 X-4.766 Y56.533 E0.02695
G1 X-5.109 Y56.592 E0.02680
G1 X-5.460 Y56.592 E0.02707
G1 X-5.805 Y56.533 E0.02696
G1 X-6.132 Y56.416 E0.02681
G1 X-6.435 Y56.247 E0.02670
G1 X-6.706 Y56.029 E0.02684
G1 X-6.938 Y55.766 E0.02699
G1 X-7.121 Y55.468 E0.02701
G1 X-7.250 Y55.144 E0.02681
G1 X-7.323 Y54.807 E0.02662
G1 X-7.339 Y54.458 E0.02694
G1 X-7.294 Y54.110 E0.02705
G1 X-7.191 Y53.778 E0.02671
G1 X-7.036 Y53.468 E0.02679
G1 X-6.827 Y53.186 E0.02703
G1 X-6.575 Y52.944 E0.02692
G1 X-6.285 Y52.749 E0.02688
G1 X-5.964 Y52.604 E0.02719
G1 X-5.607 Y52.516 E0.02832
G1 X-5.285 Y52.489 E0.02490 F600.000
G1 X-4.938 Y52.518 E0.02687
G1 X-4.656 Y52.592 E0.02242
G1 X-4.818 Y53.207 F15000.000
G1 X-4.594 Y53.307 E0.01895 F600.000
G1 X-4.394 Y53.441 E0.01853
G1 X-4.220 Y53.608 E0.01860
G1 X-4.078 Y53.801 E0.01850
G1 X-3.970 Y54.015 E0.01845
G1 X-3.898 Y54.246 E0.01866
G1 X-3.869 Y54.484 E0.01846
G1 X-3.879 Y54.724 E0.01850
G1 X-3.929 Y54.959 E0.01850
G1 X-4.019 Y55.182 E0.01858
G1 X-4.146 Y55.388 E0.01863
G1 X-4.305 Y55.568 E0.01849
G1 X-4.491 Y55.718 E0.01846
G1 X-4.700 Y55.835 E0.01845
G1 X-4.927 Y55.916 E0.01859
G1 X-5.163 Y55.956 E0.01841
G1 X-5.406 Y55.956 E0.01874
G1 X-5.643 Y55.916 E0.01851
G1 X-5.869 Y55.835 E0.01849
G1 X-6.078 Y55.718 E0.01848
G1 X-6.265 Y55.568 E0.01851
G1 X-6.425 Y55.387 E0.01857
G1 X-6.551 Y55.181 E0.01859
G1 X-6.640 Y54.959 E0.01851
G1 X-6.690 Y54.725 E0.01841
G1 X-6.701 Y54.484 E0.01859
G1 X-6.670 Y54.245 E0.01856
G1 X-6.599 Y54.016 E0.01848
G1 X-6.492 Y53.801 E0.01849
G1 X-6.348 Y53.607 E0.01862
G1 X-6.175 Y53.441 E0.01853
G1 X-5.975 Y53.307 E0.01853
G1 X-5.755 Y53.207 E0.01864
G1 X-5.504 Y53.145 E0.01990
G1 X-5.285 Y53.127 E0.01695 F600.000
G1 X-5.045 Y53.147 E0.01854
G1 X-4.876 Y53.191 E0.01347
G1 X-4.627 Y53.052 F15000.000
G1 E-3.20000 F3000.00000
G1 Z0.700 F15000.000
G1 X7.912 Y47.529 F15000.000
G1 Z0.300 F15000.000
G1 E3.20000 F3000.00000
G1 X7.784 Y47.208 E0.02658 F600.000
G1 X7.709 Y46.868 E0.02685
G1 X7.695 Y46.517 E0.02705
G1 X7.739 Y46.174 E0.02668
G1 X7.840 Y45.839 E0.02693
G1 X7.998 Y45.527 E0.02699
G1 X8.204 Y45.248 E0.02671
G1 X8.458 Y45.005 E0.02708
G1 X8.748 Y44.811 E0.02688
G1 X9.071 Y44.664 E0.02733
G1 X9.424 Y44.578 E0.02801
G1 X9.748 Y44.550 E0.02509 F600.000
G1 X10.095 Y44.580 E0.02686
G1 X10.432 Y44.667 E0.02681
G1 X10.751 Y44.811 E0.02698
G1 X11.065 Y45.024 E0.02925
G1 X11.417 Y45.406 E0.04002
G1 X11.649 Y45.817 E0.03640
G1 X11.757 Y46.174 E0.02869
G1 X11.801 Y46.517 E0.02668
G1 X11.787 Y46.865 E0.02683
G1 X11.714 Y47.208 E0.02705
G1 X11.583 Y47.531 E0.02684
G1 X11.401 Y47.827 E0.02680
G1 X11.171 Y48.088 E0.02681
G1 X10.901 Y48.307 E0.02677
G1 X10.594 Y48.479 E0.02711
G1 X10.264 Y48.595 E0.02697
G1 X9.923 Y48.653 E0.02666
G1 X9.573 Y48.653 E0.02695
G1 X9.231 Y48.595 E0.02673
G1 X8.903 Y48.479 E0.02678
G1 X8.596 Y48.308 E0.02710
G1 X8.325 Y48.088 E0.02689
G1 X8.095 Y47.827 E0.02681
G1 X7.943 Y47.580 E0.02239
G1 X8.485 Y47.248 F15000.000
G1 X8.393 Y47.021 E0.01889 F600.000
G1 X8.342 Y46.786 E0.01851
G1 X8.332 Y46.545 E0.01859
G1 X8.363 Y46.307 E0.01846
G1 X8.432 Y46.077 E0.01856
G1 X8.541 Y45.862 E0.01859
G1 X8.684 Y45.669 E0.01844
G1 X8.858 Y45.502 E0.01865
G1 X9.058 Y45.368 E0.01853
G1 X9.279 Y45.268 E0.01869
G1 X9.527 Y45.207 E0.01971
G1 X9.748 Y45.188 E0.01708 F600.000
G1 X9.988 Y45.209 E0.01854
G1 X10.220 Y45.269 E0.01851
G1 X10.440 Y45.368 E0.01857
G1 X10.648 Y45.509 E0.01933
G1 X10.899 Y45.783 E0.02867
G1 X11.061 Y46.069 E0.02538
G1 X11.133 Y46.307 E0.01918
G1 X11.164 Y46.545 E0.01846
G1 X11.154 Y46.785 E0.01850
G1 X11.104 Y47.021 E0.01857
G1 X11.013 Y47.243 E0.01853
G1 X10.888 Y47.448 E0.01851
G1 X10.729 Y47.628 E0.01850
G1 X10.543 Y47.780 E0.01851
G1 X10.332 Y47.898 E0.01860
G1 X10.104 Y47.977 E0.01859
G1 X9.869 Y48.017 E0.01840
G1 X9.627 Y48.017 E0.01865
G1 X9.391 Y47.977 E0.01843
G1 X9.165 Y47.898 E0.01847
G1 X8.954 Y47.780 E0.01864
G1 X8.767 Y47.628 E0.01855
G1 X8.608 Y47.448 E0.01850
G1 X8.517 Y47.299 E0.01349
G1 X8.241 Y47.227 F15000.000
G1 X-9.048 Y27.297 F15000.000
G1 X-9.396 Y27.577 E0.03447 F600.000
G1 X-9.784 Y27.794 E0.03422
G1 X-10.204 Y27.943 E0.03438
G1 X-10.643 Y28.017 E0.03425
G1 X-11.088 Y28.017 E0.03433
G1 X-11.527 Y27.943 E0.03433
G1 X-11.948 Y27.794 E0.03441
G1 X-12.337 Y27.577 E0.03431
G1 X-12.684 Y27.296 E0.03441
G1 X-12.978 Y26.961 E0.03436
G1 X-13.211 Y26.583 E0.03416
G1 X-13.378 Y26.169 E0.03446
G1 X-13.471 Y25.733 E0.03430
G1 X-13.491 Y25.290 E0.03421
G1 X-13.434 Y24.846 E0.03446
G1 X-13.303 Y24.420 E0.03440
G1 X-13.101 Y24.022 E0.03439
G1 X-12.838 Y23.666 E0.03412
G1 X-12.516 Y23.356 E0.03441
G1 X-12.146 Y23.106 E0.03444
G1 X-11.734 Y22.921 E0.03477
G1 X-11.280 Y22.809 E0.03606
G1 X-10.866 Y22.773 E0.03201 F600.000
G1 X-10.421 Y22.811 E0.03447
G1 X-9.991 Y22.924 E0.03425
G1 X-9.585 Y23.106 E0.03425
G1 X-9.215 Y23.356 E0.03444
G1 X-8.893 Y23.666 E0.03441
G1 X-8.629 Y24.023 E0.03425
G1 X-8.429 Y24.421 E0.03436
G1 X-8.298 Y24.846 E0.03427
G1 X-8.242 Y25.288 E0.03430
G1 X-8.260 Y25.733 E0.03435
G1 X-8.354 Y26.169 E0.03433
G1 X-8.520 Y26.582 E0.03429
G1 X-8.753 Y26.961 E0.03430
G1 X-9.008 Y27.252 E0.02983
G1 X-9.486 Y26.833 F15000.000
G1 X-9.753 Y27.048 E0.02643 F600.000
G1 X-10.047 Y27.212 E0.02594
G1 X-10.365 Y27.325 E0.02603
G1 X-10.696 Y27.381 E0.02589
G1 X-11.035 Y27.381 E0.02609
G1 X-11.367 Y27.325 E0.02597
G1 X-11.685 Y27.212 E0.02603
G1 X-11.980 Y27.048 E0.02598
G1 X-12.242 Y26.836 E0.02600
G1 X-12.465 Y26.582 E0.02604
G1 X-12.641 Y26.296 E0.02592
G1 X-12.768 Y25.982 E0.02606
G1 X-12.838 Y25.652 E0.02597
G1 X-12.853 Y25.316 E0.02595
G1 X-12.810 Y24.981 E0.02604
G1 X-12.711 Y24.658 E0.02600
G1 X-12.559 Y24.357 E0.02606
G1 X-12.359 Y24.087 E0.02589
G1 X-12.115 Y23.852 E0.02604
G1 X-11.835 Y23.664 E0.02601
G1 X-11.526 Y23.524 E0.02618
G1 X-11.176 Y23.438 E0.02776
G1 X-10.866 Y23.411 E0.02397 F600.000
G1 X-10.529 Y23.440 E0.02608
G1 X-10.203 Y23.525 E0.02594
G1 X-9.896 Y23.664 E0.02599
G1 X-9.616 Y23.852 E0.02601
G1 X-9.372 Y24.087 E0.02604
G1 X-9.172 Y24.357 E0.02594
G1 X-9.020 Y24.659 E0.02603
G1 X-8.922 Y24.981 E0.02595
G1 X-8.879 Y25.315 E0.02598
G1 X-8.893 Y25.652 E0.02600
G1 X-8.964 Y25.982 E0.02599
G1 X-9.089 Y26.295 E0.02598
G1 X-9.266 Y26.582 E0.02597
G1 X-9.446 Y26.788 E0.02108
G1 X-9.413 Y27.168 F15000.000
G1 E-3.20000 F3000.00000
G1 Z0.700 F15000.000
G1 X-7.506 Y9.692 F15000.000
G1 Z0.300 F15000.000
G1 E3.20000 F3000.00000
G1 X-8.041 Y9.510 E0.04355 F600.000
G1 X-8.365 Y9.298 E0.02980
G1 X-8.748 Y8.882 E0.04354
G1 X-8.975 Y8.362 E0.04379
