; generated by Slic3r 1.2.9 on 2017-05-31 at 14:49:52

; external perimeters extrusion width = 0.40mm
; perimeters extrusion width = 0.40mm
; infill extrusion width = 0.40mm
; solid infill extrusion width = 0.40mm
; top infill extrusion width = 0.40mm

M107
M83
T0
M116
G21 ; set units to millimeters
G90 ; use absolute coordinates
M83 ; use relative distances for extrusion
G1 E-3.20000 F3000.00000
G1 Z0.400 F15000.000
G1 X0.000 Y13.579 F15000.000
G1 Z0.300 F15000.000
G1 E3.20000 F3000.00000
G1 X-26.074 Y13.579 E2.06709 F960.000
G1 X-27.721 Y13.184 E0.13427
G1 X-29.011 Y12.086 E0.13427
G1 X-29.710 Y9.943 E0.17872
G1 X-29.710 Y-18.654 E2.26715
G1 X-29.677 Y-19.212 E0.04427
G1 X-29.588 Y-19.775 E0.04523
G1 X-29.524 Y-20.039 E0.02149
G1 X-29.348 Y-20.582 E0.04523
G1 X-29.244 Y-20.832 E0.02150
G1 X-28.985 Y-21.340 E0.04523
G1 X-28.844 Y-21.572 E0.02149
G1 X-28.508 Y-22.033 E0.04523
G1 X-28.332 Y-22.239 E0.02149
G1 X-27.929 Y-22.643 E0.04523
G1 X-27.723 Y-22.819 E0.02149
G1 X-27.261 Y-23.154 E0.04522
G1 X-27.030 Y-23.296 E0.02149
G1 X-26.522 Y-23.555 E0.04523
G1 X-26.271 Y-23.658 E0.02149
G1 X-25.729 Y-23.835 E0.04523
G1 X-25.465 Y-23.898 E0.02149
G1 X-24.901 Y-23.987 E0.04523
G1 X-24.629 Y-24.009 E0.02165
G1 X24.629 Y-24.009 E3.90510
G1 X24.901 Y-23.987 E0.02162 F960.000
G1 X25.464 Y-23.898 E0.04517
G1 X25.728 Y-23.835 E0.02152
G1 X26.271 Y-23.658 E0.04529
G1 X26.522 Y-23.555 E0.02150
G1 X27.030 Y-23.296 E0.04523
G1 X27.261 Y-23.154 E0.02149
G1 X27.723 Y-22.819 E0.04522
G1 X27.929 Y-22.643 E0.02149
G1 X28.332 Y-22.239 E0.04523
G1 X28.508 Y-22.033 E0.02149
G1 X28.844 Y-21.572 E0.04523
G1 X28.985 Y-21.340 E0.02149
G1 X29.244 Y-20.832 E0.04523
G1 X29.348 Y-20.582 E0.02150
G1 X29.524 Y-20.039 E0.04522
G1 X29.588 Y-19.775 E0.02149
G1 X29.677 Y-19.212 E0.04523
G1 X29.710 Y-18.654 E0.04427
G1 X29.710 Y9.943 E2.26715
G1 X29.315 Y11.590 E0.13427
G1 X28.217 Y12.880 E0.13427
G1 X26.074 Y13.579 E0.17872
G1 X0.060 Y13.579 E2.06233
G1 E-3.20000 F3000.00000
G1 Z0.700 F15000.000
G1 X-11.126 Y-20.034 F15000.000
G1 Z0.300 F15000.000
G1 E3.20000 F3000.00000
G1 X24.330 Y-20.034 E2.81092 F720.000
G1 X24.561 Y-20.016 E0.01835
G1 X24.771 Y-19.966 E0.01716 F720.000
G1 X24.971 Y-19.883 E0.01713
G1 X25.155 Y-19.770 E0.01713
G1 X25.319 Y-19.630 E0.01713
G1 X25.460 Y-19.466 E0.01713
G1 X25.573 Y-19.281 E0.01713
G1 X25.655 Y-19.082 E0.01713
G1 X25.706 Y-18.872 E0.01713
G1 X25.724 Y-18.641 E0.01838
G1 X25.724 Y9.593 E2.23831
G1 X25.000 Y9.593 E0.05740
G1 X25.000 Y-18.700 E2.24303
G1 X24.941 Y-18.944 E0.01991
G1 X24.812 Y-19.122 E0.01743
G1 X24.634 Y-19.251 E0.01743
G1 X24.390 Y-19.310 E0.01991
G1 X-24.390 Y-19.310 E3.86713
G1 X-24.648 Y-19.248 E0.02105
G1 X-24.872 Y-19.056 E0.02341
G1 X-24.972 Y-18.860 E0.01744
G1 X-25.000 Y-18.686 E0.01397
G1 X-25.000 Y9.593 E2.24192
G1 X-25.724 Y9.593 E0.05740
G1 X-25.724 Y-18.641 E2.23831
G1 X-25.706 Y-18.872 E0.01838
G1 X-25.655 Y-19.082 E0.01713
G1 X-25.573 Y-19.281 E0.01713
G1 X-25.460 Y-19.466 E0.01713
G1 X-25.319 Y-19.630 E0.01713
G1 X-25.155 Y-19.770 E0.01713
G1 X-24.971 Y-19.883 E0.01713
G1 X-24.771 Y-19.966 E0.01713
G1 X-24.561 Y-20.016 E0.01713
G1 X-24.330 Y-20.034 E0.01838
G1 X-11.186 Y-20.034 E1.04202
G1 X-10.926 Y-19.688 F15000.000
G1 E-3.20000 F3000.00000
G1 Z0.700 F15000.000
G1 X-25.362 Y9.275 F15000.000
G1 Z0.300 F15000.000
G1 E3.20000 F3000.00000
G1 X-25.362 Y-18.626 E2.21198 F960.000
G1 X-25.315 Y-18.971 E0.02759
G1 X-25.150 Y-19.284 E0.02803
G1 X-24.811 Y-19.569 E0.03512
G1 X-24.504 Y-19.656 E0.02528
G1 X-24.316 Y-19.672 E0.01498
G1 X24.316 Y-19.672 E3.85543
G1 X24.504 Y-19.656 E0.01496
G1 X24.809 Y-19.565 E0.02523
G1 X25.066 Y-19.377 E0.02528
G1 X25.254 Y-19.119 E0.02528
G1 X25.346 Y-18.815 E0.02520
G1 X25.362 Y-18.626 E0.01498
G1 X25.362 Y9.275 E2.21198
M106 S255
G1 E-3.20000 F3000.00000
G1 Z0.700 F15000.000
G1 X25.207 Y9.460 F15000.000
G1 Z0.500 F15000.000
G1 E3.20000 F3000.00000
G1 X25.207 Y-18.725 E0.83684 F886.460
G1 X25.132 Y-19.033 E0.00941
G1 X24.960 Y-19.270 E0.00872
G1 X24.722 Y-19.443 E0.00872
G1 X24.414 Y-19.517 E0.00941
G1 X-24.414 Y-19.517 E1.44979
G1 X-24.745 Y-19.437 E0.01009
G1 X-25.038 Y-19.187 E0.01146
G1 X-25.171 Y-18.925 E0.00872
G1 X-25.207 Y-18.703 E0.00669
G1 X-25.207 Y10.143 E0.85647
M106 S255
G1 X-25.207 Y10.535 E0.02049 F4800.000
G1 X-25.517 Y10.535 E0.01619
G1 X-25.517 Y10.143 E0.02049
M106 S255
G1 X-25.517 Y-18.632 E0.85438 F886.460
G1 X-25.501 Y-18.839 E0.00616
G1 X-25.458 Y-19.018 E0.00545
G1 X-25.388 Y-19.187 E0.00545
G1 X-25.292 Y-19.343 E0.00545
G1 X-25.173 Y-19.483 E0.00545
G1 X-25.033 Y-19.602 E0.00545
G1 X-24.877 Y-19.698 E0.00545
G1 X-24.707 Y-19.768 E0.00545
G1 X-24.529 Y-19.811 E0.00545
G1 X-24.322 Y-19.827 E0.00616
G1 X24.322 Y-19.827 E1.44431
G1 X24.522 Y-19.811 E0.00597
G1 X24.708 Y-19.768 E0.00567
G1 X24.877 Y-19.698 E0.00541
G1 X25.033 Y-19.602 E0.00545
G1 X25.173 Y-19.483 E0.00545
G1 X25.292 Y-19.343 E0.00545
G1 X25.387 Y-19.187 E0.00543
G1 X25.458 Y-19.017 E0.00546
G1 X25.501 Y-18.839 E0.00544
G1 X25.517 Y-18.632 E0.00616
G1 X25.517 Y10.143 E0.85438
M106 S255
G1 X25.517 Y10.535 E0.02049 F4800.000
G1 X25.207 Y10.535 E0.01619
G1 X25.207 Y10.143 E0.02049
M106 S255
G1 X25.207 Y9.520 E0.01851 F886.460
G1 X24.850 Y9.520 F15000.000
G1 X24.850 Y-18.682 E0.83735 F886.460
G1 X24.802 Y-18.880 E0.00604
G1 X24.704 Y-19.015 E0.00494
G1 X24.570 Y-19.112 E0.00494
G1 X24.372 Y-19.160 E0.00604
G1 X-24.372 Y-19.160 E1.44726
G1 X-24.578 Y-19.110 E0.00629
G1 X-24.752 Y-18.961 E0.00682
G1 X-24.828 Y-18.813 E0.00494
G1 X-24.850 Y-18.674 E0.00417
G1 X-24.850 Y10.143 E0.85562
M106 S255
G1 X-24.850 Y10.892 E0.03914 F4800.000
G1 X-25.874 Y10.892 E0.05350
G1 X-25.874 Y10.143 E0.03914
M106 S255
G1 X-25.874 Y-18.646 E0.85480 F886.460
G1 X-25.854 Y-18.895 E0.00741
G1 X-25.798 Y-19.128 E0.00712
G1 X-25.707 Y-19.350 E0.00712
G1 X-25.581 Y-19.554 E0.00712
G1 X-25.426 Y-19.736 E0.00712
G1 X-25.244 Y-19.892 E0.00712
G1 X-25.039 Y-20.017 E0.00712
G1 X-24.818 Y-20.109 E0.00712
G1 X-24.585 Y-20.165 E0.00712
G1 X-24.336 Y-20.184 E0.00741
G1 X24.336 Y-20.184 E1.44514
G1 X24.578 Y-20.165 E0.00720
G1 X24.818 Y-20.109 E0.00734
G1 X25.039 Y-20.017 E0.00710
G1 X25.244 Y-19.892 E0.00712
G1 X25.426 Y-19.736 E0.00712
G1 X25.581 Y-19.554 E0.00712
G1 X25.706 Y-19.350 E0.00710
G1 X25.798 Y-19.128 E0.00713
G1 X25.854 Y-18.895 E0.00711
G1 X25.874 Y-18.646 E0.00741
G1 X25.874 Y10.143 E0.85480
M106 S255
G1 X25.874 Y10.892 E0.03914 F4800.000
G1 X24.850 Y10.892 E0.05350
G1 X24.850 Y10.143 E0.03914
M106 S255
G1 X24.850 Y9.580 E0.01673 F886.460
G1 X25.196 Y9.320 F15000.000
G1 E-3.20000 F3000.00000
G1 Z0.900 F15000.000
G1 X25.207 Y-4.828 F15000.000
G1 Z0.700 F15000.000
G1 E3.20000 F3000.00000
G1 X25.207 Y-18.725 E0.41261 F900.001
G1 X25.132 Y-19.033 E0.00941
G1 X24.960 Y-19.270 E0.00872
G1 X24.722 Y-19.443 E0.00872
G1 X24.414 Y-19.517 E0.00941
G1 X-24.414 Y-19.517 E1.44979
G1 X-24.745 Y-19.437 E0.01009
G1 X-25.038 Y-19.187 E0.01146
G1 X-25.171 Y-18.925 E0.00872
G1 X-25.207 Y-18.703 E0.00669
G1 X-25.207 Y11.260 E0.88963
G1 X-25.517 Y11.260 E0.00920
G1 X-25.517 Y-18.632 E0.88755
G1 X-25.501 Y-18.839 E0.00616
G1 X-25.458 Y-19.018 E0.00545
G1 X-25.388 Y-19.187 E0.00545
G1 X-25.292 Y-19.343 E0.00545
G1 X-25.174 Y-19.481 E0.00538
G1 X-25.033 Y-19.602 E0.00553
G1 X-24.877 Y-19.698 E0.00543
G1 X-24.707 Y-19.768 E0.00545
G1 X-24.529 Y-19.811 E0.00545
G1 X-24.322 Y-19.827 E0.00616
G1 X24.322 Y-19.827 E1.44431
G1 X24.518 Y-19.812 E0.00582
G1 X24.709 Y-19.767 E0.00584 F900.001
G1 X24.877 Y-19.698 E0.00539
G1 X25.033 Y-19.602 E0.00545
G1 X25.173 Y-19.483 E0.00545
G1 X25.292 Y-19.343 E0.00545
G1 X25.386 Y-19.189 E0.00538
G1 X25.458 Y-19.017 E0.00553
G1 X25.501 Y-18.839 E0.00543
G1 X25.517 Y-18.632 E0.00616
G1 X25.517 Y11.260 E0.88755
G1 X25.207 Y11.260 E0.00920
G1 X25.207 Y-4.768 E0.47591
G1 X24.850 Y-4.768 F15000.000
G1 X24.850 Y-18.682 E0.41312 F900.001
G1 X24.802 Y-18.880 E0.00604
G1 X24.704 Y-19.015 E0.00494
G1 X24.570 Y-19.112 E0.00494
G1 X24.372 Y-19.160 E0.00604
G1 X-24.372 Y-19.160 E1.44726
G1 X-24.578 Y-19.110 E0.00629
G1 X-24.752 Y-18.961 E0.00682
G1 X-24.828 Y-18.813 E0.00494
G1 X-24.850 Y-18.674 E0.00417
G1 X-24.850 Y11.292 E0.88974
M106 S255
G1 X-24.850 Y11.617 E0.01698 F4800.000
G1 X-25.874 Y11.617 E0.05350
G1 X-25.874 Y11.292 E0.01698
M106 S255
G1 X-25.874 Y-18.646 E0.88892 F900.001
G1 X-25.854 Y-18.895 E0.00741
G1 X-25.798 Y-19.128 E0.00712
G1 X-25.707 Y-19.350 E0.00712
G1 X-25.581 Y-19.554 E0.00712
G1 X-25.428 Y-19.734 E0.00704
G1 X-25.243 Y-19.892 E0.00720
G1 X-25.039 Y-20.017 E0.00711
G1 X-24.818 Y-20.109 E0.00712
G1 X-24.585 Y-20.165 E0.00712
G1 X-24.336 Y-20.184 E0.00741
G1 X24.336 Y-20.184 E1.44514
G1 X24.572 Y-20.166 E0.00703
G1 X24.819 Y-20.108 E0.00751
G1 X25.039 Y-20.017 E0.00709
G1 X25.244 Y-19.892 E0.00712
G1 X25.426 Y-19.736 E0.00712
G1 X25.581 Y-19.554 E0.00712
G1 X25.705 Y-19.352 E0.00704
G1 X25.798 Y-19.128 E0.00720
G1 X25.854 Y-18.895 E0.00711
G1 X25.874 Y-18.646 E0.00741
G1 X25.874 Y11.292 E0.88892
M106 S255
G1 X25.874 Y11.617 E0.01698 F4800.000
G1 X24.850 Y11.617 E0.05350
G1 X24.850 Y11.292 E0.01698
M106 S255
G1 X24.850 Y-4.708 E0.47508 F900.001
G1 X25.196 Y-4.968 F15000.000
G1 E-3.20000 F3000.00000
G1 Z1.100 F15000.000
G1 X12.922 Y-19.827 F15000.000
G1 Z0.900 F15000.000
G1 E3.20000 F3000.00000
G1 X24.322 Y-19.827 E0.33848 F908.958
G1 X24.513 Y-19.812 E0.00568
G1 X24.710 Y-19.767 E0.00601 F908.958
G1 X24.877 Y-19.698 E0.00536
G1 X25.033 Y-19.602 E0.00545
G1 X25.173 Y-19.483 E0.00545
G1 X25.292 Y-19.343 E0.00545
G1 X25.388 Y-19.187 E0.00545
G1 X25.458 Y-19.018 E0.00545
G1 X25.501 Y-18.839 E0.00545
G1 X25.517 Y-18.632 E0.00616
G1 X25.517 Y11.796 E0.90347
G1 X25.207 Y11.796 E0.00920
G1 X25.207 Y-18.725 E0.90621
G1 X25.132 Y-19.033 E0.00941
G1 X24.960 Y-19.270 E0.00872
G1 X24.722 Y-19.443 E0.00872
G1 X24.414 Y-19.517 E0.00941
G1 X-24.392 Y-19.517 E1.44913
G1 X-24.615 Y-19.482 E0.00669
G1 X-24.876 Y-19.348 E0.00872
G1 X-25.127 Y-19.055 E0.01146
G1 X-25.207 Y-18.725 E0.01009
G1 X-25.207 Y11.796 E0.90621
G1 X-25.517 Y11.796 E0.00920
G1 X-25.517 Y-18.632 E0.90347
G1 X-25.501 Y-18.839 E0.00616
G1 X-25.458 Y-19.018 E0.00545
G1 X-25.388 Y-19.187 E0.00545
G1 X-25.292 Y-19.343 E0.00545
G1 X-25.175 Y-19.480 E0.00532
G1 X-25.032 Y-19.603 E0.00560
G1 X-24.877 Y-19.698 E0.00542
G1 X-24.707 Y-19.768 E0.00545
G1 X-24.529 Y-19.811 E0.00545
G1 X-24.322 Y-19.827 E0.00616
G1 X12.862 Y-19.827 E1.10404
G1 X12.862 Y-20.184 F15000.000
G1 X24.336 Y-20.184 E0.34068 F908.958
G1 X24.567 Y-20.166 E0.00687
G1 X24.819 Y-20.108 E0.00767
G1 X25.039 Y-20.017 E0.00709
G1 X25.244 Y-19.892 E0.00712
G1 X25.426 Y-19.736 E0.00712
G1 X25.581 Y-19.554 E0.00712
G1 X25.707 Y-19.350 E0.00712
G1 X25.798 Y-19.128 E0.00712
G1 X25.854 Y-18.895 E0.00712
G1 X25.874 Y-18.646 E0.00741
G1 X25.874 Y12.017 E0.91045
M106 S255
G1 X25.874 Y12.153 E0.00712 F4800.000
G1 X24.850 Y12.153 E0.05350
G1 X24.850 Y12.017 E0.00712
M106 S255
G1 X24.850 Y-18.682 E0.91151 F908.958
G1 X24.802 Y-18.880 E0.00604
G1 X24.704 Y-19.015 E0.00494
G1 X24.570 Y-19.112 E0.00494
G1 X24.372 Y-19.160 E0.00604
G1 X-24.364 Y-19.160 E1.44702
G1 X-24.503 Y-19.138 E0.00418
G1 X-24.651 Y-19.063 E0.00494
G1 X-24.800 Y-18.888 E0.00682
G1 X-24.850 Y-18.682 E0.00629
G1 X-24.850 Y12.017 E0.91151
M106 S255
G1 X-24.850 Y12.153 E0.00712 F4800.000
G1 X-25.874 Y12.153 E0.05350
G1 X-25.874 Y12.017 E0.00712
M106 S255
G1 X-25.874 Y-18.646 E0.91045 F908.958
G1 X-25.854 Y-18.895 E0.00741
G1 X-25.798 Y-19.128 E0.00712
G1 X-25.707 Y-19.350 E0.00712
G1 X-25.581 Y-19.554 E0.00712
G1 X-25.429 Y-19.733 E0.00697
G1 X-25.243 Y-19.892 E0.00727
G1 X-25.039 Y-20.017 E0.00711
G1 X-24.818 Y-20.109 E0.00712
G1 X-24.585 Y-20.165 E0.00712
G1 X-24.336 Y-20.184 E0.00741
G1 X12.802 Y-20.184 E1.10268
G1 X13.062 Y-19.838 F15000.000
G1 E-3.20000 F3000.00000
G1 Z1.300 F15000.000
G1 X25.207 Y12.289 F15000.000
G1 Z1.100 F15000.000
G1 E3.20000 F3000.00000
G1 X25.207 Y-18.725 E0.92084 F917.567
G1 X25.132 Y-19.033 E0.00941
G1 X24.960 Y-19.270 E0.00872
G1 X24.722 Y-19.443 E0.00872
G1 X24.414 Y-19.517 E0.00941
G1 X-24.392 Y-19.517 E1.44913
G1 X-24.615 Y-19.482 E0.00669
G1 X-24.876 Y-19.348 E0.00872
G1 X-25.127 Y-19.055 E0.01146
G1 X-25.207 Y-18.725 E0.01009
G1 X-25.207 Y12.333 E0.92214
G1 X-25.517 Y12.333 E0.00920
G1 X-25.517 Y-18.632 E0.91939
G1 X-25.501 Y-18.839 E0.00616
G1 X-25.458 Y-19.018 E0.00545
G1 X-25.388 Y-19.187 E0.00545
G1 X-25.292 Y-19.343 E0.00545
G1 X-25.177 Y-19.478 E0.00526
G1 X-25.032 Y-19.603 E0.00566
G1 X-24.877 Y-19.698 E0.00541
G1 X-24.707 Y-19.768 E0.00545
G1 X-24.529 Y-19.811 E0.00545
G1 X-24.322 Y-19.827 E0.00616
G1 X24.322 Y-19.827 E1.44431
G1 X24.508 Y-19.813 E0.00553
G1 X24.711 Y-19.767 E0.00617 F917.567
G1 X24.877 Y-19.698 E0.00534
G1 X25.033 Y-19.602 E0.00545
G1 X25.173 Y-19.483 E0.00545
G1 X25.292 Y-19.343 E0.00545
G1 X25.388 Y-19.187 E0.00545
G1 X25.458 Y-19.018 E0.00545
G1 X25.501 Y-18.839 E0.00545
G1 X25.517 Y-18.632 E0.00616
G1 X25.517 Y12.333 E0.91939
G1 X25.223 Y12.333 E0.00871
G1 X25.223 Y12.690 F15000.000
M106 S255
G1 X24.850 Y12.690 E0.01952 F4800.000
G1 X24.850 Y12.553 E0.00712
M106 S255
G1 X24.850 Y-18.682 E0.92743 F917.567
G1 X24.802 Y-18.880 E0.00604
G1 X24.704 Y-19.015 E0.00494
G1 X24.570 Y-19.112 E0.00494
G1 X24.372 Y-19.160 E0.00604
G1 X-24.364 Y-19.160 E1.44702
G1 X-24.503 Y-19.138 E0.00418
G1 X-24.651 Y-19.063 E0.00494
G1 X-24.800 Y-18.888 E0.00682
G1 X-24.850 Y-18.682 E0.00629
G1 X-24.850 Y12.553 E0.92743
M106 S255
G1 X-24.850 Y12.690 E0.00712 F4800.000
G1 X-25.874 Y12.690 E0.05350
G1 X-25.874 Y12.553 E0.00712
M106 S255
G1 X-25.874 Y-18.646 E0.92637 F917.567
G1 X-25.854 Y-18.895 E0.00741
G1 X-25.798 Y-19.128 E0.00712
G1 X-25.707 Y-19.350 E0.00712
G1 X-25.581 Y-19.554 E0.00712
G1 X-25.430 Y-19.731 E0.00691
G1 X-25.243 Y-19.892 E0.00733
G1 X-25.039 Y-20.017 E0.00710
G1 X-24.818 Y-20.109 E0.00712
G1 X-24.585 Y-20.165 E0.00712
G1 X-24.336 Y-20.184 E0.00741
G1 X24.336 Y-20.184 E1.44514
G1 X24.561 Y-20.167 E0.00671
G1 X24.819 Y-20.108 E0.00784
G1 X25.039 Y-20.017 E0.00708
G1 X25.244 Y-19.892 E0.00712
G1 X25.426 Y-19.736 E0.00712
G1 X25.581 Y-19.554 E0.00712
G1 X25.707 Y-19.350 E0.00712
G1 X25.798 Y-19.128 E0.00712
G1 X25.854 Y-18.895 E0.00712
G1 X25.874 Y-18.646 E0.00741
G1 X25.874 Y12.553 E0.92637
M106 S255
G1 X25.874 Y12.690 E0.00712 F4800.000
G1 X25.283 Y12.690 E0.03085
M106 S255
G1 E-3.20000 F3000.00000
G1 Z1.500 F15000.000
G1 X25.207 Y2.243 F15000.000
G1 Z1.300 F15000.000
G1 E3.20000 F3000.00000
G1 X25.207 Y-18.725 E0.62255 F925.071
G1 X25.132 Y-19.033 E0.00941
G1 X24.960 Y-19.270 E0.00872
G1 X24.722 Y-19.443 E0.00872
G1 X24.414 Y-19.517 E0.00941
G1 X-24.392 Y-19.517 E1.44913
G1 X-24.615 Y-19.482 E0.00669
G1 X-24.876 Y-19.348 E0.00872
G1 X-25.127 Y-19.055 E0.01146
G1 X-25.207 Y-18.725 E0.01009
G1 X-25.207 Y12.794 E0.93584
G1 X-25.517 Y12.794 E0.00920
G1 X-25.517 Y-18.632 E0.93310
G1 X-25.501 Y-18.839 E0.00616
G1 X-25.458 Y-19.018 E0.00545
G1 X-25.388 Y-19.187 E0.00545
G1 X-25.292 Y-19.343 E0.00545
G1 X-25.178 Y-19.477 E0.00520
G1 X-25.032 Y-19.603 E0.00573
G1 X-24.877 Y-19.698 E0.00540
G1 X-24.707 Y-19.768 E0.00545
G1 X-24.529 Y-19.811 E0.00545
G1 X-24.322 Y-19.827 E0.00616
G1 X24.322 Y-19.827 E1.44431
G1 X24.503 Y-19.813 E0.00538
G1 X24.711 Y-19.766 E0.00634 F925.071
G1 X24.877 Y-19.698 E0.00531
G1 X25.033 Y-19.602 E0.00545
G1 X25.173 Y-19.483 E0.00545
G1 X25.292 Y-19.343 E0.00545
G1 X25.388 Y-19.187 E0.00545
G1 X25.458 Y-19.018 E0.00545
G1 X25.501 Y-18.839 E0.00545
G1 X25.517 Y-18.632 E0.00616
G1 X25.517 Y12.794 E0.93310
G1 X25.207 Y12.794 E0.00920
G1 X25.207 Y2.303 E0.31151
G1 X24.850 Y2.303 F15000.000
G1 X24.850 Y-18.682 E0.62307 F925.071
G1 X24.802 Y-18.880 E0.00604
G1 X24.704 Y-19.015 E0.00494
G1 X24.570 Y-19.112 E0.00494
G1 X24.372 Y-19.160 E0.00604
G1 X-24.364 Y-19.160 E1.44702
G1 X-24.503 Y-19.138 E0.00417
G1 X-24.651 Y-19.063 E0.00494
G1 X-24.800 Y-18.888 E0.00682
G1 X-24.850 Y-18.682 E0.00629
G1 X-24.850 Y13.090 E0.94335
M106 S255
G1 X-24.850 Y13.151 E0.00321 F4800.000
G1 X-25.874 Y13.151 E0.05350
G1 X-25.874 Y13.090 E0.00321
M106 S255
G1 X-25.874 Y-18.646 E0.94229 F925.071
G1 X-25.854 Y-18.895 E0.00741
G1 X-25.798 Y-19.128 E0.00712
