; generated by Slic3r 1.2.9 on 2017-05-30 at 15:45:03

; external perimeters extrusion width = 0.40mm
; perimeters extrusion width = 0.40mm
; infill extrusion width = 0.40mm
; solid infill extrusion width = 0.40mm
; top infill extrusion width = 0.40mm

M107
M83
T0
M116
G21 ; set units to millimeters
G90 ; use absolute coordinates
M83 ; use relative distances for extrusion
G1 E-3.20000 F3000.00000
G1 Z0.400 F15000.000
G1 X18.586 Y0.000 F15000.000
G1 Z0.300 F15000.000
G1 E3.20000 F3000.00000
G1 X18.586 Y14.498 E1.11730 F960.000
G1 X18.541 Y15.065 E0.04382
G1 X18.495 Y15.360 E0.02305
G1 X18.143 Y16.444 E0.08780
G1 X18.008 Y16.709 E0.02290
G1 X17.533 Y17.419 E0.06586
G1 X16.919 Y18.033 E0.06687
G1 X16.209 Y18.508 E0.06587
G1 X15.944 Y18.643 E0.02290
G1 X14.860 Y18.995 E0.08780
G1 X14.565 Y19.041 E0.02305
G1 X13.998 Y19.086 E0.04382
G1 X-13.998 Y19.086 E2.15753
G1 X-14.565 Y19.041 E0.04382
G1 X-14.860 Y18.995 E0.02305
G1 X-15.944 Y18.643 E0.08780
G1 X-16.209 Y18.508 E0.02290
G1 X-16.919 Y18.033 E0.06586
G1 X-17.436 Y17.533 E0.05542
G1 X-17.533 Y17.419 E0.01149
G1 X-18.008 Y16.709 E0.06587
G1 X-18.143 Y16.444 E0.02290
G1 X-18.495 Y15.360 E0.08780
G1 X-18.541 Y15.065 E0.02305
G1 X-18.586 Y14.498 E0.04382
G1 X-18.586 Y-14.498 E2.23460
G1 X-18.541 Y-15.065 E0.04382
G1 X-18.495 Y-15.360 E0.02305
G1 X-18.262 Y-16.185 E0.06601
G1 X-18.205 Y-16.322 E0.01149
G1 X-17.788 Y-17.068 E0.06586
G1 X-17.613 Y-17.309 E0.02290
G1 X-17.033 Y-17.936 E0.06587
G1 X-16.919 Y-18.033 E0.01149
G1 X-16.209 Y-18.508 E0.06586
G1 X-15.944 Y-18.643 E0.02290
G1 X-14.860 Y-18.995 E0.08780
G1 X-14.565 Y-19.041 E0.02305
G1 X-13.997 Y-19.086 E0.04394
G1 X14.149 Y-19.074 E2.16902
G1 X15.266 Y-18.897 E0.08721 F960.000
G1 X15.551 Y-18.805 E0.02302
G1 X16.568 Y-18.288 E0.08799
G1 X16.809 Y-18.113 E0.02290
G1 X17.436 Y-17.533 E0.06587
G1 X17.533 Y-17.419 E0.01149
G1 X18.008 Y-16.709 E0.06586
G1 X18.143 Y-16.444 E0.02290
G1 X18.495 Y-15.360 E0.08780
G1 X18.541 Y-15.065 E0.02305
G1 X18.586 Y-14.498 E0.04382
G1 X18.586 Y-0.060 E1.11267
G1 E-3.20000 F3000.00000
G1 Z0.700 F15000.000
G1 X13.400 Y-0.060 F15000.000
G1 Z0.300 F15000.000
G1 E3.20000 F3000.00000
G1 X13.400 Y13.900 E1.07583 F720.000
G1 X-13.400 Y13.900 E2.06536
G1 X-13.400 Y-13.900 E2.14242
G1 X13.400 Y-13.900 E2.06536 F720.000
G1 X13.400 Y-0.120 E1.06196
G1 X13.746 Y0.140 F15000.000
G1 E-3.20000 F3000.00000
G1 Z0.700 F15000.000
G1 X1.974 Y-15.093 F15000.000
G1 Z0.300 F15000.000
G1 E3.20000 F3000.00000
G1 X14.092 Y-15.088 E0.93384 F720.000
G1 X14.271 Y-15.030 E0.01448 F720.000
G1 X14.475 Y-14.863 E0.02042
G1 X14.566 Y-14.684 E0.01543
G1 X14.600 Y-14.471 E0.01666
G1 X14.600 Y14.471 E2.23037
G1 X14.566 Y14.684 E0.01666
G1 X14.475 Y14.862 E0.01543
G1 X14.423 Y14.923 E0.00617
G1 X14.362 Y14.975 E0.00617
G1 X14.184 Y15.066 E0.01543
G1 X13.971 Y15.100 E0.01666
G1 X-13.971 Y15.100 E2.15330
G1 X-14.184 Y15.066 E0.01666
G1 X-14.363 Y14.975 E0.01543
G1 X-14.475 Y14.862 E0.01230
G1 X-14.566 Y14.684 E0.01543
G1 X-14.600 Y14.471 E0.01666
G1 X-14.600 Y-14.471 E2.23037
G1 X-14.539 Y-14.759 E0.02272
G1 X-14.363 Y-14.975 E0.02151
G1 X-14.184 Y-15.066 E0.01543
G1 X-13.971 Y-15.100 E0.01665
G1 X1.914 Y-15.093 E1.22418
G1 X2.174 Y-14.747 F15000.000
G1 X1.914 Y-14.497 F15000.000
G1 X13.718 Y-14.494 E1.91145 F960.000
G1 X13.952 Y-14.444 E0.03881
G1 X13.964 Y-14.421 E0.00427
G1 X14.000 Y-14.218 E0.03338
G1 X14.000 Y14.218 E4.60477
G1 X13.964 Y14.421 E0.03337
G1 X13.921 Y14.464 E0.00982
G1 X13.718 Y14.500 E0.03337
G1 X-13.718 Y14.500 E4.44283
G1 X-13.950 Y14.450 E0.03842
G1 X-14.000 Y14.218 E0.03842
G1 X-14.000 Y-14.218 E4.60477
G1 X-13.964 Y-14.421 E0.03338
G1 X-13.921 Y-14.463 E0.00979 F960.000
G1 X-13.718 Y-14.500 E0.03341
G1 X1.854 Y-14.497 E2.52167
G1 E-3.20000 F3000.00000
G1 Z0.700 F15000.000
G1 X1.854 Y-14.107 F15000.000
G1 Z0.500 F15000.000
G1 E3.20000 F3000.00000
G1 X13.607 Y-14.107 E0.33922 F2400.000
G1 X13.607 Y14.107 E0.81434
G1 X-13.607 Y14.107 E0.78547
G1 X-13.607 Y-14.107 E0.81434
G1 X1.794 Y-14.107 E0.44452 F2400.000
G1 X1.794 Y-13.750 F15000.000
G1 X13.250 Y-13.750 E0.33065 F2400.000
G1 X13.250 Y13.750 E0.79372
G1 X-13.250 Y13.750 E0.76486
G1 X-13.250 Y-13.750 E0.79372
G1 X1.734 Y-13.750 E0.43248 F2400.000
G1 X1.994 Y-14.096 F15000.000
G1 E-3.20000 F3000.00000
G1 Z0.900 F15000.000
G1 X14.393 Y0.613 F15000.000
G1 Z0.500 F15000.000
G1 E3.20000 F3000.00000
G1 X14.393 Y14.454 E0.39949 F2400.000
G1 X14.367 Y14.619 E0.00482
G1 X14.302 Y14.747 E0.00412
G1 X14.247 Y14.802 E0.00226
G1 X14.119 Y14.867 E0.00412
G1 X13.954 Y14.893 E0.00482
G1 X-13.954 Y14.893 E0.80552
G1 X-14.119 Y14.867 E0.00482
G1 X-14.247 Y14.802 E0.00412
G1 X-14.302 Y14.747 E0.00226
G1 X-14.367 Y14.619 E0.00412
G1 X-14.393 Y14.454 E0.00482
G1 X-14.393 Y-14.454 E0.83438
G1 X-14.362 Y-14.650 E0.00572
G1 X-14.255 Y-14.798 E0.00528
G1 X-14.119 Y-14.867 E0.00438
G1 X-13.954 Y-14.893 E0.00482
G1 X14.075 Y-14.882 E0.80900
G1 X14.157 Y-14.857 E0.00248 F2400.000
G1 X14.298 Y-14.755 E0.00503
G1 X14.367 Y-14.619 E0.00438
G1 X14.393 Y-14.454 E0.00482
G1 X14.393 Y0.553 E0.43316
G1 X14.750 Y0.553 F15000.000
G1 X14.750 Y14.482 E0.40203 F2400.000
G1 X14.711 Y14.731 E0.00727
G1 X14.601 Y14.946 E0.00698
G1 X14.446 Y15.101 E0.00631
G1 X14.231 Y15.211 E0.00698
G1 X13.982 Y15.250 E0.00727
G1 X-13.982 Y15.250 E0.80714
G1 X-14.231 Y15.211 E0.00727
G1 X-14.446 Y15.101 E0.00698
G1 X-14.601 Y14.946 E0.00631
G1 X-14.711 Y14.731 E0.00698
G1 X-14.750 Y14.482 E0.00727
G1 X-14.750 Y-14.482 E0.83600
G1 X-14.710 Y-14.739 E0.00750
G1 X-14.671 Y-14.833 E0.00293
G1 X-14.524 Y-15.035 E0.00721
G1 X-14.446 Y-15.101 E0.00294
G1 X-14.231 Y-15.211 E0.00698
G1 X-13.982 Y-15.250 E0.00726
G1 X14.115 Y-15.239 E0.81097
G1 X14.333 Y-15.171 E0.00658 F2400.000
G1 X14.535 Y-15.024 E0.00721
G1 X14.601 Y-14.946 E0.00294
G1 X14.711 Y-14.731 E0.00698
G1 X14.750 Y-14.482 E0.00727
G1 X14.750 Y0.493 E0.43223
G1 X14.404 Y0.753 F15000.000
G1 X14.000 Y0.493 F15000.000
G1 X14.000 Y14.286 E0.84403 F2400.000
G1 X13.961 Y14.461 E0.01098
G1 X13.786 Y14.500 E0.01098
G1 X-13.786 Y14.500 E1.68721
G1 X-13.961 Y14.461 E0.01098
G1 X-14.000 Y14.286 E0.01098
G1 X-14.000 Y-14.286 E1.74841
G1 X-13.978 Y-14.422 E0.00844
G1 X-13.961 Y-14.461 E0.00261 F2400.000
G1 X-13.922 Y-14.478 E0.00260
G1 X-13.786 Y-14.500 E0.00845
G1 X13.786 Y-14.495 E1.68721
G1 X13.962 Y-14.457 E0.01106
G1 X14.000 Y-14.286 E0.01075
G1 X14.000 Y0.433 E0.90071
G1 E-3.20000 F3000.00000
G1 Z0.900 F15000.000
G1 X13.607 Y0.433 F15000.000
G1 Z0.700 F15000.000
G1 E3.20000 F3000.00000
G1 X13.607 Y14.107 E0.39467 F2400.000
G1 X-13.607 Y14.107 E0.78547
G1 X-13.607 Y-14.107 E0.81434
G1 X13.607 Y-14.107 E0.78547 F2400.000
G1 X13.607 Y0.373 E0.41794
G1 X13.250 Y0.373 F15000.000
G1 X13.250 Y13.750 E0.38609 F2400.000
G1 X-13.250 Y13.750 E0.76486
G1 X-13.250 Y-13.750 E0.79372
G1 X13.250 Y-13.750 E0.76486 F2400.000
G1 X13.250 Y0.313 E0.40590
G1 X13.596 Y0.573 F15000.000
G1 E-3.20000 F3000.00000
G1 Z1.100 F15000.000
G1 X-14.393 Y2.924 F15000.000
G1 Z0.700 F15000.000
G1 E3.20000 F3000.00000
G1 X-14.393 Y-14.454 E0.50158 F2400.000
G1 X-14.362 Y-14.650 E0.00572
G1 X-14.255 Y-14.798 E0.00528
G1 X-14.119 Y-14.867 E0.00438
G1 X-13.954 Y-14.893 E0.00482
G1 X14.069 Y-14.883 E0.80884
G1 X14.157 Y-14.857 E0.00264 F2400.000
G1 X14.298 Y-14.755 E0.00503
G1 X14.367 Y-14.619 E0.00438
G1 X14.393 Y-14.454 E0.00482
G1 X14.393 Y14.454 E0.83438
G1 X14.367 Y14.619 E0.00482
G1 X14.302 Y14.747 E0.00412
G1 X14.247 Y14.802 E0.00226
G1 X14.119 Y14.867 E0.00412
G1 X13.954 Y14.893 E0.00482
G1 X-13.954 Y14.893 E0.80552
G1 X-14.119 Y14.867 E0.00482
G1 X-14.247 Y14.802 E0.00412
G1 X-14.302 Y14.747 E0.00226
G1 X-14.367 Y14.619 E0.00412
G1 X-14.393 Y14.454 E0.00482
G1 X-14.393 Y2.984 E0.33107
G1 X-14.750 Y2.984 F15000.000
G1 X-14.750 Y-14.482 E0.50412 F2400.000
G1 X-14.710 Y-14.739 E0.00750
G1 X-14.671 Y-14.833 E0.00293
G1 X-14.524 Y-15.035 E0.00721
G1 X-14.446 Y-15.101 E0.00294
G1 X-14.231 Y-15.211 E0.00698
G1 X-13.982 Y-15.250 E0.00726
G1 X14.109 Y-15.240 E0.81078
G1 X14.333 Y-15.171 E0.00677 F2400.000
G1 X14.535 Y-15.024 E0.00721
G1 X14.601 Y-14.946 E0.00294
G1 X14.711 Y-14.731 E0.00698
G1 X14.750 Y-14.482 E0.00727
G1 X14.750 Y14.482 E0.83600
G1 X14.711 Y14.731 E0.00727
G1 X14.601 Y14.946 E0.00698
G1 X14.446 Y15.101 E0.00631
G1 X14.231 Y15.211 E0.00698
G1 X13.982 Y15.250 E0.00727
G1 X-13.982 Y15.250 E0.80714
G1 X-14.231 Y15.211 E0.00727
G1 X-14.446 Y15.101 E0.00698
G1 X-14.601 Y14.946 E0.00631
G1 X-14.711 Y14.731 E0.00698
G1 X-14.750 Y14.482 E0.00727
G1 X-14.750 Y3.044 E0.33015
G1 X-14.404 Y2.784 F15000.000
G1 X-14.000 Y3.044 F15000.000
G1 X-14.000 Y-14.286 E1.06047 F2400.000
G1 X-13.978 Y-14.422 E0.00844
G1 X-13.961 Y-14.461 E0.00261 F2400.000
G1 X-13.922 Y-14.478 E0.00260
G1 X-13.786 Y-14.500 E0.00845
G1 X13.786 Y-14.495 E1.68721
G1 X13.962 Y-14.458 E0.01104
G1 X14.000 Y-14.286 E0.01077
G1 X14.000 Y14.286 E1.74841
G1 X13.978 Y14.422 E0.00844
G1 X13.961 Y14.461 E0.00261
G1 X13.922 Y14.478 E0.00261
G1 X13.786 Y14.500 E0.00844
G1 X-13.786 Y14.500 E1.68721
G1 X-13.922 Y14.478 E0.00844
G1 X-13.961 Y14.461 E0.00261
G1 X-13.978 Y14.422 E0.00261
G1 X-14.000 Y14.286 E0.00844
G1 X-14.000 Y3.104 E0.68426
M106 S255
G1 E-3.20000 F3000.00000
G1 Z1.100 F15000.000
G1 X-13.607 Y3.104 F15000.000
G1 Z0.900 F15000.000
G1 E3.20000 F3000.00000
G1 X-13.607 Y-14.107 E0.49675 F2400.000
G1 X13.607 Y-14.107 E0.78547 F2400.000
G1 X13.607 Y14.107 E0.81434
G1 X-13.607 Y14.107 E0.78547
G1 X-13.607 Y3.164 E0.31585
G1 X-13.250 Y3.164 F15000.000
G1 X-13.250 Y-13.750 E0.48818 F2400.000
G1 X13.250 Y-13.750 E0.76486 F2400.000
G1 X13.250 Y13.750 E0.79372
G1 X-13.250 Y13.750 E0.76486
G1 X-13.250 Y3.224 E0.30381
G1 X-13.596 Y2.964 F15000.000
G1 E-3.20000 F3000.00000
G1 Z1.300 F15000.000
G1 X-9.893 Y14.893 F15000.000
G1 Z0.900 F15000.000
G1 E3.20000 F3000.00000
G1 X-13.954 Y14.893 E0.11721 F2400.000
G1 X-14.119 Y14.867 E0.00482
G1 X-14.277 Y14.777 E0.00523
G1 X-14.367 Y14.619 E0.00523
G1 X-14.393 Y14.454 E0.00482
G1 X-14.393 Y-14.454 E0.83438
G1 X-14.362 Y-14.650 E0.00572
G1 X-14.255 Y-14.798 E0.00528
G1 X-14.119 Y-14.867 E0.00438
G1 X-13.954 Y-14.893 E0.00482
G1 X14.064 Y-14.883 E0.80868
G1 X14.157 Y-14.857 E0.00280 F2400.000
G1 X14.273 Y-14.773 E0.00413
G1 X14.362 Y-14.650 E0.00438
G1 X14.393 Y-14.454 E0.00572
G1 X14.393 Y14.454 E0.83438
G1 X14.367 Y14.619 E0.00482
G1 X14.302 Y14.747 E0.00412
G1 X14.247 Y14.802 E0.00226
G1 X14.119 Y14.867 E0.00412
G1 X13.954 Y14.893 E0.00482
G1 X-9.833 Y14.893 E0.68657
G1 X-9.833 Y15.250 F15000.000
G1 X-13.982 Y15.250 E0.11975 F2400.000
G1 X-14.231 Y15.211 E0.00727
G1 X-14.446 Y15.101 E0.00698
G1 X-14.530 Y15.030 E0.00316
G1 X-14.601 Y14.946 E0.00316
G1 X-14.711 Y14.731 E0.00698
G1 X-14.750 Y14.482 E0.00727
G1 X-14.750 Y-14.482 E0.83600
G1 X-14.710 Y-14.739 E0.00750
G1 X-14.671 Y-14.833 E0.00293
G1 X-14.524 Y-15.035 E0.00721
G1 X-14.446 Y-15.101 E0.00294
G1 X-14.231 Y-15.211 E0.00698
G1 X-13.982 Y-15.250 E0.00726
G1 X14.102 Y-15.240 E0.81059
G1 X14.333 Y-15.171 E0.00696 F2400.000
G1 X14.528 Y-15.028 E0.00698
G1 X14.671 Y-14.833 E0.00698
G1 X14.710 Y-14.739 E0.00293
G1 X14.750 Y-14.482 E0.00750
G1 X14.750 Y14.482 E0.83600
G1 X14.711 Y14.731 E0.00727
G1 X14.601 Y14.946 E0.00698
G1 X14.446 Y15.101 E0.00631
G1 X14.231 Y15.211 E0.00698
G1 X13.982 Y15.250 E0.00727
G1 X-9.773 Y15.250 E0.68565
G1 X-10.033 Y14.904 F15000.000
G1 X-9.773 Y14.500 F15000.000
G1 X-13.786 Y14.500 E0.24554 F2400.000
G1 X-13.961 Y14.461 E0.01098
G1 X-14.000 Y14.286 E0.01098
G1 X-14.000 Y-14.286 E1.74841
G1 X-13.978 Y-14.422 E0.00844
G1 X-13.961 Y-14.461 E0.00261 F2400.000
G1 X-13.922 Y-14.478 E0.00260
G1 X-13.786 Y-14.500 E0.00845
G1 X13.786 Y-14.495 E1.68721
G1 X13.962 Y-14.458 E0.01103
G1 X14.000 Y-14.286 E0.01080
G1 X14.000 Y14.286 E1.74841
G1 X13.961 Y14.461 E0.01098
G1 X13.786 Y14.500 E0.01098
G1 X-9.713 Y14.500 E1.43800
G1 E-3.20000 F3000.00000
G1 Z1.300 F15000.000
G1 X-9.713 Y14.107 F15000.000
G1 Z1.100 F15000.000
G1 E3.20000 F3000.00000
G1 X-13.607 Y14.107 E0.11239 F2400.000
G1 X-13.607 Y-14.107 E0.81434
G1 X13.607 Y-14.107 E0.78547 F2400.000
G1 X13.607 Y14.107 E0.81434
G1 X-9.653 Y14.107 E0.67135
G1 X-9.653 Y13.750 F15000.000
G1 X-13.250 Y13.750 E0.10381 F2400.000
G1 X-13.250 Y-13.750 E0.79372
G1 X13.250 Y-13.750 E0.76486 F2400.000
G1 X13.250 Y13.750 E0.79372
G1 X-9.593 Y13.750 E0.65932
G1 X-9.853 Y14.096 F15000.000
G1 E-3.20000 F3000.00000
G1 Z1.500 F15000.000
G1 X-2.348 Y-14.889 F15000.000
G1 Z1.100 F15000.000
G1 E3.20000 F3000.00000
G1 X14.058 Y-14.884 E0.47351 F2400.000
G1 X14.157 Y-14.857 E0.00296 F2400.000
G1 X14.298 Y-14.755 E0.00503
G1 X14.367 Y-14.619 E0.00438
G1 X14.393 Y-14.454 E0.00482
G1 X14.393 Y14.454 E0.83438
G1 X14.367 Y14.619 E0.00482
G1 X14.277 Y14.777 E0.00523
G1 X14.119 Y14.867 E0.00523
G1 X13.954 Y14.893 E0.00482
G1 X-13.954 Y14.893 E0.80552
G1 X-14.119 Y14.867 E0.00482
G1 X-14.247 Y14.802 E0.00412
G1 X-14.302 Y14.747 E0.00226
G1 X-14.367 Y14.619 E0.00412
G1 X-14.393 Y14.454 E0.00482
G1 X-14.393 Y-14.454 E0.83438
G1 X-14.362 Y-14.650 E0.00572
G1 X-14.255 Y-14.798 E0.00528
G1 X-14.119 Y-14.867 E0.00438
G1 X-13.954 Y-14.893 E0.00482
G1 X-2.408 Y-14.889 E0.33327
G1 X-2.408 Y-15.246 F15000.000
G1 X14.095 Y-15.241 E0.47632 F2400.000
G1 X14.333 Y-15.171 E0.00715 F2400.000
G1 X14.535 Y-15.024 E0.00721
G1 X14.601 Y-14.946 E0.00294
G1 X14.711 Y-14.731 E0.00698
G1 X14.750 Y-14.482 E0.00727
G1 X14.750 Y14.482 E0.83600
G1 X14.711 Y14.731 E0.00727
G1 X14.601 Y14.946 E0.00698
G1 X14.530 Y15.030 E0.00316
G1 X14.446 Y15.101 E0.00316
G1 X14.231 Y15.211 E0.00698
G1 X13.982 Y15.250 E0.00727
G1 X-13.982 Y15.250 E0.80714
G1 X-14.231 Y15.211 E0.00727
G1 X-14.446 Y15.101 E0.00698
G1 X-14.601 Y14.946 E0.00631
G1 X-14.711 Y14.731 E0.00698
G1 X-14.750 Y14.482 E0.00727
G1 X-14.750 Y-14.482 E0.83600
G1 X-14.710 Y-14.739 E0.00750
G1 X-14.671 Y-14.833 E0.00293
G1 X-14.524 Y-15.035 E0.00721
G1 X-14.446 Y-15.101 E0.00294
G1 X-14.231 Y-15.211 E0.00698
G1 X-13.982 Y-15.250 E0.00726
G1 X-2.468 Y-15.246 E0.33235
G1 X-2.208 Y-14.900 F15000.000
G1 X-2.468 Y-14.498 F15000.000
G1 X13.786 Y-14.495 E0.99461 F2400.000
G1 X13.962 Y-14.458 E0.01101
G1 X14.000 Y-14.286 E0.01083
G1 X14.000 Y14.286 E1.74841
G1 X13.961 Y14.461 E0.01098
G1 X13.786 Y14.500 E0.01098
G1 X-13.786 Y14.500 E1.68721
G1 X-13.961 Y14.461 E0.01098
G1 X-14.000 Y14.286 E0.01098
G1 X-14.000 Y-14.286 E1.74841
G1 X-13.978 Y-14.422 E0.00844
G1 X-13.961 Y-14.461 E0.00261 F2400.000
G1 X-13.922 Y-14.478 E0.00260
G1 X-13.786 Y-14.500 E0.00845
G1 X-2.528 Y-14.498 E0.68893
G1 E-3.20000 F3000.00000
G1 Z1.500 F15000.000
G1 X-2.528 Y-14.107 F15000.000
G1 Z1.300 F15000.000
G1 E3.20000 F3000.00000
G1 X13.607 Y-14.107 E0.46569 F2400.000
G1 X13.607 Y14.107 E0.81434
G1 X-13.607 Y14.107 E0.78547
G1 X-13.607 Y-14.107 E0.81434
G1 X-2.588 Y-14.107 E0.31805 F2400.000
G1 X-2.588 Y-13.750 F15000.000
G1 X13.250 Y-13.750 E0.45712 F2400.000
G1 X13.250 Y13.750 E0.79372
G1 X-13.250 Y13.750 E0.76486
G1 X-13.250 Y-13.750 E0.79372
G1 X-2.648 Y-13.750 E0.30601 F2400.000
G1 X-2.388 Y-14.096 F15000.000
G1 E-3.20000 F3000.00000
G1 Z1.700 F15000.000
G1 X-6.574 Y14.893 F15000.000
G1 Z1.300 F15000.000
G1 E3.20000 F3000.00000
G1 X-13.954 Y14.893 E0.21301 F2400.000
G1 X-14.119 Y14.867 E0.00482
G1 X-14.247 Y14.802 E0.00412
G1 X-14.302 Y14.747 E0.00226
G1 X-14.367 Y14.619 E0.00412
G1 X-14.393 Y14.454 E0.00482
G1 X-14.393 Y-14.454 E0.83438
G1 X-14.362 Y-14.650 E0.00572
G1 X-14.273 Y-14.773 E0.00438
G1 X-14.150 Y-14.862 E0.00438
G1 X-13.954 Y-14.893 E0.00572
G1 X14.052 Y-14.884 E0.80835
G1 X14.157 Y-14.857 E0.00313 F2400.000
G1 X14.298 Y-14.755 E0.00503
G1 X14.367 Y-14.619 E0.00438
G1 X14.393 Y-14.454 E0.00482
G1 X14.393 Y14.454 E0.83438
G1 X14.367 Y14.619 E0.00482
G1 X14.302 Y14.747 E0.00412
G1 X14.247 Y14.802 E0.00226
G1 X14.119 Y14.867 E0.00412
G1 X13.954 Y14.893 E0.00482
G1 X-6.514 Y14.893 E0.59078
G1 X-6.514 Y15.250 F15000.000
G1 X-13.982 Y15.250 E0.21555 F2400.000
G1 X-14.231 Y15.211 E0.00727
G1 X-14.446 Y15.101 E0.00698
G1 X-14.601 Y14.946 E0.00631
G1 X-14.711 Y14.731 E0.00698
G1 X-14.750 Y14.482 E0.00727
G1 X-14.750 Y-14.482 E0.83600
G1 X-14.710 Y-14.739 E0.00750
G1 X-14.671 Y-14.833 E0.00293
