; generated by Slic3r 1.2.9 on 2017-05-31 at 12:50:29

; external perimeters extrusion width = 0.40mm
; perimeters extrusion width = 0.40mm
; infill extrusion width = 0.40mm
; solid infill extrusion width = 0.40mm
; top infill extrusion width = 0.40mm

M107
M83
T0
M116
G21 ; set units to millimeters
G90 ; use absolute coordinates
M83 ; use relative distances for extrusion
G1 E-3.20000 F3000.00000
G1 Z0.400 F15000.000
G1 X0.000 Y15.642 F15000.000
G1 Z0.300 F15000.000
G1 E3.20000 F3000.00000
G1 X-37.961 Y15.642 E3.00948 F960.000
G1 X-40.294 Y15.478 E0.18539
G1 X-40.911 Y15.378 E0.04960
G1 X-42.916 Y14.872 E0.16391
G1 X-43.508 Y14.668 E0.04960
G1 X-45.396 Y13.826 E0.16391
G1 X-45.944 Y13.523 E0.04960
G1 X-47.660 Y12.371 E0.16391
G1 X-48.147 Y11.978 E0.04960
G1 X-49.587 Y10.599 E0.15808
G1 X-49.988 Y10.146 E0.04791
G1 X-51.267 Y8.430 E0.16966
G1 X-51.606 Y7.879 E0.05129
G1 X-52.528 Y6.029 E0.16391
G1 X-52.758 Y5.447 E0.04960
G1 X-53.349 Y3.466 E0.16391
G1 X-53.476 Y2.853 E0.04960
G1 X-53.719 Y0.800 E0.16391
G1 X-53.739 Y0.175 E0.04960
G1 X-53.626 Y-1.890 E0.16391
G1 X-53.539 Y-2.509 E0.04960
G1 X-53.074 Y-4.524 E0.16391
G1 X-52.881 Y-5.119 E0.04960
G1 X-52.078 Y-7.024 E0.16391
G1 X-51.786 Y-7.578 E0.04960
G1 X-50.668 Y-9.317 E0.16391
G1 X-50.285 Y-9.812 E0.04960
G1 X-48.886 Y-11.334 E0.16391
G1 X-48.424 Y-11.756 E0.04960
G1 X-46.784 Y-13.015 E0.16391
G1 X-46.257 Y-13.352 E0.04960
G1 X-44.425 Y-14.312 E0.16391
G1 X-43.848 Y-14.553 E0.04960
G1 X-41.879 Y-15.184 E0.16391
G1 X-41.269 Y-15.323 E0.04960
G1 X-39.222 Y-15.607 E0.16391
G1 X-38.722 Y-15.642 E0.03972
G1 X38.722 Y-15.642 E6.13955
G1 X39.222 Y-15.607 E0.03972
G1 X41.253 Y-15.325 E0.16263 F960.000
G1 X41.859 Y-15.188 E0.04922
G1 X43.844 Y-14.555 E0.16518
G1 X44.425 Y-14.312 E0.04998
G1 X46.257 Y-13.352 E0.16391
G1 X46.784 Y-13.015 E0.04960
G1 X48.424 Y-11.756 E0.16391
G1 X48.886 Y-11.334 E0.04960
G1 X50.285 Y-9.812 E0.16391
G1 X50.668 Y-9.317 E0.04960
G1 X51.786 Y-7.578 E0.16392
G1 X52.078 Y-7.024 E0.04960
G1 X52.881 Y-5.119 E0.16391
G1 X53.074 Y-4.524 E0.04960
G1 X53.539 Y-2.509 E0.16391
G1 X53.626 Y-1.890 E0.04960
G1 X53.739 Y0.175 E0.16391
G1 X53.719 Y0.800 E0.04960
G1 X53.476 Y2.853 E0.16391
G1 X53.349 Y3.466 E0.04960
G1 X52.758 Y5.447 E0.16391
G1 X52.528 Y6.029 E0.04960
G1 X51.606 Y7.879 E0.16391
G1 X51.280 Y8.413 E0.04960
G1 X50.054 Y10.078 E0.16391
G1 X49.641 Y10.548 E0.04960
G1 X48.147 Y11.978 E0.16391
G1 X47.660 Y12.371 E0.04960
G1 X45.944 Y13.523 E0.16391
G1 X45.396 Y13.826 E0.04960
G1 X43.508 Y14.668 E0.16391
G1 X42.916 Y14.872 E0.04960
G1 X40.911 Y15.378 E0.16391
G1 X40.294 Y15.478 E0.04960
G1 X38.232 Y15.632 E0.16391
G1 X0.060 Y15.642 E3.02620
G1 E-3.20000 F3000.00000
G1 Z0.700 F15000.000
G1 X-36.260 Y8.972 F15000.000
G1 Z0.300 F15000.000
G1 E3.20000 F3000.00000
G1 X-36.367 Y9.276 E0.02557 F600.000
G1 X-36.525 Y9.557 E0.02557
G1 X-36.727 Y9.808 E0.02557
G1 X-36.969 Y10.021 E0.02557
G1 X-37.244 Y10.190 E0.02557
G1 X-37.543 Y10.311 E0.02557
G1 X-37.858 Y10.378 E0.02557
G1 X-38.181 Y10.392 E0.02557
G1 X-38.501 Y10.351 E0.02557
G1 X-38.809 Y10.257 E0.02557
G1 X-39.097 Y10.112 E0.02557
G1 X-39.356 Y9.920 E0.02557
G1 X-39.579 Y9.687 E0.02557
G1 X-39.760 Y9.420 E0.02557
G1 X-39.893 Y9.126 E0.02557
G1 X-39.974 Y8.814 E0.02557
G1 X-40.002 Y8.491 E0.02569
G1 X-39.970 Y8.156 E0.02665
G1 X-39.893 Y7.859 E0.02436
G1 X-39.760 Y7.565 E0.02557
G1 X-39.579 Y7.298 E0.02557
G1 X-39.356 Y7.065 E0.02557
G1 X-39.097 Y6.873 E0.02557
G1 X-38.808 Y6.727 E0.02569
G1 X-38.485 Y6.632 E0.02665
G1 X-38.181 Y6.593 E0.02436 F600.000
G1 X-37.858 Y6.606 E0.02557
G1 X-37.543 Y6.674 E0.02557
G1 X-37.244 Y6.795 E0.02557
G1 X-36.969 Y6.964 E0.02557
G1 X-36.727 Y7.177 E0.02557
G1 X-36.525 Y7.428 E0.02557
G1 X-36.367 Y7.709 E0.02557
G1 X-36.260 Y8.013 E0.02557
G1 X-36.205 Y8.331 E0.02557
G1 X-36.205 Y8.654 E0.02557
G1 X-36.250 Y8.912 E0.02081
G1 X-36.037 Y9.204 F15000.000
G1 E-3.20000 F3000.00000
G1 Z0.700 F15000.000
G1 X-45.227 Y1.308 F15000.000
G1 Z0.300 F15000.000
G1 E3.20000 F3000.00000
G1 X-45.469 Y1.521 E0.02557 F600.000
G1 X-45.744 Y1.690 E0.02557
G1 X-46.043 Y1.810 E0.02557
G1 X-46.359 Y1.878 E0.02557
G1 X-46.681 Y1.892 E0.02557
G1 X-47.001 Y1.851 E0.02557
G1 X-47.309 Y1.757 E0.02557
G1 X-47.598 Y1.611 E0.02569
G1 X-47.867 Y1.409 E0.02665
G1 X-48.079 Y1.187 E0.02436
G1 X-48.260 Y0.920 E0.02557
G1 X-48.393 Y0.626 E0.02557
G1 X-48.474 Y0.314 E0.02557
G1 X-48.502 Y-0.009 E0.02569
G1 X-48.470 Y-0.344 E0.02665
G1 X-48.393 Y-0.641 E0.02436
G1 X-48.260 Y-0.935 E0.02557
G1 X-48.080 Y-1.202 E0.02557
G1 X-47.856 Y-1.435 E0.02557
G1 X-47.597 Y-1.627 E0.02557
G1 X-47.308 Y-1.773 E0.02569
G1 X-46.986 Y-1.868 E0.02665
G1 X-46.681 Y-1.907 E0.02436 F600.000
G1 X-46.359 Y-1.894 E0.02557
G1 X-46.043 Y-1.826 E0.02557
G1 X-45.744 Y-1.706 E0.02557
G1 X-45.469 Y-1.536 E0.02557
G1 X-45.226 Y-1.322 E0.02569
G1 X-45.017 Y-1.059 E0.02665
G1 X-44.867 Y-0.791 E0.02436
G1 X-44.760 Y-0.487 E0.02557
G1 X-44.706 Y-0.169 E0.02557
G1 X-44.706 Y0.154 E0.02557
G1 X-44.760 Y0.471 E0.02557
G1 X-44.868 Y0.777 E0.02569
G1 X-45.034 Y1.069 E0.02665
G1 X-45.190 Y1.261 E0.01960
G1 X-45.146 Y1.620 F15000.000
G1 X-39.139 Y-6.920 F15000.000
G1 X-39.356 Y-7.080 E0.02142 F600.000
G1 X-39.579 Y-7.313 E0.02557
G1 X-39.760 Y-7.580 E0.02557
G1 X-39.893 Y-7.874 E0.02557
G1 X-39.974 Y-8.186 E0.02557
G1 X-40.002 Y-8.509 E0.02569
G1 X-39.970 Y-8.844 E0.02665
G1 X-39.893 Y-9.141 E0.02436
G1 X-39.760 Y-9.435 E0.02557
G1 X-39.579 Y-9.702 E0.02557
G1 X-39.356 Y-9.935 E0.02557
G1 X-39.097 Y-10.127 E0.02557
G1 X-38.808 Y-10.273 E0.02569
G1 X-38.485 Y-10.368 E0.02665
G1 X-38.181 Y-10.408 E0.02436 F600.000
G1 X-37.858 Y-10.394 E0.02557
G1 X-37.543 Y-10.326 E0.02557
G1 X-37.244 Y-10.206 E0.02557
G1 X-36.969 Y-10.037 E0.02557
G1 X-36.726 Y-9.822 E0.02569
G1 X-36.517 Y-9.559 E0.02665
G1 X-36.367 Y-9.291 E0.02436
G1 X-36.260 Y-8.987 E0.02557
G1 X-36.205 Y-8.669 E0.02557
G1 X-36.205 Y-8.347 E0.02557
G1 X-36.260 Y-8.029 E0.02557
G1 X-36.367 Y-7.725 E0.02557
G1 X-36.525 Y-7.443 E0.02557
G1 X-36.727 Y-7.192 E0.02557
G1 X-36.969 Y-6.979 E0.02557
G1 X-37.244 Y-6.810 E0.02557
G1 X-37.543 Y-6.690 E0.02557
G1 X-37.858 Y-6.622 E0.02557
G1 X-38.181 Y-6.608 E0.02557
G1 X-38.501 Y-6.649 E0.02557
G1 X-38.810 Y-6.744 E0.02569
G1 X-39.089 Y-6.887 E0.02482
G1 X-39.381 Y-6.800 F15000.000
G1 E-3.20000 F3000.00000
G1 Z0.700 F15000.000
G1 X33.249 Y-0.731 F15000.000
G1 Z0.300 F15000.000
G1 E3.20000 F3000.00000
G1 X33.258 Y-0.838 E0.00852 F600.000
G1 X33.468 Y-1.644 E0.06606
G1 X33.811 Y-2.404 E0.06606
G1 X34.278 Y-3.094 E0.06606
G1 X34.854 Y-3.696 E0.06606
G1 X35.524 Y-4.191 E0.06606
G1 X36.271 Y-4.568 E0.06634
G1 X37.097 Y-4.814 E0.06832
G1 X37.891 Y-4.916 E0.06349 F600.000
G1 X38.724 Y-4.881 E0.06606
G1 X39.539 Y-4.705 E0.06606
G1 X40.312 Y-4.395 E0.06606
G1 X41.021 Y-3.958 E0.06606
G1 X41.647 Y-3.407 E0.06606
G1 X42.170 Y-2.759 E0.06606
G1 X42.577 Y-2.031 E0.06606
G1 X42.854 Y-1.246 E0.06606
G1 X42.991 Y-0.446 E0.06431
G1 X43.010 Y-0.008 E0.03479
G1 X42.991 Y0.431 E0.03479
G1 X42.854 Y1.230 E0.06431
G1 X42.577 Y2.016 E0.06606
G1 X42.170 Y2.743 E0.06606
G1 X41.647 Y3.392 E0.06606
G1 X41.021 Y3.942 E0.06606
G1 X40.312 Y4.379 E0.06606
G1 X39.539 Y4.690 E0.06606
G1 X38.724 Y4.865 E0.06606
G1 X37.891 Y4.901 E0.06606
G1 X37.065 Y4.795 E0.06606
G1 X36.265 Y4.550 E0.06634
G1 X35.498 Y4.157 E0.06832
G1 X34.854 Y3.680 E0.06349
G1 X34.278 Y3.079 E0.06606
G1 X33.811 Y2.388 E0.06606
G1 X33.468 Y1.629 E0.06606
G1 X33.258 Y0.823 E0.06606
G1 X33.187 Y-0.008 E0.06606
G1 X33.244 Y-0.671 E0.05278
G1 X33.877 Y-0.617 F15000.000
G1 X33.887 Y-0.730 E0.00899 F600.000
G1 X34.069 Y-1.432 E0.05748
G1 X34.368 Y-2.093 E0.05748
G1 X34.774 Y-2.693 E0.05748
G1 X35.276 Y-3.217 E0.05748
G1 X35.859 Y-3.648 E0.05748
G1 X36.507 Y-3.975 E0.05758
G1 X37.229 Y-4.191 E0.05974
G1 X37.919 Y-4.279 E0.05509 F600.000
G1 X38.643 Y-4.248 E0.05748
G1 X39.352 Y-4.095 E0.05748
G1 X40.025 Y-3.825 E0.05748
G1 X40.642 Y-3.445 E0.05748
G1 X41.186 Y-2.966 E0.05748
G1 X41.642 Y-2.402 E0.05748
G1 X41.995 Y-1.769 E0.05748
G1 X42.237 Y-1.085 E0.05748
G1 X42.358 Y-0.379 E0.05681
G1 X42.374 Y-0.008 E0.02944
G1 X42.358 Y0.363 E0.02943
G1 X42.237 Y1.070 E0.05681
G1 X41.995 Y1.753 E0.05748
G1 X41.642 Y2.386 E0.05748
G1 X41.186 Y2.950 E0.05748
G1 X40.642 Y3.429 E0.05748
G1 X40.025 Y3.810 E0.05748
G1 X39.352 Y4.080 E0.05748
G1 X38.643 Y4.233 E0.05748
G1 X37.919 Y4.263 E0.05748
G1 X37.199 Y4.171 E0.05748
G1 X36.505 Y3.959 E0.05758
G1 X35.834 Y3.615 E0.05974
G1 X35.276 Y3.201 E0.05509
G1 X34.774 Y2.678 E0.05748
G1 X34.368 Y2.077 E0.05748
G1 X34.069 Y1.416 E0.05748
G1 X33.887 Y0.715 E0.05748
G1 X33.825 Y-0.008 E0.05748
G1 X33.872 Y-0.557 E0.04374
G1 X33.784 Y-0.682 F15000.000
G1 X32.124 Y-0.258 F15000.000
G1 X32.130 Y0.208 E0.03690 F600.000
G1 X32.057 Y0.632 E0.03414
G1 X31.914 Y1.038 E0.03415
G1 X31.704 Y1.414 E0.03414
G1 X31.433 Y1.749 E0.03415
G1 X31.110 Y2.034 E0.03415
G1 X30.743 Y2.260 E0.03414
G1 X30.343 Y2.420 E0.03415
G1 X29.922 Y2.511 E0.03415
G1 X29.492 Y2.529 E0.03414
G1 X29.065 Y2.475 E0.03415
G1 X28.653 Y2.349 E0.03415
G1 X28.268 Y2.155 E0.03414
G1 X27.922 Y1.899 E0.03415
G1 X27.624 Y1.588 E0.03415
G1 X27.383 Y1.231 E0.03414
G1 X27.206 Y0.838 E0.03415
G1 X27.096 Y0.417 E0.03448
G1 X27.062 Y-0.026 E0.03522
G1 X27.097 Y-0.437 E0.03272
G1 X27.206 Y-0.854 E0.03415
G1 X27.383 Y-1.246 E0.03415
G1 X27.624 Y-1.603 E0.03414
G1 X27.922 Y-1.914 E0.03415
G1 X28.268 Y-2.170 E0.03415
G1 X28.657 Y-2.366 E0.03448
G1 X29.083 Y-2.492 E0.03523
G1 X29.492 Y-2.545 E0.03272 F600.000
G1 X29.922 Y-2.526 E0.03414
G1 X30.343 Y-2.436 E0.03415
G1 X30.743 Y-2.275 E0.03414
G1 X31.110 Y-2.049 E0.03415
G1 X31.436 Y-1.762 E0.03448
G1 X31.713 Y-1.414 E0.03522
G1 X31.914 Y-1.054 E0.03272
G1 X32.057 Y-0.648 E0.03414
G1 X32.114 Y-0.317 E0.02660
G1 X31.488 Y-0.209 F15000.000
G1 X31.494 Y0.154 E0.02878 F600.000
G1 X31.440 Y0.471 E0.02557
G1 X31.333 Y0.776 E0.02557
G1 X31.175 Y1.057 E0.02557
G1 X30.973 Y1.308 E0.02557
G1 X30.731 Y1.521 E0.02557
G1 X30.456 Y1.690 E0.02557
G1 X30.157 Y1.810 E0.02557
G1 X29.841 Y1.878 E0.02557
G1 X29.519 Y1.892 E0.02557
G1 X29.199 Y1.851 E0.02557
G1 X28.891 Y1.757 E0.02557
G1 X28.603 Y1.611 E0.02557
G1 X28.344 Y1.420 E0.02557
G1 X28.121 Y1.187 E0.02557
G1 X27.940 Y0.920 E0.02557
G1 X27.807 Y0.626 E0.02557
G1 X27.725 Y0.312 E0.02569
G1 X27.700 Y-0.023 E0.02665
G1 X27.726 Y-0.329 E0.02436
G1 X27.807 Y-0.641 E0.02557
G1 X27.940 Y-0.935 E0.02557
G1 X28.120 Y-1.202 E0.02557
G1 X28.344 Y-1.435 E0.02557
G1 X28.603 Y-1.627 E0.02557
G1 X28.892 Y-1.773 E0.02568
G1 X29.214 Y-1.868 E0.02665
G1 X29.519 Y-1.907 E0.02436 F600.000
G1 X29.841 Y-1.894 E0.02557
G1 X30.157 Y-1.826 E0.02557
G1 X30.456 Y-1.706 E0.02557
G1 X30.731 Y-1.536 E0.02557
G1 X30.974 Y-1.322 E0.02569
G1 X31.183 Y-1.059 E0.02665
G1 X31.333 Y-0.791 E0.02436
G1 X31.440 Y-0.487 E0.02557
G1 X31.477 Y-0.269 E0.01756
G1 X31.814 Y-0.050 F15000.000
G1 E-3.20000 F3000.00000
G1 Z0.700 F15000.000
G1 X-27.070 Y-0.223 F15000.000
G1 Z0.300 F15000.000
G1 E3.20000 F3000.00000
G1 X-27.070 Y0.208 E0.03415 F600.000
G1 X-27.143 Y0.636 E0.03448
G1 X-27.295 Y1.054 E0.03522
G1 X-27.496 Y1.414 E0.03272
G1 X-27.767 Y1.749 E0.03415
G1 X-28.090 Y2.034 E0.03415
G1 X-28.457 Y2.260 E0.03415
G1 X-28.856 Y2.420 E0.03415
G1 X-29.277 Y2.511 E0.03414
G1 X-29.708 Y2.529 E0.03415
G1 X-30.135 Y2.475 E0.03415
G1 X-30.551 Y2.347 E0.03448
G1 X-30.946 Y2.144 E0.03522
G1 X-31.278 Y1.899 E0.03272
G1 X-31.576 Y1.588 E0.03415
G1 X-31.817 Y1.231 E0.03415
G1 X-31.994 Y0.838 E0.03415
G1 X-32.103 Y0.421 E0.03415
G1 X-32.140 Y-0.012 E0.03448
G1 X-32.098 Y-0.454 E0.03522
G1 X-31.994 Y-0.854 E0.03272
G1 X-31.817 Y-1.246 E0.03415
G1 X-31.576 Y-1.603 E0.03414
G1 X-31.278 Y-1.914 E0.03415
G1 X-30.931 Y-2.170 E0.03415
G1 X-30.543 Y-2.366 E0.03448
G1 X-30.117 Y-2.492 E0.03522
G1 X-29.708 Y-2.545 E0.03272 F600.000
G1 X-29.277 Y-2.526 E0.03415
G1 X-28.856 Y-2.436 E0.03415
G1 X-28.457 Y-2.275 E0.03415
G1 X-28.090 Y-2.049 E0.03415
G1 X-27.767 Y-1.765 E0.03415
G1 X-27.496 Y-1.430 E0.03415
G1 X-27.286 Y-1.054 E0.03415
G1 X-27.142 Y-0.648 E0.03415
G1 X-27.080 Y-0.282 E0.02939
G1 X-27.706 Y-0.175 F15000.000
G1 X-27.705 Y0.154 E0.02603 F600.000
G1 X-27.760 Y0.473 E0.02569
G1 X-27.875 Y0.789 E0.02665
G1 X-28.025 Y1.057 E0.02436
G1 X-28.227 Y1.308 E0.02557
G1 X-28.469 Y1.521 E0.02557
G1 X-28.744 Y1.690 E0.02557
G1 X-29.043 Y1.810 E0.02557
G1 X-29.358 Y1.878 E0.02557
G1 X-29.681 Y1.892 E0.02557
G1 X-30.000 Y1.851 E0.02557
G1 X-30.310 Y1.756 E0.02569
G1 X-30.609 Y1.602 E0.02665
G1 X-30.856 Y1.420 E0.02436
G1 X-31.079 Y1.187 E0.02557
G1 X-31.260 Y0.920 E0.02557
G1 X-31.393 Y0.626 E0.02557
G1 X-31.474 Y0.314 E0.02557
G1 X-31.501 Y-0.009 E0.02569
G1 X-31.470 Y-0.344 E0.02665
G1 X-31.393 Y-0.641 E0.02436
G1 X-31.260 Y-0.935 E0.02557
G1 X-31.079 Y-1.202 E0.02557
G1 X-30.856 Y-1.435 E0.02557
G1 X-30.597 Y-1.627 E0.02557
G1 X-30.308 Y-1.773 E0.02569
G1 X-29.985 Y-1.868 E0.02665
G1 X-29.681 Y-1.907 E0.02436 F600.000
G1 X-29.358 Y-1.894 E0.02557
G1 X-29.043 Y-1.826 E0.02557
G1 X-28.744 Y-1.706 E0.02557
G1 X-28.469 Y-1.536 E0.02557
G1 X-28.227 Y-1.323 E0.02557
G1 X-28.025 Y-1.072 E0.02557
G1 X-27.867 Y-0.791 E0.02557
G1 X-27.760 Y-0.487 E0.02557
G1 X-27.716 Y-0.234 E0.02034
G1 X-27.413 Y-0.028 F15000.000
G1 E-3.20000 F3000.00000
G1 Z0.700 F15000.000
G1 X-33.190 Y-0.008 F15000.000
G1 Z0.300 F15000.000
G1 E3.20000 F3000.00000
G1 X-33.209 Y0.431 E0.03479 F600.000
G1 X-33.346 Y1.230 E0.06431
G1 X-33.623 Y2.016 E0.06606
G1 X-34.030 Y2.743 E0.06606
G1 X-34.553 Y3.392 E0.06606
G1 X-35.179 Y3.942 E0.06606
G1 X-35.888 Y4.379 E0.06606
G1 X-36.661 Y4.690 E0.06606
G1 X-37.476 Y4.865 E0.06606
G1 X-38.309 Y4.901 E0.06606
G1 X-39.135 Y4.795 E0.06606
G1 X-39.932 Y4.551 E0.06606
G1 X-40.676 Y4.176 E0.06606
G1 X-41.346 Y3.680 E0.06606
G1 X-41.922 Y3.079 E0.06606
G1 X-42.389 Y2.388 E0.06606
G1 X-42.732 Y1.629 E0.06606
G1 X-42.942 Y0.823 E0.06606
G1 X-43.013 Y-0.008 E0.06606
G1 X-42.995 Y-0.214 E0.01645
G1 X-43.379 Y-0.214 E0.03039
G1 X-42.389 Y-2.404 E0.19046
G1 X-41.922 Y-3.094 E0.06606
G1 X-41.346 Y-3.696 E0.06606
G1 X-40.676 Y-4.191 E0.06606
G1 X-39.929 Y-4.568 E0.06634
G1 X-39.103 Y-4.814 E0.06832
G1 X-38.309 Y-4.916 E0.06349 F600.000
G1 X-37.476 Y-4.881 E0.06606
G1 X-36.661 Y-4.705 E0.06606
G1 X-35.888 Y-4.395 E0.06606
G1 X-35.179 Y-3.958 E0.06606
G1 X-34.553 Y-3.407 E0.06606
G1 X-34.030 Y-2.759 E0.06606
G1 X-33.623 Y-2.031 E0.06606
G1 X-33.346 Y-1.246 E0.06606
G1 X-33.209 Y-0.446 E0.06431
G1 X-33.192 Y-0.068 E0.03003
G1 X-33.828 Y-0.041 F15000.000
G1 X-33.842 Y0.363 E0.03204 F600.000
G1 X-33.963 Y1.070 E0.05681
G1 X-34.205 Y1.753 E0.05748
G1 X-34.558 Y2.386 E0.05748
G1 X-35.014 Y2.950 E0.05748
G1 X-35.558 Y3.429 E0.05748
G1 X-36.175 Y3.810 E0.05748
G1 X-36.848 Y4.080 E0.05748
G1 X-37.557 Y4.233 E0.05748
G1 X-38.281 Y4.263 E0.05748
G1 X-39.001 Y4.171 E0.05748
G1 X-39.694 Y3.959 E0.05748
G1 X-40.341 Y3.633 E0.05748
G1 X-40.924 Y3.201 E0.05748
G1 X-41.426 Y2.678 E0.05748
G1 X-41.832 Y2.077 E0.05748
G1 X-42.131 Y1.416 E0.05748
G1 X-42.313 Y0.715 E0.05748
G1 X-42.375 Y-0.008 E0.05748
G1 X-42.303 Y-0.850 E0.06703
G1 X-42.394 Y-0.850 E0.00717
G1 X-41.832 Y-2.093 E0.10809
G1 X-41.426 Y-2.693 E0.05748
G1 X-40.924 Y-3.217 E0.05748
G1 X-40.341 Y-3.648 E0.05748
G1 X-39.693 Y-3.975 E0.05758
G1 X-38.971 Y-4.191 E0.05974
G1 X-38.281 Y-4.279 E0.05509 F600.000
G1 X-37.557 Y-4.248 E0.05748
G1 X-36.848 Y-4.095 E0.05748
G1 X-36.175 Y-3.825 E0.05748
G1 X-35.558 Y-3.445 E0.05748
G1 X-35.014 Y-2.966 E0.05748
G1 X-34.558 Y-2.402 E0.05748
G1 X-34.205 Y-1.769 E0.05748
G1 X-33.963 Y-1.085 E0.05748
G1 X-33.842 Y-0.379 E0.05681
G1 X-33.830 Y-0.101 E0.02206
G1 X-33.483 Y0.163 F15000.000
G1 E-3.20000 F3000.00000
G1 Z0.700 F15000.000
G1 X30.276 Y-10.283 F15000.000
G1 Z0.300 F15000.000
G1 E3.20000 F3000.00000
G1 X36.669 Y-10.946 E0.50956 F720.000
G1 X36.775 Y-10.675 E0.02308
G1 X36.422 Y-10.414 E0.03474 F720.000
G1 X36.124 Y-10.103 E0.03415
G1 X35.883 Y-9.746 E0.03414
G1 X35.706 Y-9.354 E0.03415
G1 X35.597 Y-8.937 E0.03415
G1 X35.561 Y-8.508 E0.03414
G1 X35.597 Y-8.079 E0.03414
G1 X35.706 Y-7.662 E0.03415
G1 X35.883 Y-7.269 E0.03415
G1 X36.124 Y-6.913 E0.03415
