; generated by Slic3r 1.2.9 on 2017-06-12 at 15:23:14

; external perimeters extrusion width = 0.40mm
; perimeters extrusion width = 0.40mm
; infill extrusion width = 0.40mm
; solid infill extrusion width = 0.40mm
; top infill extrusion width = 0.40mm

M107
M83
T0
M116
G21 ; set units to millimeters
G90 ; use absolute coordinates
M83 ; use relative distances for extrusion
G1 E-3.20000 F3000.00000
G1 Z0.400 F15000.000
G1 X-33.373 Y0.000 F15000.000
G1 Z0.300 F15000.000
G1 E3.20000 F3000.00000
G1 X-33.373 Y-50.265 E3.87368 F960.000
G1 X-33.235 Y-52.639 E0.18327
G1 X-33.145 Y-53.252 E0.04775
G1 X-32.650 Y-55.351 E0.16618
G1 X-32.457 Y-55.938 E0.04763
G1 X-31.614 Y-57.923 E0.16623
G1 X-31.322 Y-58.472 E0.04793
G1 X-30.153 Y-60.284 E0.16618
G1 X-29.775 Y-60.773 E0.04760
G1 X-28.316 Y-62.361 E0.16619
G1 X-27.858 Y-62.781 E0.04791
G1 X-26.149 Y-64.097 E0.16617
G1 X-25.628 Y-64.431 E0.04774
G1 X-23.721 Y-65.438 E0.16623
G1 X-23.150 Y-65.680 E0.04773
G1 X-21.101 Y-66.348 E0.16616
G1 X-20.483 Y-66.491 E0.04883
G1 X-18.298 Y-66.801 E0.17007
G1 X-17.693 Y-66.835 E0.04674
G1 X-15.588 Y-66.780 E0.16228
G1 X-14.973 Y-66.711 E0.04767 F960.000
G1 X-12.859 Y-66.290 E0.16617
G1 X-12.263 Y-66.117 E0.04780
G1 X-10.250 Y-65.342 E0.16623
G1 X-9.692 Y-65.071 E0.04780
G1 X-7.770 Y-63.922 E0.17260
G1 X31.673 Y-39.133 E3.59011
G1 X32.857 Y-37.923 E0.13052
G1 X33.374 Y-36.055 E0.14934
G1 X33.374 Y36.055 E5.55719
G1 X32.979 Y37.702 E0.13052
G1 X31.673 Y39.133 E0.14934
G1 X-7.770 Y63.922 E3.59011
G1 X-9.692 Y65.071 E0.17260
G1 X-10.250 Y65.342 E0.04780
G1 X-12.263 Y66.117 E0.16623
G1 X-12.859 Y66.290 E0.04779
G1 X-14.973 Y66.711 E0.16617
G1 X-15.588 Y66.780 E0.04767
G1 X-17.743 Y66.837 E0.16617
G1 X-18.363 Y66.800 E0.04783
G1 X-20.497 Y66.489 E0.16623
G1 X-21.101 Y66.348 E0.04774
G1 X-23.150 Y65.680 E0.16616
G1 X-23.721 Y65.438 E0.04773
G1 X-25.628 Y64.431 E0.16623
G1 X-26.149 Y64.097 E0.04774
G1 X-27.858 Y62.781 E0.16617
G1 X-28.316 Y62.361 E0.04791
G1 X-29.775 Y60.773 E0.16619
G1 X-30.153 Y60.284 E0.04761
G1 X-31.322 Y58.473 E0.16618
G1 X-31.614 Y57.923 E0.04793
G1 X-32.457 Y55.938 E0.16623
G1 X-32.650 Y55.351 E0.04763
G1 X-33.145 Y53.252 E0.16617
G1 X-33.235 Y52.639 E0.04775
G1 X-33.373 Y50.265 E0.18327
G1 X-33.373 Y0.060 E3.86905
G1 E-3.20000 F3000.00000
G1 Z0.700 F15000.000
G1 X-21.384 Y56.063 F15000.000
G1 Z0.300 F15000.000
G1 E3.20000 F3000.00000
G1 X-21.061 Y56.036 E0.02501 F600.000
G1 X-20.714 Y56.065 E0.02685
G1 X-20.374 Y56.154 E0.02705
G1 X-20.058 Y56.297 E0.02676
G1 X-19.771 Y56.491 E0.02665
G1 X-19.517 Y56.733 E0.02703
G1 X-19.311 Y57.015 E0.02693
G1 X-19.153 Y57.325 E0.02686
G1 X-19.052 Y57.660 E0.02692
G1 X-19.008 Y58.003 E0.02668
G1 X-19.022 Y58.351 E0.02683
G1 X-19.095 Y58.694 E0.02705
G1 X-19.226 Y59.017 E0.02684
G1 X-19.408 Y59.313 E0.02680
G1 X-19.640 Y59.576 E0.02699
G1 X-19.910 Y59.794 E0.02672
G1 X-20.212 Y59.963 E0.02671
G1 X-20.542 Y60.080 E0.02699
G1 X-20.886 Y60.139 E0.02687
G1 X-21.236 Y60.139 E0.02695
G1 X-21.581 Y60.080 E0.02695
G1 X-21.917 Y59.960 E0.02750
G1 X-22.239 Y59.773 E0.02876
G1 X-22.483 Y59.574 E0.02421
G1 X-22.714 Y59.313 E0.02684
G1 X-22.897 Y59.014 E0.02701
G1 X-23.025 Y58.694 E0.02658
G1 X-23.100 Y58.354 E0.02685
G1 X-23.114 Y58.003 E0.02706
G1 X-23.070 Y57.660 E0.02668
G1 X-22.969 Y57.325 E0.02693
G1 X-22.811 Y57.015 E0.02686
G1 X-22.605 Y56.733 E0.02693
G1 X-22.349 Y56.490 E0.02716
G1 X-22.061 Y56.296 E0.02672
G1 X-21.740 Y56.151 E0.02715
G1 X-21.443 Y56.077 E0.02365
G1 X-21.289 Y56.694 F15000.000
G1 X-21.281 Y56.692 E0.00064 F600.000
G1 X-21.061 Y56.674 E0.01703 F600.000
G1 X-20.821 Y56.694 E0.01853
G1 X-20.588 Y56.755 E0.01861
G1 X-20.369 Y56.854 E0.01849
G1 X-20.171 Y56.988 E0.01840
G1 X-19.997 Y57.154 E0.01860
G1 X-19.854 Y57.348 E0.01856
G1 X-19.745 Y57.563 E0.01854
G1 X-19.676 Y57.793 E0.01855
G1 X-19.645 Y58.031 E0.01846
G1 X-19.655 Y58.271 E0.01851
G1 X-19.705 Y58.507 E0.01858
G1 X-19.796 Y58.729 E0.01853
G1 X-19.921 Y58.934 E0.01850
G1 X-20.081 Y59.115 E0.01857
G1 X-20.267 Y59.265 E0.01846
G1 X-20.476 Y59.382 E0.01845
G1 X-20.704 Y59.463 E0.01861
G1 X-20.940 Y59.503 E0.01848
G1 X-21.182 Y59.503 E0.01866
G1 X-21.419 Y59.463 E0.01851
G1 X-21.648 Y59.381 E0.01874
G1 X-21.877 Y59.248 E0.02046
G1 X-22.042 Y59.114 E0.01633
G1 X-22.201 Y58.934 E0.01851
G1 X-22.327 Y58.728 E0.01859
G1 X-22.416 Y58.507 E0.01842
G1 X-22.467 Y58.272 E0.01851
G1 X-22.477 Y58.031 E0.01859
G1 X-22.446 Y57.793 E0.01846
G1 X-22.377 Y57.563 E0.01856
G1 X-22.268 Y57.348 E0.01854
G1 X-22.126 Y57.154 E0.01856
G1 X-21.950 Y56.987 E0.01865
G1 X-21.751 Y56.854 E0.01847
G1 X-21.531 Y56.754 E0.01862
G1 X-21.348 Y56.709 E0.01458
G1 X-21.287 Y56.686 F15000.000
G1 X-19.983 Y54.854 F15000.000
G1 X-20.665 Y54.303 E0.06756 F600.000
G1 X-21.244 Y53.646 E0.06748
G1 X-21.703 Y52.900 E0.06751
G1 X-22.030 Y52.087 E0.06752
G1 X-22.214 Y51.230 E0.06750
G1 X-22.251 Y50.356 E0.06748
G1 X-22.140 Y49.486 E0.06754
G1 X-21.883 Y48.649 E0.06752
G1 X-21.489 Y47.868 E0.06743
G1 X-20.968 Y47.163 E0.06751
G1 X-20.336 Y46.557 E0.06751
G1 X-19.610 Y46.066 E0.06753
G1 X-18.812 Y45.705 E0.06747
G1 X-17.965 Y45.485 E0.06746
G1 X-17.718 Y45.464 E0.01907
G1 X-17.092 Y45.410 E0.04845 F600.000
G1 X-16.218 Y45.485 E0.06760
G1 X-15.371 Y45.705 E0.06746
G1 X-14.573 Y46.066 E0.06747
G1 X-13.847 Y46.557 E0.06753
G1 X-13.215 Y47.163 E0.06751
G1 X-12.694 Y47.868 E0.06751
G1 X-12.300 Y48.649 E0.06743
G1 X-12.043 Y49.486 E0.06752
G1 X-11.932 Y50.356 E0.06754
G1 X-11.969 Y51.230 E0.06748
G1 X-12.153 Y52.087 E0.06750
G1 X-12.480 Y52.900 E0.06752
G1 X-12.939 Y53.646 E0.06751
G1 X-13.518 Y54.303 E0.06748
G1 X-14.200 Y54.854 E0.06756
G1 X-14.964 Y55.281 E0.06745
G1 X-15.790 Y55.572 E0.06756
G1 X-16.632 Y55.716 E0.06580
G1 X-17.092 Y55.736 E0.03548
G1 X-17.551 Y55.716 E0.03540
G1 X-18.393 Y55.572 E0.06580
G1 X-19.219 Y55.281 E0.06756
G1 X-19.931 Y54.883 E0.06283
G1 X-19.621 Y54.328 F15000.000
G1 X-20.224 Y53.842 E0.05968 F600.000
G1 X-20.731 Y53.266 E0.05914
G1 X-21.133 Y52.612 E0.05918
G1 X-21.420 Y51.900 E0.05917
G1 X-21.581 Y51.149 E0.05916
G1 X-21.614 Y50.383 E0.05915
G1 X-21.516 Y49.621 E0.05918
G1 X-21.291 Y48.887 E0.05918
G1 X-20.946 Y48.202 E0.05911
G1 X-20.489 Y47.584 E0.05919
G1 X-19.935 Y47.053 E0.05916
G1 X-19.299 Y46.623 E0.05920
G1 X-18.600 Y46.307 E0.05913
G1 X-17.857 Y46.114 E0.05914 F600.000
G1 X-17.092 Y46.048 E0.05917
G1 X-16.326 Y46.114 E0.05925
G1 X-15.583 Y46.307 E0.05914
G1 X-14.884 Y46.623 E0.05913
G1 X-14.248 Y47.053 E0.05920
G1 X-13.694 Y47.584 E0.05916
G1 X-13.237 Y48.202 E0.05919
G1 X-12.892 Y48.887 E0.05911
G1 X-12.667 Y49.621 E0.05918
G1 X-12.569 Y50.383 E0.05918
G1 X-12.602 Y51.149 E0.05915
G1 X-12.763 Y51.900 E0.05916
G1 X-13.050 Y52.612 E0.05917
G1 X-13.452 Y53.266 E0.05918
G1 X-13.959 Y53.842 E0.05914
G1 X-14.557 Y54.325 E0.05922
G1 X-15.227 Y54.699 E0.05911
G1 X-15.951 Y54.955 E0.05920
G1 X-16.700 Y55.083 E0.05853
G1 X-17.092 Y55.100 E0.03027
G1 X-17.483 Y55.083 E0.03019
G1 X-18.232 Y54.955 E0.05852
G1 X-18.956 Y54.699 E0.05920
G1 X-19.568 Y54.357 E0.05402
G1 X-19.985 Y54.493 F15000.000
G1 E-3.20000 F3000.00000
G1 Z0.700 F15000.000
G1 X-14.213 Y44.795 F15000.000
G1 Z0.300 F15000.000
G1 E3.20000 F3000.00000
G1 X-14.545 Y44.541 E0.03216 F600.000
G1 X-14.775 Y44.280 E0.02681
G1 X-14.957 Y43.984 E0.02679
G1 X-15.088 Y43.661 E0.02684
G1 X-15.161 Y43.318 E0.02705
G1 X-15.175 Y42.970 E0.02683
G1 X-15.131 Y42.627 E0.02668
G1 X-15.030 Y42.292 E0.02692
G1 X-14.872 Y41.980 E0.02700
G1 X-14.666 Y41.701 E0.02670
G1 X-14.413 Y41.459 E0.02694
G1 X-14.125 Y41.264 E0.02682
G1 X-13.800 Y41.117 E0.02751
G1 X-13.446 Y41.031 E0.02807
G1 X-13.122 Y41.003 E0.02504 F600.000
G1 X-12.774 Y41.033 E0.02693
G1 X-12.438 Y41.120 E0.02672
G1 X-12.122 Y41.263 E0.02679
G1 X-11.832 Y41.458 E0.02689
G1 X-11.578 Y41.701 E0.02707
G1 X-11.372 Y41.980 E0.02670
G1 X-11.214 Y42.292 E0.02700
G1 X-11.113 Y42.627 E0.02692
G1 X-11.069 Y42.970 E0.02668
G1 X-11.083 Y43.321 E0.02706
G1 X-11.158 Y43.661 E0.02685
G1 X-11.286 Y43.982 E0.02659
G1 X-11.469 Y44.280 E0.02701
G1 X-11.699 Y44.541 E0.02681
G1 X-11.970 Y44.761 E0.02689
G1 X-12.277 Y44.932 E0.02710
G1 X-12.605 Y45.048 E0.02679
G1 X-12.947 Y45.106 E0.02673
G1 X-13.297 Y45.106 E0.02695
G1 X-13.638 Y45.048 E0.02666
G1 X-13.968 Y44.932 E0.02697
G1 X-14.161 Y44.824 E0.01703
G1 X-13.850 Y44.270 F15000.000
G1 X-14.103 Y44.081 E0.02429 F600.000
G1 X-14.262 Y43.901 E0.01850
G1 X-14.387 Y43.696 E0.01850
G1 X-14.478 Y43.474 E0.01854
G1 X-14.528 Y43.238 E0.01858
G1 X-14.538 Y42.998 E0.01850
G1 X-14.507 Y42.760 E0.01846
G1 X-14.438 Y42.530 E0.01855
G1 X-14.329 Y42.315 E0.01859
G1 X-14.186 Y42.122 E0.01843
G1 X-14.012 Y41.955 E0.01860
G1 X-13.814 Y41.821 E0.01847
G1 X-13.592 Y41.721 E0.01876
G1 X-13.343 Y41.660 E0.01978
G1 X-13.122 Y41.641 E0.01706 F600.000
G1 X-12.882 Y41.662 E0.01857
G1 X-12.650 Y41.722 E0.01843
G1 X-12.432 Y41.821 E0.01850
G1 X-12.232 Y41.955 E0.01853
G1 X-12.058 Y42.122 E0.01865
G1 X-11.915 Y42.315 E0.01843
G1 X-11.806 Y42.530 E0.01859
G1 X-11.737 Y42.760 E0.01855
G1 X-11.706 Y42.998 E0.01846
G1 X-11.716 Y43.239 E0.01859
G1 X-11.767 Y43.474 E0.01851
G1 X-11.856 Y43.696 E0.01842
G1 X-11.982 Y43.901 E0.01858
G1 X-12.141 Y44.081 E0.01850
G1 X-12.328 Y44.233 E0.01856
G1 X-12.539 Y44.351 E0.01864
G1 X-12.765 Y44.430 E0.01847
G1 X-13.001 Y44.470 E0.01843
G1 X-13.243 Y44.470 E0.01865
G1 X-13.478 Y44.430 E0.01840
G1 X-13.706 Y44.351 E0.01858
G1 X-13.798 Y44.299 E0.00814
G1 X-14.134 Y44.407 F15000.000
G1 X-10.254 Y52.604 F15000.000
G1 X-9.898 Y52.516 E0.02828 F600.000
G1 X-9.575 Y52.489 E0.02496 F600.000
G1 X-9.227 Y52.518 E0.02691
G1 X-8.889 Y52.607 E0.02698
G1 X-8.575 Y52.749 E0.02656
G1 X-8.287 Y52.943 E0.02672
G1 X-8.031 Y53.186 E0.02717
G1 X-7.825 Y53.468 E0.02693
G1 X-7.667 Y53.778 E0.02686
G1 X-7.566 Y54.112 E0.02689
G1 X-7.522 Y54.455 E0.02660
G1 X-7.536 Y54.807 E0.02716
G1 X-7.611 Y55.147 E0.02686
G1 X-7.739 Y55.467 E0.02658
G1 X-7.922 Y55.766 E0.02702
G1 X-8.154 Y56.029 E0.02699
G1 X-8.425 Y56.247 E0.02684
G1 X-8.728 Y56.416 E0.02670
G1 X-9.055 Y56.533 E0.02681
G1 X-9.400 Y56.592 E0.02695
G1 X-9.750 Y56.592 E0.02695
G1 X-10.094 Y56.533 E0.02687
G1 X-10.424 Y56.416 E0.02701
G1 X-10.726 Y56.247 E0.02670
G1 X-10.996 Y56.029 E0.02673
G1 X-11.228 Y55.766 E0.02699
G1 X-11.410 Y55.470 E0.02680
G1 X-11.541 Y55.147 E0.02684
G1 X-11.614 Y54.804 E0.02706
G1 X-11.628 Y54.455 E0.02693
G1 X-11.584 Y54.112 E0.02660
G1 X-11.483 Y53.778 E0.02690
G1 X-11.325 Y53.468 E0.02685
G1 X-11.119 Y53.186 E0.02693
G1 X-10.865 Y52.944 E0.02704
G1 X-10.578 Y52.750 E0.02667
G1 X-10.309 Y52.629 E0.02276
G1 X-10.047 Y53.208 F15000.000
G1 X-9.795 Y53.145 E0.02001 F600.000
G1 X-9.575 Y53.127 E0.01702 F600.000
G1 X-9.335 Y53.147 E0.01856
G1 X-9.102 Y53.208 E0.01854
G1 X-8.885 Y53.307 E0.01841
G1 X-8.686 Y53.440 E0.01847
G1 X-8.510 Y53.607 E0.01866
G1 X-8.368 Y53.801 E0.01856
G1 X-8.259 Y54.016 E0.01854
G1 X-8.190 Y54.246 E0.01854
G1 X-8.159 Y54.483 E0.01838
G1 X-8.169 Y54.725 E0.01868
G1 X-8.220 Y54.960 E0.01851
G1 X-8.309 Y55.181 E0.01842
G1 X-8.435 Y55.387 E0.01859
G1 X-8.595 Y55.568 E0.01857
G1 X-8.782 Y55.718 E0.01851
G1 X-8.991 Y55.835 E0.01848
G1 X-9.217 Y55.916 E0.01849
G1 X-9.454 Y55.956 E0.01851
G1 X-9.696 Y55.956 E0.01865
G1 X-9.932 Y55.916 E0.01848
G1 X-10.160 Y55.835 E0.01862
G1 X-10.369 Y55.718 E0.01844
G1 X-10.555 Y55.568 E0.01846
G1 X-10.715 Y55.387 E0.01857
G1 X-10.840 Y55.182 E0.01850
G1 X-10.931 Y54.960 E0.01854
G1 X-10.981 Y54.724 E0.01858
G1 X-10.991 Y54.483 E0.01859
G1 X-10.960 Y54.246 E0.01838
G1 X-10.891 Y54.016 E0.01854
G1 X-10.782 Y53.801 E0.01854
G1 X-10.640 Y53.607 E0.01856
G1 X-10.465 Y53.441 E0.01861
G1 X-10.267 Y53.307 E0.01840
G1 X-10.102 Y53.233 E0.01396
G1 X-9.990 Y52.954 F15000.000
G1 E-3.20000 F3000.00000
G1 Z0.700 F15000.000
G1 X-22.773 Y47.531 F15000.000
G1 Z0.300 F15000.000
G1 E3.20000 F3000.00000
G1 X-22.955 Y47.827 E0.02680 F600.000
G1 X-23.185 Y48.088 E0.02681
G1 X-23.455 Y48.307 E0.02677
G1 X-23.762 Y48.479 E0.02711
G1 X-24.092 Y48.595 E0.02697
G1 X-24.433 Y48.653 E0.02666
G1 X-24.783 Y48.653 E0.02695
G1 X-25.125 Y48.595 E0.02673
G1 X-25.453 Y48.479 E0.02678
G1 X-25.760 Y48.308 E0.02710
G1 X-26.031 Y48.088 E0.02689
G1 X-26.261 Y47.827 E0.02681
G1 X-26.444 Y47.529 E0.02701
G1 X-26.572 Y47.208 E0.02658
G1 X-26.647 Y46.868 E0.02685
G1 X-26.661 Y46.517 E0.02706
G1 X-26.617 Y46.174 E0.02668
G1 X-26.516 Y45.839 E0.02692
G1 X-26.358 Y45.527 E0.02699
G1 X-26.152 Y45.248 E0.02671
G1 X-25.898 Y45.005 E0.02708
G1 X-25.609 Y44.811 E0.02688
G1 X-25.285 Y44.664 E0.02733
G1 X-24.932 Y44.578 E0.02801
G1 X-24.608 Y44.550 E0.02509 F600.000
G1 X-24.261 Y44.580 E0.02686
G1 X-23.924 Y44.667 E0.02681
G1 X-23.605 Y44.811 E0.02698
G1 X-23.291 Y45.024 E0.02925
G1 X-22.939 Y45.406 E0.04002
G1 X-22.707 Y45.817 E0.03640
G1 X-22.599 Y46.174 E0.02869
G1 X-22.555 Y46.517 E0.02668
G1 X-22.569 Y46.865 E0.02683
G1 X-22.642 Y47.208 E0.02705
G1 X-22.751 Y47.475 E0.02222
G1 X-23.340 Y47.236 F15000.000
G1 X-23.468 Y47.448 E0.01911 F600.000
G1 X-23.627 Y47.628 E0.01850
G1 X-23.813 Y47.780 E0.01851
G1 X-24.024 Y47.898 E0.01860
G1 X-24.252 Y47.977 E0.01858
G1 X-24.487 Y48.017 E0.01840
G1 X-24.729 Y48.017 E0.01865
G1 X-24.965 Y47.977 E0.01843
G1 X-25.191 Y47.898 E0.01847
G1 X-25.402 Y47.780 E0.01864
G1 X-25.589 Y47.628 E0.01856
G1 X-25.748 Y47.448 E0.01850
G1 X-25.874 Y47.242 E0.01859
G1 X-25.963 Y47.021 E0.01842
G1 X-26.014 Y46.786 E0.01851
G1 X-26.024 Y46.545 E0.01859
G1 X-25.993 Y46.307 E0.01846
G1 X-25.924 Y46.077 E0.01855
G1 X-25.815 Y45.862 E0.01859
G1 X-25.672 Y45.669 E0.01844
G1 X-25.498 Y45.502 E0.01865
G1 X-25.298 Y45.368 E0.01853
G1 X-25.077 Y45.268 E0.01869
G1 X-24.829 Y45.207 E0.01971
G1 X-24.608 Y45.188 E0.01708 F600.000
G1 X-24.368 Y45.209 E0.01854
G1 X-24.136 Y45.269 E0.01851
G1 X-23.916 Y45.368 E0.01857
G1 X-23.708 Y45.509 E0.01933
G1 X-23.457 Y45.783 E0.02867
G1 X-23.295 Y46.069 E0.02538
G1 X-23.223 Y46.307 E0.01918
G1 X-23.192 Y46.545 E0.01846
G1 X-23.202 Y46.785 E0.01851
G1 X-23.252 Y47.021 E0.01857
G1 X-23.317 Y47.180 E0.01330
G1 X-23.209 Y47.447 F15000.000
G1 X-8.769 Y7.296 F15000.000
G1 X-9.157 Y7.079 E0.03422 F600.000
G1 X-9.504 Y6.800 E0.03437
G1 X-9.800 Y6.464 E0.03448
G1 X-10.034 Y6.083 E0.03441
G1 X-10.199 Y5.672 E0.03417
G1 X-10.293 Y5.235 E0.03446
G1 X-10.311 Y4.790 E0.03432
G1 X-10.255 Y4.348 E0.03431
G1 X-10.124 Y3.923 E0.03427
G1 X-9.924 Y3.525 E0.03436
G1 X-9.659 Y3.167 E0.03436
G1 X-9.338 Y2.859 E0.03423
G1 X-8.969 Y2.609 E0.03437
G1 X-8.556 Y2.423 E0.03489
G1 X-8.102 Y2.311 E0.03608
G1 X-7.687 Y2.275 E0.03210 F600.000
G1 X-7.243 Y2.313 E0.03433
G1 X-6.811 Y2.426 E0.03438
G1 X-6.405 Y2.610 E0.03434
G1 X-6.037 Y2.859 E0.03431
G1 X-5.717 Y3.166 E0.03411
G1 X-5.450 Y3.524 E0.03441
G1 X-5.250 Y3.923 E0.03448
G1 X-5.119 Y4.348 E0.03427
G1 X-5.062 Y4.792 E0.03446
G1 X-5.082 Y5.235 E0.03418
G1 X-5.175 Y5.672 E0.03443
G1 X-5.342 Y6.085 E0.03434
G1 X-5.575 Y6.464 E0.03427
G1 X-5.870 Y6.799 E0.03438
G1 X-6.216 Y7.079 E0.03431
G1 X-6.584 Y7.284 E0.03250
G1 X-6.943 Y7.431 E0.02985
G1 X-7.465 Y7.519 E0.04080
G1 X-7.910 Y7.519 E0.03433
G1 X-8.349 Y7.445 E0.03425
G1 X-8.713 Y7.316 E0.02976
G1 X-8.500 Y6.716 F15000.000
G1 X-8.800 Y6.550 E0.02644 F600.000
G1 X-9.063 Y6.339 E0.02603
G1 X-9.287 Y6.085 E0.02605
G1 X-9.464 Y5.797 E0.02605
G1 X-9.589 Y5.485 E0.02589
G1 X-9.660 Y5.154 E0.02608
G1 X-9.674 Y4.817 E0.02599
G1 X-9.631 Y4.483 E0.02598
G1 X-9.533 Y4.161 E0.02595
G1 X-9.381 Y3.859 E0.02602
G1 X-9.180 Y3.588 E0.02599
G1 X-8.937 Y3.355 E0.02594
G1 X-8.658 Y3.166 E0.02602
G1 X-8.348 Y3.026 E0.02623
G1 X-7.998 Y2.940 E0.02777
G1 X-7.687 Y2.913 E0.02405 F600.000
G1 X-7.351 Y2.942 E0.02598
G1 X-7.024 Y3.027 E0.02604
G1 X-6.717 Y3.166 E0.02599
G1 X-6.438 Y3.355 E0.02599
G1 X-6.195 Y3.588 E0.02589
G1 X-5.993 Y3.859 E0.02603
G1 X-5.842 Y4.161 E0.02607
G1 X-5.743 Y4.483 E0.02595
G1 X-5.700 Y4.818 E0.02604
G1 X-5.715 Y5.154 E0.02594
G1 X-5.785 Y5.485 E0.02606
G1 X-5.912 Y5.797 E0.02597
G1 X-6.088 Y6.085 E0.02600
G1 X-6.311 Y6.338 E0.02601
G1 X-6.573 Y6.550 E0.02597
G1 X-6.860 Y6.710 E0.02534
G1 X-7.118 Y6.816 E0.02147
G1 X-7.518 Y6.883 E0.03126
G1 X-7.857 Y6.883 E0.02609
G1 X-8.188 Y6.827 E0.02589
G1 X-8.444 Y6.736 E0.02090
