; generated by Slic3r 1.2.9 on 2017-05-31 at 12:04:55

; external perimeters extrusion width = 0.40mm
; perimeters extrusion width = 0.40mm
; infill extrusion width = 0.40mm
; solid infill extrusion width = 0.40mm
; top infill extrusion width = 0.40mm

M107
M83
T0
M116
G21 ; set units to millimeters
G90 ; use absolute coordinates
M83 ; use relative distances for extrusion
G1 E-3.20000 F3000.00000
G1 Z0.400 F15000.000
G1 X-5.389 Y14.594 F15000.000
G1 Z0.300 F15000.000
G1 E3.20000 F3000.00000
G1 X-6.045 Y14.352 E0.05384 F960.000
G1 X-6.411 Y14.194 E0.03074
G1 X-7.511 Y13.644 E0.09482
G1 X-7.837 Y13.460 E0.02885
G1 X-8.875 Y12.799 E0.09482
G1 X-9.180 Y12.582 E0.02885
G1 X-10.145 Y11.819 E0.09482
G1 X-10.426 Y11.572 E0.02885
G1 X-11.307 Y10.713 E0.09482
G1 X-11.562 Y10.438 E0.02885
G1 X-12.350 Y9.494 E0.09482
G1 X-12.574 Y9.194 E0.02885
G1 X-13.261 Y8.173 E0.09482
G1 X-13.454 Y7.852 E0.02885
G1 X-14.032 Y6.766 E0.09482
G1 X-14.191 Y6.427 E0.02885
G1 X-14.654 Y5.288 E0.09482
G1 X-14.777 Y4.934 E0.02885
G1 X-15.121 Y3.753 E0.09482
G1 X-15.207 Y3.389 E0.02885
G1 X-15.428 Y2.178 E0.09482
G1 X-15.476 Y1.807 E0.02885
G1 X-15.571 Y0.580 E0.09482
G1 X-15.580 Y0.206 E0.02885
G1 X-15.549 Y-1.024 E0.09482
G1 X-15.520 Y-1.397 E0.02885
G1 X-15.362 Y-2.617 E0.09482
G1 X-15.295 Y-2.985 E0.02885
G1 X-15.012 Y-4.183 E0.09482
G1 X-14.908 Y-4.542 E0.02885
G1 X-14.503 Y-5.704 E0.09482
G1 X-14.362 Y-6.051 E0.02885
G1 X-13.841 Y-7.165 E0.09482
G1 X-13.665 Y-7.496 E0.02885
G1 X-13.031 Y-8.551 E0.09482
G1 X-12.822 Y-8.861 E0.02885
G1 X-12.084 Y-9.845 E0.09482
G1 X-11.844 Y-10.133 E0.02885
G1 X-11.009 Y-11.036 E0.09482
G1 X-10.740 Y-11.297 E0.02885
G1 X-9.816 Y-12.109 E0.09482
G1 X-9.523 Y-12.341 E0.02885
G1 X-8.520 Y-13.054 E0.09482
G1 X-8.204 Y-13.255 E0.02885
G1 X-7.133 Y-13.861 E0.09482
G1 X-6.799 Y-14.028 E0.02885
G1 X-5.671 Y-14.521 E0.09482
G1 X-5.321 Y-14.653 E0.02885
G1 X-4.149 Y-15.027 E0.09482
G1 X-3.787 Y-15.123 E0.02885
G1 X-2.583 Y-15.374 E0.09482
G1 X-2.213 Y-15.432 E0.02885
G1 X-0.989 Y-15.558 E0.09482
G1 X-0.615 Y-15.578 E0.02885
G1 X0.615 Y-15.578 E0.09482
G1 X0.989 Y-15.558 E0.02885
G1 X2.123 Y-15.441 E0.08787 F960.000
G1 X2.468 Y-15.389 E0.02688
G1 X3.762 Y-15.128 E0.10172
G1 X4.149 Y-15.027 E0.03081
G1 X5.321 Y-14.653 E0.09482
G1 X5.671 Y-14.521 E0.02885
G1 X6.799 Y-14.028 E0.09482
G1 X7.133 Y-13.861 E0.02885
G1 X8.204 Y-13.255 E0.09482
G1 X8.520 Y-13.054 E0.02885
G1 X9.523 Y-12.341 E0.09482
G1 X9.816 Y-12.109 E0.02885
G1 X10.740 Y-11.297 E0.09482
G1 X11.009 Y-11.036 E0.02885
G1 X11.844 Y-10.133 E0.09482
G1 X12.084 Y-9.845 E0.02885
G1 X12.822 Y-8.861 E0.09482
G1 X13.031 Y-8.551 E0.02885
G1 X13.665 Y-7.496 E0.09482
G1 X13.841 Y-7.165 E0.02885
G1 X14.362 Y-6.051 E0.09482
G1 X14.503 Y-5.704 E0.02885
G1 X14.908 Y-4.542 E0.09482
G1 X15.012 Y-4.183 E0.02885
G1 X15.295 Y-2.985 E0.09482
G1 X15.362 Y-2.617 E0.02885
G1 X15.520 Y-1.397 E0.09482
G1 X15.549 Y-1.024 E0.02885
G1 X15.580 Y0.206 E0.09482
G1 X15.571 Y0.580 E0.02885
G1 X15.476 Y1.807 E0.09482
G1 X15.428 Y2.178 E0.02885
G1 X15.207 Y3.389 E0.09482
G1 X15.121 Y3.753 E0.02885
G1 X14.777 Y4.934 E0.09482
G1 X14.654 Y5.288 E0.02885
G1 X14.191 Y6.427 E0.09482
G1 X14.032 Y6.766 E0.02885
G1 X13.454 Y7.852 E0.09482
G1 X13.261 Y8.173 E0.02885
G1 X12.574 Y9.194 E0.09482
G1 X12.350 Y9.494 E0.02885
G1 X11.562 Y10.438 E0.09482
G1 X11.307 Y10.713 E0.02885
G1 X10.426 Y11.572 E0.09482
G1 X10.145 Y11.819 E0.02885
G1 X9.251 Y12.526 E0.08787
G1 X8.967 Y12.730 E0.02688
G1 X7.859 Y13.446 E0.10172
G1 X7.511 Y13.644 E0.03081
G1 X6.411 Y14.194 E0.09482
G1 X6.068 Y14.344 E0.02885
G1 X4.917 Y14.778 E0.09482
G1 X4.560 Y14.892 E0.02885
G1 X3.370 Y15.205 E0.09482
G1 X3.004 Y15.282 E0.02885
G1 X1.788 Y15.471 E0.09482
G1 X1.416 Y15.509 E0.02885
G1 X0.187 Y15.573 E0.09482
G1 X-0.187 Y15.573 E0.02885
G1 X-1.416 Y15.509 E0.09482
G1 X-1.788 Y15.471 E0.02885
G1 X-3.004 Y15.282 E0.09482
G1 X-3.370 Y15.205 E0.02885
G1 X-4.476 Y14.914 E0.08815
G1 X-5.333 Y14.615 E0.06993
G1 E-3.20000 F3000.00000
G1 Z0.700 F15000.000
G1 X-1.316 Y9.865 F15000.000
G1 Z0.300 F15000.000
G1 E3.20000 F3000.00000
G1 X-1.529 Y9.623 E0.02485 F600.000
G1 X-1.698 Y9.348 E0.02485
G1 X-1.818 Y9.049 E0.02485
G1 X-1.886 Y8.734 E0.02485
G1 X-1.900 Y8.406 E0.02528
G1 X-1.840 Y8.029 E0.02944
G1 X-1.764 Y7.783 E0.01978
G1 X-1.619 Y7.495 E0.02485
G1 X-1.427 Y7.236 E0.02485
G1 X-1.195 Y7.013 E0.02485
G1 X-0.927 Y6.832 E0.02485
G1 X-0.631 Y6.698 E0.02504
G1 X-0.296 Y6.616 E0.02663
G1 X-0.000 Y6.591 E0.02287 F600.000
G1 X0.321 Y6.618 E0.02485
G1 X0.633 Y6.699 E0.02485
G1 X0.927 Y6.832 E0.02485
G1 X1.195 Y7.013 E0.02485
G1 X1.427 Y7.236 E0.02485
G1 X1.619 Y7.495 E0.02485
G1 X1.764 Y7.783 E0.02485
G1 X1.859 Y8.091 E0.02485
G1 X1.900 Y8.411 E0.02485
G1 X1.886 Y8.734 E0.02485
G1 X1.818 Y9.049 E0.02485
G1 X1.698 Y9.348 E0.02485
G1 X1.529 Y9.623 E0.02485
G1 X1.316 Y9.865 E0.02485
G1 X1.065 Y10.067 E0.02485
G1 X0.783 Y10.225 E0.02485
G1 X0.479 Y10.332 E0.02485
G1 X0.161 Y10.387 E0.02485
G1 X-0.164 Y10.387 E0.02504
G1 X-0.503 Y10.324 E0.02663
G1 X-0.783 Y10.225 E0.02287
G1 X-1.065 Y10.067 E0.02485
G1 X-1.269 Y9.902 E0.02023
G1 X-1.628 Y9.946 F15000.000
G1 E-3.20000 F3000.00000
G1 Z0.700 F15000.000
G1 X7.184 Y1.365 F15000.000
G1 Z0.300 F15000.000
G1 E3.20000 F3000.00000
G1 X6.971 Y1.123 E0.02485 F600.000
G1 X6.802 Y0.848 E0.02485
G1 X6.682 Y0.549 E0.02485
G1 X6.614 Y0.234 E0.02485
G1 X6.600 Y-0.089 E0.02485
G1 X6.641 Y-0.409 E0.02485
G1 X6.736 Y-0.717 E0.02485
G1 X6.881 Y-1.005 E0.02485
G1 X7.073 Y-1.264 E0.02485
G1 X7.305 Y-1.487 E0.02485
G1 X7.573 Y-1.668 E0.02485
G1 X7.869 Y-1.802 E0.02504
G1 X8.204 Y-1.884 E0.02663
G1 X8.500 Y-1.909 E0.02287 F600.000
G1 X8.821 Y-1.882 E0.02485
G1 X9.133 Y-1.801 E0.02485
G1 X9.427 Y-1.668 E0.02485
G1 X9.695 Y-1.487 E0.02485
G1 X9.929 Y-1.263 E0.02504
G1 X10.131 Y-0.982 E0.02663
G1 X10.264 Y-0.717 E0.02287
G1 X10.359 Y-0.409 E0.02485
G1 X10.400 Y-0.089 E0.02485
G1 X10.386 Y0.234 E0.02485
G1 X10.318 Y0.549 E0.02485
G1 X10.198 Y0.848 E0.02485
G1 X10.029 Y1.123 E0.02485
G1 X9.814 Y1.367 E0.02504
G1 X9.542 Y1.580 E0.02663
G1 X9.283 Y1.725 E0.02287
G1 X8.979 Y1.832 E0.02485
G1 X8.661 Y1.887 E0.02485
G1 X8.339 Y1.887 E0.02485
G1 X8.021 Y1.832 E0.02485
G1 X7.717 Y1.725 E0.02485
G1 X7.435 Y1.567 E0.02485
G1 X7.231 Y1.402 E0.02023
G1 X6.872 Y1.446 F15000.000
G1 X1.065 Y-6.933 F15000.000
G1 X0.783 Y-6.775 E0.02485 F600.000
G1 X0.479 Y-6.668 E0.02485
G1 X0.161 Y-6.613 E0.02485
G1 X-0.161 Y-6.613 E0.02485
G1 X-0.479 Y-6.668 E0.02485
G1 X-0.783 Y-6.775 E0.02485
G1 X-1.065 Y-6.933 E0.02485
G1 X-1.316 Y-7.135 E0.02485
G1 X-1.529 Y-7.377 E0.02485
G1 X-1.698 Y-7.652 E0.02485
G1 X-1.818 Y-7.951 E0.02485
G1 X-1.887 Y-8.269 E0.02504
G1 X-1.896 Y-8.614 E0.02663
G1 X-1.859 Y-8.909 E0.02287
G1 X-1.764 Y-9.217 E0.02485
G1 X-1.619 Y-9.505 E0.02485
G1 X-1.427 Y-9.764 E0.02485
G1 X-1.195 Y-9.987 E0.02485
G1 X-0.927 Y-10.168 E0.02485
G1 X-0.631 Y-10.302 E0.02504
G1 X-0.296 Y-10.384 E0.02663
G1 X-0.000 Y-10.409 E0.02287 F600.000
G1 X0.321 Y-10.382 E0.02485
G1 X0.633 Y-10.301 E0.02485
G1 X0.927 Y-10.168 E0.02485
G1 X1.195 Y-9.987 E0.02485
G1 X1.427 Y-9.764 E0.02485
G1 X1.619 Y-9.505 E0.02485
G1 X1.764 Y-9.217 E0.02485
G1 X1.859 Y-8.909 E0.02485
G1 X1.900 Y-8.589 E0.02485
G1 X1.886 Y-8.266 E0.02485
G1 X1.818 Y-7.951 E0.02485
G1 X1.697 Y-7.650 E0.02504
G1 X1.512 Y-7.358 E0.02663
G1 X1.316 Y-7.135 E0.02287
G1 X1.111 Y-6.970 E0.02023
G1 X1.078 Y-6.610 F15000.000
G1 X0.232 Y-3.592 F15000.000
G1 X1.179 Y-3.345 E0.07544 F600.000
G1 X1.726 Y-3.098 E0.04626
G1 X2.223 Y-2.762 E0.04626
G1 X2.660 Y-2.343 E0.04658
G1 X3.026 Y-1.840 E0.04797
G1 X3.284 Y-1.328 E0.04422
G1 X3.460 Y-0.754 E0.04626
G1 X3.536 Y-0.158 E0.04626
G1 X3.511 Y0.442 E0.04626
G1 X3.384 Y1.028 E0.04626
G1 X3.160 Y1.585 E0.04626
G1 X2.846 Y2.097 E0.04626
G1 X2.449 Y2.547 E0.04626
G1 X1.982 Y2.924 E0.04626
G1 X1.458 Y3.217 E0.04626
G1 X0.892 Y3.417 E0.04626
G1 X0.300 Y3.519 E0.04626
G1 X-0.300 Y3.519 E0.04626
G1 X-0.892 Y3.417 E0.04626
G1 X-1.458 Y3.217 E0.04626
G1 X-1.982 Y2.924 E0.04626
G1 X-2.449 Y2.547 E0.04626
G1 X-2.846 Y2.097 E0.04626
G1 X-3.160 Y1.585 E0.04626
G1 X-3.384 Y1.028 E0.04626
G1 X-3.512 Y0.438 E0.04658
G1 X-3.533 Y-0.185 E0.04797
G1 X-3.460 Y-0.754 E0.04422
G1 X-3.284 Y-1.328 E0.04626
G1 X-3.014 Y-1.864 E0.04626
G1 X-2.657 Y-2.346 E0.04626
G1 X-2.224 Y-2.762 E0.04626
G1 X-1.726 Y-3.098 E0.04626
G1 X-1.175 Y-3.347 E0.04658
G1 X-0.658 Y-3.477 E0.04111
G1 X-0.658 Y-3.823 E0.02671 F600.000
G1 X0.174 Y-3.607 E0.06623
G1 X0.014 Y-2.992 F15000.000
G1 X0.967 Y-2.744 E0.07590 F600.000
G1 X1.415 Y-2.541 E0.03793
G1 X1.823 Y-2.265 E0.03793
G1 X2.179 Y-1.924 E0.03804
G1 X2.481 Y-1.508 E0.03963
G1 X2.692 Y-1.090 E0.03608
G1 X2.836 Y-0.619 E0.03793
G1 X2.899 Y-0.131 E0.03793
G1 X2.878 Y0.361 E0.03793
G1 X2.774 Y0.842 E0.03793
G1 X2.591 Y1.298 E0.03793
G1 X2.333 Y1.717 E0.03793
G1 X2.008 Y2.087 E0.03793
G1 X1.625 Y2.396 E0.03793
G1 X1.195 Y2.636 E0.03793
G1 X0.731 Y2.800 E0.03793
G1 X0.246 Y2.883 E0.03793
G1 X-0.246 Y2.883 E0.03793
G1 X-0.731 Y2.800 E0.03793
G1 X-1.195 Y2.636 E0.03793
G1 X-1.625 Y2.396 E0.03793
G1 X-2.008 Y2.087 E0.03793
G1 X-2.333 Y1.717 E0.03793
G1 X-2.591 Y1.298 E0.03793
G1 X-2.774 Y0.842 E0.03793
G1 X-2.878 Y0.359 E0.03804
G1 X-2.896 Y-0.155 E0.03963
G1 X-2.836 Y-0.619 E0.03608
G1 X-2.692 Y-1.090 E0.03793
G1 X-2.471 Y-1.529 E0.03793
G1 X-2.178 Y-1.925 E0.03793
G1 X-1.823 Y-2.265 E0.03793
G1 X-1.415 Y-2.541 E0.03793
G1 X-0.965 Y-2.744 E0.03804
G1 X-0.467 Y-2.870 E0.03963
G1 X-0.022 Y-2.907 E0.03435
G1 X-0.022 Y-2.978 E0.00546 F600.000
G1 X0.133 Y-3.373 F15000.000
G1 X-9.916 Y-4.648 F15000.000
G1 X-9.677 Y-5.160 E0.04356 F720.000
G1 X-9.096 Y-6.128 E0.08699
G1 X-8.418 Y-7.031 E0.08699
G1 X-7.652 Y-7.859 E0.08699
G1 X-6.804 Y-8.604 E0.08699
G1 X-5.884 Y-9.258 E0.08699
G1 X-4.901 Y-9.814 E0.08699
G1 X-3.867 Y-10.266 E0.08699
G1 X-2.792 Y-10.609 E0.08699
G1 X-1.586 Y-10.862 E0.09496
G1 X-1.464 Y-10.573 E0.02417
G1 X-1.595 Y-10.484 E0.01224 F720.000
G1 X-1.906 Y-10.186 E0.03319
G1 X-2.162 Y-9.839 E0.03319
G1 X-2.356 Y-9.455 E0.03319
G1 X-2.482 Y-9.043 E0.03319
G1 X-2.533 Y-8.646 E0.03087
G1 X-2.520 Y-8.192 E0.03497
G1 X-2.428 Y-7.764 E0.03372
G1 X-2.267 Y-7.365 E0.03319
G1 X-2.042 Y-6.998 E0.03319
G1 X-1.757 Y-6.675 E0.03319
G1 X-1.422 Y-6.404 E0.03319
G1 X-1.046 Y-6.194 E0.03319
G1 X-0.640 Y-6.051 E0.03319
G1 X-0.215 Y-5.978 E0.03319
G1 X0.215 Y-5.978 E0.03319
G1 X0.640 Y-6.051 E0.03319
G1 X1.046 Y-6.194 E0.03319
G1 X1.422 Y-6.404 E0.03319
G1 X1.757 Y-6.675 E0.03319
G1 X2.022 Y-6.975 E0.03087
G1 X2.265 Y-7.358 E0.03497
G1 X2.428 Y-7.764 E0.03372
G1 X2.519 Y-8.185 E0.03319
G1 X2.537 Y-8.616 E0.03319
G1 X2.482 Y-9.043 E0.03319
G1 X2.356 Y-9.455 E0.03319
G1 X2.162 Y-9.839 E0.03319
G1 X1.906 Y-10.186 E0.03319
G1 X1.481 Y-10.593 E0.04535
G1 X1.614 Y-10.847 E0.02207
G1 X2.795 Y-10.608 E0.09286
G1 X3.867 Y-10.266 E0.08672
G1 X4.901 Y-9.814 E0.08699
G1 X5.884 Y-9.258 E0.08699
G1 X6.804 Y-8.604 E0.08699
G1 X7.652 Y-7.859 E0.08699
G1 X8.418 Y-7.031 E0.08699
G1 X9.096 Y-6.128 E0.08699
G1 X9.677 Y-5.160 E0.08699
G1 X10.155 Y-4.138 E0.08699
G1 X10.526 Y-3.072 E0.08699
G1 X10.785 Y-1.973 E0.08699
G1 X10.836 Y-1.584 E0.03030
G1 X10.559 Y-1.474 E0.02290
G1 X10.411 Y-1.681 E0.01959
G1 X10.095 Y-1.984 E0.03372
G1 X9.738 Y-2.225 E0.03319
G1 X9.346 Y-2.402 E0.03319
G1 X8.929 Y-2.511 E0.03319
G1 X8.500 Y-2.547 E0.03319
G1 X8.101 Y-2.513 E0.03087
G1 X7.660 Y-2.405 E0.03497
G1 X7.262 Y-2.225 E0.03372
G1 X6.905 Y-1.984 E0.03319
G1 X6.594 Y-1.686 E0.03319
G1 X6.338 Y-1.339 E0.03319
G1 X6.144 Y-0.955 E0.03319
G1 X6.018 Y-0.543 E0.03319
G1 X5.963 Y-0.116 E0.03319
G1 X5.981 Y0.315 E0.03319
G1 X6.072 Y0.736 E0.03319
G1 X6.233 Y1.135 E0.03319
G1 X6.458 Y1.502 E0.03319
G1 X6.743 Y1.825 E0.03319
G1 X7.078 Y2.096 E0.03319
G1 X7.454 Y2.306 E0.03319
G1 X7.860 Y2.449 E0.03319
G1 X8.285 Y2.522 E0.03319
G1 X8.715 Y2.522 E0.03319
G1 X9.140 Y2.449 E0.03319
G1 X9.546 Y2.306 E0.03319
G1 X9.896 Y2.111 E0.03087
G1 X10.253 Y1.830 E0.03497
G1 X10.577 Y1.462 E0.03784
G1 X10.838 Y1.588 E0.02234
G1 X10.670 Y2.510 E0.07221
G1 X10.354 Y3.594 E0.08699
G1 X9.929 Y4.639 E0.08699
G1 X9.399 Y5.636 E0.08699
G1 X8.769 Y6.572 E0.08699
G1 X8.046 Y7.439 E0.08699
G1 X7.237 Y8.227 E0.08699
G1 X6.420 Y8.873 E0.08031
G1 X5.397 Y9.535 E0.09389
G1 X4.390 Y10.038 E0.08672
G1 X3.334 Y10.436 E0.08699
G1 X2.243 Y10.723 E0.08699
G1 X1.588 Y10.825 E0.05108
G1 X1.469 Y10.558 E0.02254
G1 X1.757 Y10.325 E0.02852
G1 X2.042 Y10.002 E0.03319
G1 X2.267 Y9.635 E0.03319
G1 X2.428 Y9.236 E0.03319
G1 X2.519 Y8.815 E0.03319
G1 X2.537 Y8.384 E0.03319
G1 X2.482 Y7.957 E0.03319
G1 X2.356 Y7.545 E0.03319
G1 X2.162 Y7.161 E0.03319
G1 X1.906 Y6.814 E0.03319
G1 X1.595 Y6.516 E0.03319
G1 X1.238 Y6.275 E0.03319
G1 X0.846 Y6.098 E0.03319
G1 X0.429 Y5.989 E0.03319
G1 X-0.000 Y5.953 E0.03319
G1 X-0.399 Y5.987 E0.03087
G1 X-0.840 Y6.095 E0.03497
G1 X-1.238 Y6.275 E0.03372
G1 X-1.595 Y6.516 E0.03319
G1 X-1.906 Y6.814 E0.03319
G1 X-2.162 Y7.161 E0.03319
G1 X-2.356 Y7.545 E0.03319
G1 X-2.460 Y7.884 E0.02734
G1 X-2.538 Y8.369 E0.03778
G1 X-2.519 Y8.815 E0.03440
G1 X-2.428 Y9.236 E0.03319
G1 X-2.267 Y9.635 E0.03319
G1 X-2.042 Y10.002 E0.03319
G1 X-1.757 Y10.325 E0.03319
G1 X-1.469 Y10.558 E0.02852
G1 X-1.588 Y10.825 E0.02254
G1 X-2.243 Y10.723 E0.05108
G1 X-3.254 Y10.457 E0.08057
G1 X-4.393 Y10.036 E0.09362
G1 X-5.400 Y9.533 E0.08673
G1 X-6.352 Y8.927 E0.08699
G1 X-7.237 Y8.227 E0.08699
G1 X-8.046 Y7.439 E0.08699
G1 X-8.769 Y6.572 E0.08699
G1 X-9.399 Y5.636 E0.08699
G1 X-9.929 Y4.639 E0.08699
G1 X-10.354 Y3.594 E0.08699
G1 X-10.670 Y2.510 E0.08699
G1 X-10.838 Y1.588 E0.07221
G1 X-10.577 Y1.462 E0.02234
G1 X-10.257 Y1.825 E0.03731
G1 X-9.922 Y2.096 E0.03319
G1 X-9.546 Y2.306 E0.03319
G1 X-9.140 Y2.449 E0.03319
G1 X-8.715 Y2.522 E0.03319
G1 X-8.285 Y2.522 E0.03319
G1 X-7.860 Y2.449 E0.03319
G1 X-7.454 Y2.306 E0.03319
G1 X-7.078 Y2.096 E0.03319
G1 X-6.743 Y1.825 E0.03319
G1 X-6.458 Y1.502 E0.03319
G1 X-6.233 Y1.135 E0.03319
G1 X-6.083 Y0.764 E0.03087
G1 X-5.981 Y0.321 E0.03497
G1 X-5.963 Y-0.116 E0.03372
G1 X-6.018 Y-0.543 E0.03319
G1 X-6.144 Y-0.955 E0.03319
G1 X-6.338 Y-1.339 E0.03319
G1 X-6.594 Y-1.686 E0.03319
G1 X-6.905 Y-1.984 E0.03319
G1 X-7.262 Y-2.225 E0.03319
G1 X-7.654 Y-2.402 E0.03319
G1 X-8.071 Y-2.511 E0.03319
G1 X-8.500 Y-2.547 E0.03319
G1 X-8.899 Y-2.513 E0.03087
G1 X-9.340 Y-2.405 E0.03497
G1 X-9.738 Y-2.225 E0.03372
G1 X-10.095 Y-1.984 E0.03319
G1 X-10.406 Y-1.686 E0.03319
G1 X-10.562 Y-1.475 E0.02019
G1 X-10.836 Y-1.585 E0.02273
G1 X-10.785 Y-1.973 E0.03017
G1 X-10.526 Y-3.072 E0.08699
G1 X-10.155 Y-4.138 E0.08699
G1 X-9.942 Y-4.594 E0.03880
G1 X-9.131 Y-1.802 F15000.000
G1 X-8.796 Y-1.884 E0.02663 F600.000
G1 X-8.500 Y-1.909 E0.02287 F600.000
G1 X-8.179 Y-1.882 E0.02485
G1 X-7.867 Y-1.801 E0.02485
G1 X-7.573 Y-1.668 E0.02485
G1 X-7.305 Y-1.487 E0.02485
G1 X-7.073 Y-1.264 E0.02485
G1 X-6.881 Y-1.005 E0.02485
G1 X-6.736 Y-0.717 E0.02485
G1 X-6.641 Y-0.409 E0.02485
G1 X-6.600 Y-0.089 E0.02485
G1 X-6.614 Y0.236 E0.02504
G1 X-6.692 Y0.573 E0.02663
G1 X-6.802 Y0.848 E0.02287
G1 X-6.971 Y1.123 E0.02485
G1 X-7.184 Y1.365 E0.02485
G1 X-7.435 Y1.567 E0.02485
G1 X-7.717 Y1.725 E0.02485
G1 X-8.021 Y1.832 E0.02485
G1 X-8.339 Y1.887 E0.02485
G1 X-8.661 Y1.887 E0.02485
G1 X-8.979 Y1.832 E0.02485
G1 X-9.283 Y1.725 E0.02485
G1 X-9.565 Y1.567 E0.02485
G1 X-9.816 Y1.365 E0.02485
G1 X-10.029 Y1.123 E0.02485
G1 X-10.198 Y0.848 E0.02485
G1 X-10.318 Y0.549 E0.02485
G1 X-10.387 Y0.231 E0.02504
G1 X-10.396 Y-0.114 E0.02663
G1 X-10.359 Y-0.409 E0.02287
G1 X-10.264 Y-0.717 E0.02485
G1 X-10.119 Y-1.005 E0.02485
G1 X-9.927 Y-1.264 E0.02485
G1 X-9.695 Y-1.487 E0.02485
G1 X-9.427 Y-1.668 E0.02485
G1 X-9.186 Y-1.777 E0.02042
G1 X-9.055 Y-2.139 F15000.000
G1 X-11.364 Y-2.291 F15000.000
G1 X-11.137 Y-3.250 E0.07592 F720.000
G1 X-10.745 Y-4.378 E0.09204
G1 X-10.239 Y-5.459 E0.09204
G1 X-9.624 Y-6.483 E0.09204
G1 X-8.907 Y-7.438 E0.09204
G1 X-8.096 Y-8.315 E0.09204
G1 X-7.199 Y-9.103 E0.09204
G1 X-6.225 Y-9.795 E0.09204
G1 X-5.186 Y-10.384 E0.09204
G1 X-4.092 Y-10.862 E0.09204
G1 X-2.954 Y-11.225 E0.09204
G1 X-1.785 Y-11.469 E0.09204
G1 X-0.597 Y-11.592 E0.09204
