; generated by Slic3r 1.2.9 on 2017-08-08 at 14:11:22

; external perimeters extrusion width = 0.40mm
; perimeters extrusion width = 0.40mm
; infill extrusion width = 0.40mm
; solid infill extrusion width = 0.40mm
; top infill extrusion width = 0.40mm

M107
M83
T0
M116
G21 ; set units to millimeters
G90 ; use absolute coordinates
M83 ; use relative distances for extrusion
G1 E-1.50000 F3000.00000
G1 Z0.400 F15000.000
G1 X0.000 Y11.786 F15000.000
G1 Z0.300 F15000.000
G1 E1.50000 F3000.00000
G1 X-20.450 Y11.786 E1.57599 F960.000
G1 X-22.097 Y11.391 E0.13052
G1 X-23.387 Y10.293 E0.13052
G1 X-24.086 Y8.150 E0.17373
G1 X-24.086 Y-8.150 E1.25617
G1 X-23.691 Y-9.797 E0.13052
G1 X-22.593 Y-11.087 E0.13052
G1 X-20.450 Y-11.786 E0.17373
G1 X20.450 Y-11.786 E3.15198
G1 X22.097 Y-11.391 E0.13052
G1 X23.387 Y-10.293 E0.13052 F960.000
G1 X24.086 Y-8.150 E0.17373
G1 X24.086 Y8.150 E1.25617
G1 X23.691 Y9.797 E0.13052
G1 X22.593 Y11.087 E0.13052
G1 X20.450 Y11.786 E0.17373
G1 X0.060 Y11.786 E1.57137
G1 E-1.50000 F3000.00000
G1 Z0.700 F15000.000
G1 X11.269 Y2.059 F15000.000
G1 Z0.300 F15000.000
G1 E1.50000 F3000.00000
G1 X11.042 Y1.785 E0.02733 F600.000
G1 X10.838 Y1.463 E0.02940
G1 X10.676 Y1.118 E0.02940
G1 X10.556 Y0.751 E0.02977
G1 X10.485 Y0.354 E0.03108
G1 X10.462 Y-0.000 E0.02733
G1 X10.486 Y-0.381 E0.02940
G1 X10.558 Y-0.755 E0.02940
G1 X10.704 Y-1.206 E0.03648
G1 X11.029 Y-1.769 E0.05014
G1 X11.286 Y-2.079 E0.03102
G1 X11.564 Y-2.341 E0.02940
G1 X11.872 Y-2.565 E0.02940
G1 X12.207 Y-2.749 E0.02940
G1 X12.561 Y-2.889 E0.02940
G1 X12.931 Y-2.984 E0.02940
G1 X13.314 Y-3.032 E0.02977 F600.000
G1 X13.717 Y-3.028 E0.03108
G1 X14.069 Y-2.984 E0.02733
G1 X14.439 Y-2.889 E0.02940
G1 X14.793 Y-2.749 E0.02940
G1 X15.128 Y-2.565 E0.02940
G1 X15.436 Y-2.341 E0.02940
G1 X15.714 Y-2.079 E0.02940
G1 X15.971 Y-1.769 E0.03102
G1 X16.296 Y-1.206 E0.05014
G1 X16.442 Y-0.755 E0.03648
G1 X16.514 Y-0.381 E0.02940
G1 X16.538 Y0.000 E0.02940
G1 X16.514 Y0.381 E0.02940
G1 X16.442 Y0.755 E0.02940
G1 X16.296 Y1.206 E0.03648
G1 X15.971 Y1.769 E0.05014
G1 X15.714 Y2.079 E0.03102
G1 X15.436 Y2.341 E0.02940
G1 X15.128 Y2.565 E0.02940
G1 X14.793 Y2.749 E0.02940
G1 X14.439 Y2.889 E0.02940
G1 X14.069 Y2.984 E0.02940
G1 X13.691 Y3.032 E0.02940
G1 X13.309 Y3.032 E0.02940
G1 X12.931 Y2.984 E0.02940
G1 X12.561 Y2.889 E0.02940
G1 X12.207 Y2.749 E0.02940
G1 X11.896 Y2.578 E0.02733
G1 X11.563 Y2.341 E0.03146
G1 X11.312 Y2.100 E0.02683
G1 X11.752 Y1.641 F15000.000
G1 X11.558 Y1.411 E0.02318 F600.000
G1 X11.396 Y1.157 E0.02323
G1 X11.268 Y0.884 E0.02323
G1 X11.174 Y0.595 E0.02337
G1 X11.117 Y0.277 E0.02492
G1 X11.099 Y-0.000 E0.02141
G1 X11.118 Y-0.301 E0.02323
G1 X11.175 Y-0.597 E0.02323
G1 X11.288 Y-0.946 E0.02826
G1 X11.553 Y-1.405 E0.04088
G1 X11.750 Y-1.643 E0.02381
G1 X11.970 Y-1.850 E0.02323
G1 X12.214 Y-2.027 E0.02323
G1 X12.478 Y-2.172 E0.02324
G1 X12.758 Y-2.283 E0.02323
G1 X13.050 Y-2.358 E0.02323
G1 X13.351 Y-2.396 E0.02337 F600.000
G1 X13.674 Y-2.393 E0.02492
G1 X13.950 Y-2.358 E0.02141
G1 X14.242 Y-2.283 E0.02323
G1 X14.522 Y-2.172 E0.02323
G1 X14.786 Y-2.027 E0.02323
G1 X15.030 Y-1.850 E0.02323
G1 X15.250 Y-1.643 E0.02323
G1 X15.447 Y-1.405 E0.02381
G1 X15.712 Y-0.946 E0.04088
G1 X15.825 Y-0.597 E0.02826
G1 X15.882 Y-0.301 E0.02323
G1 X15.901 Y0.000 E0.02324
G1 X15.882 Y0.301 E0.02323
G1 X15.825 Y0.597 E0.02323
G1 X15.712 Y0.946 E0.02826
G1 X15.447 Y1.405 E0.04088
G1 X15.250 Y1.643 E0.02381
G1 X15.030 Y1.850 E0.02323
G1 X14.786 Y2.027 E0.02323
G1 X14.522 Y2.172 E0.02323
G1 X14.242 Y2.283 E0.02323
G1 X13.950 Y2.358 E0.02323
G1 X13.651 Y2.396 E0.02323
G1 X13.349 Y2.396 E0.02323
G1 X13.050 Y2.358 E0.02323
G1 X12.758 Y2.283 E0.02323
G1 X12.478 Y2.172 E0.02323
G1 X12.234 Y2.038 E0.02141
G1 X11.970 Y1.850 E0.02505
G1 X11.795 Y1.683 E0.01864
G1 X11.457 Y1.705 F15000.000
G1 E-1.50000 F3000.00000
G1 Z0.700 F15000.000
G1 X19.464 Y2.206 F15000.000
G1 Z0.300 F15000.000
G1 E1.50000 F3000.00000
G1 X19.464 Y7.164 E0.38211 F720.000
G1 X7.536 Y7.164 E0.91930 F720.000
G1 X7.536 Y-7.164 E1.10425
G1 X19.464 Y-7.164 E0.91930
G1 X19.464 Y2.146 E0.71752
G1 X20.100 Y2.146 F15000.000
G1 X20.100 Y7.800 E0.43572 F720.000
G1 X6.900 Y7.800 E1.01726 F720.000
G1 X6.900 Y-7.800 E1.20222
G1 X20.100 Y-7.800 E1.01726
G1 X20.100 Y2.086 E0.76188
G1 X19.754 Y2.346 F15000.000
G1 X14.982 Y-3.152 F15000.000
G1 X11.355 Y-6.779 E0.40755 F960.000
G1 X10.428 Y-6.779 E0.07364
G1 X13.793 Y-3.414 E0.37808
G1 X12.929 Y-3.351 E0.06880
G1 X9.501 Y-6.779 E0.38518
G1 X8.575 Y-6.779 E0.07364
G1 X12.226 Y-3.128 E0.41030
G1 X11.629 Y-2.798 E0.05420
G1 X7.921 Y-6.506 E0.41663
G1 X7.921 Y-5.579 E0.07364
G1 X11.122 Y-2.378 E0.35969
G1 X10.701 Y-1.873 E0.05228
G1 X7.921 Y-4.652 E0.31234
G1 X7.921 Y-3.725 E0.07364
G1 X10.362 Y-1.285 E0.27425
G1 X10.153 Y-0.567 E0.05940
G1 X7.921 Y-2.799 E0.25077
G1 X7.921 Y-1.872 E0.07364
G1 X10.086 Y0.293 E0.24325
G1 X10.339 Y1.473 F15000.000
G1 X7.921 Y-0.945 E0.27170 F960.000
G1 X7.921 Y-0.018 E0.07364
G1 X14.718 Y6.779 E0.76379
G1 X13.791 Y6.779 E0.07364
G1 X7.921 Y0.909 E0.65965
G1 X7.921 Y1.835 E0.07364
G1 X12.865 Y6.779 E0.55550
G1 X11.938 Y6.779 E0.07364
G1 X7.921 Y2.762 E0.45136
G1 X7.921 Y3.689 E0.07364
G1 X11.011 Y6.779 E0.34722
G1 X10.084 Y6.779 E0.07364
G1 X7.921 Y4.616 E0.24308
G1 X7.921 Y5.543 E0.07364
G1 X9.157 Y6.779 E0.13894
G1 X8.231 Y6.779 E0.07364
G1 X7.921 Y6.469 E0.03480
G1 X12.018 Y3.152 F15000.000
G1 X15.645 Y6.779 E0.40756 F960.000
G1 X16.572 Y6.779 E0.07364
G1 X13.210 Y3.417 E0.37777
G1 X14.071 Y3.351 E0.06860
G1 X17.499 Y6.779 E0.38518
G1 X18.425 Y6.779 E0.07364
G1 X14.774 Y3.128 E0.41030
G1 X15.371 Y2.798 E0.05420
G1 X19.079 Y6.506 E0.41663
G1 X19.079 Y5.579 E0.07364
G1 X15.878 Y2.378 E0.35969
G1 X16.299 Y1.873 E0.05228
G1 X19.079 Y4.652 E0.31234
G1 X19.079 Y3.725 E0.07364
G1 X16.638 Y1.285 E0.27425
G1 X16.847 Y0.567 E0.05940
G1 X19.079 Y2.799 E0.25077
G1 X19.079 Y1.872 E0.07364
G1 X16.914 Y-0.293 E0.24325
G1 X16.667 Y-1.467 E0.09532
G1 X19.079 Y0.945 E0.27102
G1 X19.079 Y0.018 E0.07364
G1 X12.282 Y-6.779 E0.76379
G1 X13.209 Y-6.779 E0.07364
G1 X19.079 Y-0.909 E0.65965
G1 X19.079 Y-1.835 E0.07364
G1 X14.135 Y-6.779 E0.55551
G1 X15.062 Y-6.779 E0.07364
G1 X19.079 Y-2.762 E0.45136
G1 X19.079 Y-3.689 E0.07364
G1 X15.989 Y-6.779 E0.34722
G1 X16.916 Y-6.779 E0.07364
G1 X19.079 Y-4.616 E0.24308
G1 X19.079 Y-5.543 E0.07364
G1 X17.842 Y-6.779 E0.13894
G1 X18.769 Y-6.779 E0.07364
G1 X19.079 Y-6.469 E0.03480
G1 E-1.50000 F3000.00000
G1 Z0.700 F15000.000
G1 X-13.097 Y6.606 F15000.000
G1 Z0.300 F15000.000
G1 E1.50000 F3000.00000
G1 X-13.097 Y7.164 E0.04305 F600.000
G1 X-19.464 Y7.164 E0.49073 F600.000
G1 X-19.464 Y6.236 E0.07158
G1 X-13.097 Y6.236 E0.49073
G1 X-13.097 Y6.546 E0.02390
G1 E-1.50000 F3000.00000
G1 Z0.700 F15000.000
G1 X-18.311 Y-7.164 F15000.000
G1 Z0.300 F15000.000
G1 E1.50000 F3000.00000
G1 X-13.097 Y-7.164 E0.40183 F600.000
G1 X-13.097 Y-6.236 E0.07158
G1 X-19.464 Y-6.236 E0.49073 F600.000
G1 X-19.464 Y-7.164 E0.07158
G1 X-18.371 Y-7.164 E0.08428
G1 X-18.371 Y-7.800 F15000.000
G1 X-12.461 Y-7.800 E0.45544 F720.000
G1 X-12.461 Y-5.600 E0.16954
G1 X-18.900 Y-5.600 E0.49622 F720.000
G1 X-18.900 Y5.600 E0.86313
G1 X-12.461 Y5.600 E0.49622
G1 X-12.461 Y7.800 E0.16954
G1 X-20.100 Y7.800 E0.58870
G1 X-20.100 Y-7.800 E1.20222
G1 X-18.431 Y-7.800 E0.12864
G1 X-18.171 Y-7.454 F15000.000
G1 X-19.147 Y-6.700 F15000.000
G1 X-13.415 Y-6.700 E0.44174 F960.000
G1 X-19.500 Y-5.918 F15000.000
G1 X-19.500 Y5.918 E1.91662 F960.000
G1 X-19.147 Y6.700 F15000.000
G1 X-13.415 Y6.700 E0.44174 F960.000
G1 E-1.50000 F3000.00000
G1 Z0.700 F15000.000
G1 X10.972 Y0.643 F15000.000
G1 Z0.500 F15000.000
G1 E1.50000 F3000.00000
G1 X10.909 Y0.268 E0.01098 F2400.000
G1 X10.892 Y-0.000 E0.00774
G1 X10.912 Y-0.327 E0.00945
G1 X10.974 Y-0.649 E0.00945
G1 X11.075 Y-0.960 E0.00945
G1 X11.214 Y-1.257 E0.00945
G1 X11.390 Y-1.533 E0.00945
G1 X11.599 Y-1.785 E0.00945
G1 X11.837 Y-2.010 E0.00945
G1 X12.102 Y-2.202 E0.00945
G1 X12.389 Y-2.360 E0.00945
G1 X12.694 Y-2.481 E0.00945
G1 X13.011 Y-2.562 E0.00945
G1 X13.336 Y-2.603 E0.00945
G1 X13.664 Y-2.603 E0.00945 F2400.000
G1 X13.989 Y-2.562 E0.00945
G1 X14.306 Y-2.481 E0.00945
G1 X14.611 Y-2.360 E0.00945
G1 X14.898 Y-2.202 E0.00945
G1 X15.163 Y-2.010 E0.00945
G1 X15.401 Y-1.785 E0.00945
G1 X15.610 Y-1.533 E0.00945
G1 X15.786 Y-1.257 E0.00945
G1 X15.925 Y-0.960 E0.00945
G1 X16.030 Y-0.638 E0.00979
G1 X16.113 Y-0.077 E0.01637
G1 X16.088 Y0.327 E0.01167
G1 X16.026 Y0.649 E0.00945
G1 X15.925 Y0.960 E0.00945
G1 X15.786 Y1.257 E0.00945
G1 X15.610 Y1.533 E0.00945
G1 X15.401 Y1.785 E0.00945
G1 X15.163 Y2.010 E0.00945
G1 X14.898 Y2.202 E0.00945
G1 X14.611 Y2.360 E0.00945
G1 X14.306 Y2.481 E0.00945
G1 X14.046 Y2.547 E0.00774
G1 X13.670 Y2.603 E0.01098
G1 X13.336 Y2.603 E0.00963
G1 X13.011 Y2.562 E0.00945
G1 X12.694 Y2.481 E0.00945
G1 X12.389 Y2.360 E0.00945
G1 X12.154 Y2.231 E0.00774
G1 X11.837 Y2.010 E0.01116
G1 X11.561 Y1.740 E0.01116
G1 X11.390 Y1.533 E0.00774
G1 X11.214 Y1.257 E0.00945
G1 X11.075 Y0.960 E0.00945
G1 X10.990 Y0.700 E0.00790
G1 X11.330 Y0.590 F15000.000
G1 X11.264 Y0.227 E0.01065 F2400.000
G1 X11.250 Y-0.000 E0.00655
G1 X11.267 Y-0.282 E0.00816
G1 X11.320 Y-0.560 E0.00816
G1 X11.408 Y-0.828 E0.00816
G1 X11.528 Y-1.084 E0.00816
G1 X11.679 Y-1.323 E0.00816
G1 X11.859 Y-1.541 E0.00816
G1 X12.065 Y-1.734 E0.00816
G1 X12.294 Y-1.900 E0.00816
G1 X12.542 Y-2.036 E0.00816
G1 X12.805 Y-2.140 E0.00816
G1 X13.078 Y-2.211 E0.00816
G1 X13.359 Y-2.246 E0.00816
G1 X13.641 Y-2.246 E0.00816 F2400.000
G1 X13.922 Y-2.211 E0.00816
G1 X14.195 Y-2.140 E0.00816
G1 X14.458 Y-2.036 E0.00816
G1 X14.706 Y-1.900 E0.00816
G1 X14.935 Y-1.734 E0.00816
G1 X15.141 Y-1.541 E0.00816
G1 X15.321 Y-1.323 E0.00816
G1 X15.472 Y-1.084 E0.00816
G1 X15.592 Y-0.828 E0.00816
G1 X15.681 Y-0.556 E0.00828
G1 X15.754 Y-0.061 E0.01442
G1 X15.733 Y0.282 E0.00993
G1 X15.680 Y0.560 E0.00816
G1 X15.592 Y0.828 E0.00816
G1 X15.472 Y1.084 E0.00816
G1 X15.321 Y1.323 E0.00816
G1 X15.141 Y1.541 E0.00816
G1 X14.935 Y1.734 E0.00816
G1 X14.706 Y1.900 E0.00816
G1 X14.458 Y2.036 E0.00816
G1 X14.195 Y2.140 E0.00816
G1 X13.975 Y2.197 E0.00655
G1 X13.643 Y2.246 E0.00969
G1 X13.359 Y2.246 E0.00822
G1 X13.078 Y2.211 E0.00816
G1 X12.805 Y2.140 E0.00816
G1 X12.542 Y2.036 E0.00816
G1 X12.343 Y1.927 E0.00655
G1 X12.065 Y1.734 E0.00975
G1 X11.824 Y1.498 E0.00975
G1 X11.679 Y1.323 E0.00655
G1 X11.528 Y1.084 E0.00816
G1 X11.408 Y0.828 E0.00816
G1 X11.348 Y0.647 E0.00552
G1 X10.977 Y0.481 F15000.000
G1 X7.107 Y2.099 F15000.000
G1 X7.107 Y-7.593 E0.27974 F2400.000
G1 X19.893 Y-7.593 E0.36903
G1 X19.893 Y7.593 E0.43830
G1 X7.107 Y7.593 E0.36903 F2400.000
G1 X7.107 Y2.159 E0.15684
G1 X6.750 Y2.159 F15000.000
G1 X6.750 Y-7.950 E0.29177 F2400.000
G1 X20.250 Y-7.950 E0.38965
G1 X20.250 Y7.950 E0.45892
G1 X6.750 Y7.950 E0.38965 F2400.000
G1 X6.750 Y2.219 E0.16541
G1 X7.096 Y1.959 F15000.000
G1 X7.315 Y2.069 F15000.000
G1 X16.769 Y-7.385 E0.39321 F2400.000
G1 X16.254 Y-7.385 E0.01513
G1 X7.315 Y1.554 E0.37180
G1 X7.315 Y1.039 E0.01513
G1 X15.739 Y-7.385 E0.35040
G1 X15.225 Y-7.385 E0.01513
G1 X7.315 Y0.525 E0.32900
G1 X7.315 Y0.010 E0.01513
G1 X14.710 Y-7.385 E0.30760
G1 X14.196 Y-7.385 E0.01513
G1 X7.315 Y-0.504 E0.28619
G1 X7.315 Y-1.019 E0.01513
G1 X13.681 Y-7.385 E0.26479
G1 X13.167 Y-7.385 E0.01513
G1 X7.315 Y-1.533 E0.24339
G1 X7.315 Y-2.048 E0.01513
G1 X12.652 Y-7.385 E0.22199
G1 X12.137 Y-7.385 E0.01513
G1 X7.315 Y-2.563 E0.20059
G1 X7.315 Y-3.077 E0.01513
G1 X11.623 Y-7.385 E0.17918
G1 X11.108 Y-7.385 E0.01513
G1 X7.315 Y-3.592 E0.15778
G1 X7.315 Y-4.106 E0.01513
G1 X10.594 Y-7.385 E0.13638
G1 X10.079 Y-7.385 E0.01513
G1 X7.315 Y-4.621 E0.11498
G1 X7.315 Y-5.135 E0.01513
G1 X9.565 Y-7.385 E0.09357
G1 X9.050 Y-7.385 E0.01513
G1 X7.315 Y-5.650 E0.07217
G1 X7.315 Y-6.165 E0.01513
G1 X8.535 Y-7.385 E0.05077
G1 X8.021 Y-7.385 E0.01513
G1 X7.315 Y-6.679 E0.02937
G1 X7.315 Y-7.194 E0.01513
G1 X7.506 Y-7.385 E0.00796
G1 X12.588 Y-2.690 F15000.000
G1 X17.283 Y-7.385 E0.19530 F2400.000
G1 X17.798 Y-7.385 E0.01513
G1 X13.221 Y-2.808 E0.19037
G1 X13.723 Y-2.796 E0.01478
G1 X18.312 Y-7.385 E0.19087
G1 X18.827 Y-7.385 E0.01513
G1 X14.158 Y-2.716 E0.19420
G1 X14.542 Y-2.586 E0.01194
G1 X19.341 Y-7.385 E0.19960
G1 X19.685 Y-7.214 E0.01129
G1 X14.886 Y-2.415 E0.19962
G1 X15.193 Y-2.207 E0.01090
G1 X19.685 Y-6.700 E0.18685
G1 X19.685 Y-6.185 E0.01513
G1 X15.466 Y-1.966 E0.17547
G1 X15.707 Y-1.693 E0.01072
G1 X19.685 Y-5.671 E0.16544
G1 X19.685 Y-5.156 E0.01513
G1 X15.915 Y-1.386 E0.15680
G1 X16.088 Y-1.044 E0.01127
G1 X19.685 Y-4.641 E0.14963
G1 X19.685 Y-4.127 E0.01513
G1 X16.220 Y-0.662 E0.14413
G1 X16.292 Y-0.219 E0.01319
G1 X19.685 Y-3.612 E0.14115
G1 X19.685 Y-3.098 E0.01513
G1 X16.303 Y0.284 E0.14065
G1 X16.187 Y0.915 E0.01889
G1 X19.685 Y-2.583 E0.14551
G1 X19.685 Y-2.069 E0.01513
G1 X10.231 Y7.385 E0.39321
G1 X10.746 Y7.385 E0.01513
G1 X19.685 Y-1.554 E0.37181
G1 X19.685 Y-1.039 E0.01513
G1 X11.261 Y7.385 E0.35040
G1 X11.775 Y7.385 E0.01513
G1 X19.685 Y-0.525 E0.32900
G1 X19.685 Y-0.010 E0.01513
G1 X12.290 Y7.385 E0.30760
G1 X12.804 Y7.385 E0.01513
G1 X19.685 Y0.504 E0.28620
G1 X19.685 Y1.019 E0.01513
G1 X13.319 Y7.385 E0.26479
G1 X13.833 Y7.385 E0.01513
G1 X19.685 Y1.533 E0.24339
G1 X19.685 Y2.048 E0.01513
G1 X14.348 Y7.385 E0.22199
G1 X14.863 Y7.385 E0.01513
G1 X19.685 Y2.563 E0.20059
G1 X19.685 Y3.077 E0.01513
G1 X15.377 Y7.385 E0.17918
G1 X15.892 Y7.385 E0.01513
G1 X19.685 Y3.592 E0.15778
G1 X19.685 Y4.106 E0.01513
G1 X16.406 Y7.385 E0.13638
G1 X16.921 Y7.385 E0.01513
G1 X19.685 Y4.621 E0.11498
G1 X19.685 Y5.135 E0.01513
G1 X17.435 Y7.385 E0.09357
G1 X17.950 Y7.385 E0.01513
G1 X19.685 Y5.650 E0.07217
G1 X19.685 Y6.165 E0.01513
G1 X18.465 Y7.385 E0.05077
G1 X18.979 Y7.385 E0.01513
G1 X19.685 Y6.679 E0.02937
G1 X19.685 Y7.194 E0.01513
G1 X19.494 Y7.385 E0.00796
G1 X9.717 Y7.385 F15000.000
G1 X14.412 Y2.690 E0.19530 F2400.000
G1 X13.778 Y2.809 E0.01897
G1 X9.202 Y7.385 E0.19033
G1 X8.688 Y7.385 E0.01513
G1 X13.277 Y2.796 E0.19087
G1 X12.842 Y2.716 E0.01300
G1 X8.173 Y7.385 E0.19420
G1 X7.659 Y7.385 E0.01513
G1 X12.458 Y2.586 E0.19960
G1 X12.114 Y2.415 E0.01128
G1 X7.315 Y7.214 E0.19962
G1 X7.315 Y6.700 E0.01513
G1 X11.808 Y2.207 E0.18687
G1 X11.537 Y1.963 E0.01072
G1 X7.315 Y6.185 E0.17560
G1 X7.315 Y5.671 E0.01513
G1 X11.293 Y1.693 E0.16544
G1 X11.085 Y1.386 E0.01090
G1 X7.315 Y5.156 E0.15680
G1 X7.315 Y4.641 E0.01513
G1 X10.912 Y1.044 E0.14963
G1 X10.780 Y0.662 E0.01190
G1 X7.315 Y4.127 E0.14413
G1 X7.315 Y3.612 E0.01513
G1 X10.702 Y0.225 E0.14090
G1 X10.697 Y-0.284 E0.01496
G1 X7.315 Y3.098 E0.14065
G1 X7.315 Y2.583 E0.01513
G1 X10.813 Y-0.915 E0.14551
G1 E-1.50000 F3000.00000
G1 Z0.900 F15000.000
G1 X-11.962 Y-5.807 F15000.000
G1 Z0.500 F15000.000
G1 E1.50000 F3000.00000
G1 X-19.107 Y-5.807 E0.20622 F2400.000
G1 X-19.107 Y5.807 E0.33522
G1 X-11.911 Y5.807 E0.20770
G1 X-11.776 Y5.807 E0.00686 F4800.000
G1 X-11.776 Y7.593 E0.09070
G1 X-11.911 Y7.593 E0.00686
G1 X-19.893 Y7.593 E0.23038 F2400.000
G1 X-19.893 Y-7.593 E0.43830
G1 X-11.911 Y-7.593 E0.23038
G1 X-11.776 Y-7.593 E0.00686 F4800.000
G1 X-11.776 Y-5.807 E0.09070
G1 X-11.902 Y-5.807 E0.00641
G1 X-11.902 Y-5.450 F15000.000
G1 X-11.911 Y-5.450 E0.00045 F4800.000
G1 X-18.750 Y-5.450 E0.19739 F2400.000
G1 X-18.750 Y5.450 E0.31460
G1 X-11.911 Y5.450 E0.19739
G1 X-11.419 Y5.450 E0.02499 F4800.000
G1 X-11.419 Y7.950 E0.12697
G1 X-11.911 Y7.950 E0.02499
G1 X-20.250 Y7.950 E0.24068 F2400.000
G1 X-20.250 Y-7.950 E0.45892
G1 X-11.911 Y-7.950 E0.24068
G1 X-11.419 Y-7.950 E0.02499 F4800.000
G1 X-11.419 Y-5.450 E0.12697
G1 X-11.842 Y-5.450 E0.02150
G1 X-12.126 Y-6.022 F15000.000
G1 X-12.126 Y-7.378 E0.16016 F4800.000
G1 X-12.786 Y-7.378 E0.07796
G1 X-12.786 Y-6.022 E0.16016
G1 X-13.285 Y-6.015 F15000.000
G1 X-13.094 Y-6.206 E0.00782 F2400.000
G1 X-13.094 Y-6.712 E0.01459
G1 X-13.791 Y-6.015 E0.02845
G1 X-14.296 Y-6.015 E0.01459
G1 X-13.094 Y-7.217 E0.04909
G1 X-13.431 Y-7.385 E0.01088
G1 X-14.801 Y-6.015 E0.05596
G1 X-15.306 Y-6.015 E0.01459
G1 X-13.936 Y-7.385 E0.05596
G1 X-14.441 Y-7.385 E0.01459
G1 X-15.812 Y-6.015 E0.05596
