; generated by Slic3r 1.2.9 on 2017-06-05 at 17:01:36

; external perimeters extrusion width = 0.40mm
; perimeters extrusion width = 0.40mm
; infill extrusion width = 0.40mm
; solid infill extrusion width = 0.40mm
; top infill extrusion width = 0.40mm

M107
M83
T0
M116
G21 ; set units to millimeters
G90 ; use absolute coordinates
M83 ; use relative distances for extrusion
G1 E-3.20000 F3000.00000
G1 Z0.400 F15000.000
G1 X0.000 Y8.586 F15000.000
G1 Z0.300 F15000.000
G1 E3.20000 F3000.00000
G1 X-6.950 Y8.586 E0.53561 F2400.000
G1 X-8.597 Y8.191 E0.13052
G1 X-9.887 Y7.093 E0.13052
G1 X-10.586 Y4.950 E0.17373
G1 X-10.586 Y-4.950 E0.76295
G1 X-10.191 Y-6.597 E0.13052
G1 X-9.093 Y-7.887 E0.13052
G1 X-6.950 Y-8.586 E0.17373
G1 X6.950 Y-8.586 E1.07121
G1 X8.597 Y-8.191 E0.13052
G1 X9.887 Y-7.093 E0.13052 F2400.000
G1 X10.586 Y-4.950 E0.17373
G1 X10.586 Y4.950 E0.76295
G1 X10.191 Y6.597 E0.13052
G1 X9.093 Y7.887 E0.13052
G1 X6.950 Y8.586 E0.17373
G1 X0.060 Y8.586 E0.53098
G1 E-3.20000 F3000.00000
G1 Z0.700 F15000.000
G1 X-0.007 Y3.279 F15000.000
G1 Z0.300 F15000.000
G1 E3.20000 F3000.00000
G1 X-0.438 Y3.243 E0.03328 F2400.000
G1 X-0.820 Y3.175 E0.02992
G1 X-1.049 Y3.106 E0.01846
G1 X-1.590 Y2.866 E0.04557
G1 X-1.796 Y2.743 E0.01852
G1 X-2.136 Y2.479 E0.03322
G1 X-2.419 Y2.213 E0.02993
G1 X-2.574 Y2.030 E0.01847
G1 X-2.897 Y1.534 E0.04557
G1 X-3.003 Y1.318 E0.01855
G1 X-3.142 Y0.911 E0.03317
G1 X-3.235 Y0.534 E0.02994
G1 X-3.264 Y0.300 E0.01818
G1 X-3.273 Y-0.088 E0.02988
G1 X-3.237 Y-0.530 E0.03416
G1 X-3.084 Y-1.108 E0.04612
G1 X-2.997 Y-1.331 E0.01844
G1 X-2.790 Y-1.712 E0.03340
G1 X-2.572 Y-2.033 E0.02989
G1 X-2.417 Y-2.215 E0.01843
G1 X-1.979 Y-2.612 E0.04556
G1 X-1.784 Y-2.751 E0.01847
G1 X-1.404 Y-2.957 E0.03334
G1 X-1.046 Y-3.107 E0.02990
G1 X-0.816 Y-3.176 E0.01844
G1 X-0.233 Y-3.269 E0.04557
G1 X0.007 Y-3.279 E0.01849 F2400.000
G1 X0.438 Y-3.244 E0.03328
G1 X0.820 Y-3.175 E0.02992
G1 X1.046 Y-3.107 E0.01818
G1 X1.404 Y-2.957 E0.02990
G1 X1.793 Y-2.747 E0.03410
G1 X2.260 Y-2.372 E0.04614
G1 X2.428 Y-2.204 E0.01836
G1 X2.699 Y-1.855 E0.03400
G1 X3.000 Y-1.326 E0.04690
G1 X3.191 Y-0.747 E0.04703
G1 X3.279 Y-0.205 E0.04234
G1 X3.279 Y0.199 E0.03111
G1 X3.234 Y0.538 E0.02636
G1 X3.084 Y1.108 E0.04544
G1 X2.997 Y1.331 E0.01844
G1 X2.790 Y1.712 E0.03340
G1 X2.572 Y2.033 E0.02989
G1 X2.417 Y2.215 E0.01843
G1 X1.979 Y2.612 E0.04556
G1 X1.784 Y2.751 E0.01847
G1 X1.404 Y2.957 E0.03334
G1 X1.046 Y3.107 E0.02990
G1 X0.816 Y3.176 E0.01844
G1 X0.233 Y3.269 E0.04557
G1 X0.053 Y3.277 E0.01387
G1 X-0.221 Y3.617 F15000.000
G1 X-3.069 Y2.429 F15000.000
G1 X-2.881 Y2.651 E0.02246 F2400.000
G1 X-2.550 Y2.962 E0.03500
G1 X-2.155 Y3.269 E0.03854
G1 X-1.882 Y3.432 E0.02450
G1 X-1.364 Y3.662 E0.04373
G1 X-1.428 Y3.964 E0.02382
G1 X-5.964 Y3.964 E0.34962
G1 X-5.964 Y-3.964 E0.61103
G1 X-1.437 Y-3.964 E0.34889
G1 X-1.376 Y-3.658 E0.02407
G1 X-1.678 Y-3.531 E0.02530 F2400.000
G1 X-2.121 Y-3.291 E0.03882
G1 X-2.378 Y-3.108 E0.02434
G1 X-2.875 Y-2.658 E0.05165
G1 X-3.078 Y-2.418 E0.02423
G1 X-3.334 Y-2.044 E0.03496
G1 X-3.575 Y-1.599 E0.03896
G1 X-3.689 Y-1.306 E0.02426
G1 X-3.865 Y-0.638 E0.05322
G1 X-3.910 Y-0.107 E0.04107
G1 X-3.899 Y0.346 E0.03495
G1 X-3.861 Y0.649 E0.02353
G1 X-3.753 Y1.091 E0.03501
G1 X-3.591 Y1.562 E0.03840
G1 X-3.451 Y1.848 E0.02458
G1 X-3.105 Y2.381 E0.04893
G1 E-3.20000 F3000.00000
G1 Z0.700 F15000.000
G1 X5.964 Y1.376 F15000.000
G1 Z0.300 F15000.000
G1 E3.20000 F3000.00000
G1 X5.964 Y3.964 E0.19944 F2400.000
G1 X1.437 Y3.964 E0.34890 F2400.000
G1 X1.376 Y3.658 E0.02407
G1 X1.678 Y3.531 E0.02531
G1 X2.121 Y3.291 E0.03882
G1 X2.378 Y3.108 E0.02434
G1 X2.875 Y2.658 E0.05165
G1 X3.078 Y2.418 E0.02423
G1 X3.334 Y2.044 E0.03496
G1 X3.575 Y1.599 E0.03896
G1 X3.689 Y1.306 E0.02426
G1 X3.859 Y0.662 E0.05135
G1 X3.915 Y0.241 E0.03270
G1 X3.915 Y-0.256 E0.03828
G1 X3.810 Y-0.898 E0.05014
G1 X3.584 Y-1.585 E0.05577
G1 X3.229 Y-2.210 E0.05534
G1 X2.905 Y-2.625 E0.04057
G1 X2.685 Y-2.846 E0.02408
G1 X2.146 Y-3.278 E0.05324
G1 X1.678 Y-3.531 E0.04096
G1 X1.376 Y-3.658 E0.02530
G1 X1.437 Y-3.964 E0.02407
G1 X5.964 Y-3.964 E0.34889
G1 X5.964 Y1.316 E0.40697
G1 X6.600 Y1.316 F15000.000
G1 X6.600 Y4.600 E0.25305 F2400.000
G1 X-6.600 Y4.600 E1.01726 F2400.000
G1 X-6.600 Y-4.600 E0.70900
G1 X6.600 Y-4.600 E1.01726
G1 X6.600 Y1.256 E0.45133
G1 X6.254 Y1.516 F15000.000
G1 X2.685 Y3.275 F15000.000
G1 X2.989 Y3.579 E0.03477 F2400.000
G1 X3.933 Y3.579 E0.07637
G1 X3.172 Y2.818 E0.08703
G1 X3.576 Y2.279 E0.05456
G1 X4.877 Y3.579 E0.14878
G1 X5.579 Y3.337 E0.06010
G1 X3.916 Y1.675 E0.19030
G1 X4.147 Y0.962 E0.06061
G1 X5.579 Y2.394 E0.16381
G1 X5.579 Y1.450 E0.07637
G1 X4.297 Y0.167 E0.14675
G1 X4.234 Y-0.839 E0.08158
G1 X5.579 Y0.506 E0.15390
G1 X5.579 Y-0.438 E0.07637
G1 X3.719 Y-2.297 E0.21280
G1 X3.382 Y-3.579 E0.10724
G1 X5.579 Y-1.382 E0.25145
G1 X5.579 Y-2.325 E0.07637
G1 X4.325 Y-3.579 E0.14344
G1 X5.269 Y-3.579 E0.07637
G1 X5.579 Y-3.269 E0.03544
G1 X1.094 Y-3.868 F15000.000
G1 X0.509 Y-3.920 E0.09506 F2400.000
G1 X-0.000 Y-3.940 E0.08253
G1 X-1.094 Y-3.870 E0.17746
G1 X-2.685 Y-3.275 F15000.000
G1 X-2.989 Y-3.579 E0.03477 F2400.000
G1 X-3.172 Y-2.818 E0.06330
G1 X-3.933 Y-3.579 E0.08703
G1 X-4.877 Y-3.579 E0.07637
G1 X-3.576 Y-2.279 E0.14878
G1 X-3.916 Y-1.675 E0.05609
G1 X-5.579 Y-3.337 E0.19029
G1 X-5.579 Y-2.394 E0.07637
G1 X-4.147 Y-0.962 E0.16381
G1 X-4.282 Y-0.153 E0.06640
G1 X-5.579 Y-1.450 E0.14844
G1 X-5.579 Y-0.506 E0.07637
G1 X-4.245 Y0.828 E0.15261
G1 X-5.579 Y0.438 E0.11243
G1 X-3.756 Y2.261 E0.20863
G1 X-3.382 Y3.579 E0.11086
G1 X-5.579 Y1.382 E0.25145
G1 X-5.579 Y2.325 E0.07637
G1 X-4.325 Y3.579 E0.14344
G1 X-5.269 Y3.579 E0.07637
G1 X-5.579 Y3.269 E0.03544
G1 X-1.083 Y3.869 F15000.000
G1 X-0.509 Y3.920 E0.09328 F2400.000
G1 X0.000 Y3.940 E0.08253
G1 X1.094 Y3.870 E0.17745
G1 E-3.20000 F3000.00000
G1 Z0.700 F15000.000
G1 X0.958 Y3.412 F15000.000
G1 Z0.500 F15000.000
G1 E3.20000 F3000.00000
G1 X0.775 Y3.466 E0.00549 F2400.000
G1 X0.000 Y3.559 E0.02253
G1 X-0.775 Y3.466 E0.02253
G1 X-1.235 Y3.329 E0.01385
G1 X-1.935 Y2.987 E0.02250
G1 X-2.537 Y2.487 E0.02257
G1 X-2.847 Y2.121 E0.01385
G1 X-3.248 Y1.454 E0.02247
G1 X-3.482 Y0.707 E0.02260
G1 X-3.540 Y0.240 E0.01359
G1 X-3.540 Y-0.228 E0.01349
G1 X-3.513 Y-0.560 E0.00962
G1 X-3.307 Y-1.302 E0.02222
G1 X-3.100 Y-1.724 E0.01356
G1 X-2.848 Y-2.117 E0.01349
G1 X-2.642 Y-2.381 E0.00965
G1 X-2.066 Y-2.892 E0.02222
G1 X-1.664 Y-3.132 E0.01353
G1 X-1.238 Y-3.326 E0.01349
G1 X-0.921 Y-3.435 E0.00967
G1 X-0.172 Y-3.550 E0.02189
G1 X0.168 Y-3.550 E0.00980 F2400.000
G1 X0.780 Y-3.464 E0.01784
G1 X1.235 Y-3.329 E0.01369
G1 X1.935 Y-2.987 E0.02250
G1 X2.537 Y-2.487 E0.02257
G1 X2.847 Y-2.121 E0.01385
G1 X3.248 Y-1.454 E0.02247
G1 X3.481 Y-0.711 E0.02246
G1 X3.582 Y0.000 E0.02073
G1 X3.481 Y0.711 E0.02073
G1 X3.248 Y1.454 E0.02246
G1 X2.847 Y2.121 E0.02247
G1 X2.537 Y2.487 E0.01385
G1 X1.935 Y2.987 E0.02257
G1 X1.235 Y3.329 E0.02250
G1 X1.015 Y3.394 E0.00662
G1 X0.913 Y3.052 F15000.000
G1 X0.702 Y3.115 E0.00635 F2400.000
G1 X0.000 Y3.199 E0.02042
G1 X-0.702 Y3.115 E0.02042
G1 X-1.105 Y2.995 E0.01212
G1 X-1.740 Y2.685 E0.02041
G1 X-2.284 Y2.232 E0.02043
G1 X-2.556 Y1.912 E0.01212
G1 X-2.920 Y1.307 E0.02040
G1 X-3.132 Y0.631 E0.02044
G1 X-3.183 Y0.217 E0.01202
G1 X-3.183 Y-0.213 E0.01242
G1 X-3.160 Y-0.497 E0.00822
G1 X-2.971 Y-1.175 E0.02030
G1 X-2.789 Y-1.549 E0.01201
G1 X-2.556 Y-1.911 E0.01242
G1 X-2.381 Y-2.136 E0.00823
G1 X-1.855 Y-2.603 E0.02030
G1 X-1.498 Y-2.815 E0.01200
G1 X-1.106 Y-2.994 E0.01242
G1 X-0.836 Y-3.087 E0.00824
G1 X-0.144 Y-3.193 E0.02018
G1 X0.143 Y-3.193 E0.00830 F2400.000
G1 X0.704 Y-3.114 E0.01635
G1 X1.105 Y-2.995 E0.01206
G1 X1.740 Y-2.685 E0.02041
G1 X2.284 Y-2.232 E0.02043
G1 X2.556 Y-1.912 E0.01212
G1 X2.920 Y-1.307 E0.02040
G1 X3.131 Y-0.632 E0.02039
G1 X3.221 Y0.000 E0.01843
G1 X3.131 Y0.632 E0.01843
G1 X2.920 Y1.307 E0.02039
G1 X2.556 Y1.912 E0.02040
G1 X2.284 Y2.232 E0.01212
G1 X1.740 Y2.685 E0.02043
G1 X1.105 Y2.995 E0.02041
G1 X0.971 Y3.035 E0.00404
G1 X0.862 Y3.266 F15000.000
G1 X1.999 Y4.393 F15000.000
G1 X-6.393 Y4.393 E0.24222 F2400.000
G1 X-6.393 Y-4.393 E0.25358
G1 X6.393 Y-4.393 E0.36903
G1 X6.393 Y4.393 E0.25358
G1 X2.059 Y4.393 E0.12508 F2400.000
G1 X2.059 Y4.750 F15000.000
G1 X-6.750 Y4.750 E0.25426 F2400.000
G1 X-6.750 Y-4.750 E0.27420
G1 X6.750 Y-4.750 E0.38965
G1 X6.750 Y4.750 E0.27420
G1 X2.119 Y4.750 E0.13366 F2400.000
G1 X1.859 Y4.404 F15000.000
G1 X0.529 Y3.946 F15000.000
G1 X0.028 Y3.976 E0.03069 F2400.000
G1 X-0.529 Y3.946 E0.03417
G1 X-0.937 Y4.185 F15000.000
G1 X-0.745 Y3.992 E0.00805 F2400.000
G1 X-0.896 Y3.627 E0.01166
G1 X-1.454 Y4.185 E0.02328
G1 X-1.970 Y4.185 E0.01524
G1 X-1.290 Y3.505 E0.02840
G1 X-1.637 Y3.335 E0.01140
G1 X-2.487 Y4.185 E0.03547
G1 X-3.003 Y4.185 E0.01524
G1 X-1.984 Y3.166 E0.04255
G1 X-2.272 Y2.937 E0.01085
G1 X-3.520 Y4.185 E0.05209
G1 X-4.036 Y4.185 E0.01524
G1 X-2.554 Y2.703 E0.06188
G1 X-2.808 Y2.440 E0.01078
G1 X-4.552 Y4.185 E0.07283
G1 X-5.069 Y4.185 E0.01524
G1 X-3.037 Y2.153 E0.08482
G1 X-3.231 Y1.831 E0.01110
G1 X-5.585 Y4.185 E0.09827
G1 X-6.102 Y4.185 E0.01524
G1 X-3.425 Y1.509 E0.11172
G1 X-3.551 Y1.118 E0.01211
G1 X-6.185 Y3.752 E0.10996
G1 X-6.185 Y3.236 E0.01524
G1 X-3.674 Y0.725 E0.10482
G1 X-3.737 Y0.271 E0.01351
G1 X-6.185 Y2.720 E0.10219
G1 X-6.185 Y2.203 E0.01524
G1 X-3.748 Y-0.234 E0.10173
G1 X-3.681 Y-0.818 E0.01734
G1 X-6.185 Y1.687 E0.10454
G1 X-6.185 Y1.170 E0.01524
G1 X-3.460 Y-1.555 E0.11376
G1 X-3.412 Y-4.185 F15000.000
G1 X-6.185 Y-1.412 E0.11577 F2400.000
G1 X-6.185 Y-1.928 E0.01524
G1 X-3.928 Y-4.185 E0.09421
G1 X-4.444 Y-4.185 E0.01524
G1 X-6.185 Y-2.444 E0.07266
G1 X-6.185 Y-2.961 E0.01524
G1 X-4.961 Y-4.185 E0.05110
G1 X-5.477 Y-4.185 E0.01524
G1 X-6.185 Y-3.477 E0.02955
G1 X-6.185 Y-3.994 E0.01524
G1 X-5.994 Y-4.185 E0.00799
G1 X-2.895 Y-4.185 F15000.000
G1 X-6.185 Y-0.895 E0.13732 F2400.000
G1 X-6.185 Y-0.379 E0.01524
G1 X-2.379 Y-4.185 E0.15888
G1 X-1.862 Y-4.185 E0.01524
G1 X-6.185 Y0.138 E0.18043
G1 X-6.185 Y0.654 E0.01524
G1 X-1.346 Y-4.185 E0.20199
G1 X-0.830 Y-4.185 E0.01524
G1 X-1.569 Y-3.446 E0.03086
G1 X-0.826 Y-3.672 E0.02292
G1 X-0.673 Y-3.826 E0.00641
G1 X-0.479 Y-3.950 F15000.000
G1 X0.180 Y-3.971 E0.04038 F2400.000
G1 X0.526 Y-3.948 E0.02123
G1 X0.936 Y-4.185 F15000.000
G1 X0.743 Y-3.992 E0.00806 F2400.000
G1 X0.895 Y-3.628 E0.01166
G1 X1.453 Y-4.185 E0.02327
G1 X1.969 Y-4.185 E0.01525
G1 X1.289 Y-3.505 E0.02838
G1 X1.636 Y-3.336 E0.01140
G1 X2.485 Y-4.185 E0.03546
G1 X3.002 Y-4.185 E0.01525
G1 X1.983 Y-3.166 E0.04254
G1 X2.271 Y-2.938 E0.01085
G1 X3.518 Y-4.185 E0.05208
G1 X4.035 Y-4.185 E0.01525
G1 X2.553 Y-2.703 E0.06186
G1 X2.807 Y-2.441 E0.01078
G1 X4.551 Y-4.185 E0.07281
G1 X5.068 Y-4.185 E0.01525
G1 X3.036 Y-2.154 E0.08480
G1 X3.231 Y-1.831 E0.01111
G1 X5.584 Y-4.185 E0.09826
G1 X6.101 Y-4.185 E0.01525
G1 X3.425 Y-1.509 E0.11171
G1 X3.551 Y-1.119 E0.01211
G1 X6.185 Y-3.753 E0.10997
G1 X6.185 Y-3.237 E0.01525
G1 X3.674 Y-0.725 E0.10484
G1 X3.742 Y-0.277 E0.01338
G1 X6.185 Y-2.720 E0.10199
G1 X6.185 Y-2.204 E0.01525
G1 X3.773 Y0.208 E0.10068
G1 X3.688 Y0.810 E0.01795
G1 X6.185 Y-1.687 E0.10425
G1 X6.185 Y-1.171 E0.01525
G1 X3.463 Y1.551 E0.11365
G1 X1.574 Y3.440 F15000.000
G1 X0.829 Y4.185 E0.03111 F2400.000
G1 X1.346 Y4.185 E0.01525
G1 X6.185 Y-0.654 E0.20203
G1 X6.185 Y-0.138 E0.01525
G1 X1.862 Y4.185 E0.18047
G1 X2.378 Y4.185 E0.01525
G1 X6.185 Y0.378 E0.15891
G1 X6.185 Y0.895 E0.01525
G1 X2.895 Y4.185 E0.13735
G1 X3.411 Y4.185 E0.01525
G1 X6.185 Y1.411 E0.11579
G1 X6.185 Y1.928 E0.01525
G1 X3.928 Y4.185 E0.09423
G1 X4.444 Y4.185 E0.01525
G1 X6.185 Y2.444 E0.07267
G1 X6.185 Y2.961 E0.01525
G1 X4.961 Y4.185 E0.05111
G1 X5.477 Y4.185 E0.01525
G1 X6.185 Y3.477 E0.02955
G1 X6.185 Y3.994 E0.01525
G1 X5.994 Y4.185 E0.00799
G1 E-3.20000 F3000.00000
G1 Z0.900 F15000.000
G1 X2.838 Y2.222 F15000.000
G1 Z0.700 F15000.000
G1 E3.20000 F3000.00000
G1 X2.632 Y2.468 E0.00925 F2400.000
G1 X1.961 Y3.037 E0.02541
G1 X1.168 Y3.412 E0.02532
G1 X0.871 Y3.500 E0.00893
G1 X0.000 Y3.615 E0.02536
G1 X-0.871 Y3.500 E0.02536
G1 X-1.168 Y3.412 E0.00893
G1 X-1.961 Y3.037 E0.02532
G1 X-2.632 Y2.468 E0.02541
G1 X-2.832 Y2.232 E0.00893
G1 X-3.295 Y1.488 E0.02528
G1 X-3.551 Y0.644 E0.02545
G1 X-3.589 Y0.337 E0.00893
G1 X-3.575 Y-0.537 E0.02523
G1 X-3.332 Y-1.387 E0.02550
G1 X-3.197 Y-1.665 E0.00893
G1 X-2.712 Y-2.390 E0.02519
G1 X-2.046 Y-2.974 E0.02555
G1 X-1.781 Y-3.132 E0.00892
G1 X-0.982 Y-3.479 E0.02514
G1 X-0.116 Y-3.607 E0.02527
G1 X0.114 Y-3.607 E0.00663 F2400.000
G1 X0.874 Y-3.500 E0.02215
G1 X1.168 Y-3.412 E0.00885
G1 X1.961 Y-3.037 E0.02532
G1 X2.632 Y-2.468 E0.02541
G1 X2.832 Y-2.232 E0.00893
G1 X3.295 Y-1.488 E0.02528
G1 X3.550 Y-0.648 E0.02533
G1 X3.640 Y0.000 E0.01889
G1 X3.550 Y0.648 E0.01889
G1 X3.295 Y1.488 E0.02533
G1 X2.870 Y2.171 E0.02322
G1 X2.567 Y1.983 F15000.000
G1 X2.379 Y2.214 E0.00861 F2400.000
G1 X1.766 Y2.735 E0.02320
G1 X1.040 Y3.078 E0.02318
G1 X0.797 Y3.150 E0.00733
G1 X0.000 Y3.255 E0.02319
G1 X-0.797 Y3.150 E0.02319
G1 X-1.040 Y3.078 E0.00733
G1 X-1.766 Y2.735 E0.02318
G1 X-2.379 Y2.214 E0.02320
G1 X-2.543 Y2.021 E0.00733
G1 X-2.967 Y1.339 E0.02316
G1 X-3.200 Y0.570 E0.02322
G1 X-3.232 Y0.318 E0.00733
G1 X-3.219 Y-0.484 E0.02315
G1 X-2.998 Y-1.258 E0.02323
G1 X-2.886 Y-1.486 E0.00733
G1 X-2.441 Y-2.153 E0.02313
G1 X-1.836 Y-2.684 E0.02325
G1 X-1.618 Y-2.814 E0.00732
G1 X-0.883 Y-3.133 E0.02312
G1 X-0.089 Y-3.250 E0.02315
G1 X0.089 Y-3.250 E0.00515 F2400.000
G1 X0.797 Y-3.150 E0.02066
G1 X1.040 Y-3.078 E0.00730
G1 X1.766 Y-2.735 E0.02318
G1 X2.379 Y-2.214 E0.02320
G1 X2.543 Y-2.021 E0.00733
G1 X2.967 Y-1.339 E0.02316
G1 X3.200 Y-0.571 E0.02317
G1 X3.280 Y0.000 E0.01664
G1 X3.200 Y0.571 E0.01664
G1 X2.967 Y1.339 E0.02317
G1 X2.598 Y1.932 E0.02013
G1 X2.685 Y2.256 F15000.000
G1 X6.393 Y0.618 F15000.000
G1 X6.393 Y4.393 E0.10897 F2400.000
G1 X-6.393 Y4.393 E0.36903 F2400.000
G1 X-6.393 Y-4.393 E0.25358
G1 X6.393 Y-4.393 E0.36903
G1 X6.393 Y0.558 E0.14288
G1 X6.750 Y0.558 F15000.000
G1 X6.750 Y4.750 E0.12101 F2400.000
G1 X-6.750 Y4.750 E0.38965 F2400.000
G1 X-6.750 Y-4.750 E0.27420
G1 X6.750 Y-4.750 E0.38965
G1 X6.750 Y0.498 E0.15146
G1 X6.404 Y0.758 F15000.000
G1 X3.563 Y1.256 F15000.000
G1 X6.185 Y2.808 E0.08795 F2400.000
G1 X6.185 Y1.536 E0.03672
G1 X3.702 Y-0.947 E0.10134
G1 X6.185 Y-3.514 F15000.000
G1 X5.514 Y-4.185 E0.02739 F2400.000
G1 X6.185 Y-1.149 E0.08976
G1 X1.001 Y-4.153 E0.17294
G1 E-3.20000 F3000.00000
G1 Z1.100 F15000.000
G1 X2.452 Y2.852 F15000.000
G1 Z0.700 F15000.000
G1 E3.20000 F3000.00000
G1 X3.785 Y4.185 E0.05440 F2400.000
G1 X1.636 Y4.185 E0.06202
G1 X0.974 Y3.744 E0.02294
G1 X0.775 Y3.955 F15000.000
G1 X0.027 Y4.004 E0.04583 F2400.000
G1 X-0.775 Y3.955 E0.04919
G1 X-3.790 Y4.185 F15000.000
G1 X-6.185 Y1.790 E0.09776 F2400.000
G1 X-6.185 Y0.084 E0.04925
G1 X-3.488 Y1.655 E0.09010
G1 X-3.704 Y-0.778 F15000.000
G1 X-6.185 Y-3.260 E0.10129 F2400.000
G1 X-6.185 Y-3.849 E0.01700
G1 X-3.134 Y-2.080 E0.10180
G1 X-2.061 Y-4.185 E0.06818
G1 X-1.382 Y-3.506 E0.02772
G1 X-0.824 Y-3.950 F15000.000
G1 X-0.129 Y-4.000 E0.04265 F2400.000
G1 X0.157 Y-3.999 E0.01749
G1 X0.775 Y-3.956 E0.03792
M106 S255
G1 E-3.20000 F3000.00000
G1 Z1.100 F15000.000
G1 X0.717 Y-3.563 F15000.000
G1 Z0.900 F15000.000
G1 E3.20000 F3000.00000
G1 X1.065 Y-3.512 E0.01013 F2400.000
G1 X1.987 Y-3.088 E0.02930
G1 X2.755 Y-2.425 E0.02929
G1 X3.349 Y-1.503 E0.03163
G1 X3.624 Y-0.566 E0.02821
G1 X3.662 Y0.000 E0.01636
G1 X3.624 Y0.566 E0.01636
G1 X3.349 Y1.502 E0.02817
G1 X2.771 Y2.409 E0.03106
G1 X1.987 Y3.087 E0.02991
G1 X1.066 Y3.512 E0.02928
G1 X0.000 Y3.672 E0.03111
G1 X-1.066 Y3.512 E0.03111
G1 X-1.987 Y3.088 E0.02926
G1 X-2.754 Y2.426 E0.02926
G1 X-3.342 Y1.521 E0.03113
G1 X-3.637 Y0.485 E0.03109
G1 X-3.633 Y-0.529 E0.02926
G1 X-3.349 Y-1.502 E0.02926
G1 X-2.769 Y-2.412 E0.03115
G1 X-1.949 Y-3.108 E0.03107
G1 X-1.025 Y-3.525 E0.02927
G1 X-0.020 Y-3.671 E0.02931 F2400.000
G1 X0.658 Y-3.572 E0.01977
G1 X0.606 Y-3.218 F15000.000
G1 X0.962 Y-3.166 E0.01038 F2400.000
G1 X1.792 Y-2.784 E0.02636
G1 X2.483 Y-2.188 E0.02635
G1 X3.021 Y-1.353 E0.02865
