; generated by Slic3r 1.2.9 on 2017-06-05 at 16:38:19

; external perimeters extrusion width = 0.40mm
; perimeters extrusion width = 0.40mm
; infill extrusion width = 0.40mm
; solid infill extrusion width = 0.40mm
; top infill extrusion width = 0.40mm

M107
M83
T0
M116
G21 ; set units to millimeters
G90 ; use absolute coordinates
M83 ; use relative distances for extrusion
G1 E-3.20000 F3000.00000
G1 Z0.400 F15000.000
G1 X0.000 Y8.586 F15000.000
G1 Z0.300 F15000.000
G1 E3.20000 F3000.00000
G1 X-6.950 Y8.586 E0.53561 F2400.000
G1 X-8.597 Y8.191 E0.13052
G1 X-9.887 Y7.093 E0.13052
G1 X-10.586 Y4.950 E0.17373
G1 X-10.586 Y-4.950 E0.76295
G1 X-10.191 Y-6.597 E0.13052
G1 X-9.093 Y-7.887 E0.13052
G1 X-6.950 Y-8.586 E0.17373
G1 X6.950 Y-8.586 E1.07121
G1 X8.597 Y-8.191 E0.13052
G1 X9.887 Y-7.093 E0.13052 F2400.000
G1 X10.586 Y-4.950 E0.17373
G1 X10.586 Y4.950 E0.76295
G1 X10.191 Y6.597 E0.13052
G1 X9.093 Y7.887 E0.13052
G1 X6.950 Y8.586 E0.17373
G1 X0.060 Y8.586 E0.53098
G1 E-3.20000 F3000.00000
G1 Z0.700 F15000.000
G1 X0.151 Y3.536 F15000.000
G1 Z0.300 F15000.000
G1 E3.20000 F3000.00000
G1 X-0.431 Y3.511 E0.04491 F2400.000
G1 X-0.769 Y3.453 E0.02640
G1 X-1.300 Y3.291 E0.04278
G1 X-1.864 Y3.009 E0.04860
G1 X-2.348 Y2.648 E0.04658
G1 X-2.731 Y2.248 E0.04261
G1 X-2.935 Y1.974 E0.02634
G1 X-3.221 Y1.466 E0.04492
G1 X-3.425 Y0.894 E0.04681
G1 X-3.527 Y0.274 E0.04846
G1 X-3.527 Y-0.251 E0.04042
G1 X-3.487 Y-0.589 E0.02628
G1 X-3.336 Y-1.183 E0.04722
G1 X-3.093 Y-1.717 E0.04517
G1 X-2.913 Y-2.007 E0.02635
G1 X-2.565 Y-2.438 E0.04261
G1 X-2.114 Y-2.839 E0.04656
G1 X-1.576 Y-3.168 E0.04861
G1 X-1.060 Y-3.375 E0.04278
G1 X-0.729 Y-3.462 E0.02639
G1 X-0.151 Y-3.536 E0.04492 F2400.000
G1 X0.431 Y-3.511 E0.04491
G1 X0.769 Y-3.453 E0.02640
G1 X1.300 Y-3.291 E0.04278
G1 X1.864 Y-3.009 E0.04860
G1 X2.348 Y-2.648 E0.04658
G1 X2.731 Y-2.248 E0.04261
G1 X2.935 Y-1.974 E0.02634
G1 X3.221 Y-1.466 E0.04492
G1 X3.425 Y-0.894 E0.04681
G1 X3.527 Y-0.274 E0.04846
G1 X3.527 Y0.251 E0.04042
G1 X3.487 Y0.589 E0.02628
G1 X3.336 Y1.183 E0.04722
G1 X3.093 Y1.717 E0.04517
G1 X2.913 Y2.007 E0.02635
G1 X2.565 Y2.438 E0.04261
G1 X2.114 Y2.839 E0.04656
G1 X1.576 Y3.168 E0.04861
G1 X1.060 Y3.375 E0.04279
G1 X0.729 Y3.462 E0.02639
G1 X0.211 Y3.528 E0.04030
G1 X0.129 Y2.898 F15000.000
G1 X-0.363 Y2.878 E0.03799 F2400.000
G1 X-0.622 Y2.833 E0.02020
G1 X-1.063 Y2.699 E0.03558
G1 X-1.529 Y2.466 E0.04012
G1 X-1.926 Y2.170 E0.03817
G1 X-2.245 Y1.837 E0.03553
G1 X-2.401 Y1.627 E0.02018
G1 X-2.641 Y1.202 E0.03758
G1 X-2.807 Y0.734 E0.03825
G1 X-2.892 Y0.221 E0.04007
G1 X-2.892 Y-0.213 E0.03350
G1 X-2.861 Y-0.473 E0.02015
G1 X-2.734 Y-0.971 E0.03963
G1 X-2.531 Y-1.416 E0.03767
G1 X-2.393 Y-1.639 E0.02018
G1 X-2.104 Y-1.997 E0.03553
G1 X-1.734 Y-2.326 E0.03816
G1 X-1.290 Y-2.598 E0.04012
G1 X-0.861 Y-2.770 E0.03559
G1 X-0.608 Y-2.836 E0.02020
G1 X-0.124 Y-2.899 E0.03758 F2400.000
G1 X0.363 Y-2.878 E0.03757
G1 X0.622 Y-2.833 E0.02020
G1 X1.063 Y-2.699 E0.03558
G1 X1.529 Y-2.466 E0.04012
G1 X1.926 Y-2.170 E0.03817
G1 X2.245 Y-1.837 E0.03553
G1 X2.401 Y-1.627 E0.02018
G1 X2.641 Y-1.202 E0.03758
G1 X2.807 Y-0.734 E0.03825
G1 X2.892 Y-0.221 E0.04007
G1 X2.892 Y0.213 E0.03350
G1 X2.861 Y0.473 E0.02015
G1 X2.734 Y0.971 E0.03963
G1 X2.531 Y1.416 E0.03767
G1 X2.393 Y1.639 E0.02018
G1 X2.104 Y1.997 E0.03553
G1 X1.734 Y2.326 E0.03816
G1 X1.290 Y2.598 E0.04012
G1 X0.861 Y2.770 E0.03559
G1 X0.608 Y2.836 E0.02019
G1 X0.189 Y2.890 E0.03253
G1 X-0.065 Y3.247 F15000.000
G1 E-3.20000 F3000.00000
G1 Z0.700 F15000.000
G1 X-0.239 Y-3.964 F15000.000
G1 Z0.300 F15000.000
G1 E3.20000 F3000.00000
G1 X5.964 Y-3.964 E0.47809 F2400.000
G1 X5.964 Y3.964 E0.61103
G1 X-5.964 Y3.964 E0.91930 F2400.000
G1 X-5.964 Y-3.964 E0.61103
G1 X-0.299 Y-3.964 E0.43658
G1 X-0.299 Y-4.600 F15000.000
G1 X6.600 Y-4.600 E0.53170 F2400.000
G1 X6.600 Y4.600 E0.70900
G1 X-6.600 Y4.600 E1.01726 F2400.000
G1 X-6.600 Y-4.600 E0.70900
G1 X-0.359 Y-4.600 E0.48094
G1 X-0.099 Y-4.254 F15000.000
G1 X-2.043 Y-3.275 F15000.000
G1 X-2.347 Y-3.579 E0.03380 F2400.000
G1 X-2.564 Y-2.880 E0.05752
G1 X-3.264 Y-3.579 E0.07769
G1 X-4.180 Y-3.579 E0.07199
G1 X-3.012 Y-2.411 E0.12979
G1 X-3.390 Y-1.873 E0.05167
G1 X-5.096 Y-3.579 E0.18959
G1 X-5.579 Y-3.145 E0.05098
G1 X-3.682 Y-1.248 E0.21078
G1 X-3.869 Y-0.519 E0.05915
G1 X-5.579 Y-2.229 E0.19000
G1 X-5.579 Y-1.312 E0.07199
G1 X-3.913 Y0.354 E0.18510
G1 X-3.670 Y1.513 E0.09306
G1 X-5.579 Y-0.396 E0.21210
G1 X-5.579 Y0.520 E0.07199
G1 X-2.520 Y3.579 E0.33983
G1 X-3.437 Y3.579 E0.07199
G1 X-5.579 Y1.437 E0.23802
G1 X-5.579 Y2.353 E0.07199
G1 X-4.353 Y3.579 E0.13621
G1 X-5.269 Y3.579 E0.07199
G1 X-5.579 Y3.269 E0.03440
G1 X2.347 Y3.579 F15000.000
G1 X2.043 Y3.275 E0.03380 F2400.000
G1 X2.564 Y2.880 E0.05138
G1 X3.264 Y3.579 E0.07769
G1 X4.180 Y3.579 E0.07199
G1 X3.012 Y2.411 E0.12979
G1 X3.390 Y1.873 E0.05167
G1 X5.096 Y3.579 E0.18959
G1 X5.579 Y3.145 E0.05098
G1 X3.682 Y1.248 E0.21078
G1 X3.869 Y0.519 E0.05915
G1 X5.579 Y2.229 E0.19000
G1 X5.579 Y1.312 E0.07199
G1 X3.913 Y-0.354 E0.18510
G1 X3.670 Y-1.513 E0.09306
G1 X5.579 Y0.396 E0.21210
G1 X5.579 Y-0.520 E0.07199
G1 X2.520 Y-3.579 E0.33983
G1 X3.437 Y-3.579 E0.07199
G1 X5.579 Y-1.437 E0.23802
G1 X5.579 Y-2.353 E0.07199
G1 X4.353 Y-3.579 E0.13621
G1 X5.269 Y-3.579 E0.07199
G1 X5.579 Y-3.269 E0.03440
G1 E-3.20000 F3000.00000
G1 Z0.700 F15000.000
G1 X2.788 Y-1.604 F15000.000
G1 Z0.500 F15000.000
G1 E3.20000 F3000.00000
G1 X2.937 Y-1.353 E0.00842 F2400.000
G1 X3.022 Y-1.144 E0.00651
G1 X3.190 Y-0.535 E0.01824
G1 X3.251 Y0.000 E0.01554
G1 X3.190 Y0.535 E0.01554
G1 X3.022 Y1.144 E0.01824
G1 X2.937 Y1.353 E0.00651
G1 X2.609 Y1.904 E0.01849
G1 X2.365 Y2.206 E0.01120
G1 X1.874 Y2.635 E0.01883
G1 X1.549 Y2.835 E0.01101
G1 X0.948 Y3.092 E0.01886
G1 X0.736 Y3.147 E0.00634
G1 X0.101 Y3.233 E0.01849
G1 X-0.276 Y3.217 E0.01090
G1 X-0.926 Y3.099 E0.01905
G1 X-1.130 Y3.026 E0.00625
G1 X-1.716 Y2.744 E0.01877
G1 X-2.230 Y2.334 E0.01899
G1 X-2.489 Y2.065 E0.01076
G1 X-2.615 Y1.893 E0.00615
G1 X-2.947 Y1.337 E0.01870
G1 X-3.148 Y0.720 E0.01872
G1 X-3.193 Y0.511 E0.00619
G1 X-3.225 Y0.140 E0.01073
G1 X-3.195 Y-0.516 E0.01896
G1 X-3.022 Y-1.144 E0.01880
G1 X-2.940 Y-1.346 E0.00628
G1 X-2.603 Y-1.911 E0.01899
G1 X-2.365 Y-2.206 E0.01094
G1 X-1.874 Y-2.635 E0.01883
G1 X-1.549 Y-2.835 E0.01101
G1 X-0.948 Y-3.092 E0.01886
G1 X-0.736 Y-3.147 E0.00634
G1 X-0.101 Y-3.233 E0.01849 F2400.000
G1 X0.276 Y-3.217 E0.01090
G1 X0.926 Y-3.099 E0.01905
G1 X1.130 Y-3.026 E0.00625
G1 X1.707 Y-2.748 E0.01848
G1 X2.011 Y-2.523 E0.01093
G1 X2.368 Y-2.203 E0.01384
G1 X2.609 Y-1.904 E0.01109
G1 X2.757 Y-1.656 E0.00834
G1 X2.451 Y-1.473 F15000.000
G1 X2.617 Y-1.194 E0.00935 F2400.000
G1 X2.683 Y-1.030 E0.00512
G1 X2.838 Y-0.467 E0.01685
G1 X2.891 Y0.000 E0.01356
G1 X2.838 Y0.467 E0.01356
G1 X2.683 Y1.030 E0.01685
G1 X2.617 Y1.194 E0.00512
G1 X2.315 Y1.699 E0.01696
G1 X2.107 Y1.957 E0.00958
G1 X1.661 Y2.346 E0.01708
G1 X1.381 Y2.519 E0.00952
G1 X0.836 Y2.752 E0.01708
G1 X0.667 Y2.796 E0.00506
G1 X0.085 Y2.875 E0.01695
G1 X-0.243 Y2.861 E0.00947
G1 X-0.828 Y2.754 E0.01716
G1 X-0.992 Y2.696 E0.00503
G1 X-1.525 Y2.440 E0.01705
G1 X-1.989 Y2.070 E0.01714
G1 X-2.215 Y1.834 E0.00941
G1 X-2.318 Y1.695 E0.00499
G1 X-2.620 Y1.189 E0.01703
G1 X-2.803 Y0.627 E0.01704
G1 X-2.839 Y0.458 E0.00500
G1 X-2.867 Y0.133 E0.00940
G1 X-2.840 Y-0.460 E0.01713
G1 X-2.683 Y-1.030 E0.01707
G1 X-2.618 Y-1.192 E0.00504
G1 X-2.313 Y-1.702 E0.01714
G1 X-2.107 Y-1.957 E0.00948
G1 X-1.661 Y-2.346 E0.01708
G1 X-1.381 Y-2.519 E0.00952
G1 X-0.836 Y-2.752 E0.01708
G1 X-0.667 Y-2.796 E0.00506
G1 X-0.085 Y-2.875 E0.01695 F2400.000
G1 X0.243 Y-2.861 E0.00947
G1 X0.828 Y-2.754 E0.01716
G1 X0.992 Y-2.696 E0.00503
G1 X1.521 Y-2.441 E0.01695
G1 X1.785 Y-2.246 E0.00947
G1 X2.108 Y-1.956 E0.01252
G1 X2.315 Y-1.699 E0.00954
G1 X2.420 Y-1.524 E0.00588
G1 X2.774 Y-1.477 F15000.000
G1 X6.393 Y0.278 F15000.000
G1 X6.393 Y4.393 E0.11878 F2400.000
G1 X-6.393 Y4.393 E0.36903 F2400.000
G1 X-6.393 Y-4.393 E0.25358
G1 X6.393 Y-4.393 E0.36903
G1 X6.393 Y0.218 E0.13307
G1 X6.750 Y0.218 F15000.000
G1 X6.750 Y4.750 E0.13082 F2400.000
G1 X-6.750 Y4.750 E0.38965 F2400.000
G1 X-6.750 Y-4.750 E0.27420
G1 X6.750 Y-4.750 E0.38965
G1 X6.750 Y0.158 E0.14165
G1 X6.404 Y0.418 F15000.000
G1 X5.994 Y4.185 F15000.000
G1 X6.185 Y3.994 E0.00788 F2400.000
G1 X6.185 Y3.485 E0.01480
G1 X5.485 Y4.185 E0.02881
G1 X4.976 Y4.185 E0.01480
G1 X6.185 Y2.976 E0.04975
G1 X6.185 Y2.467 E0.01480
G1 X4.467 Y4.185 E0.07069
G1 X3.958 Y4.185 E0.01480
G1 X6.185 Y1.958 E0.09162
G1 X6.185 Y1.449 E0.01480
G1 X3.449 Y4.185 E0.11256
G1 X2.940 Y4.185 E0.01480
G1 X6.185 Y0.940 E0.13350
G1 X6.185 Y0.431 E0.01480
G1 X2.431 Y4.185 E0.15444
G1 X1.922 Y4.185 E0.01480
G1 X6.185 Y-0.078 E0.17537
G1 X6.185 Y-0.587 E0.01480
G1 X1.413 Y4.185 E0.19631
G1 X0.904 Y4.185 E0.01480
G1 X6.185 Y-1.096 E0.21725
G1 X6.185 Y-1.605 E0.01480
G1 X3.178 Y1.403 E0.12371
G1 X3.388 Y0.684 E0.02178
G1 X6.185 Y-2.114 E0.11508
G1 X6.185 Y-2.623 E0.01480
G1 X3.457 Y0.106 E0.11224
G1 X3.411 Y-0.357 E0.01353
G1 X6.185 Y-3.132 E0.11413
G1 X6.185 Y-3.640 E0.01480
G1 X3.321 Y-0.776 E0.11784
G1 X3.209 Y-1.173 E0.01201
G1 X6.183 Y-4.147 E0.12234
G1 X5.712 Y-4.185 E0.01375
G1 X3.047 Y-1.520 E0.10963
G1 X2.857 Y-1.839 E0.01080
G1 X5.203 Y-4.185 E0.09652
G1 X4.694 Y-4.185 E0.01480
G1 X2.647 Y-2.138 E0.08421
G1 X2.406 Y-2.406 E0.01048
G1 X4.185 Y-4.185 E0.07320
G1 X3.676 Y-4.185 E0.01480
G1 X2.138 Y-2.647 E0.06329
G1 X1.847 Y-2.865 E0.01057
G1 X3.167 Y-4.185 E0.05430
G1 X2.658 Y-4.185 E0.01480
G1 X1.516 Y-3.043 E0.04700
G1 X1.172 Y-3.208 E0.01109
G1 X2.149 Y-4.185 E0.04019
G1 X1.640 Y-4.185 E0.01480
G1 X0.783 Y-3.327 E0.03529
G1 X0.352 Y-3.406 E0.01273
G1 X1.131 Y-4.185 E0.03207
G1 X0.623 Y-4.185 E0.01480
G1 X-0.124 Y-3.439 E0.03071
G1 X-0.699 Y-3.372 E0.01684
G1 X0.114 Y-4.185 E0.03343
G1 X-0.395 Y-4.185 E0.01480
G1 X-1.417 Y-3.164 E0.04202
G1 X-1.413 Y-4.185 F15000.000
G1 X-6.185 Y0.587 E0.19631 F2400.000
G1 X-6.185 Y0.078 E0.01480
G1 X-1.922 Y-4.185 E0.17537
G1 X-2.431 Y-4.185 E0.01480
G1 X-6.185 Y-0.431 E0.15443
G1 X-6.185 Y-0.940 E0.01480
G1 X-2.940 Y-4.185 E0.13350
G1 X-3.449 Y-4.185 E0.01480
G1 X-6.185 Y-1.449 E0.11256
G1 X-6.185 Y-1.958 E0.01480
G1 X-3.958 Y-4.185 E0.09162
G1 X-4.467 Y-4.185 E0.01480
G1 X-6.185 Y-2.467 E0.07069
G1 X-6.185 Y-2.976 E0.01480
G1 X-4.976 Y-4.185 E0.04975
G1 X-5.485 Y-4.185 E0.01480
G1 X-6.185 Y-3.485 E0.02881
G1 X-6.185 Y-3.994 E0.01480
G1 X-5.994 Y-4.185 E0.00788
G1 X-3.178 Y-1.403 F15000.000
G1 X-6.185 Y1.605 E0.12371 F2400.000
G1 X-6.185 Y2.114 E0.01480
G1 X-3.388 Y-0.684 E0.11509
G1 X-3.423 Y-0.139 E0.01588
G1 X-6.185 Y2.623 E0.11361
G1 X-6.185 Y3.131 E0.01480
G1 X-3.409 Y0.355 E0.11422
G1 X-3.326 Y0.781 E0.01263
G1 X-6.185 Y3.640 E0.11762
G1 X-6.183 Y4.147 E0.01474
G1 X-3.201 Y1.165 E0.12268
G1 X-3.047 Y1.520 E0.01126
G1 X-5.712 Y4.185 E0.10963
G1 X-5.203 Y4.185 E0.01480
G1 X-2.857 Y1.839 E0.09652
G1 X-2.652 Y2.143 E0.01066
G1 X-4.694 Y4.185 E0.08402
G1 X-4.185 Y4.185 E0.01480
G1 X-2.406 Y2.406 E0.07319
G1 X-2.131 Y2.640 E0.01050
G1 X-3.676 Y4.185 E0.06358
G1 X-3.167 Y4.185 E0.01480
G1 X-1.848 Y2.865 E0.05429
G1 X-1.516 Y3.043 E0.01094
G1 X-2.658 Y4.185 E0.04700
G1 X-2.149 Y4.185 E0.01480
G1 X-1.173 Y3.208 E0.04019
G1 X-0.783 Y3.327 E0.01186
G1 X-1.640 Y4.185 E0.03529
G1 X-1.132 Y4.185 E0.01480
G1 X-0.352 Y3.406 E0.03207
G1 X0.124 Y3.439 E0.01388
G1 X-0.623 Y4.185 E0.03071
G1 X-0.114 Y4.185 E0.01480
G1 X0.699 Y3.372 E0.03343
G1 X1.417 Y3.164 E0.02175
G1 X0.395 Y4.185 E0.04202
G1 X-6.185 Y1.096 F15000.000
G1 X-0.904 Y-4.185 E0.21724 F2400.000
G1 E-3.20000 F3000.00000
G1 Z0.900 F15000.000
G1 X-0.773 Y-3.244 F15000.000
G1 Z0.700 F15000.000
G1 E3.20000 F3000.00000
G1 X-0.074 Y-3.341 E0.02038 F2400.000
G1 X0.192 Y-3.330 E0.00767
G1 X0.725 Y-3.253 E0.01554
G1 X1.076 Y-3.162 E0.01047
G1 X1.790 Y-2.826 E0.02279
G1 X2.466 Y-2.255 E0.02554
G1 X2.636 Y-2.045 E0.00781
G1 X2.928 Y-1.592 E0.01554
G1 X3.089 Y-1.271 E0.01036
G1 X3.276 Y-0.639 E0.01903
G1 X3.374 Y-0.000 E0.01866
G1 X3.276 Y0.639 E0.01866
G1 X3.089 Y1.271 E0.01903
G1 X2.928 Y1.592 E0.01036
G1 X2.636 Y2.045 E0.01554
G1 X2.466 Y2.255 E0.00781
G1 X1.791 Y2.826 E0.02552
G1 X1.181 Y3.114 E0.01946
G1 X0.838 Y3.235 E0.01051
G1 X0.074 Y3.341 E0.02227
G1 X-0.192 Y3.330 E0.00767
G1 X-0.725 Y3.253 E0.01554
G1 X-1.076 Y3.162 E0.01047
G1 X-1.788 Y2.827 E0.02272
G1 X-2.388 Y2.329 E0.02251
G1 X-2.633 Y2.051 E0.01070
G1 X-3.045 Y1.385 E0.02259
G1 X-3.277 Y0.636 E0.02263
G1 X-3.324 Y0.269 E0.01070
G1 X-3.306 Y-0.510 E0.02247
G1 X-3.090 Y-1.268 E0.02276
G1 X-2.928 Y-1.592 E0.01045
G1 X-2.636 Y-2.045 E0.01554
G1 X-2.466 Y-2.255 E0.00781
G1 X-1.791 Y-2.826 E0.02552
G1 X-1.181 Y-3.114 E0.01946
G1 X-0.838 Y-3.235 E0.01051
G1 X-0.833 Y-3.236 E0.00016 F2400.000
G1 X-0.753 Y-2.886 F15000.000
G1 X-0.057 Y-2.983 E0.02029 F2400.000
G1 X0.159 Y-2.974 E0.00622
G1 X0.654 Y-2.903 E0.01444
G1 X0.954 Y-2.825 E0.00894
G1 X1.596 Y-2.523 E0.02048
G1 X2.210 Y-2.004 E0.02320
G1 X2.346 Y-1.835 E0.00627
G1 X2.617 Y-1.414 E0.01444
G1 X2.756 Y-1.139 E0.00890
G1 X2.927 Y-0.561 E0.01740
G1 X3.012 Y-0.000 E0.01638
G1 X2.927 Y0.561 E0.01638
G1 X2.756 Y1.139 E0.01740
G1 X2.617 Y1.414 E0.00890
G1 X2.346 Y1.835 E0.01444
G1 X2.210 Y2.004 E0.00627
G1 X1.596 Y2.523 E0.02319
G1 X1.045 Y2.783 E0.01758
G1 X0.753 Y2.886 E0.00894
G1 X0.057 Y2.983 E0.02029
G1 X-0.159 Y2.974 E0.00622
G1 X-0.654 Y2.903 E0.01444
G1 X-0.954 Y2.825 E0.00894
G1 X-1.595 Y2.523 E0.02046
G1 X-2.139 Y2.072 E0.02039
G1 X-2.345 Y1.838 E0.00902
G1 X-2.717 Y1.236 E0.02042
G1 X-2.927 Y0.560 E0.02043
G1 X-2.967 Y0.250 E0.00902
G1 X-2.950 Y-0.456 E0.02038
G1 X-2.756 Y-1.138 E0.02047
G1 X-2.617 Y-1.414 E0.00893
G1 X-2.346 Y-1.835 E0.01444
G1 X-2.210 Y-2.004 E0.00627
G1 X-1.596 Y-2.523 E0.02319
G1 X-1.045 Y-2.783 E0.01758
G1 X-0.810 Y-2.866 E0.00721
G1 X-0.628 Y-3.266 F15000.000
G1 X1.919 Y-4.393 F15000.000
G1 X6.393 Y-4.393 E0.12914 F2400.000
G1 X6.393 Y4.393 E0.25358
G1 X-6.393 Y4.393 E0.36903 F2400.000
G1 X-6.393 Y-4.393 E0.25358
G1 X1.859 Y-4.393 E0.23816
G1 X1.859 Y-4.750 F15000.000
G1 X6.750 Y-4.750 E0.14118 F2400.000
G1 X6.750 Y4.750 E0.27420
G1 X-6.750 Y4.750 E0.38965 F2400.000
G1 X-6.750 Y-4.750 E0.27420
G1 X1.799 Y-4.750 E0.24674
G1 X2.059 Y-4.404 F15000.000
G1 X3.311 Y-1.338 F15000.000
G1 X6.185 Y1.536 E0.11730 F2400.000
G1 X6.185 Y2.595 E0.03056
G1 X3.462 Y0.676 E0.09614
G1 X2.260 Y2.661 F15000.000
G1 X3.785 Y4.185 E0.06223 F2400.000
G1 X2.300 Y4.185 E0.04284
G1 X1.127 Y3.331 E0.04189
G1 X-1.265 Y4.185 E0.07331
G1 X-6.185 Y-0.735 E0.20082
G1 X-6.185 Y-1.694 E0.02769
G1 X-3.528 Y0.179 E0.09383
G1 X-2.677 Y-2.276 F15000.000
G1 X-4.586 Y-4.185 E0.07791 F2400.000
G1 X-3.611 Y-4.185 E0.02813
G1 X-1.902 Y-2.963 E0.06064
G1 X0.464 Y-4.185 E0.07686
G1 X1.337 Y-3.312 E0.03564
G1 X2.588 Y-4.185 E0.04402
G1 X6.185 Y-1.665 E0.12676
G1 X5.514 Y-4.185 E0.07526
G1 X6.185 Y-3.514 E0.02739
G1 E-3.20000 F3000.00000
G1 Z1.100 F15000.000
G1 X-3.898 Y4.185 F15000.000
G1 Z0.700 F15000.000
G1 E3.20000 F3000.00000
G1 X-6.185 Y2.566 E0.08087 F2400.000
M106 S255
G1 E-3.20000 F3000.00000
G1 Z1.100 F15000.000
G1 X-3.143 Y1.433 F15000.000
G1 Z0.900 F15000.000
G1 E3.20000 F3000.00000
G1 X-3.399 Y0.576 E0.02583 F2400.000
G1 X-3.424 Y0.383 E0.00561
G1 X-3.417 Y-0.508 E0.02573
G1 X-3.124 Y-1.470 E0.02900
G1 X-2.621 Y-2.249 E0.02676
G1 X-1.957 Y-2.835 E0.02558
G1 X-1.796 Y-2.944 E0.00561
G1 X-0.978 Y-3.313 E0.02590
G1 X-0.018 Y-3.454 E0.02800 F2400.000
G1 X1.016 Y-3.300 E0.03018
G1 X1.860 Y-2.910 E0.02682
G1 X2.596 Y-2.279 E0.02799
G1 X3.157 Y-1.398 E0.03015
G1 X3.397 Y-0.582 E0.02453
G1 X3.444 Y-0.287 E0.00863
G1 X3.444 Y0.287 E0.01657
G1 X3.397 Y0.582 E0.00863
G1 X3.157 Y1.398 E0.02453
G1 X2.596 Y2.279 E0.03015
G1 X1.860 Y2.910 E0.02799
G1 X1.086 Y3.267 E0.02460
G1 X0.869 Y3.334 E0.00656
G1 X0.016 Y3.454 E0.02485
G1 X-1.016 Y3.300 E0.03013
G1 X-1.859 Y2.911 E0.02680
G1 X-2.536 Y2.333 E0.02568
G1 X-2.664 Y2.187 E0.00561
G1 X-3.110 Y1.484 E0.02405
G1 X-2.809 Y1.292 F15000.000
G1 X-3.049 Y0.501 E0.02386 F2400.000
G1 X-3.067 Y0.362 E0.00406
G1 X-3.060 Y-0.454 E0.02354
G1 X-2.797 Y-1.318 E0.02607
G1 X-2.348 Y-2.013 E0.02389
