; generated by Slic3r 1.2.9 on 2017-06-05 at 16:48:57

; external perimeters extrusion width = 0.40mm
; perimeters extrusion width = 0.40mm
; infill extrusion width = 0.40mm
; solid infill extrusion width = 0.40mm
; top infill extrusion width = 0.40mm

M107
M83
T0
M116
G21 ; set units to millimeters
G90 ; use absolute coordinates
M83 ; use relative distances for extrusion
G1 E-3.20000 F3000.00000
G1 Z0.400 F15000.000
G1 X0.000 Y8.586 F15000.000
G1 Z0.300 F15000.000
G1 E3.20000 F3000.00000
G1 X-6.950 Y8.586 E0.53561 F2400.000
G1 X-8.597 Y8.191 E0.13052
G1 X-9.887 Y7.093 E0.13052
G1 X-10.586 Y4.950 E0.17373
G1 X-10.586 Y-4.950 E0.76295
G1 X-10.191 Y-6.597 E0.13052
G1 X-9.093 Y-7.887 E0.13052
G1 X-6.950 Y-8.586 E0.17373
G1 X6.950 Y-8.586 E1.07121
G1 X8.597 Y-8.191 E0.13052
G1 X9.887 Y-7.093 E0.13052 F2400.000
G1 X10.586 Y-4.950 E0.17373
G1 X10.586 Y4.950 E0.76295
G1 X10.191 Y6.597 E0.13052
G1 X9.093 Y7.887 E0.13052
G1 X6.950 Y8.586 E0.17373
G1 X0.060 Y8.586 E0.53098
G1 E-3.20000 F3000.00000
G1 Z0.700 F15000.000
G1 X0.060 Y3.167 F15000.000
G1 Z0.300 F15000.000
G1 E3.20000 F3000.00000
G1 X-0.116 Y3.167 E0.01358 F2400.000
G1 X-0.499 Y3.125 E0.02967
G1 X-0.915 Y3.035 E0.03282
G1 X-1.138 Y2.956 E0.01822
G1 X-1.673 Y2.694 E0.04592
G1 X-2.149 Y2.325 E0.04639
G1 X-2.450 Y2.011 E0.03349
G1 X-2.589 Y1.823 E0.01810
G1 X-2.888 Y1.308 E0.04585
G1 X-3.078 Y0.744 E0.04587
G1 X-3.128 Y0.514 E0.01814
G1 X-3.164 Y0.088 E0.03294
G1 X-3.155 Y-0.296 E0.02964
G1 X-3.125 Y-0.530 E0.01817
G1 X-2.973 Y-1.095 E0.04504
G1 X-2.885 Y-1.314 E0.01825
G1 X-2.677 Y-1.685 E0.03276
G1 X-2.457 Y-2.002 E0.02968
G1 X-2.301 Y-2.179 E0.01822
G1 X-1.862 Y-2.564 E0.04505
G1 X-1.665 Y-2.697 E0.01826
G1 X-1.322 Y-2.873 E0.02970
G1 X-0.929 Y-3.031 E0.03263
G1 X-0.699 Y-3.090 E0.01831
G1 X-0.120 Y-3.167 E0.04505
G1 X0.116 Y-3.167 E0.01821 F2400.000
G1 X0.499 Y-3.125 E0.02967
G1 X0.915 Y-3.035 E0.03282
G1 X1.138 Y-2.956 E0.01822
G1 X1.669 Y-2.695 E0.04561
G1 X2.020 Y-2.436 E0.03360
G1 X2.304 Y-2.176 E0.02966
G1 X2.457 Y-2.002 E0.01792
G1 X2.677 Y-1.685 E0.02968
G1 X2.885 Y-1.314 E0.03276
G1 X2.973 Y-1.095 E0.01825
G1 X3.126 Y-0.526 E0.04536
G1 X3.180 Y0.000 E0.04076
G1 X3.126 Y0.526 E0.04076
G1 X2.973 Y1.095 E0.04536
G1 X2.885 Y1.314 E0.01825
G1 X2.677 Y1.685 E0.03276
G1 X2.457 Y2.002 E0.02968
G1 X2.301 Y2.179 E0.01822
G1 X1.862 Y2.564 E0.04505
G1 X1.665 Y2.697 E0.01826
G1 X1.322 Y2.873 E0.02970
G1 X0.929 Y3.031 E0.03263
G1 X0.699 Y3.090 E0.01831
G1 X0.120 Y3.167 E0.04504
G1 X-0.022 Y3.323 F15000.000
G1 X-2.649 Y2.722 F15000.000
G1 X-2.575 Y2.799 E0.00823 F2400.000
G1 X-2.011 Y3.236 E0.05500
G1 X-1.385 Y3.543 E0.05375
G1 X-1.089 Y3.647 E0.02416
G1 X-1.144 Y3.964 E0.02478
G1 X-5.964 Y3.964 E0.37152
G1 X-5.964 Y-3.964 E0.61103
G1 X-1.139 Y-3.964 E0.37190
G1 X-1.079 Y-3.655 E0.02425
G1 X-1.586 Y-3.452 E0.04213 F2400.000
G1 X-1.989 Y-3.245 E0.03491
G1 X-2.251 Y-3.069 E0.02429
G1 X-2.751 Y-2.630 E0.05129
G1 X-2.959 Y-2.394 E0.02420
G1 X-3.217 Y-2.023 E0.03489
G1 X-3.459 Y-1.589 E0.03829
G1 X-3.577 Y-1.297 E0.02428
G1 X-3.750 Y-0.654 E0.05129
G1 X-3.790 Y-0.344 E0.02406
G1 X-3.800 Y0.108 E0.03485
G1 X-3.758 Y0.608 E0.03872
G1 X-3.692 Y0.913 E0.02401
G1 X-3.470 Y1.572 E0.05360
G1 X-3.121 Y2.173 E0.05353
G1 X-2.937 Y2.422 E0.02391
G1 X-2.691 Y2.679 E0.02739
G1 E-3.20000 F3000.00000
G1 Z0.700 F15000.000
G1 X3.557 Y1.346 F15000.000
G1 Z0.300 F15000.000
G1 E3.20000 F3000.00000
G1 X3.753 Y0.642 E0.05632 F2400.000
G1 X3.818 Y0.000 E0.04972
G1 X3.753 Y-0.642 E0.04972
G1 X3.577 Y-1.297 E0.05226
G1 X3.459 Y-1.589 E0.02428
G1 X3.217 Y-2.023 E0.03829
G1 X2.959 Y-2.394 E0.03489
G1 X2.758 Y-2.622 E0.02335
G1 X2.425 Y-2.927 E0.03486
G1 X2.001 Y-3.241 E0.04061
G1 X1.385 Y-3.543 E0.05290
G1 X1.089 Y-3.647 E0.02416
G1 X1.144 Y-3.964 E0.02478
G1 X5.964 Y-3.964 E0.37152
G1 X5.964 Y3.964 E0.61103
G1 X1.139 Y3.964 E0.37190 F2400.000
G1 X1.079 Y3.655 E0.02425
G1 X1.586 Y3.452 E0.04213
G1 X1.989 Y3.245 E0.03491
G1 X2.251 Y3.069 E0.02429
G1 X2.751 Y2.630 E0.05129
G1 X2.959 Y2.394 E0.02420
G1 X3.217 Y2.023 E0.03489
G1 X3.459 Y1.589 E0.03829
G1 X3.534 Y1.402 E0.01556
G1 X6.600 Y1.402 F15000.000
G1 X6.600 Y4.600 E0.24649 F2400.000
G1 X-6.600 Y4.600 E1.01726 F2400.000
G1 X-6.600 Y-4.600 E0.70900
G1 X6.600 Y-4.600 E1.01726
G1 X6.600 Y1.342 E0.45789
G1 X6.254 Y1.602 F15000.000
G1 X2.516 Y3.275 F15000.000
G1 X2.819 Y3.579 E0.03539 F2400.000
G1 X3.780 Y3.579 E0.07914
G1 X3.022 Y2.821 E0.08827
G1 X3.443 Y2.281 E0.05640
G1 X4.741 Y3.579 E0.15124
G1 X5.579 Y3.456 E0.06976
G1 X3.797 Y1.674 E0.20761
G1 X4.037 Y0.953 E0.06257
G1 X5.579 Y2.495 E0.17963
G1 X5.579 Y1.535 E0.07914
G1 X4.179 Y0.135 E0.16306
G1 X4.131 Y-0.874 E0.08320
G1 X5.579 Y0.574 E0.16867
G1 X5.579 Y-0.387 E0.07914
G1 X3.504 Y-2.461 E0.24166
G1 X3.348 Y-3.579 E0.09295
G1 X5.579 Y-1.348 E0.25992
G1 X5.579 Y-2.309 E0.07914
G1 X4.309 Y-3.579 E0.14799
G1 X5.269 Y-3.579 E0.07914
G1 X5.579 Y-3.269 E0.03607
G1 X0.801 Y-3.848 F15000.000
G1 X-0.141 Y-3.884 E0.15267 F2400.000
G1 X-0.791 Y-3.842 E0.10554
G1 X-2.516 Y-3.275 F15000.000
G1 X-2.819 Y-3.579 E0.03539 F2400.000
G1 X-3.022 Y-2.821 E0.06462
G1 X-3.780 Y-3.579 E0.08828
G1 X-4.741 Y-3.579 E0.07914
G1 X-3.443 Y-2.281 E0.15124
G1 X-3.797 Y-1.674 E0.05786
G1 X-5.579 Y-3.456 E0.20761
G1 X-5.579 Y-2.495 E0.07914
G1 X-4.037 Y-0.953 E0.17963
G1 X-4.177 Y-0.133 E0.06858
G1 X-5.579 Y-1.535 E0.16331
G1 X-5.579 Y-0.574 E0.07914
G1 X-4.126 Y0.880 E0.16930
G1 X-5.579 Y1.348 F15000.000
G1 X-3.348 Y3.579 E0.25991 F2400.000
G1 X-4.309 Y3.579 E0.07914
G1 X-5.579 Y2.309 E0.14799
G1 X-5.579 Y3.269 E0.07914
G1 X-5.269 Y3.579 E0.03607
G1 X-3.490 Y2.476 F15000.000
G1 X-5.579 Y0.387 E0.24333 F2400.000
G1 X-0.801 Y3.848 F15000.000
G1 X0.141 Y3.884 E0.15266 F2400.000
G1 X0.791 Y3.842 E0.10554
G1 E-3.20000 F3000.00000
G1 Z0.700 F15000.000
G1 X0.728 Y3.382 F15000.000
G1 Z0.500 F15000.000
G1 E3.20000 F3000.00000
G1 X0.089 Y3.470 E0.01861 F2400.000
G1 X-0.239 Y3.456 E0.00949
G1 X-0.703 Y3.390 E0.01353
G1 X-1.147 Y3.274 E0.01324
G1 X-1.851 Y2.940 E0.02247
G1 X-2.449 Y2.451 E0.02230
G1 X-2.759 Y2.099 E0.01356
G1 X-3.163 Y1.437 E0.02237
G1 X-3.397 Y0.697 E0.02240
G1 X-3.455 Y0.240 E0.01329
G1 X-3.455 Y-0.228 E0.01353
G1 X-3.428 Y-0.554 E0.00943
G1 X-3.221 Y-1.291 E0.02208
G1 X-3.015 Y-1.700 E0.01322
G1 X-2.761 Y-2.094 E0.01353
G1 X-2.554 Y-2.350 E0.00952
G1 X-1.986 Y-2.845 E0.02175
G1 X-1.704 Y-3.019 E0.00958
G1 X-1.277 Y-3.214 E0.01353
G1 X-0.847 Y-3.366 E0.01316
G1 X-0.089 Y-3.470 E0.02209 F2400.000
G1 X0.239 Y-3.456 E0.00949
G1 X0.703 Y-3.390 E0.01353
G1 X1.147 Y-3.274 E0.01324
G1 X1.838 Y-2.946 E0.02208
G1 X2.103 Y-2.750 E0.00950
G1 X2.556 Y-2.349 E0.01747
G1 X2.761 Y-2.094 E0.00945
G1 X3.015 Y-1.700 E0.01353
G1 X3.219 Y-1.294 E0.01310
G1 X3.396 Y-0.697 E0.01797
G1 X3.499 Y0.000 E0.02034
G1 X3.396 Y0.697 E0.02034
G1 X3.219 Y1.294 E0.01797
G1 X3.015 Y1.700 E0.01310
G1 X2.761 Y2.094 E0.01353
G1 X2.554 Y2.350 E0.00952
G1 X1.986 Y2.845 E0.02175
G1 X1.704 Y3.019 E0.00958
G1 X1.277 Y3.214 E0.01353
G1 X0.787 Y3.374 E0.01487
G1 X0.739 Y3.020 F15000.000
G1 X0.072 Y3.112 E0.01941 F2400.000
G1 X-0.206 Y3.100 E0.00804
G1 X-0.632 Y3.039 E0.01243
G1 X-1.024 Y2.937 E0.01169
G1 X-1.658 Y2.636 E0.02025
G1 X-2.200 Y2.193 E0.02020
G1 X-2.471 Y1.886 E0.01181
G1 X-2.835 Y1.288 E0.02022
G1 X-3.047 Y0.620 E0.02023
G1 X-3.098 Y0.217 E0.01171
G1 X-3.098 Y-0.213 E0.01243
G1 X-3.075 Y-0.490 E0.00802
G1 X-2.886 Y-1.161 E0.02011
G1 X-2.704 Y-1.522 E0.01168
G1 X-2.471 Y-1.885 E0.01243
G1 X-2.296 Y-2.102 E0.00806
G1 X-1.774 Y-2.557 E0.01999
G1 X-1.535 Y-2.704 E0.00809
G1 X-1.143 Y-2.883 E0.01243
G1 X-0.763 Y-3.017 E0.01165
G1 X-0.072 Y-3.112 E0.02011 F2400.000
G1 X0.206 Y-3.100 E0.00804
G1 X0.632 Y-3.039 E0.01243
G1 X1.024 Y-2.937 E0.01169
G1 X1.654 Y-2.638 E0.02011
G1 X1.878 Y-2.473 E0.00804
G1 X2.297 Y-2.101 E0.01616
G1 X2.471 Y-1.885 E0.00803
G1 X2.704 Y-1.522 E0.01243
G1 X2.886 Y-1.162 E0.01164
G1 X3.046 Y-0.620 E0.01632
G1 X3.138 Y0.000 E0.01809
G1 X3.046 Y0.620 E0.01809
G1 X2.886 Y1.162 E0.01632
G1 X2.704 Y1.522 E0.01164
G1 X2.471 Y1.885 E0.01243
G1 X2.296 Y2.102 E0.00806
G1 X1.774 Y2.557 E0.01999
G1 X1.535 Y2.704 E0.00809
G1 X1.143 Y2.883 E0.01243
G1 X0.796 Y3.005 E0.01062
G1 X0.612 Y3.400 F15000.000
G1 E-3.20000 F3000.00000
G1 Z0.900 F15000.000
G1 X-6.393 Y-0.641 F15000.000
G1 Z0.500 F15000.000
G1 E3.20000 F3000.00000
G1 X-6.393 Y-4.393 E0.10828 F2400.000
G1 X6.393 Y-4.393 E0.36903
G1 X6.393 Y4.393 E0.25358
G1 X-6.393 Y4.393 E0.36903 F2400.000
G1 X-6.393 Y-0.581 E0.14357
G1 X-6.750 Y-0.581 F15000.000
G1 X-6.750 Y-4.750 E0.12032 F2400.000
G1 X6.750 Y-4.750 E0.38965
G1 X6.750 Y4.750 E0.27420
G1 X-6.750 Y4.750 E0.38965 F2400.000
G1 X-6.750 Y-0.521 E0.15215
G1 X-6.404 Y-0.781 F15000.000
G1 X-5.994 Y-4.185 F15000.000
G1 X-6.185 Y-3.994 E0.00788 F2400.000
G1 X-6.185 Y-3.485 E0.01480
G1 X-5.485 Y-4.185 E0.02881
G1 X-4.976 Y-4.185 E0.01480
G1 X-6.185 Y-2.976 E0.04975
G1 X-6.185 Y-2.467 E0.01480
G1 X-4.467 Y-4.185 E0.07069
G1 X-3.958 Y-4.185 E0.01480
G1 X-6.185 Y-1.958 E0.09162
G1 X-6.185 Y-1.449 E0.01480
G1 X-3.449 Y-4.185 E0.11256
G1 X-2.940 Y-4.185 E0.01480
G1 X-6.185 Y-0.940 E0.13350
G1 X-6.185 Y-0.431 E0.01480
G1 X-2.431 Y-4.185 E0.15443
G1 X-1.922 Y-4.185 E0.01480
G1 X-6.185 Y0.078 E0.17537
G1 X-6.185 Y0.587 E0.01480
G1 X-1.413 Y-4.185 E0.19631
G1 X-0.904 Y-4.185 E0.01480
G1 X-1.880 Y-3.209 E0.04014
G1 X-1.026 Y-3.554 F15000.000
G1 X-0.395 Y-4.185 E0.02595 F2400.000
G1 X0.114 Y-4.185 E0.01480
G1 X-0.427 Y-3.645 E0.02224
G1 X0.104 Y-3.667 E0.01547
G1 X0.623 Y-4.185 E0.02132
G1 X1.131 Y-4.185 E0.01480
G1 X0.557 Y-3.610 E0.02364
G1 X0.972 Y-3.517 E0.01239
G1 X1.640 Y-4.185 E0.02749
G1 X2.149 Y-4.185 E0.01480
G1 X1.346 Y-3.382 E0.03305
G1 X1.691 Y-3.218 E0.01111
G1 X2.658 Y-4.185 E0.03979
G1 X3.167 Y-4.185 E0.01480
G1 X2.017 Y-3.035 E0.04733
G1 X2.301 Y-2.810 E0.01054
G1 X3.676 Y-4.185 E0.05656
G1 X4.185 Y-4.185 E0.01480
G1 X2.571 Y-2.571 E0.06640
G1 X2.816 Y-2.307 E0.01048
G1 X4.694 Y-4.185 E0.07725
G1 X5.203 Y-4.185 E0.01480
G1 X3.028 Y-2.010 E0.08948
G1 X3.221 Y-1.694 E0.01077
G1 X5.712 Y-4.185 E0.10247
G1 X6.183 Y-4.147 E0.01375
G1 X3.391 Y-1.356 E0.11484
G1 X3.513 Y-0.968 E0.01181
G1 X6.185 Y-3.640 E0.10993
G1 X6.185 Y-3.132 E0.01480
G1 X3.616 Y-0.562 E0.10571
G1 X3.681 Y-0.118 E0.01304
G1 X6.185 Y-2.623 E0.10302
G1 X6.185 Y-2.114 E0.01480
G1 X3.660 Y0.411 E0.10388
G1 X3.535 Y1.045 E0.01879
G1 X6.185 Y-1.605 E0.10902
G1 X6.185 Y-1.096 E0.01480
G1 X3.198 Y1.892 E0.12289
G1 X1.880 Y3.209 F15000.000
G1 X0.904 Y4.185 E0.04014 F2400.000
G1 X1.413 Y4.185 E0.01480
G1 X6.185 Y-0.587 E0.19631
G1 X6.185 Y-0.078 E0.01480
G1 X1.922 Y4.185 E0.17537
G1 X2.431 Y4.185 E0.01480
G1 X6.185 Y0.431 E0.15444
G1 X6.185 Y0.940 E0.01480
G1 X2.940 Y4.185 E0.13350
G1 X3.449 Y4.185 E0.01480
G1 X6.185 Y1.449 E0.11256
G1 X6.185 Y1.958 E0.01480
G1 X3.958 Y4.185 E0.09162
G1 X4.467 Y4.185 E0.01480
G1 X6.185 Y2.467 E0.07069
G1 X6.185 Y2.976 E0.01480
G1 X4.976 Y4.185 E0.04975
G1 X5.485 Y4.185 E0.01480
G1 X6.185 Y3.485 E0.02881
G1 X6.185 Y3.994 E0.01480
G1 X5.994 Y4.185 E0.00788
G1 X1.026 Y3.554 F15000.000
G1 X0.395 Y4.185 E0.02595 F2400.000
G1 X-0.114 Y4.185 E0.01480
G1 X0.427 Y3.645 E0.02224
G1 X-0.104 Y3.667 E0.01546
G1 X-0.623 Y4.185 E0.02132
G1 X-1.132 Y4.185 E0.01480
G1 X-0.557 Y3.610 E0.02364
G1 X-0.972 Y3.517 E0.01239
G1 X-1.640 Y4.185 E0.02749
G1 X-2.149 Y4.185 E0.01480
G1 X-1.346 Y3.382 E0.03306
G1 X-1.691 Y3.218 E0.01111
G1 X-2.658 Y4.185 E0.03979
G1 X-3.167 Y4.185 E0.01480
G1 X-2.016 Y3.034 E0.04737
G1 X-2.296 Y2.805 E0.01052
G1 X-3.676 Y4.185 E0.05678
G1 X-4.185 Y4.185 E0.01480
G1 X-2.575 Y2.575 E0.06623
G1 X-2.814 Y2.305 E0.01049
G1 X-4.694 Y4.185 E0.07736
G1 X-5.203 Y4.185 E0.01480
G1 X-3.025 Y2.007 E0.08959
G1 X-3.218 Y1.691 E0.01077
G1 X-5.712 Y4.185 E0.10260
G1 X-6.183 Y4.147 E0.01375
G1 X-3.388 Y1.352 E0.11500
G1 X-3.510 Y0.965 E0.01180
G1 X-6.185 Y3.640 E0.11006
G1 X-6.185 Y3.131 E0.01480
G1 X-3.615 Y0.561 E0.10575
G1 X-3.663 Y0.101 E0.01347
G1 X-6.185 Y2.623 E0.10375
G1 X-6.185 Y2.114 E0.01480
G1 X-3.655 Y-0.417 E0.10410
G1 X-3.527 Y-1.053 E0.01887
G1 X-6.185 Y1.605 E0.10933
G1 X-6.185 Y1.096 E0.01480
G1 X-3.198 Y-1.892 E0.12289
G1 E-3.20000 F3000.00000
G1 Z0.900 F15000.000
G1 X-3.038 Y-1.784 F15000.000
G1 Z0.700 F15000.000
G1 E3.20000 F3000.00000
G1 X-2.649 Y-2.362 E0.02011 F2400.000
G1 X-1.905 Y-2.995 E0.02819
G1 X-1.193 Y-3.328 E0.02270
G1 X-0.915 Y-3.426 E0.00851
G1 X-0.040 Y-3.549 E0.02549 F2400.000
G1 X0.818 Y-3.442 E0.02497
G1 X1.108 Y-3.367 E0.00864
G1 X1.905 Y-2.995 E0.02538
G1 X2.649 Y-2.362 E0.02820
G1 X3.132 Y-1.643 E0.02501
G1 X3.266 Y-1.378 E0.00858
G1 X3.485 Y-0.636 E0.02233
G1 X3.575 Y0.000 E0.01853
G1 X3.485 Y0.636 E0.01853
G1 X3.266 Y1.378 E0.02233
G1 X3.132 Y1.643 E0.00858
G1 X2.649 Y2.362 E0.02501
G1 X1.905 Y2.995 E0.02819
G1 X1.193 Y3.328 E0.02270
G1 X0.915 Y3.426 E0.00851
G1 X0.040 Y3.549 E0.02549
G1 X-0.818 Y3.442 E0.02497
G1 X-1.108 Y3.367 E0.00864
G1 X-1.904 Y2.996 E0.02534
G1 X-2.569 Y2.436 E0.02511
G1 X-2.767 Y2.211 E0.00864
G1 X-3.231 Y1.471 E0.02520
G1 X-3.486 Y0.635 E0.02524
G1 X-3.524 Y0.338 E0.00864
G1 X-3.510 Y-0.530 E0.02506
G1 X-3.267 Y-1.376 E0.02539
G1 X-3.071 Y-1.734 E0.01179
G1 X-2.775 Y-1.535 F15000.000
G1 X-2.380 Y-2.122 E0.02042 F2400.000
G1 X-1.711 Y-2.692 E0.02538
G1 X-1.057 Y-2.997 E0.02081
G1 X-0.830 Y-3.077 E0.00697
G1 X-0.037 Y-3.189 E0.02309 F2400.000
G1 X0.751 Y-3.091 E0.02292
G1 X0.986 Y-3.029 E0.00703
G1 X1.711 Y-2.692 E0.02305
G1 X2.380 Y-2.122 E0.02538
G1 X2.823 Y-1.463 E0.02294
G1 X2.933 Y-1.246 E0.00701
G1 X3.135 Y-0.560 E0.02064
G1 X3.214 Y0.000 E0.01632
G1 X3.135 Y0.560 E0.01632
G1 X2.933 Y1.246 E0.02064
G1 X2.823 Y1.463 E0.00701
G1 X2.380 Y2.122 E0.02294
G1 X1.711 Y2.692 E0.02538
G1 X1.057 Y2.997 E0.02081
G1 X0.830 Y3.077 E0.00697
G1 X0.037 Y3.189 E0.02309
G1 X-0.751 Y3.091 E0.02292
G1 X-0.986 Y3.029 E0.00703
G1 X-1.710 Y2.692 E0.02304
G1 X-2.319 Y2.180 E0.02297
G1 X-2.480 Y1.997 E0.00703
G1 X-2.903 Y1.322 E0.02299
G1 X-3.135 Y0.559 E0.02301
G1 X-3.166 Y0.318 E0.00703
G1 X-3.153 Y-0.477 E0.02295
G1 X-2.933 Y-1.245 E0.02306
G1 X-2.808 Y-1.485 E0.00781
G1 X-2.962 Y-1.889 F15000.000
G1 E-3.20000 F3000.00000
G1 Z1.100 F15000.000
G1 X1.375 Y-4.393 F15000.000
G1 Z0.700 F15000.000
G1 E3.20000 F3000.00000
G1 X6.393 Y-4.393 E0.14484 F2400.000
G1 X6.393 Y4.393 E0.25358
G1 X-6.393 Y4.393 E0.36903 F2400.000
G1 X-6.393 Y-4.393 E0.25358
G1 X1.315 Y-4.393 E0.22246
G1 X1.315 Y-4.750 F15000.000
G1 X6.750 Y-4.750 E0.15688 F2400.000
G1 X6.750 Y4.750 E0.27420
G1 X-6.750 Y4.750 E0.38965 F2400.000
G1 X-6.750 Y-4.750 E0.27420
G1 X1.255 Y-4.750 E0.23104
G1 X1.515 Y-4.404 F15000.000
G1 X0.382 Y-3.946 F15000.000
G1 X-0.012 Y-3.971 E0.02415 F2400.000
G1 X-0.388 Y-3.949 E0.02309
G1 X-1.338 Y-3.462 F15000.000
G1 X-2.061 Y-4.185 E0.02952 F2400.000
G1 X-3.075 Y-2.048 E0.06828
G1 X-6.185 Y-3.849 E0.10372
G1 X-6.185 Y-3.260 E0.01700
G1 X-3.651 Y-0.726 E0.10343
G1 X-3.387 Y1.711 F15000.000
G1 X-6.185 Y0.084 E0.09344 F2400.000
G1 X-6.185 Y1.790 E0.04925
G1 X-3.790 Y4.185 E0.09776
G1 X-0.382 Y3.946 F15000.000
G1 X0.012 Y3.971 E0.02415 F2400.000
G1 X0.388 Y3.949 E0.02309
G1 X0.851 Y3.635 F15000.000
G1 X1.695 Y4.185 E0.02908 F2400.000
G1 X3.785 Y4.185 E0.06032
G1 X2.403 Y2.804 E0.05639
G1 X3.518 Y1.192 F15000.000
G1 X6.185 Y2.792 E0.08977 F2400.000
G1 X6.185 Y1.536 E0.03626
G1 X3.607 Y-1.042 E0.10523
G1 X6.185 Y-3.514 F15000.000
G1 X5.514 Y-4.185 E0.02739 F2400.000
G1 X6.185 Y-1.187 E0.08868
G1 X1.091 Y-4.185 E0.17062
G1 X0.593 Y-4.057 E0.01484
G1 X1.024 Y-3.626 E0.01760
M106 S255
G1 E-3.20000 F3000.00000
G1 Z1.100 F15000.000
G1 X1.001 Y-3.474 F15000.000
G1 Z0.900 F15000.000
G1 E3.20000 F3000.00000
G1 X1.056 Y-3.465 E0.00160 F2400.000
G1 X1.957 Y-3.052 E0.02861
G1 X2.733 Y-2.382 E0.02961
G1 X3.305 Y-1.489 E0.03061
G1 X3.583 Y-0.537 E0.02863
G1 X3.613 Y0.000 E0.01551
G1 X3.583 Y0.537 E0.01551
G1 X3.305 Y1.489 E0.02863
G1 X2.733 Y2.382 E0.03061
G1 X1.957 Y3.052 E0.02961
G1 X1.057 Y3.465 E0.02858
G1 X0.011 Y3.626 E0.03054
G1 X-1.041 Y3.472 E0.03067
G1 X-1.956 Y3.052 E0.02907
G1 X-2.720 Y2.395 E0.02908
G1 X-3.299 Y1.505 E0.03063
G1 X-3.591 Y0.486 E0.03062
G1 X-3.588 Y-0.522 E0.02908
G1 X-3.310 Y-1.472 E0.02857
