; generated by Slic3r 1.2.9 on 2017-11-24 at 16:51:25

; external perimeters extrusion width = 0.40mm
; perimeters extrusion width = 0.40mm
; infill extrusion width = 0.40mm
; solid infill extrusion width = 0.40mm
; top infill extrusion width = 0.40mm

M107
M83
T0
M116
G21 ; set units to millimeters
G90 ; use absolute coordinates
M83 ; use relative distances for extrusion
G1 E-3.50000 F1500.00000
G1 Z0.400 F15000.000
G1 X8.525 Y13.025 F15000.000
G1 Z0.300 F15000.000
G1 E3.50000 F1500.00000
G1 X7.966 Y13.391 E0.05150 F960.000
G1 X7.626 Y13.588 E0.03033
G1 X6.511 Y14.156 E0.09640
G1 X6.163 Y14.311 E0.02933
G1 X4.996 Y14.759 E0.09640
G1 X4.634 Y14.877 E0.02933
G1 X3.426 Y15.201 E0.09640
G1 X3.053 Y15.280 E0.02933
G1 X1.818 Y15.475 E0.09640
G1 X1.439 Y15.515 E0.02933
G1 X0.190 Y15.581 E0.09640
G1 X-0.190 Y15.581 E0.02933
G1 X-1.439 Y15.515 E0.09640
G1 X-1.818 Y15.475 E0.02933
G1 X-3.053 Y15.280 E0.09640
G1 X-3.426 Y15.201 E0.02933
G1 X-4.634 Y14.877 E0.09640
G1 X-4.996 Y14.759 E0.02933
G1 X-6.163 Y14.311 E0.09640
G1 X-6.511 Y14.156 E0.02933
G1 X-7.586 Y13.608 E0.09297
G1 X-7.904 Y13.425 E0.02832
G1 X-8.993 Y12.724 E0.09980
G1 X-9.312 Y12.493 E0.03033
G1 X-10.284 Y11.706 E0.09640
G1 X-10.567 Y11.451 E0.02933
G1 X-11.451 Y10.567 E0.09640
G1 X-11.706 Y10.284 E0.02933
G1 X-12.493 Y9.312 E0.09640
G1 X-12.717 Y9.004 E0.02933
G1 X-13.398 Y7.955 E0.09640
G1 X-13.588 Y7.626 E0.02933
G1 X-14.156 Y6.511 E0.09640
G1 X-14.311 Y6.163 E0.02933
G1 X-14.759 Y4.996 E0.09640
G1 X-14.877 Y4.634 E0.02933
G1 X-15.201 Y3.426 E0.09640
G1 X-15.280 Y3.053 E0.02933
G1 X-15.475 Y1.818 E0.09640
G1 X-15.515 Y1.439 E0.02933
G1 X-15.581 Y0.190 E0.09640
G1 X-15.581 Y-0.190 E0.02933
G1 X-15.515 Y-1.439 E0.09640
G1 X-15.475 Y-1.818 E0.02933
G1 X-15.280 Y-3.053 E0.09640
G1 X-15.201 Y-3.425 E0.02933
G1 X-14.877 Y-4.634 E0.09640
G1 X-14.759 Y-4.996 E0.02933
G1 X-14.311 Y-6.163 E0.09640
G1 X-14.156 Y-6.511 E0.02933
G1 X-13.588 Y-7.626 E0.09640
G1 X-13.398 Y-7.955 E0.02933
G1 X-12.717 Y-9.004 E0.09640
G1 X-12.493 Y-9.312 E0.02933
G1 X-11.706 Y-10.284 E0.09640
G1 X-11.451 Y-10.567 E0.02933
G1 X-10.567 Y-11.451 E0.09640
G1 X-10.284 Y-11.706 E0.02933
G1 X-9.312 Y-12.493 E0.09640
G1 X-9.004 Y-12.717 E0.02933
G1 X-7.955 Y-13.398 E0.09640
G1 X-7.626 Y-13.588 E0.02933
G1 X-6.511 Y-14.156 E0.09640
G1 X-6.163 Y-14.311 E0.02933
G1 X-4.996 Y-14.759 E0.09640
G1 X-4.634 Y-14.877 E0.02933
G1 X-3.426 Y-15.201 E0.09640
G1 X-3.053 Y-15.280 E0.02933
G1 X-1.818 Y-15.475 E0.09640
G1 X-1.439 Y-15.515 E0.02933
G1 X-0.190 Y-15.581 E0.09640
G1 X0.190 Y-15.581 E0.02933
G1 X1.395 Y-15.517 E0.09297
G1 X1.761 Y-15.480 E0.02832 F960.000
G1 X3.040 Y-15.282 E0.09981
G1 X3.426 Y-15.201 E0.03033
G1 X4.634 Y-14.877 E0.09640
G1 X4.996 Y-14.759 E0.02933
G1 X6.163 Y-14.311 E0.09640
G1 X6.511 Y-14.156 E0.02933
G1 X7.626 Y-13.588 E0.09640
G1 X7.955 Y-13.398 E0.02933
G1 X9.004 Y-12.717 E0.09640
G1 X9.312 Y-12.493 E0.02933
G1 X10.284 Y-11.706 E0.09640
G1 X10.567 Y-11.451 E0.02933
G1 X11.451 Y-10.567 E0.09640
G1 X11.706 Y-10.284 E0.02933
G1 X12.493 Y-9.312 E0.09640
G1 X12.717 Y-9.004 E0.02933
G1 X13.398 Y-7.955 E0.09640
G1 X13.588 Y-7.626 E0.02933
G1 X14.156 Y-6.511 E0.09640
G1 X14.311 Y-6.163 E0.02933
G1 X14.759 Y-4.996 E0.09640
G1 X14.877 Y-4.634 E0.02933
G1 X15.201 Y-3.425 E0.09640
G1 X15.280 Y-3.053 E0.02933
G1 X15.475 Y-1.818 E0.09640
G1 X15.515 Y-1.439 E0.02933
G1 X15.581 Y-0.190 E0.09640
G1 X15.581 Y0.190 E0.02933
G1 X15.515 Y1.439 E0.09640
G1 X15.475 Y1.818 E0.02933
G1 X15.280 Y3.053 E0.09640
G1 X15.201 Y3.426 E0.02933
G1 X14.877 Y4.634 E0.09640
G1 X14.759 Y4.996 E0.02933
G1 X14.311 Y6.163 E0.09640
G1 X14.156 Y6.511 E0.02933
G1 X13.588 Y7.625 E0.09640
G1 X13.398 Y7.955 E0.02933
G1 X12.717 Y9.004 E0.09640
G1 X12.493 Y9.312 E0.02933
G1 X11.706 Y10.284 E0.09640
G1 X11.451 Y10.567 E0.02933
G1 X10.567 Y11.451 E0.09640
G1 X10.284 Y11.706 E0.02933
G1 X9.347 Y12.465 E0.09297
G1 X8.575 Y12.992 E0.07198
G1 E-3.50000 F1500.00000
G1 Z0.700 F15000.000
G1 X1.698 Y9.356 F15000.000
G1 Z0.300 F15000.000
G1 E3.50000 F1500.00000
G1 X1.529 Y9.631 E0.02485 F600.000
G1 X1.316 Y9.873 E0.02485
G1 X1.065 Y10.075 E0.02485
G1 X0.783 Y10.233 E0.02485
G1 X0.479 Y10.340 E0.02485
G1 X0.161 Y10.395 E0.02485
G1 X-0.163 Y10.395 E0.02497
G1 X-0.494 Y10.335 E0.02590
G1 X-0.783 Y10.233 E0.02368
G1 X-1.065 Y10.075 E0.02485
G1 X-1.316 Y9.873 E0.02485
G1 X-1.529 Y9.631 E0.02485
G1 X-1.698 Y9.356 E0.02485
G1 X-1.818 Y9.057 E0.02485
G1 X-1.886 Y8.742 E0.02485
G1 X-1.900 Y8.413 E0.02533
G1 X-1.837 Y8.029 E0.03000
G1 X-1.764 Y7.791 E0.01918
G1 X-1.619 Y7.503 E0.02485
G1 X-1.427 Y7.244 E0.02485
G1 X-1.195 Y7.021 E0.02485
G1 X-0.927 Y6.840 E0.02485
G1 X-0.632 Y6.707 E0.02497
G1 X-0.306 Y6.625 E0.02590
G1 X0.000 Y6.599 E0.02368 F600.000
G1 X0.321 Y6.626 E0.02485
G1 X0.633 Y6.707 E0.02485
G1 X0.927 Y6.840 E0.02485
G1 X1.195 Y7.021 E0.02485
G1 X1.428 Y7.245 E0.02497
G1 X1.626 Y7.517 E0.02590
G1 X1.764 Y7.791 E0.02368
G1 X1.859 Y8.099 E0.02485
G1 X1.900 Y8.419 E0.02485
G1 X1.886 Y8.742 E0.02485
G1 X1.818 Y9.057 E0.02485
G1 X1.720 Y9.300 E0.02023
G1 X1.867 Y9.631 F15000.000
G1 E-3.50000 F1500.00000
G1 Z0.700 F15000.000
G1 X-7.184 Y1.373 F15000.000
G1 Z0.300 F15000.000
G1 E3.50000 F1500.00000
G1 X-7.435 Y1.575 E0.02485 F600.000
G1 X-7.717 Y1.733 E0.02485
G1 X-8.021 Y1.840 E0.02485
G1 X-8.339 Y1.895 E0.02485
G1 X-8.663 Y1.895 E0.02497
G1 X-8.994 Y1.835 E0.02590
G1 X-9.283 Y1.733 E0.02368
G1 X-9.565 Y1.575 E0.02485
G1 X-9.816 Y1.373 E0.02485
G1 X-10.029 Y1.131 E0.02485
G1 X-10.198 Y0.856 E0.02485
G1 X-10.318 Y0.557 E0.02485
G1 X-10.386 Y0.242 E0.02485
G1 X-10.400 Y-0.081 E0.02485
G1 X-10.359 Y-0.401 E0.02485
G1 X-10.264 Y-0.709 E0.02485
G1 X-10.119 Y-0.997 E0.02485
G1 X-9.927 Y-1.256 E0.02485
G1 X-9.695 Y-1.479 E0.02485
G1 X-9.427 Y-1.660 E0.02485
G1 X-9.132 Y-1.793 E0.02497
G1 X-8.806 Y-1.875 E0.02590
G1 X-8.500 Y-1.901 E0.02368 F600.000
G1 X-8.179 Y-1.874 E0.02485
G1 X-7.867 Y-1.793 E0.02485
G1 X-7.573 Y-1.660 E0.02485
G1 X-7.305 Y-1.479 E0.02485
G1 X-7.073 Y-1.256 E0.02485
G1 X-6.881 Y-0.997 E0.02485
G1 X-6.736 Y-0.709 E0.02485
G1 X-6.641 Y-0.401 E0.02485
G1 X-6.600 Y-0.081 E0.02485
G1 X-6.614 Y0.242 E0.02485
G1 X-6.682 Y0.557 E0.02485
G1 X-6.802 Y0.856 E0.02485
G1 X-6.971 Y1.131 E0.02485
G1 X-7.145 Y1.328 E0.02023
G1 X-7.116 Y1.688 F15000.000
G1 X-2.420 Y0.310 F15000.000
G1 X-2.437 Y-0.109 E0.03228 F600.000
G1 X-2.378 Y-0.534 E0.03311
G1 X-2.263 Y-0.910 E0.03024
G1 X-2.077 Y-1.279 E0.03189
G1 X-1.831 Y-1.612 E0.03189
G1 X-1.532 Y-1.898 E0.03189
G1 X-1.190 Y-2.130 E0.03189
G1 X-0.808 Y-2.302 E0.03228
G1 X-0.391 Y-2.406 E0.03311
G1 X0.000 Y-2.439 E0.03024 F600.000
G1 X0.412 Y-2.404 E0.03189
G1 X0.813 Y-2.300 E0.03189
G1 X1.190 Y-2.130 E0.03189
G1 X1.532 Y-1.898 E0.03189
G1 X1.831 Y-1.612 E0.03189
G1 X2.077 Y-1.279 E0.03189
G1 X2.263 Y-0.910 E0.03189
G1 X2.385 Y-0.514 E0.03189
G1 X2.437 Y-0.104 E0.03189
G1 X2.420 Y0.310 E0.03189
G1 X2.332 Y0.714 E0.03189
G1 X2.178 Y1.098 E0.03189
G1 X1.961 Y1.451 E0.03189
G1 X1.688 Y1.761 E0.03189
G1 X1.366 Y2.021 E0.03189
G1 X1.005 Y2.223 E0.03189
G1 X0.615 Y2.361 E0.03189
G1 X0.208 Y2.430 E0.03180
G1 X-0.208 Y2.430 E0.03205
G1 X-0.615 Y2.361 E0.03180
G1 X-1.005 Y2.223 E0.03189
G1 X-1.366 Y2.021 E0.03189
G1 X-1.688 Y1.761 E0.03189
G1 X-1.961 Y1.451 E0.03189
G1 X-2.178 Y1.098 E0.03189
G1 X-2.332 Y0.714 E0.03189
G1 X-2.407 Y0.368 E0.02726
G1 X-1.786 Y0.235 F15000.000
G1 X-1.800 Y-0.078 E0.02414 F600.000
G1 X-1.756 Y-0.397 E0.02477
G1 X-1.672 Y-0.672 E0.02216
G1 X-1.534 Y-0.945 E0.02355
G1 X-1.352 Y-1.190 E0.02355
G1 X-1.132 Y-1.402 E0.02355
G1 X-0.879 Y-1.573 E0.02355
G1 X-0.598 Y-1.699 E0.02369
G1 X-0.287 Y-1.777 E0.02477
G1 X0.000 Y-1.801 E0.02216 F600.000
G1 X0.304 Y-1.776 E0.02355
G1 X0.600 Y-1.699 E0.02355
G1 X0.879 Y-1.573 E0.02355
G1 X1.132 Y-1.402 E0.02355
G1 X1.352 Y-1.190 E0.02355
G1 X1.534 Y-0.945 E0.02355
G1 X1.672 Y-0.672 E0.02355
G1 X1.761 Y-0.380 E0.02355
G1 X1.800 Y-0.076 E0.02355
G1 X1.787 Y0.229 E0.02355
G1 X1.722 Y0.528 E0.02355
G1 X1.609 Y0.811 E0.02355
G1 X1.448 Y1.071 E0.02355
G1 X1.246 Y1.301 E0.02355
G1 X1.009 Y1.493 E0.02355
G1 X0.742 Y1.642 E0.02355
G1 X0.454 Y1.743 E0.02355
G1 X0.154 Y1.795 E0.02346
G1 X-0.154 Y1.795 E0.02371
G1 X-0.454 Y1.743 E0.02346
G1 X-0.742 Y1.642 E0.02355
G1 X-1.009 Y1.493 E0.02355
G1 X-1.246 Y1.301 E0.02355
G1 X-1.448 Y1.071 E0.02355
G1 X-1.609 Y0.811 E0.02355
G1 X-1.722 Y0.527 E0.02355
G1 X-1.773 Y0.293 E0.01847
G1 X-2.071 Y0.106 F15000.000
G1 X-7.970 Y-7.513 F15000.000
G1 X-7.336 Y-8.147 E0.06915 F720.000
G1 X-6.444 Y-8.869 E0.08843
G1 X-5.481 Y-9.494 E0.08843
G1 X-4.459 Y-10.015 E0.08843
G1 X-3.388 Y-10.426 E0.08843
G1 X-2.279 Y-10.723 E0.08843
G1 X-1.613 Y-10.829 E0.05198
G1 X-1.489 Y-10.578 E0.02159
G1 X-1.906 Y-10.178 E0.04458 F720.000
G1 X-2.162 Y-9.831 E0.03319
G1 X-2.356 Y-9.447 E0.03319
G1 X-2.458 Y-9.116 E0.02667
G1 X-2.538 Y-8.625 E0.03834
G1 X-2.519 Y-8.177 E0.03452
G1 X-2.428 Y-7.756 E0.03319
G1 X-2.267 Y-7.357 E0.03319
G1 X-2.042 Y-6.990 E0.03319
G1 X-1.757 Y-6.667 E0.03319
G1 X-1.422 Y-6.396 E0.03319
G1 X-1.046 Y-6.186 E0.03319
G1 X-0.640 Y-6.043 E0.03319
G1 X-0.215 Y-5.970 E0.03319
G1 X0.215 Y-5.970 E0.03319
G1 X0.640 Y-6.043 E0.03319
G1 X1.046 Y-6.186 E0.03319
G1 X1.422 Y-6.396 E0.03319
G1 X1.757 Y-6.667 E0.03319
G1 X2.030 Y-6.977 E0.03181
G1 X2.266 Y-7.353 E0.03424
G1 X2.428 Y-7.756 E0.03352
G1 X2.519 Y-8.177 E0.03319
G1 X2.537 Y-8.608 E0.03319
G1 X2.482 Y-9.035 E0.03319
G1 X2.356 Y-9.447 E0.03319
G1 X2.162 Y-9.831 E0.03319
G1 X1.906 Y-10.178 E0.03319
G1 X1.491 Y-10.575 E0.04427
G1 X1.615 Y-10.826 E0.02155
G1 X2.281 Y-10.723 E0.05191
G1 X3.388 Y-10.426 E0.08830
G1 X4.459 Y-10.015 E0.08843
G1 X5.481 Y-9.494 E0.08843
G1 X6.444 Y-8.869 E0.08843
G1 X7.336 Y-8.147 E0.08843
G1 X8.147 Y-7.336 E0.08843
G1 X8.869 Y-6.444 E0.08843
G1 X9.494 Y-5.481 E0.08843
G1 X10.015 Y-4.459 E0.08843
G1 X10.426 Y-3.388 E0.08843
G1 X10.723 Y-2.279 E0.08843
G1 X10.833 Y-1.589 E0.05383
G1 X10.555 Y-1.474 E0.02317
G1 X10.409 Y-1.675 E0.01910
G1 X10.095 Y-1.976 E0.03351
G1 X9.738 Y-2.217 E0.03319
G1 X9.346 Y-2.394 E0.03319
G1 X8.929 Y-2.503 E0.03319
G1 X8.500 Y-2.539 E0.03319
G1 X8.089 Y-2.504 E0.03181
G1 X7.658 Y-2.396 E0.03424
G1 X7.262 Y-2.217 E0.03352
G1 X6.905 Y-1.976 E0.03319
G1 X6.594 Y-1.678 E0.03319
G1 X6.338 Y-1.331 E0.03319
G1 X6.144 Y-0.947 E0.03319
G1 X6.018 Y-0.535 E0.03319
G1 X5.963 Y-0.108 E0.03319
G1 X5.981 Y0.323 E0.03319
G1 X6.072 Y0.744 E0.03319
G1 X6.233 Y1.143 E0.03319
G1 X6.449 Y1.495 E0.03181
G1 X6.740 Y1.831 E0.03424
G1 X7.078 Y2.104 E0.03352
G1 X7.454 Y2.314 E0.03319
G1 X7.860 Y2.457 E0.03319
G1 X8.285 Y2.530 E0.03319
G1 X8.715 Y2.530 E0.03319
G1 X9.140 Y2.457 E0.03319
G1 X9.546 Y2.314 E0.03319
G1 X9.922 Y2.104 E0.03319
G1 X10.257 Y1.833 E0.03319
G1 X10.572 Y1.475 E0.03676
G1 X10.831 Y1.597 E0.02208
G1 X10.723 Y2.279 E0.05323
G1 X10.426 Y3.388 E0.08843
G1 X10.015 Y4.459 E0.08843
G1 X9.494 Y5.481 E0.08843
G1 X8.869 Y6.444 E0.08843
G1 X8.147 Y7.336 E0.08843
G1 X7.336 Y8.147 E0.08843
G1 X6.477 Y8.842 E0.08514
G1 X5.480 Y9.495 E0.09184
G1 X4.459 Y10.015 E0.08830
G1 X3.388 Y10.426 E0.08843
G1 X2.279 Y10.723 E0.08843
G1 X1.589 Y10.833 E0.05387
G1 X1.470 Y10.565 E0.02257
G1 X1.757 Y10.333 E0.02844
G1 X2.042 Y10.010 E0.03319
G1 X2.267 Y9.643 E0.03319
G1 X2.428 Y9.244 E0.03319
G1 X2.519 Y8.823 E0.03319
G1 X2.537 Y8.392 E0.03319
G1 X2.482 Y7.965 E0.03319
G1 X2.356 Y7.553 E0.03319
G1 X2.170 Y7.185 E0.03181
G1 X1.909 Y6.825 E0.03424
G1 X1.595 Y6.524 E0.03352
G1 X1.238 Y6.283 E0.03319
G1 X0.846 Y6.106 E0.03319
G1 X0.429 Y5.997 E0.03319
G1 X0.000 Y5.961 E0.03319
G1 X-0.411 Y5.996 E0.03181
G1 X-0.842 Y6.104 E0.03424
G1 X-1.238 Y6.283 E0.03351
G1 X-1.595 Y6.524 E0.03319
G1 X-1.906 Y6.822 E0.03319
G1 X-2.162 Y7.169 E0.03319
G1 X-2.356 Y7.553 E0.03319
G1 X-2.458 Y7.884 E0.02667
G1 X-2.538 Y8.375 E0.03834
G1 X-2.519 Y8.823 E0.03452
G1 X-2.428 Y9.244 E0.03319
G1 X-2.267 Y9.643 E0.03319
G1 X-2.042 Y10.010 E0.03319
G1 X-1.757 Y10.333 E0.03319
G1 X-1.470 Y10.565 E0.02844
G1 X-1.589 Y10.833 E0.02257
G1 X-2.279 Y10.723 E0.05387
G1 X-3.388 Y10.426 E0.08843
G1 X-4.459 Y10.015 E0.08843
G1 X-5.443 Y9.514 E0.08514
G1 X-6.445 Y8.868 E0.09184
G1 X-7.336 Y8.147 E0.08830
G1 X-8.147 Y7.336 E0.08843
G1 X-8.869 Y6.444 E0.08843
G1 X-9.494 Y5.481 E0.08843
G1 X-10.015 Y4.459 E0.08843
G1 X-10.426 Y3.388 E0.08843
G1 X-10.723 Y2.279 E0.08843
G1 X-10.831 Y1.597 E0.05323
G1 X-10.572 Y1.475 E0.02208
G1 X-10.257 Y1.833 E0.03676
G1 X-9.922 Y2.104 E0.03319
G1 X-9.546 Y2.314 E0.03319
G1 X-9.157 Y2.451 E0.03181
G1 X-8.720 Y2.530 E0.03424
G1 X-8.285 Y2.530 E0.03352
G1 X-7.860 Y2.457 E0.03319
G1 X-7.454 Y2.314 E0.03319
G1 X-7.078 Y2.104 E0.03319
G1 X-6.743 Y1.833 E0.03319
G1 X-6.458 Y1.510 E0.03319
G1 X-6.233 Y1.143 E0.03319
G1 X-6.072 Y0.744 E0.03319
G1 X-5.981 Y0.323 E0.03319
G1 X-5.963 Y-0.108 E0.03319
G1 X-6.018 Y-0.535 E0.03319
G1 X-6.144 Y-0.947 E0.03319
G1 X-6.338 Y-1.331 E0.03319
G1 X-6.594 Y-1.678 E0.03319
G1 X-6.905 Y-1.976 E0.03319
G1 X-7.262 Y-2.217 E0.03319
G1 X-7.654 Y-2.394 E0.03319
G1 X-8.071 Y-2.503 E0.03319
G1 X-8.500 Y-2.539 E0.03319
G1 X-8.911 Y-2.504 E0.03181
G1 X-9.342 Y-2.396 E0.03424
G1 X-9.738 Y-2.217 E0.03352
G1 X-10.095 Y-1.976 E0.03319
G1 X-10.406 Y-1.678 E0.03319
G1 X-10.556 Y-1.475 E0.01947
G1 X-10.833 Y-1.590 E0.02307
G1 X-10.723 Y-2.279 E0.05376
G1 X-10.426 Y-3.388 E0.08843
G1 X-10.015 Y-4.459 E0.08843
G1 X-9.494 Y-5.481 E0.08843
G1 X-8.869 Y-6.444 E0.08843
G1 X-8.147 Y-7.336 E0.08843
G1 X-8.013 Y-7.470 E0.01466
G1 X-1.886 Y-8.258 F15000.000
G1 X-1.900 Y-8.587 E0.02533 F600.000
G1 X-1.837 Y-8.971 E0.03000
G1 X-1.764 Y-9.209 E0.01918
G1 X-1.619 Y-9.497 E0.02485
G1 X-1.427 Y-9.756 E0.02485
G1 X-1.195 Y-9.979 E0.02485
G1 X-0.927 Y-10.160 E0.02485
G1 X-0.632 Y-10.293 E0.02497
G1 X-0.306 Y-10.375 E0.02590
G1 X-0.000 Y-10.401 E0.02368 F600.000
G1 X0.321 Y-10.374 E0.02485
G1 X0.633 Y-10.293 E0.02485
G1 X0.927 Y-10.160 E0.02485
G1 X1.195 Y-9.979 E0.02485
G1 X1.427 Y-9.756 E0.02485
G1 X1.619 Y-9.497 E0.02485
G1 X1.764 Y-9.209 E0.02485
G1 X1.859 Y-8.901 E0.02485
G1 X1.900 Y-8.581 E0.02485
G1 X1.886 Y-8.258 E0.02485
G1 X1.818 Y-7.943 E0.02485
G1 X1.697 Y-7.643 E0.02497
G1 X1.519 Y-7.358 E0.02590
G1 X1.316 Y-7.127 E0.02368
G1 X1.065 Y-6.925 E0.02485
G1 X0.783 Y-6.767 E0.02485
G1 X0.479 Y-6.660 E0.02485
G1 X0.161 Y-6.605 E0.02485
G1 X-0.161 Y-6.605 E0.02485
G1 X-0.479 Y-6.660 E0.02485
G1 X-0.783 Y-6.767 E0.02485
G1 X-1.065 Y-6.925 E0.02485
G1 X-1.316 Y-7.127 E0.02485
G1 X-1.529 Y-7.369 E0.02485
G1 X-1.698 Y-7.644 E0.02485
G1 X-1.818 Y-7.943 E0.02485
G1 X-1.873 Y-8.200 E0.02023
G1 X-2.185 Y-8.394 F15000.000
G1 E-3.50000 F1500.00000
G1 Z0.700 F15000.000
G1 X7.073 Y-1.256 F15000.000
G1 Z0.300 F15000.000
G1 E3.50000 F1500.00000
G1 X7.305 Y-1.479 E0.02485 F600.000
G1 X7.573 Y-1.660 E0.02485
G1 X7.868 Y-1.793 E0.02497
G1 X8.194 Y-1.875 E0.02590
G1 X8.500 Y-1.901 E0.02368 F600.000
G1 X8.821 Y-1.874 E0.02485
G1 X9.133 Y-1.793 E0.02485
G1 X9.427 Y-1.660 E0.02485
G1 X9.695 Y-1.479 E0.02485
G1 X9.928 Y-1.255 E0.02497
G1 X10.126 Y-0.983 E0.02590
G1 X10.264 Y-0.709 E0.02368
G1 X10.359 Y-0.401 E0.02485
G1 X10.400 Y-0.081 E0.02485
G1 X10.386 Y0.242 E0.02485
G1 X10.318 Y0.557 E0.02485
G1 X10.198 Y0.856 E0.02485
G1 X10.029 Y1.131 E0.02485
G1 X9.816 Y1.373 E0.02485
G1 X9.565 Y1.575 E0.02485
G1 X9.283 Y1.733 E0.02485
G1 X8.979 Y1.840 E0.02485
G1 X8.661 Y1.895 E0.02485
G1 X8.339 Y1.895 E0.02485
G1 X8.021 Y1.840 E0.02485
G1 X7.717 Y1.733 E0.02485
G1 X7.435 Y1.575 E0.02485
G1 X7.183 Y1.372 E0.02497
G1 X6.963 Y1.118 E0.02590
G1 X6.802 Y0.856 E0.02368
G1 X6.682 Y0.557 E0.02485
G1 X6.614 Y0.242 E0.02485
G1 X6.600 Y-0.081 E0.02485
G1 X6.641 Y-0.401 E0.02485
G1 X6.736 Y-0.709 E0.02485
G1 X6.881 Y-0.997 E0.02485
G1 X7.037 Y-1.208 E0.02023
G1 X6.978 Y-1.565 F15000.000
G1 E-3.50000 F1500.00000
G1 Z0.700 F15000.000
G1 X11.427 Y-1.903 F15000.000
G1 Z0.300 F15000.000
G1 E3.50000 F1500.00000
G1 X11.536 Y-1.212 E0.05390 F720.000
G1 X11.599 Y-0.000 E0.09357
G1 X11.536 Y1.212 E0.09357
G1 X11.346 Y2.412 E0.09357
G1 X11.032 Y3.584 E0.09357
G1 X10.597 Y4.718 E0.09357
G1 X10.045 Y5.800 E0.09357
G1 X9.384 Y6.818 E0.09357
G1 X8.620 Y7.762 E0.09357
G1 X7.762 Y8.620 E0.09357
