; generated by Slic3r 1.2.9 on 2017-09-19 at 11:53:10

; external perimeters extrusion width = 0.40mm
; perimeters extrusion width = 0.40mm
; infill extrusion width = 0.40mm
; solid infill extrusion width = 0.40mm
; top infill extrusion width = 0.40mm

M107
M83
T0
M116
G21 ; set units to millimeters
G90 ; use absolute coordinates
M83 ; use relative distances for extrusion
G1 E-3.50000 F1500.00000
G1 Z0.400 F15000.000
G1 X26.002 Y26.023 F15000.000
G1 Z0.300 F15000.000
G1 E3.50000 F1500.00000
G1 X10.828 Y41.185 E1.65312 F960.000
G1 X9.843 Y42.057 E0.10137
G1 X9.588 Y42.260 E0.02514
G1 X8.448 Y43.070 E0.10776
G1 X7.240 Y43.774 E0.10776
G1 X6.274 Y44.240 E0.08263
G1 X4.970 Y44.745 E0.10776
G1 X3.626 Y45.131 E0.10776
G1 X3.308 Y45.203 E0.02514
G1 X1.930 Y45.439 E0.10775
G1 X0.536 Y45.549 E0.10776
G1 X-0.862 Y45.535 E0.10776
G1 X-1.930 Y45.439 E0.08263
G1 X-3.308 Y45.203 E0.10775
G1 X-4.660 Y44.846 E0.10776
G1 X-4.970 Y44.745 E0.02514
G1 X-6.274 Y44.240 E0.10776
G1 X-7.527 Y43.620 E0.10776
G1 X-8.448 Y43.070 E0.08263
G1 X-9.588 Y42.260 E0.10775
G1 X-9.843 Y42.057 E0.02514
G1 X-10.828 Y41.185 E0.10137
G1 X-40.828 Y11.209 E3.26830
G1 X-41.627 Y10.375 E0.08903
G1 X-42.510 Y9.291 E0.10776
G1 X-42.702 Y9.027 E0.02514
G1 X-43.460 Y7.852 E0.10776
G1 X-44.114 Y6.603 E0.10862
G1 X-44.657 Y5.286 E0.10982
G1 X-45.064 Y3.988 E0.10482
G1 X-45.302 Y2.943 E0.08263
G1 X-45.505 Y1.559 E0.10776
G1 X-45.534 Y1.234 E0.02514
G1 X-45.582 Y0.163 E0.08263
G1 X-45.534 Y-1.234 E0.10776
G1 X-45.505 Y-1.559 E0.02514
G1 X-45.302 Y-2.943 E0.10776
G1 X-45.064 Y-3.988 E0.08263
G1 X-44.646 Y-5.322 E0.10776
G1 X-44.531 Y-5.628 E0.02514
G1 X-43.968 Y-6.908 E0.10776
G1 X-43.460 Y-7.852 E0.08263
G1 X-42.702 Y-9.027 E0.10776
G1 X-42.510 Y-9.291 E0.02514
G1 X-41.627 Y-10.375 E0.10776
G1 X-40.828 Y-11.209 E0.08903
G1 X-10.828 Y-41.185 E3.26830
G1 X-9.843 Y-42.057 E0.10137
G1 X-8.720 Y-42.890 E0.10776
G1 X-7.527 Y-43.620 E0.10776
G1 X-6.274 Y-44.240 E0.10776
G1 X-4.970 Y-44.745 E0.10776
G1 X-3.626 Y-45.131 E0.10776
G1 X-2.253 Y-45.395 E0.10776
G1 X-0.862 Y-45.535 E0.10776
G1 X-0.536 Y-45.549 E0.02514
G1 X0.862 Y-45.535 E0.10776
G1 X2.204 Y-45.400 E0.10396 F960.000
G1 X3.626 Y-45.131 E0.11154
G1 X4.970 Y-44.745 E0.10776
G1 X5.974 Y-44.368 E0.08263
G1 X7.240 Y-43.774 E0.10776
G1 X8.448 Y-43.070 E0.10776
G1 X9.588 Y-42.260 E0.10776
G1 X10.650 Y-41.351 E0.10776
G1 X40.828 Y-11.209 E3.28703
G1 X41.627 Y-10.375 E0.08903
G1 X42.510 Y-9.291 E0.10776
G1 X43.293 Y-8.132 E0.10776
G1 X43.968 Y-6.908 E0.10776
G1 X44.110 Y-6.614 E0.02514
G1 X44.646 Y-5.322 E0.10776
G1 X45.066 Y-3.977 E0.10862
G1 X45.366 Y-2.584 E0.10982
G1 X45.534 Y-1.234 E0.10482
G1 X45.582 Y-0.163 E0.08263
G1 X45.534 Y1.234 E0.10776
G1 X45.361 Y2.622 E0.10776
G1 X45.302 Y2.943 E0.02514
G1 X44.977 Y4.303 E0.10776
G1 X44.531 Y5.628 E0.10776
G1 X44.110 Y6.614 E0.08263
G1 X43.460 Y7.852 E0.10776
G1 X43.293 Y8.132 E0.02514
G1 X42.510 Y9.291 E0.10775
G1 X41.842 Y10.129 E0.08263
G1 X40.886 Y11.150 E0.10776
G1 X26.045 Y25.981 E1.61695
G1 E-3.50000 F1500.00000
G1 Z0.700 F15000.000
G1 X1.580 Y9.369 F15000.000
G1 Z0.300 F15000.000
G1 E3.50000 F1500.00000
G1 X1.313 Y9.736 E0.03501 F600.000
G1 X0.947 Y10.032 E0.03629
G1 X0.557 Y10.215 E0.03316
G1 X0.111 Y10.300 E0.03501
G1 X-0.359 Y10.265 E0.03629
G1 X-0.768 Y10.132 E0.03316
G1 X-1.151 Y9.888 E0.03501
G1 X-1.469 Y9.541 E0.03629
G1 X-1.677 Y9.164 E0.03316
G1 X-1.790 Y8.724 E0.03501
G1 X-1.784 Y8.253 E0.03629
G1 X-1.677 Y7.836 E0.03316
G1 X-1.459 Y7.440 E0.03483
G1 X-1.149 Y7.111 E0.03483
G1 X-0.768 Y6.868 E0.03483
G1 X-0.338 Y6.729 E0.03483
G1 X0.092 Y6.702 E0.03316 F600.000
G1 X0.555 Y6.784 E0.03629
G1 X0.966 Y6.978 E0.03501
G1 X1.314 Y7.266 E0.03483
G1 X1.580 Y7.631 E0.03483
G1 X1.747 Y8.052 E0.03483
G1 X1.803 Y8.500 E0.03483
G1 X1.747 Y8.948 E0.03483
G1 X1.602 Y9.313 E0.03021
G1 X1.773 Y9.719 F15000.000
G1 X9.729 Y5.033 F15000.000
G1 X9.411 Y5.623 E0.05167 F600.000
G1 X8.870 Y6.444 E0.07581
G1 X8.256 Y7.213 E0.07581
G1 X7.576 Y7.924 E0.07581
G1 X6.836 Y8.571 E0.07581
G1 X6.040 Y9.150 E0.07581
G1 X5.195 Y9.654 E0.07581
G1 X4.309 Y10.081 E0.07581
G1 X3.388 Y10.427 E0.07581
G1 X2.440 Y10.688 E0.07581
G1 X1.359 Y10.885 E0.08463
G1 X1.236 Y10.615 E0.02284
G1 X1.778 Y10.178 E0.05366
G1 X2.142 Y9.677 E0.04770
G1 X2.367 Y9.108 E0.04721
G1 X2.444 Y8.500 E0.04721
G1 X2.367 Y7.892 E0.04721
G1 X2.142 Y7.323 E0.04721
G1 X1.781 Y6.827 E0.04721
G1 X1.309 Y6.437 E0.04721
G1 X0.749 Y6.173 E0.04770
G1 X0.215 Y6.078 E0.04181
G1 X0.213 Y5.761 E0.02447
G1 X1.775 Y5.463 E0.12252
G1 X3.078 Y4.850 E0.11096
G1 X4.187 Y3.932 E0.11096
G1 X5.033 Y2.767 E0.11096
G1 X5.563 Y1.428 E0.11096
G1 X5.722 Y0.175 E0.09737
G1 X6.037 Y0.155 E0.02431
G1 X6.228 Y0.900 E0.05923
G1 X6.523 Y1.436 E0.04721 F600.000
G1 X6.942 Y1.883 E0.04721
G1 X7.459 Y2.211 E0.04721
G1 X8.042 Y2.401 E0.04721
G1 X8.653 Y2.439 E0.04721
G1 X9.255 Y2.324 E0.04721
G1 X9.809 Y2.063 E0.04721
G1 X10.281 Y1.673 E0.04721
G1 X10.593 Y1.244 E0.04084
G1 X10.869 Y1.355 E0.02290
G1 X10.787 Y1.958 E0.04687
G1 X10.568 Y2.917 E0.07581
G1 X10.264 Y3.852 E0.07581
G1 X9.878 Y4.757 E0.07581
G1 X9.758 Y4.980 E0.01952
G1 X9.057 Y1.715 F15000.000
G1 X8.613 Y1.800 E0.03483 F600.000
G1 X8.162 Y1.771 E0.03483
G1 X7.732 Y1.632 E0.03483
G1 X7.351 Y1.389 E0.03483
G1 X7.041 Y1.060 E0.03483
G1 X6.823 Y0.664 E0.03483
G1 X6.710 Y0.224 E0.03501
G1 X6.716 Y-0.247 E0.03629
G1 X6.823 Y-0.664 E0.03316
G1 X7.041 Y-1.060 E0.03483
G1 X7.351 Y-1.389 E0.03483
G1 X7.732 Y-1.632 E0.03483
G1 X8.162 Y-1.771 E0.03483
G1 X8.592 Y-1.798 E0.03316 F600.000
G1 X9.055 Y-1.716 E0.03629
G1 X9.466 Y-1.522 E0.03501
G1 X9.814 Y-1.234 E0.03483
G1 X10.080 Y-0.869 E0.03483
G1 X10.247 Y-0.448 E0.03483
G1 X10.303 Y-0.000 E0.03483
G1 X10.247 Y0.448 E0.03483
G1 X10.080 Y0.869 E0.03483
G1 X9.814 Y1.234 E0.03483
G1 X9.466 Y1.522 E0.03483
G1 X9.112 Y1.689 E0.03021
G1 X8.958 Y2.102 F15000.000
G1 X4.956 Y1.164 F15000.000
G1 X4.943 Y1.269 E0.00813 F600.000
G1 X4.472 Y2.458 E0.09858
G1 X3.720 Y3.493 E0.09858
G1 X2.734 Y4.309 E0.09858
G1 X1.577 Y4.853 E0.09858
G1 X0.319 Y5.093 E0.09872
G1 X-1.006 Y4.997 E0.10236
G1 X-2.173 Y4.617 E0.09455
G1 X-3.253 Y3.932 E0.09858
G1 X-4.129 Y3.000 E0.09858
G1 X-4.745 Y1.879 E0.09858
G1 X-5.063 Y0.640 E0.09858
G1 X-5.063 Y-0.640 E0.09858
G1 X-4.745 Y-1.879 E0.09858
G1 X-4.129 Y-3.000 E0.09858
G1 X-3.253 Y-3.932 E0.09858
G1 X-2.171 Y-4.618 E0.09872
G1 X-0.904 Y-5.016 E0.10236
G1 X0.320 Y-5.093 E0.09455 F600.000
G1 X1.577 Y-4.853 E0.09858
G1 X2.734 Y-4.309 E0.09858
G1 X3.720 Y-3.493 E0.09858
G1 X4.472 Y-2.458 E0.09858
G1 X4.943 Y-1.269 E0.09858
G1 X5.103 Y-0.000 E0.09858
G1 X4.964 Y1.105 E0.08583
G1 X5.040 Y1.228 F15000.000
G1 E-3.50000 F1500.00000
G1 Z0.700 F15000.000
G1 X0.966 Y-6.978 F15000.000
G1 Z0.300 F15000.000
G1 E3.50000 F1500.00000
G1 X0.557 Y-6.785 E0.03483 F600.000
G1 X0.113 Y-6.700 E0.03483
G1 X-0.338 Y-6.729 E0.03483
G1 X-0.768 Y-6.868 E0.03483
G1 X-1.151 Y-7.112 E0.03501
G1 X-1.469 Y-7.459 E0.03629
G1 X-1.677 Y-7.836 E0.03316
G1 X-1.790 Y-8.276 E0.03501
G1 X-1.784 Y-8.747 E0.03629
G1 X-1.677 Y-9.164 E0.03316
G1 X-1.459 Y-9.560 E0.03483
G1 X-1.149 Y-9.889 E0.03483
G1 X-0.768 Y-10.132 E0.03483
G1 X-0.338 Y-10.271 E0.03483
G1 X0.092 Y-10.298 E0.03316 F600.000
G1 X0.555 Y-10.216 E0.03629
G1 X0.966 Y-10.022 E0.03501
G1 X1.314 Y-9.734 E0.03483
G1 X1.580 Y-9.369 E0.03483
G1 X1.747 Y-8.948 E0.03483
G1 X1.803 Y-8.500 E0.03483
G1 X1.747 Y-8.052 E0.03483
G1 X1.580 Y-7.631 E0.03483
G1 X1.314 Y-7.266 E0.03483
G1 X1.012 Y-7.016 E0.03021
G1 X0.966 Y-6.578 F15000.000
G1 E-3.50000 F1500.00000
G1 Z0.700 F15000.000
G1 X-0.652 Y5.660 F15000.000
G1 Z0.300 F15000.000
G1 E3.50000 F1500.00000
G1 X0.051 Y5.711 E0.05437 F720.000
G1 X0.049 Y6.068 E0.02746
G1 X-0.458 Y6.099 E0.03917
G1 X-1.041 Y6.289 E0.04721
G1 X-1.558 Y6.617 E0.04721
G1 X-1.977 Y7.064 E0.04721
G1 X-2.272 Y7.600 E0.04721
G1 X-2.418 Y8.169 E0.04522
G1 X-2.426 Y8.800 E0.04867
G1 X-2.272 Y9.400 E0.04770
G1 X-1.990 Y9.914 E0.04522
G1 X-1.563 Y10.380 E0.04867
G1 X-1.222 Y10.596 E0.03115
G1 X-1.336 Y10.889 E0.02420
G1 X-2.440 Y10.688 E0.08642
G1 X-3.388 Y10.427 E0.07581
G1 X-4.309 Y10.081 E0.07581
G1 X-5.195 Y9.654 E0.07581
G1 X-6.040 Y9.150 E0.07581
G1 X-6.836 Y8.571 E0.07581
G1 X-7.576 Y7.924 E0.07581
G1 X-8.256 Y7.213 E0.07581
G1 X-8.870 Y6.444 E0.07581
G1 X-9.411 Y5.623 E0.07581
G1 X-9.877 Y4.758 E0.07570
G1 X-10.276 Y3.817 E0.07874
G1 X-10.568 Y2.917 E0.07299
G1 X-10.787 Y1.958 E0.07581
G1 X-10.866 Y1.376 E0.04523
G1 X-10.565 Y1.277 E0.02443
G1 X-10.477 Y1.436 E0.01405
G1 X-10.058 Y1.883 E0.04721
G1 X-9.541 Y2.211 E0.04721
G1 X-8.958 Y2.401 E0.04721
G1 X-8.347 Y2.439 E0.04721
G1 X-7.745 Y2.324 E0.04721
G1 X-7.191 Y2.063 E0.04721
G1 X-6.714 Y1.669 E0.04770
G1 X-6.349 Y1.153 E0.04867
G1 X-6.133 Y0.608 E0.04522
G1 X-6.056 Y-0.000 E0.04721
G1 X-6.133 Y-0.608 E0.04721
G1 X-6.358 Y-1.177 E0.04721
G1 X-6.719 Y-1.673 E0.04721
G1 X-7.191 Y-2.063 E0.04721
G1 X-7.751 Y-2.327 E0.04770
G1 X-8.372 Y-2.437 E0.04867
G1 X-8.958 Y-2.401 E0.04522
G1 X-9.541 Y-2.211 E0.04721
G1 X-10.058 Y-1.883 E0.04721
G1 X-10.477 Y-1.436 E0.04721
G1 X-10.565 Y-1.277 E0.01405
G1 X-10.866 Y-1.376 E0.02443
G1 X-10.787 Y-1.958 E0.04523
G1 X-10.568 Y-2.917 E0.07581
G1 X-10.264 Y-3.852 E0.07581
G1 X-9.878 Y-4.757 E0.07581
G1 X-9.411 Y-5.623 E0.07581
G1 X-8.870 Y-6.444 E0.07581
G1 X-8.256 Y-7.213 E0.07581
G1 X-7.576 Y-7.924 E0.07581
G1 X-6.836 Y-8.571 E0.07581
G1 X-6.040 Y-9.150 E0.07581
G1 X-5.195 Y-9.654 E0.07581
G1 X-4.309 Y-10.081 E0.07581
G1 X-3.388 Y-10.427 E0.07581
G1 X-2.440 Y-10.688 E0.07581
G1 X-1.336 Y-10.889 E0.08642
G1 X-1.222 Y-10.596 E0.02420
G1 X-1.558 Y-10.383 E0.03066 F720.000
G1 X-1.977 Y-9.936 E0.04721
G1 X-2.272 Y-9.400 E0.04721
G1 X-2.418 Y-8.831 E0.04522
G1 X-2.426 Y-8.200 E0.04867
G1 X-2.272 Y-7.600 E0.04770
G1 X-1.990 Y-7.086 E0.04522
G1 X-1.563 Y-6.620 E0.04867
G1 X-1.041 Y-6.289 E0.04770
G1 X-0.458 Y-6.099 E0.04721
G1 X0.021 Y-6.069 E0.03700
G1 X0.021 Y-5.711 E0.02760
G1 X-1.021 Y-5.646 E0.08047
G1 X-2.441 Y-5.200 E0.11473
G1 X-3.661 Y-4.426 E0.11135
G1 X-4.647 Y-3.376 E0.11096
G1 X-5.340 Y-2.114 E0.11096
G1 X-5.699 Y-0.720 E0.11096
G1 X-5.699 Y-0.021 E0.05385
G1 X-6.035 Y-0.000 E0.02595
G1 X-5.699 Y0.021 E0.02595
G1 X-5.699 Y0.720 E0.05385
G1 X-5.340 Y2.114 E0.11096
G1 X-4.647 Y3.376 E0.11096
G1 X-3.661 Y4.426 E0.11096
G1 X-2.446 Y5.197 E0.11096
G1 X-1.129 Y5.625 E0.10668
G1 X-0.712 Y5.655 E0.03221
G1 E-3.50000 F1500.00000
G1 Z0.700 F15000.000
G1 X5.657 Y-0.686 F15000.000
G1 Z0.300 F15000.000
G1 E3.50000 F1500.00000
G1 X5.563 Y-1.428 E0.05764 F600.000
G1 X5.033 Y-2.767 E0.11096
G1 X4.187 Y-3.932 E0.11096
G1 X3.078 Y-4.850 E0.11096
G1 X1.775 Y-5.463 E0.11096
G1 X0.223 Y-5.759 E0.12175
G1 X0.223 Y-6.074 E0.02431
G1 X0.755 Y-6.176 E0.04175
G1 X1.309 Y-6.437 E0.04721
G1 X1.781 Y-6.827 E0.04721
G1 X2.142 Y-7.323 E0.04721
G1 X2.367 Y-7.892 E0.04721
G1 X2.444 Y-8.500 E0.04721
G1 X2.367 Y-9.108 E0.04721
G1 X2.142 Y-9.677 E0.04721
G1 X1.781 Y-10.173 E0.04721
G1 X1.252 Y-10.611 E0.05301
G1 X1.375 Y-10.878 E0.02266
G1 X2.441 Y-10.688 E0.08344
G1 X3.388 Y-10.427 E0.07570 F600.000
G1 X4.309 Y-10.081 E0.07581
G1 X5.195 Y-9.654 E0.07581
G1 X6.040 Y-9.150 E0.07581
G1 X6.836 Y-8.571 E0.07581
G1 X7.576 Y-7.924 E0.07581
G1 X8.256 Y-7.213 E0.07581
G1 X8.870 Y-6.444 E0.07581
G1 X9.411 Y-5.623 E0.07581
G1 X9.878 Y-4.757 E0.07581
G1 X10.264 Y-3.852 E0.07581
G1 X10.568 Y-2.918 E0.07570
G1 X10.792 Y-1.921 E0.07874
G1 X10.869 Y-1.355 E0.04405
G1 X10.593 Y-1.244 E0.02290
G1 X10.281 Y-1.673 E0.04084
G1 X9.809 Y-2.063 E0.04721
G1 X9.249 Y-2.327 E0.04770
G1 X8.628 Y-2.437 E0.04867
G1 X8.042 Y-2.401 E0.04522
G1 X7.459 Y-2.211 E0.04721
G1 X6.942 Y-1.883 E0.04721
G1 X6.523 Y-1.436 E0.04721
G1 X6.228 Y-0.900 E0.04721
G1 X6.082 Y-0.331 E0.04522
G1 X6.080 Y-0.173 E0.01220
G1 X5.725 Y-0.153 E0.02742
G1 X5.665 Y-0.627 E0.03681
G1 E-3.50000 F1500.00000
G1 Z0.700 F15000.000
G1 X-6.697 Y-0.000 F15000.000
G1 Z0.300 F15000.000
G1 E3.50000 F1500.00000
G1 X-6.753 Y0.448 E0.03483 F600.000
G1 X-6.912 Y0.848 E0.03316
G1 X-7.184 Y1.233 E0.03629
G1 X-7.534 Y1.522 E0.03501
G1 X-7.943 Y1.715 E0.03483
G1 X-8.387 Y1.800 E0.03483
G1 X-8.838 Y1.771 E0.03483
G1 X-9.268 Y1.632 E0.03483
G1 X-9.649 Y1.389 E0.03483
G1 X-9.959 Y1.060 E0.03483
G1 X-10.177 Y0.664 E0.03483
G1 X-10.290 Y0.224 E0.03501
G1 X-10.284 Y-0.247 E0.03629
G1 X-10.177 Y-0.664 E0.03316
G1 X-9.959 Y-1.060 E0.03483
G1 X-9.649 Y-1.389 E0.03483
G1 X-9.268 Y-1.632 E0.03483
G1 X-8.838 Y-1.771 E0.03483
G1 X-8.408 Y-1.798 E0.03316 F600.000
G1 X-7.945 Y-1.716 E0.03629
G1 X-7.534 Y-1.522 E0.03501
G1 X-7.186 Y-1.234 E0.03483
G1 X-6.920 Y-0.869 E0.03483
G1 X-6.753 Y-0.448 E0.03483
G1 X-6.704 Y-0.060 E0.03021
G1 X-6.359 Y0.214 F15000.000
G1 E-3.50000 F1500.00000
G1 Z0.700 F15000.000
G1 X-11.587 Y-0.279 F15000.000
G1 Z0.300 F15000.000
G1 E3.50000 F1500.00000
G1 X-11.553 Y-1.040 E0.05870 F720.000
G1 X-11.413 Y-2.071 E0.08021
G1 X-11.182 Y-3.086 E0.08021
G1 X-10.860 Y-4.076 E0.08021
G1 X-10.451 Y-5.033 E0.08021
G1 X-9.958 Y-5.949 E0.08021
G1 X-9.384 Y-6.818 E0.08021
G1 X-8.735 Y-7.632 E0.08021
G1 X-8.016 Y-8.384 E0.08021
G1 X-7.232 Y-9.069 E0.08021
G1 X-6.390 Y-9.681 E0.08021
G1 X-5.497 Y-10.215 E0.08021
G1 X-4.559 Y-10.666 E0.08021
G1 X-3.584 Y-11.032 E0.08021
G1 X-2.581 Y-11.309 E0.08021
G1 X-1.557 Y-11.495 E0.08021
G1 X-0.520 Y-11.588 E0.08021
G1 X0.520 Y-11.588 E0.08021
G1 X1.520 Y-11.498 E0.07731
G1 X2.582 Y-11.309 E0.08314 F720.000
G1 X3.584 Y-11.032 E0.08017
G1 X4.559 Y-10.666 E0.08021
G1 X5.497 Y-10.215 E0.08021
G1 X6.390 Y-9.681 E0.08021
G1 X7.232 Y-9.069 E0.08021
G1 X8.016 Y-8.384 E0.08021
G1 X8.735 Y-7.632 E0.08021
G1 X9.384 Y-6.818 E0.08021
G1 X9.958 Y-5.949 E0.08021
G1 X10.451 Y-5.033 E0.08021
G1 X10.860 Y-4.076 E0.08021
G1 X11.181 Y-3.086 E0.08017
G1 X11.418 Y-2.034 E0.08314
G1 X11.553 Y-1.040 E0.07731
G1 X11.600 Y-0.000 E0.08021
G1 X11.553 Y1.040 E0.08021
G1 X11.413 Y2.071 E0.08021
G1 X11.182 Y3.086 E0.08021
G1 X10.860 Y4.076 E0.08021
G1 X10.451 Y5.033 E0.08021
G1 X9.958 Y5.949 E0.08021
G1 X9.384 Y6.818 E0.08021
G1 X8.735 Y7.632 E0.08021
G1 X8.016 Y8.384 E0.08021
G1 X7.232 Y9.069 E0.08021
G1 X6.390 Y9.681 E0.08021
G1 X5.497 Y10.215 E0.08021
G1 X4.559 Y10.666 E0.08021
G1 X3.584 Y11.032 E0.08021
G1 X2.581 Y11.309 E0.08021
G1 X1.557 Y11.495 E0.08021
G1 X0.520 Y11.588 E0.08021
G1 X-0.520 Y11.588 E0.08021
G1 X-1.557 Y11.495 E0.08021
G1 X-2.581 Y11.309 E0.08021
G1 X-3.584 Y11.032 E0.08021
G1 X-4.559 Y10.666 E0.08021
G1 X-5.497 Y10.215 E0.08021
G1 X-6.390 Y9.681 E0.08021
G1 X-7.232 Y9.069 E0.08021
G1 X-8.016 Y8.384 E0.08021
G1 X-8.735 Y7.632 E0.08021
G1 X-9.384 Y6.818 E0.08021
G1 X-9.958 Y5.949 E0.08021
G1 X-10.451 Y5.033 E0.08017
G1 X-10.872 Y4.040 E0.08314
G1 X-11.182 Y3.086 E0.07731
G1 X-11.413 Y2.071 E0.08021
G1 X-11.553 Y1.040 E0.08021
G1 X-11.600 Y-0.000 E0.08021
G1 X-11.590 Y-0.219 E0.01688
G1 X-11.232 Y-0.463 F15000.000
G1 X-10.829 Y-1.029 F15000.000
G1 X-10.927 Y-0.373 E0.10745 F960.000
G1 X-10.943 Y-0.000 E0.06045
G1 X-10.931 Y0.345 E0.05591
G1 X-10.829 Y1.029 E0.11202
G1 X-10.263 Y-2.640 F15000.000
G1 X-9.962 Y-2.339 E0.03474 F960.000
G1 X-9.322 Y-2.651 E0.05818
G1 X-10.050 Y-3.379 E0.08407
G1 X-9.795 Y-4.077 E0.06065
G1 X-8.524 Y-2.806 E0.14674
G1 X-7.459 Y-2.693 E0.08750
G1 X-9.504 Y-4.738 E0.23621
G1 X-9.171 Y-5.357 E0.05741
G1 X-5.753 Y-1.939 E0.39468
G1 X-5.459 Y-2.598 E0.05889
G1 X-8.802 Y-5.941 E0.38600
G1 X-8.405 Y-6.496 E0.05574
G1 X-5.121 Y-3.213 E0.37915
G1 X-4.728 Y-3.771 E0.05581
G1 X-7.981 Y-7.024 E0.37562
G1 X-7.505 Y-7.501 E0.05499
G1 X-4.267 Y-4.263 E0.37392
G1 X-3.791 Y-4.739 E0.05499
G1 X-7.022 Y-7.970 E0.37311
G1 X-6.502 Y-8.403 E0.05522
G1 X-3.208 Y-5.109 E0.38039
G1 X-2.626 Y-5.479 E0.05634
G1 X-5.951 Y-8.804 E0.38397
G1 X-5.360 Y-9.165 E0.05657
G1 X-1.925 Y-5.730 E0.39667
G1 X-2.663 Y-7.421 F15000.000
G1 X-4.739 Y-9.496 E0.23966 F960.000
G1 X-4.085 Y-9.795 E0.05869
G1 X-2.806 Y-8.516 E0.14766
G1 X-2.660 Y-9.322 E0.06690
G1 X-3.392 Y-10.055 E0.08458
G1 X-2.648 Y-10.263 E0.06309
G1 X-2.347 Y-9.963 E0.03472
G1 X-0.970 Y-10.824 F15000.000
G1 X-0.490 Y-10.922 E0.07919 F960.000
G1 X0.089 Y-10.944 E0.09393
G1 X0.490 Y-10.913 E0.06512
G1 X1.009 Y-10.844 E0.08475
