; generated by Slic3r 1.2.9 on 2017-09-14 at 15:48:44

; external perimeters extrusion width = 0.40mm
; perimeters extrusion width = 0.40mm
; infill extrusion width = 0.40mm
; solid infill extrusion width = 0.40mm
; top infill extrusion width = 0.40mm

M107
M83
T0
M116
G21 ; set units to millimeters
G90 ; use absolute coordinates
M83 ; use relative distances for extrusion
G1 E-3.50000 F1500.00000
G1 Z0.400 F15000.000
G1 X14.338 Y-6.076 F15000.000
G1 Z0.300 F15000.000
G1 E3.50000 F1500.00000
G1 X14.657 Y-5.286 E0.06568 F960.000
G1 X15.064 Y-3.988 E0.10482
G1 X15.361 Y-2.622 E0.10776
G1 X15.534 Y-1.234 E0.10776
G1 X15.582 Y-0.163 E0.08263
G1 X15.534 Y1.234 E0.10776
G1 X15.361 Y2.622 E0.10776
G1 X15.064 Y3.988 E0.10776
G1 X14.977 Y4.303 E0.02514
G1 X14.531 Y5.628 E0.10776
G1 X13.968 Y6.908 E0.10776
G1 X13.293 Y8.132 E0.10776
G1 X12.702 Y9.027 E0.08263
G1 X11.842 Y10.129 E0.10776
G1 X10.886 Y11.150 E0.10776
G1 X9.843 Y12.081 E0.10776
G1 X8.720 Y12.914 E0.10776
G1 X7.527 Y13.644 E0.10775
G1 X6.274 Y14.264 E0.10776
G1 X4.970 Y14.769 E0.10776
G1 X4.660 Y14.870 E0.02514
G1 X3.308 Y15.228 E0.10776
G1 X1.930 Y15.463 E0.10775
G1 X0.536 Y15.574 E0.10776
G1 X-0.536 Y15.574 E0.08263
G1 X-1.930 Y15.463 E0.10776
G1 X-3.308 Y15.228 E0.10775
G1 X-4.660 Y14.870 E0.10776
G1 X-4.970 Y14.769 E0.02514
G1 X-6.274 Y14.264 E0.10776
G1 X-7.527 Y13.644 E0.10776
G1 X-8.720 Y12.914 E0.10776
G1 X-9.803 Y12.110 E0.10396
G1 X-10.886 Y11.150 E0.11154
G1 X-11.842 Y10.129 E0.10776
G1 X-12.510 Y9.291 E0.08263
G1 X-13.293 Y8.132 E0.10776
G1 X-13.968 Y6.908 E0.10776
G1 X-14.114 Y6.603 E0.02600
G1 X-14.657 Y5.286 E0.10982
G1 X-15.064 Y3.988 E0.10482
G1 X-15.361 Y2.622 E0.10776
G1 X-15.534 Y1.234 E0.10776
G1 X-15.582 Y-0.163 E0.10776
G1 X-15.534 Y-1.234 E0.08263
G1 X-15.361 Y-2.622 E0.10776
G1 X-15.064 Y-3.988 E0.10775
G1 X-14.646 Y-5.322 E0.10776
G1 X-14.531 Y-5.628 E0.02514
G1 X-13.968 Y-6.908 E0.10776
G1 X-13.293 Y-8.132 E0.10776
G1 X-12.510 Y-9.291 E0.10776
G1 X-11.842 Y-10.129 E0.08263
G1 X-10.886 Y-11.150 E0.10776
G1 X-9.843 Y-12.081 E0.10776
G1 X-8.720 Y-12.914 E0.10776
G1 X-7.527 Y-13.644 E0.10776
G1 X-6.274 Y-14.264 E0.10776
G1 X-5.974 Y-14.392 E0.02514
G1 X-4.660 Y-14.870 E0.10776
G1 X-3.308 Y-15.228 E0.10775
G1 X-1.930 Y-15.463 E0.10776
G1 X-0.525 Y-15.574 E0.10861
G1 X0.585 Y-15.570 E0.08556
G1 X1.930 Y-15.463 E0.10396 F960.000
G1 X3.308 Y-15.228 E0.10776
G1 X4.660 Y-14.870 E0.10776
G1 X4.970 Y-14.769 E0.02514
G1 X5.974 Y-14.392 E0.08263
G1 X7.240 Y-13.799 E0.10776
G1 X8.448 Y-13.094 E0.10776
G1 X8.720 Y-12.914 E0.02514
G1 X9.588 Y-12.284 E0.08263
G1 X10.650 Y-11.375 E0.10776
G1 X10.886 Y-11.150 E0.02514
G1 X11.842 Y-10.129 E0.10776
G1 X12.510 Y-9.291 E0.08263
G1 X13.293 Y-8.132 E0.10776
G1 X13.968 Y-6.908 E0.10776
G1 X14.314 Y-6.131 E0.06551
G1 E-3.50000 F1500.00000
G1 Z0.700 F15000.000
G1 X1.314 Y7.266 F15000.000
G1 Z0.300 F15000.000
G1 E3.50000 F1500.00000
G1 X1.580 Y7.631 E0.03483 F600.000
G1 X1.747 Y8.052 E0.03483
G1 X1.803 Y8.500 E0.03483
G1 X1.747 Y8.948 E0.03483
G1 X1.580 Y9.369 E0.03483
G1 X1.314 Y9.734 E0.03483
G1 X0.966 Y10.022 E0.03483
G1 X0.557 Y10.215 E0.03483
G1 X0.113 Y10.300 E0.03483
G1 X-0.338 Y10.271 E0.03483
G1 X-0.768 Y10.132 E0.03483
G1 X-1.149 Y9.889 E0.03483
G1 X-1.459 Y9.560 E0.03483
G1 X-1.677 Y9.164 E0.03483
G1 X-1.789 Y8.726 E0.03483
G1 X-1.789 Y8.274 E0.03483
G1 X-1.677 Y7.836 E0.03483
G1 X-1.459 Y7.440 E0.03483
G1 X-1.149 Y7.111 E0.03483
G1 X-0.766 Y6.867 E0.03501
G1 X-0.316 Y6.727 E0.03629
G1 X0.113 Y6.700 E0.03316 F600.000
G1 X0.557 Y6.785 E0.03483
G1 X0.966 Y6.978 E0.03483
G1 X1.268 Y7.227 E0.03021
G1 X1.707 Y7.191 F15000.000
G1 X5.078 Y9.711 F15000.000
G1 X4.309 Y10.081 E0.06580 F600.000
G1 X3.388 Y10.427 E0.07581
G1 X2.440 Y10.688 E0.07581
G1 X1.371 Y10.882 E0.08371
G1 X1.247 Y10.615 E0.02269
G1 X1.781 Y10.173 E0.05350
G1 X2.142 Y9.677 E0.04721
G1 X2.367 Y9.108 E0.04721
G1 X2.444 Y8.500 E0.04721
G1 X2.367 Y7.892 E0.04721
G1 X2.142 Y7.323 E0.04721
G1 X1.781 Y6.827 E0.04721
G1 X1.309 Y6.437 E0.04721
G1 X0.755 Y6.176 E0.04721
G1 X0.223 Y6.074 E0.04175
G1 X0.223 Y5.759 E0.02431
G1 X1.775 Y5.463 E0.12175
G1 X3.078 Y4.850 E0.11096
G1 X4.187 Y3.932 E0.11096
G1 X5.033 Y2.767 E0.11096
G1 X5.563 Y1.428 E0.11096
G1 X5.722 Y0.175 E0.09737
G1 X6.037 Y0.155 E0.02431
G1 X6.228 Y0.900 E0.05923
G1 X6.523 Y1.436 E0.04721 F600.000
G1 X6.942 Y1.883 E0.04721
G1 X7.459 Y2.211 E0.04721
G1 X8.042 Y2.401 E0.04721
G1 X8.660 Y2.439 E0.04770
G1 X9.279 Y2.313 E0.04867
G1 X9.809 Y2.063 E0.04522
G1 X10.281 Y1.673 E0.04721
G1 X10.593 Y1.244 E0.04084
G1 X10.869 Y1.355 E0.02290
G1 X10.787 Y1.958 E0.04687
G1 X10.568 Y2.917 E0.07581
G1 X10.264 Y3.852 E0.07581
G1 X9.878 Y4.757 E0.07581
G1 X9.411 Y5.623 E0.07581
G1 X8.870 Y6.444 E0.07581
G1 X8.256 Y7.213 E0.07581
G1 X7.576 Y7.924 E0.07581
G1 X6.836 Y8.571 E0.07581
G1 X6.040 Y9.150 E0.07581
G1 X5.132 Y9.685 E0.08118
G1 X7.747 Y1.636 F15000.000
G1 X7.351 Y1.389 E0.03601 F600.000
G1 X7.041 Y1.060 E0.03483
G1 X6.823 Y0.664 E0.03483
G1 X6.711 Y0.226 E0.03483
G1 X6.711 Y-0.226 E0.03483
G1 X6.823 Y-0.664 E0.03483
G1 X7.041 Y-1.060 E0.03483
G1 X7.351 Y-1.389 E0.03483
G1 X7.734 Y-1.633 E0.03501
G1 X8.184 Y-1.773 E0.03629
G1 X8.613 Y-1.800 E0.03316 F600.000
G1 X9.057 Y-1.715 E0.03483
G1 X9.466 Y-1.522 E0.03483
G1 X9.814 Y-1.234 E0.03483
G1 X10.080 Y-0.869 E0.03483
G1 X10.239 Y-0.469 E0.03316
G1 X10.303 Y-0.002 E0.03629
G1 X10.247 Y0.448 E0.03501
G1 X10.080 Y0.869 E0.03483
G1 X9.814 Y1.234 E0.03483
G1 X9.466 Y1.522 E0.03483
G1 X9.077 Y1.706 E0.03316
G1 X8.615 Y1.800 E0.03629
G1 X8.162 Y1.771 E0.03501
G1 X7.804 Y1.655 E0.02900
G1 X7.411 Y1.853 F15000.000
G1 X4.943 Y1.269 F15000.000
G1 X4.472 Y2.458 E0.09858 F600.000
G1 X3.720 Y3.493 E0.09858
G1 X2.734 Y4.309 E0.09858
G1 X1.577 Y4.853 E0.09858
G1 X0.320 Y5.093 E0.09858
G1 X-0.956 Y5.013 E0.09858
G1 X-2.173 Y4.617 E0.09858
G1 X-3.253 Y3.932 E0.09858
G1 X-4.129 Y3.000 E0.09858
G1 X-4.745 Y1.879 E0.09858
G1 X-5.063 Y0.638 E0.09872
G1 X-5.050 Y-0.690 E0.10236
G1 X-4.745 Y-1.879 E0.09455
G1 X-4.129 Y-3.000 E0.09858
G1 X-3.253 Y-3.932 E0.09858
G1 X-2.171 Y-4.618 E0.09872
G1 X-0.904 Y-5.016 E0.10236
G1 X0.320 Y-5.093 E0.09455 F600.000
G1 X1.577 Y-4.853 E0.09858
G1 X2.734 Y-4.309 E0.09858
G1 X3.720 Y-3.493 E0.09858
G1 X4.472 Y-2.458 E0.09858
G1 X4.943 Y-1.269 E0.09858
G1 X5.103 Y-0.000 E0.09858
G1 X4.950 Y1.210 E0.09396
G1 X5.217 Y1.561 F15000.000
G1 E-3.50000 F1500.00000
G1 Z0.700 F15000.000
G1 X0.966 Y-6.978 F15000.000
G1 Z0.300 F15000.000
G1 E3.50000 F1500.00000
G1 X0.577 Y-6.794 E0.03316 F600.000
G1 X0.115 Y-6.700 E0.03629
G1 X-0.338 Y-6.729 E0.03501
G1 X-0.768 Y-6.868 E0.03483
G1 X-1.149 Y-7.111 E0.03483
G1 X-1.459 Y-7.440 E0.03483
G1 X-1.677 Y-7.836 E0.03483
G1 X-1.789 Y-8.274 E0.03483
G1 X-1.789 Y-8.726 E0.03483
G1 X-1.682 Y-9.143 E0.03316
G1 X-1.460 Y-9.558 E0.03629
G1 X-1.149 Y-9.889 E0.03501
G1 X-0.766 Y-10.133 E0.03501
G1 X-0.316 Y-10.273 E0.03629
G1 X0.113 Y-10.300 E0.03316 F600.000
G1 X0.557 Y-10.215 E0.03483
G1 X0.966 Y-10.022 E0.03483
G1 X1.314 Y-9.734 E0.03483
G1 X1.580 Y-9.369 E0.03483
G1 X1.747 Y-8.948 E0.03483
G1 X1.803 Y-8.500 E0.03483
G1 X1.747 Y-8.052 E0.03483
G1 X1.580 Y-7.631 E0.03483
G1 X1.314 Y-7.266 E0.03483
G1 X1.012 Y-7.016 E0.03021
G1 X0.966 Y-6.578 F15000.000
G1 E-3.50000 F1500.00000
G1 Z0.700 F15000.000
G1 X-8.443 Y6.979 F15000.000
G1 Z0.300 F15000.000
G1 E3.50000 F1500.00000
G1 X-8.870 Y6.444 E0.05273 F720.000
G1 X-9.411 Y5.623 E0.07581
G1 X-9.877 Y4.758 E0.07570
G1 X-10.276 Y3.817 E0.07874
G1 X-10.568 Y2.917 E0.07299
G1 X-10.787 Y1.958 E0.07581
G1 X-10.866 Y1.376 E0.04523
G1 X-10.565 Y1.277 E0.02443
G1 X-10.477 Y1.436 E0.01405
G1 X-10.058 Y1.883 E0.04721
G1 X-9.541 Y2.211 E0.04721
G1 X-8.958 Y2.401 E0.04721
G1 X-8.340 Y2.439 E0.04770
G1 X-7.721 Y2.313 E0.04867
G1 X-7.191 Y2.063 E0.04522
G1 X-6.719 Y1.673 E0.04721
G1 X-6.358 Y1.177 E0.04721
G1 X-6.133 Y0.608 E0.04721
G1 X-6.055 Y-0.006 E0.04770
G1 X-6.142 Y-0.632 E0.04867
G1 X-6.358 Y-1.177 E0.04522
G1 X-6.719 Y-1.673 E0.04721
G1 X-7.191 Y-2.063 E0.04721
G1 X-7.745 Y-2.324 E0.04721
G1 X-8.347 Y-2.439 E0.04721
G1 X-8.932 Y-2.402 E0.04522
G1 X-9.535 Y-2.215 E0.04867
G1 X-10.058 Y-1.883 E0.04770
G1 X-10.477 Y-1.436 E0.04721
G1 X-10.565 Y-1.277 E0.01405
G1 X-10.866 Y-1.376 E0.02443
G1 X-10.787 Y-1.958 E0.04523
G1 X-10.568 Y-2.917 E0.07581
G1 X-10.264 Y-3.852 E0.07581
G1 X-9.878 Y-4.757 E0.07581
G1 X-9.411 Y-5.623 E0.07581
G1 X-8.870 Y-6.444 E0.07581
G1 X-8.256 Y-7.213 E0.07581
G1 X-7.576 Y-7.924 E0.07581
G1 X-6.836 Y-8.571 E0.07581
G1 X-6.040 Y-9.150 E0.07581
G1 X-5.195 Y-9.654 E0.07581
G1 X-4.309 Y-10.081 E0.07581
G1 X-3.388 Y-10.427 E0.07581
G1 X-2.440 Y-10.688 E0.07581
G1 X-1.336 Y-10.889 E0.08642
G1 X-1.222 Y-10.596 E0.02420
G1 X-1.558 Y-10.383 E0.03066 F720.000
G1 X-1.981 Y-9.932 E0.04770
G1 X-2.279 Y-9.375 E0.04867
G1 X-2.425 Y-8.806 E0.04522
G1 X-2.425 Y-8.194 E0.04721
G1 X-2.272 Y-7.600 E0.04721
G1 X-1.977 Y-7.064 E0.04721
G1 X-1.558 Y-6.617 E0.04721
G1 X-1.041 Y-6.289 E0.04721
G1 X-0.458 Y-6.099 E0.04721
G1 X0.021 Y-6.069 E0.03700
G1 X0.021 Y-5.711 E0.02760
G1 X-1.021 Y-5.646 E0.08047
G1 X-2.441 Y-5.200 E0.11473
G1 X-3.661 Y-4.426 E0.11135
G1 X-4.647 Y-3.376 E0.11096
G1 X-5.340 Y-2.114 E0.11096
G1 X-5.685 Y-0.774 E0.10668
G1 X-5.700 Y0.715 E0.11473
G1 X-5.340 Y2.114 E0.11135
G1 X-4.647 Y3.376 E0.11096
G1 X-3.661 Y4.426 E0.11096
G1 X-2.446 Y5.197 E0.11096
G1 X-1.076 Y5.642 E0.11096
G1 X0.021 Y5.711 E0.08475
G1 X0.021 Y6.069 E0.02760
G1 X-0.432 Y6.098 E0.03501
G1 X-1.035 Y6.285 E0.04867
G1 X-1.558 Y6.617 E0.04770
G1 X-1.977 Y7.064 E0.04721
G1 X-2.272 Y7.600 E0.04721
G1 X-2.425 Y8.194 E0.04721
G1 X-2.425 Y8.806 E0.04721
G1 X-2.272 Y9.400 E0.04721
G1 X-1.977 Y9.936 E0.04721
G1 X-1.558 Y10.383 E0.04721
G1 X-1.222 Y10.596 E0.03066
G1 X-1.336 Y10.889 E0.02420
G1 X-2.440 Y10.688 E0.08642
G1 X-3.388 Y10.427 E0.07581
G1 X-4.309 Y10.081 E0.07581
G1 X-5.195 Y9.654 E0.07581
G1 X-6.040 Y9.150 E0.07581
G1 X-6.806 Y8.593 E0.07299
G1 X-7.577 Y7.923 E0.07874
G1 X-8.256 Y7.213 E0.07570
G1 X-8.406 Y7.026 E0.01846
G1 E-3.50000 F1500.00000
G1 Z0.700 F15000.000
G1 X6.157 Y-0.623 F15000.000
G1 Z0.300 F15000.000
G1 E3.50000 F1500.00000
G1 X6.037 Y-0.155 E0.03720 F600.000
G1 X5.722 Y-0.175 E0.02431
G1 X5.563 Y-1.428 E0.09737
G1 X5.033 Y-2.767 E0.11096
G1 X4.187 Y-3.932 E0.11096
G1 X3.078 Y-4.850 E0.11096
G1 X1.775 Y-5.463 E0.11096
G1 X0.221 Y-5.759 E0.12192
G1 X0.219 Y-6.073 E0.02416
G1 X0.779 Y-6.187 E0.04401
G1 X1.309 Y-6.437 E0.04522
G1 X1.781 Y-6.827 E0.04721
G1 X2.142 Y-7.323 E0.04721
G1 X2.367 Y-7.892 E0.04721
G1 X2.444 Y-8.500 E0.04721
G1 X2.367 Y-9.108 E0.04721
G1 X2.142 Y-9.677 E0.04721
G1 X1.781 Y-10.173 E0.04721
G1 X1.247 Y-10.615 E0.05350
G1 X1.371 Y-10.882 E0.02269
G1 X2.440 Y-10.688 E0.08371
G1 X3.388 Y-10.427 E0.07581 F600.000
G1 X4.309 Y-10.081 E0.07581
G1 X5.195 Y-9.654 E0.07581
G1 X6.040 Y-9.150 E0.07581
G1 X6.836 Y-8.571 E0.07581
G1 X7.576 Y-7.924 E0.07581
G1 X8.256 Y-7.213 E0.07581
G1 X8.870 Y-6.444 E0.07581
G1 X9.411 Y-5.623 E0.07581
G1 X9.877 Y-4.758 E0.07569
G1 X10.276 Y-3.817 E0.07874
G1 X10.568 Y-2.917 E0.07299
G1 X10.787 Y-1.958 E0.07581
G1 X10.869 Y-1.355 E0.04687
G1 X10.593 Y-1.244 E0.02290
G1 X10.281 Y-1.673 E0.04084
G1 X9.809 Y-2.063 E0.04721
G1 X9.255 Y-2.324 E0.04721
G1 X8.653 Y-2.439 E0.04721
G1 X8.068 Y-2.402 E0.04522
G1 X7.465 Y-2.215 E0.04867
G1 X6.942 Y-1.883 E0.04770
G1 X6.523 Y-1.436 E0.04721
G1 X6.228 Y-0.900 E0.04721
G1 X6.172 Y-0.681 E0.01741
G1 E-3.50000 F1500.00000
G1 Z0.700 F15000.000
G1 X-6.697 Y-0.002 F15000.000
G1 Z0.300 F15000.000
G1 E3.50000 F1500.00000
G1 X-6.753 Y0.448 E0.03501 F600.000
G1 X-6.920 Y0.869 E0.03483
G1 X-7.186 Y1.234 E0.03483
G1 X-7.534 Y1.522 E0.03483
G1 X-7.923 Y1.706 E0.03316
G1 X-8.385 Y1.800 E0.03629
G1 X-8.838 Y1.771 E0.03501
G1 X-9.268 Y1.632 E0.03483
G1 X-9.649 Y1.389 E0.03483
G1 X-9.959 Y1.060 E0.03483
G1 X-10.177 Y0.664 E0.03483
G1 X-10.289 Y0.226 E0.03483
G1 X-10.289 Y-0.226 E0.03483
G1 X-10.177 Y-0.664 E0.03483
G1 X-9.959 Y-1.060 E0.03483
G1 X-9.649 Y-1.389 E0.03483
G1 X-9.266 Y-1.633 E0.03501
G1 X-8.816 Y-1.773 E0.03629
G1 X-8.387 Y-1.800 E0.03316 F600.000
G1 X-7.943 Y-1.715 E0.03483
G1 X-7.534 Y-1.522 E0.03483
G1 X-7.186 Y-1.234 E0.03483
G1 X-6.920 Y-0.869 E0.03483
G1 X-6.761 Y-0.469 E0.03316
G1 X-6.705 Y-0.062 E0.03167
G1 X-6.358 Y0.211 F15000.000
G1 E-3.50000 F1500.00000
G1 Z0.700 F15000.000
G1 X-11.587 Y-0.281 F15000.000
G1 Z0.300 F15000.000
G1 E3.50000 F1500.00000
G1 X-11.553 Y-1.040 E0.05854 F720.000
G1 X-11.413 Y-2.071 E0.08021
G1 X-11.182 Y-3.086 E0.08021
G1 X-10.860 Y-4.076 E0.08021
G1 X-10.451 Y-5.033 E0.08021
G1 X-9.958 Y-5.949 E0.08021
G1 X-9.384 Y-6.818 E0.08021
G1 X-8.735 Y-7.632 E0.08021
G1 X-8.016 Y-8.384 E0.08021
G1 X-7.232 Y-9.069 E0.08021
G1 X-6.390 Y-9.681 E0.08021
G1 X-5.497 Y-10.215 E0.08021
G1 X-4.559 Y-10.666 E0.08021
G1 X-3.584 Y-11.032 E0.08021
G1 X-2.581 Y-11.309 E0.08021
G1 X-1.557 Y-11.495 E0.08021
G1 X-0.521 Y-11.588 E0.08017
G1 X0.558 Y-11.585 E0.08314
G1 X1.557 Y-11.495 E0.07731 F720.000
G1 X2.581 Y-11.309 E0.08021
G1 X3.584 Y-11.032 E0.08021
G1 X4.559 Y-10.666 E0.08021
G1 X5.497 Y-10.215 E0.08021
G1 X6.390 Y-9.681 E0.08021
G1 X7.232 Y-9.069 E0.08021
G1 X8.016 Y-8.384 E0.08021
G1 X8.735 Y-7.632 E0.08021
G1 X9.384 Y-6.818 E0.08021
G1 X9.958 Y-5.949 E0.08021
G1 X10.451 Y-5.033 E0.08017
G1 X10.872 Y-4.040 E0.08314
G1 X11.182 Y-3.086 E0.07731
G1 X11.413 Y-2.071 E0.08021
G1 X11.553 Y-1.040 E0.08021
G1 X11.600 Y-0.000 E0.08021
G1 X11.553 Y1.040 E0.08021
G1 X11.413 Y2.071 E0.08021
G1 X11.182 Y3.086 E0.08021
G1 X10.860 Y4.076 E0.08021
G1 X10.451 Y5.033 E0.08021
G1 X9.958 Y5.949 E0.08021
G1 X9.384 Y6.818 E0.08021
G1 X8.735 Y7.632 E0.08021
G1 X8.016 Y8.384 E0.08021
G1 X7.232 Y9.069 E0.08021
G1 X6.390 Y9.681 E0.08021
G1 X5.497 Y10.215 E0.08021
G1 X4.559 Y10.666 E0.08021
G1 X3.584 Y11.032 E0.08021
G1 X2.581 Y11.309 E0.08021
G1 X1.557 Y11.495 E0.08021
G1 X0.520 Y11.588 E0.08021
G1 X-0.520 Y11.588 E0.08021
G1 X-1.557 Y11.495 E0.08021
G1 X-2.581 Y11.309 E0.08021
G1 X-3.584 Y11.032 E0.08021
G1 X-4.559 Y10.666 E0.08021
G1 X-5.497 Y10.215 E0.08021
G1 X-6.390 Y9.681 E0.08021
G1 X-7.202 Y9.091 E0.07731
G1 X-8.016 Y8.384 E0.08314
G1 X-8.735 Y7.632 E0.08017
G1 X-9.384 Y6.818 E0.08021
G1 X-9.958 Y5.949 E0.08021
G1 X-10.451 Y5.033 E0.08017
G1 X-10.872 Y4.040 E0.08314
G1 X-11.182 Y3.086 E0.07731
G1 X-11.413 Y2.071 E0.08021
G1 X-11.553 Y1.040 E0.08021
G1 X-11.600 Y-0.000 E0.08021
G1 X-11.590 Y-0.221 E0.01705
G1 X-11.232 Y-0.465 F15000.000
G1 X-10.829 Y-1.029 F15000.000
G1 X-10.931 Y-0.349 E0.11132 F960.000
G1 X-10.944 Y-0.000 E0.05661
G1 X-10.931 Y0.349 E0.05661
G1 X-10.829 Y1.029 E0.11132
G1 X-10.263 Y-2.640 F15000.000
G1 X-9.962 Y-2.339 E0.03474 F960.000
G1 X-9.320 Y-2.650 E0.05822
G1 X-10.050 Y-3.379 E0.08421
G1 X-9.795 Y-4.077 E0.06064
G1 X-8.524 Y-2.806 E0.14673
G1 X-7.456 Y-2.690 E0.08776
G1 X-9.504 Y-4.738 E0.23653
G1 X-9.171 Y-5.357 E0.05741
G1 X-5.753 Y-1.939 E0.39466
G1 X-5.459 Y-2.598 E0.05888
G1 X-8.802 Y-5.941 E0.38598
G1 X-8.405 Y-6.496 E0.05573
G1 X-5.122 Y-3.212 E0.37913
G1 X-4.728 Y-3.771 E0.05580
G1 X-7.981 Y-7.024 E0.37560
G1 X-7.505 Y-7.501 E0.05498
G1 X-4.267 Y-4.262 E0.37390
G1 X-3.791 Y-4.739 E0.05498
G1 X-7.022 Y-7.970 E0.37308
G1 X-6.503 Y-8.403 E0.05521
G1 X-3.209 Y-5.109 E0.38037
G1 X-2.626 Y-5.479 E0.05634
G1 X-5.951 Y-8.804 E0.38395
G1 X-5.360 Y-9.165 E0.05656
G1 X-1.925 Y-5.730 E0.39663
G1 X-2.663 Y-7.420 F15000.000
G1 X-4.739 Y-9.496 E0.23973 F960.000
G1 X-4.085 Y-9.795 E0.05868
G1 X-2.810 Y-8.520 E0.14724
G1 X-2.660 Y-9.322 E0.06664
G1 X-3.393 Y-10.055 E0.08462
G1 X-2.649 Y-10.263 E0.06308
G1 X-2.348 Y-9.962 E0.03472
G1 X-0.970 Y-10.824 F15000.000
G1 X-0.478 Y-10.921 E0.08117 F960.000
G1 X0.113 Y-10.943 E0.09574
G1 X1.002 Y-10.842 E0.14483
G1 X2.495 Y-10.231 F15000.000
G1 X10.236 Y-2.490 E0.94308 F960.000
G1 X8.911 Y-2.810 F15000.000
G1 X2.797 Y-8.925 E0.74491 F960.000
G1 X2.749 Y-7.967 E0.08256
G1 X7.975 Y-2.741 E0.63671
G1 X7.242 Y-2.469 E0.06734
G1 X2.478 Y-7.234 E0.58049
G1 X2.060 Y-6.646 E0.06209
G1 X3.816 Y-4.891 E0.21389
G1 X4.842 Y-3.865 F15000.000
G1 X6.652 Y-2.055 E0.22047 F960.000
G1 X6.183 Y-1.519 E0.06135
G1 X5.889 Y-1.813 E0.03581
