; generated by Slic3r 1.2.9 on 2017-09-15 at 11:29:22

; external perimeters extrusion width = 0.40mm
; perimeters extrusion width = 0.40mm
; infill extrusion width = 0.40mm
; solid infill extrusion width = 0.40mm
; top infill extrusion width = 0.40mm

M107
M83
T0
M116
G21 ; set units to millimeters
G90 ; use absolute coordinates
M83 ; use relative distances for extrusion
G1 E-3.50000 F1500.00000
G1 Z0.400 F15000.000
G1 X0.000 Y8.586 F15000.000
G1 Z0.300 F15000.000
G1 E3.50000 F1500.00000
G1 X-28.700 Y8.586 E2.21178 F960.000
G1 X-30.347 Y8.191 E0.13052
G1 X-31.637 Y7.093 E0.13052
G1 X-32.336 Y4.950 E0.17373
G1 X-32.336 Y-4.950 E0.76295
G1 X-31.941 Y-6.597 E0.13052
G1 X-30.843 Y-7.887 E0.13052
G1 X-28.700 Y-8.586 E0.17373
G1 X28.700 Y-8.586 E4.42356
G1 X30.347 Y-8.191 E0.13052
G1 X31.637 Y-7.093 E0.13052 F960.000
G1 X32.336 Y-4.950 E0.17373
G1 X32.336 Y4.950 E0.76295
G1 X31.941 Y6.597 E0.13052
G1 X30.843 Y7.887 E0.13052
G1 X28.700 Y8.586 E0.17373
G1 X0.060 Y8.586 E2.20716
G1 E-3.50000 F1500.00000
G1 Z0.700 F15000.000
G1 X23.264 Y3.964 F15000.000
G1 Z0.300 F15000.000
G1 E3.50000 F1500.00000
G1 X-27.714 Y3.964 E3.92870 F720.000
G1 X-27.714 Y-3.964 E0.61103
G1 X27.714 Y-3.964 E4.27164
G1 X27.714 Y3.964 E0.61103
G1 X23.324 Y3.964 E0.33832 F720.000
G1 X23.324 Y4.600 F15000.000
G1 X-28.350 Y4.600 E3.98231 F720.000
G1 X-28.350 Y-4.600 E0.70900
G1 X28.350 Y-4.600 E4.36961
G1 X28.350 Y4.600 E0.70900
G1 X23.384 Y4.600 E0.38268 F720.000
G1 X23.124 Y4.254 F15000.000
G1 X27.329 Y-3.269 F15000.000
G1 X27.019 Y-3.579 E0.03379 F960.000
G1 X26.119 Y-3.579 E0.06944
G1 X27.329 Y-2.369 E0.13199
G1 X27.329 Y-1.469 E0.06944
G1 X25.219 Y-3.579 E0.23018
G1 X24.319 Y-3.579 E0.06944
G1 X27.329 Y-0.569 E0.32838
G1 X27.329 Y0.331 E0.06944
G1 X23.419 Y-3.579 E0.42658
G1 X22.520 Y-3.579 E0.06944
G1 X27.329 Y1.230 E0.52477
G1 X27.329 Y2.130 E0.06944
G1 X21.620 Y-3.579 E0.62297
G1 X20.720 Y-3.579 E0.06944
G1 X27.329 Y3.030 E0.72117
G1 X26.978 Y3.579 E0.05026
G1 X19.820 Y-3.579 E0.78103
G1 X18.920 Y-3.579 E0.06944
G1 X26.078 Y3.579 E0.78103
G1 X25.178 Y3.579 E0.06944
G1 X18.020 Y-3.579 E0.78103
G1 X17.120 Y-3.579 E0.06944
G1 X24.278 Y3.579 E0.78103
G1 X23.378 Y3.579 E0.06944
G1 X16.220 Y-3.579 E0.78103
G1 X15.320 Y-3.579 E0.06944
G1 X22.478 Y3.579 E0.78103
G1 X21.578 Y3.579 E0.06944
G1 X14.420 Y-3.579 E0.78103
G1 X13.520 Y-3.579 E0.06944
G1 X20.678 Y3.579 E0.78103
G1 X19.778 Y3.579 E0.06944
G1 X12.620 Y-3.579 E0.78103
G1 X11.720 Y-3.579 E0.06944
G1 X18.878 Y3.579 E0.78103
G1 X17.978 Y3.579 E0.06944
G1 X10.820 Y-3.579 E0.78103
G1 X9.920 Y-3.579 E0.06944
G1 X17.078 Y3.579 E0.78103
G1 X16.178 Y3.579 E0.06944
G1 X9.020 Y-3.579 E0.78103
G1 X8.120 Y-3.579 E0.06944
G1 X15.278 Y3.579 E0.78103
G1 X14.378 Y3.579 E0.06944
G1 X7.220 Y-3.579 E0.78103
G1 X6.320 Y-3.579 E0.06944
G1 X13.478 Y3.579 E0.78103
G1 X12.578 Y3.579 E0.06944
G1 X5.421 Y-3.579 E0.78103
G1 X4.521 Y-3.579 E0.06944
G1 X11.678 Y3.579 E0.78103
G1 X10.779 Y3.579 E0.06944
G1 X3.621 Y-3.579 E0.78103
G1 X2.721 Y-3.579 E0.06944
G1 X9.879 Y3.579 E0.78103
G1 X8.979 Y3.579 E0.06944
G1 X1.821 Y-3.579 E0.78103
G1 X0.921 Y-3.579 E0.06944
G1 X8.079 Y3.579 E0.78103
G1 X7.179 Y3.579 E0.06944
G1 X0.021 Y-3.579 E0.78103
G1 X-0.879 Y-3.579 E0.06944
G1 X6.279 Y3.579 E0.78103
G1 X5.379 Y3.579 E0.06944
G1 X-1.779 Y-3.579 E0.78103
G1 X-2.679 Y-3.579 E0.06944
G1 X4.479 Y3.579 E0.78103
G1 X3.579 Y3.579 E0.06944
G1 X-3.579 Y-3.579 E0.78103
G1 X-4.479 Y-3.579 E0.06944
G1 X2.679 Y3.579 E0.78103
G1 X1.779 Y3.579 E0.06944
G1 X-5.379 Y-3.579 E0.78103
G1 X-6.279 Y-3.579 E0.06944
G1 X0.879 Y3.579 E0.78103
G1 X-0.021 Y3.579 E0.06944
G1 X-7.179 Y-3.579 E0.78103
G1 X-8.079 Y-3.579 E0.06944
G1 X-0.921 Y3.579 E0.78103
G1 X-1.821 Y3.579 E0.06944
G1 X-8.979 Y-3.579 E0.78103
G1 X-9.879 Y-3.579 E0.06944
G1 X-2.721 Y3.579 E0.78103
G1 X-3.621 Y3.579 E0.06944
G1 X-10.779 Y-3.579 E0.78103
G1 X-11.679 Y-3.579 E0.06944
G1 X-4.521 Y3.579 E0.78103
G1 X-5.421 Y3.579 E0.06944
G1 X-12.578 Y-3.579 E0.78103
G1 X-13.478 Y-3.579 E0.06944
G1 X-6.321 Y3.579 E0.78103
G1 X-7.220 Y3.579 E0.06944
G1 X-14.378 Y-3.579 E0.78103
G1 X-15.278 Y-3.579 E0.06944
G1 X-8.120 Y3.579 E0.78103
G1 X-9.020 Y3.579 E0.06944
G1 X-16.178 Y-3.579 E0.78103
G1 X-17.078 Y-3.579 E0.06944
G1 X-9.920 Y3.579 E0.78103
G1 X-10.820 Y3.579 E0.06944
G1 X-17.978 Y-3.579 E0.78103
G1 X-18.878 Y-3.579 E0.06944
G1 X-11.720 Y3.579 E0.78103
G1 X-12.620 Y3.579 E0.06944
G1 X-19.778 Y-3.579 E0.78103
G1 X-20.678 Y-3.579 E0.06944
G1 X-13.520 Y3.579 E0.78103
G1 X-14.420 Y3.579 E0.06944
G1 X-21.578 Y-3.579 E0.78103
G1 X-22.478 Y-3.579 E0.06944
G1 X-15.320 Y3.579 E0.78103
G1 X-16.220 Y3.579 E0.06944
G1 X-23.378 Y-3.579 E0.78103
G1 X-24.278 Y-3.579 E0.06944
G1 X-17.120 Y3.579 E0.78103
G1 X-18.020 Y3.579 E0.06944
G1 X-25.178 Y-3.579 E0.78103
G1 X-26.078 Y-3.579 E0.06944
G1 X-18.920 Y3.579 E0.78103
G1 X-19.820 Y3.579 E0.06944
G1 X-26.978 Y-3.579 E0.78103
G1 X-27.329 Y-3.030 E0.05027
G1 X-20.720 Y3.579 E0.72116
G1 X-21.620 Y3.579 E0.06944
G1 X-27.329 Y-2.130 E0.62297
G1 X-27.329 Y-1.230 E0.06944
G1 X-22.520 Y3.579 E0.52477
G1 X-23.420 Y3.579 E0.06944
G1 X-27.329 Y-0.330 E0.42657
G1 X-27.329 Y0.569 E0.06944
G1 X-24.319 Y3.579 E0.32838
G1 X-25.219 Y3.579 E0.06944
G1 X-27.329 Y1.469 E0.23018
G1 X-27.329 Y2.369 E0.06944
G1 X-26.119 Y3.579 E0.13198
G1 X-27.019 Y3.579 E0.06944
G1 X-27.329 Y3.269 E0.03378
G1 E-3.50000 F1500.00000
G1 Z0.700 F15000.000
G1 X21.539 Y4.393 F15000.000
G1 Z0.500 F15000.000
G1 E3.50000 F1500.00000
G1 X-28.143 Y4.393 E1.43396 F2579.200
G1 X-28.143 Y-4.393 E0.25358
G1 X28.143 Y-4.393 E1.62456
G1 X28.143 Y4.393 E0.25358
G1 X21.599 Y4.393 E0.18887 F2579.200
G1 X21.599 Y4.750 F15000.000
G1 X-28.500 Y4.750 E1.44600 F2579.200
G1 X-28.500 Y-4.750 E0.27420
G1 X28.500 Y-4.750 E1.64517
G1 X28.500 Y4.750 E0.27420
G1 X21.659 Y4.750 E0.19744 F2579.200
G1 X21.399 Y4.404 F15000.000
G1 X27.744 Y4.185 F15000.000
G1 X27.935 Y3.994 E0.00784 F3438.934
G1 X27.935 Y3.487 E0.01468
G1 X27.237 Y4.185 E0.02861
G1 X26.730 Y4.185 E0.01468
G1 X27.935 Y2.980 E0.04937
G1 X27.935 Y2.473 E0.01468
G1 X26.223 Y4.185 E0.07013
G1 X25.716 Y4.185 E0.01468
G1 X27.935 Y1.966 E0.09089
G1 X27.935 Y1.460 E0.01468
G1 X25.210 Y4.185 E0.11165
G1 X24.703 Y4.185 E0.01468
G1 X27.935 Y0.953 E0.13241
G1 X27.935 Y0.446 E0.01468
G1 X24.196 Y4.185 E0.15318
G1 X23.689 Y4.185 E0.01468
G1 X27.935 Y-0.061 E0.17394
G1 X27.935 Y-0.568 E0.01468
G1 X23.182 Y4.185 E0.19470
G1 X22.676 Y4.185 E0.01468
G1 X27.935 Y-1.074 E0.21546
G1 X27.935 Y-1.581 E0.01468
G1 X22.169 Y4.185 E0.23622
G1 X21.662 Y4.185 E0.01468
G1 X27.935 Y-2.088 E0.25698
G1 X27.935 Y-2.595 E0.01468
G1 X21.155 Y4.185 E0.27774
G1 X20.648 Y4.185 E0.01468
G1 X27.935 Y-3.102 E0.29851
G1 X27.935 Y-3.608 E0.01468
G1 X20.142 Y4.185 E0.31927
G1 X19.635 Y4.185 E0.01468
G1 X27.935 Y-4.115 E0.34003
G1 X27.498 Y-4.185 E0.01282
G1 X19.128 Y4.185 E0.34289
G1 X18.621 Y4.185 E0.01468
G1 X26.991 Y-4.185 E0.34289
G1 X26.485 Y-4.185 E0.01468
G1 X18.114 Y4.185 E0.34289
G1 X17.608 Y4.185 E0.01468
G1 X25.978 Y-4.185 E0.34289
G1 X25.471 Y-4.185 E0.01468
G1 X17.101 Y4.185 E0.34289
G1 X16.594 Y4.185 E0.01468
G1 X24.964 Y-4.185 E0.34289
G1 X24.457 Y-4.185 E0.01468
G1 X16.087 Y4.185 E0.34289
G1 X15.580 Y4.185 E0.01468
G1 X23.951 Y-4.185 E0.34289
G1 X23.444 Y-4.185 E0.01468
G1 X15.073 Y4.185 E0.34289
G1 X14.567 Y4.185 E0.01468
G1 X22.937 Y-4.185 E0.34289
G1 X22.430 Y-4.185 E0.01468
G1 X14.060 Y4.185 E0.34289
G1 X13.553 Y4.185 E0.01468
G1 X21.923 Y-4.185 E0.34289
G1 X21.417 Y-4.185 E0.01468
G1 X13.046 Y4.185 E0.34289
G1 X12.539 Y4.185 E0.01468
G1 X20.910 Y-4.185 E0.34289
G1 X20.403 Y-4.185 E0.01468
G1 X12.033 Y4.185 E0.34289
G1 X11.526 Y4.185 E0.01468
G1 X19.896 Y-4.185 E0.34289
G1 X19.389 Y-4.185 E0.01468
G1 X11.019 Y4.185 E0.34289
G1 X10.512 Y4.185 E0.01468
G1 X18.883 Y-4.185 E0.34289
G1 X18.376 Y-4.185 E0.01468
G1 X10.005 Y4.185 E0.34289
G1 X9.499 Y4.185 E0.01468
G1 X17.869 Y-4.185 E0.34289
G1 X17.362 Y-4.185 E0.01468
G1 X8.992 Y4.185 E0.34289
G1 X8.485 Y4.185 E0.01468
G1 X16.855 Y-4.185 E0.34289
G1 X16.349 Y-4.185 E0.01468
G1 X7.978 Y4.185 E0.34289
G1 X7.471 Y4.185 E0.01468
G1 X15.842 Y-4.185 E0.34289
G1 X15.335 Y-4.185 E0.01468
G1 X6.965 Y4.185 E0.34289
G1 X6.458 Y4.185 E0.01468
G1 X14.828 Y-4.185 E0.34289
G1 X14.321 Y-4.185 E0.01468
G1 X5.951 Y4.185 E0.34289
G1 X5.444 Y4.185 E0.01468
G1 X13.814 Y-4.185 E0.34289
G1 X13.308 Y-4.185 E0.01468
G1 X4.937 Y4.185 E0.34289
G1 X4.431 Y4.185 E0.01468
G1 X12.801 Y-4.185 E0.34289
G1 X12.294 Y-4.185 E0.01468
G1 X3.924 Y4.185 E0.34289
G1 X3.417 Y4.185 E0.01468
G1 X11.787 Y-4.185 E0.34289
G1 X11.280 Y-4.185 E0.01468
G1 X2.910 Y4.185 E0.34289
G1 X2.403 Y4.185 E0.01468
G1 X10.774 Y-4.185 E0.34289
G1 X10.267 Y-4.185 E0.01468
G1 X1.896 Y4.185 E0.34289
G1 X1.390 Y4.185 E0.01468
G1 X9.760 Y-4.185 E0.34289
G1 X9.253 Y-4.185 E0.01468
G1 X0.883 Y4.185 E0.34289
G1 X0.376 Y4.185 E0.01468
G1 X8.746 Y-4.185 E0.34289
G1 X8.240 Y-4.185 E0.01468
G1 X-0.131 Y4.185 E0.34289
G1 X-0.638 Y4.185 E0.01468
G1 X7.733 Y-4.185 E0.34289
G1 X7.226 Y-4.185 E0.01468
G1 X-1.144 Y4.185 E0.34289
G1 X-1.651 Y4.185 E0.01468
G1 X6.719 Y-4.185 E0.34289
G1 X6.212 Y-4.185 E0.01468
G1 X-2.158 Y4.185 E0.34289
G1 X-2.665 Y4.185 E0.01468
G1 X5.706 Y-4.185 E0.34289
G1 X5.199 Y-4.185 E0.01468
G1 X-3.172 Y4.185 E0.34289
G1 X-3.678 Y4.185 E0.01468
G1 X4.692 Y-4.185 E0.34289
G1 X4.185 Y-4.185 E0.01468
G1 X-4.185 Y4.185 E0.34289
G1 X-4.692 Y4.185 E0.01468
G1 X3.678 Y-4.185 E0.34289
G1 X3.171 Y-4.185 E0.01468
G1 X-5.199 Y4.185 E0.34289
G1 X-5.706 Y4.185 E0.01468
G1 X2.665 Y-4.185 E0.34289
G1 X2.158 Y-4.185 E0.01468
G1 X-6.212 Y4.185 E0.34289
G1 X-6.719 Y4.185 E0.01468
G1 X1.651 Y-4.185 E0.34289
G1 X1.144 Y-4.185 E0.01468
G1 X-7.226 Y4.185 E0.34289
G1 X-7.733 Y4.185 E0.01468
G1 X0.637 Y-4.185 E0.34289
G1 X0.131 Y-4.185 E0.01468
G1 X-8.240 Y4.185 E0.34289
G1 X-8.747 Y4.185 E0.01468
G1 X-0.376 Y-4.185 E0.34289
G1 X-0.883 Y-4.185 E0.01468
G1 X-9.253 Y4.185 E0.34289
G1 X-9.760 Y4.185 E0.01468
G1 X-1.390 Y-4.185 E0.34289
G1 X-1.897 Y-4.185 E0.01468
G1 X-10.267 Y4.185 E0.34289
G1 X-10.774 Y4.185 E0.01468
G1 X-2.403 Y-4.185 E0.34289
G1 X-2.910 Y-4.185 E0.01468
G1 X-11.281 Y4.185 E0.34289
G1 X-11.787 Y4.185 E0.01468
G1 X-3.417 Y-4.185 E0.34289
G1 X-3.924 Y-4.185 E0.01468
G1 X-12.294 Y4.185 E0.34289
G1 X-12.801 Y4.185 E0.01468
G1 X-4.431 Y-4.185 E0.34289
G1 X-4.937 Y-4.185 E0.01468
G1 X-13.308 Y4.185 E0.34289
G1 X-13.815 Y4.185 E0.01468
G1 X-5.444 Y-4.185 E0.34289
G1 X-5.951 Y-4.185 E0.01468
G1 X-14.321 Y4.185 E0.34289
G1 X-14.828 Y4.185 E0.01468
G1 X-6.458 Y-4.185 E0.34289
G1 X-6.965 Y-4.185 E0.01468
G1 X-15.335 Y4.185 E0.34289
G1 X-15.842 Y4.185 E0.01468
G1 X-7.471 Y-4.185 E0.34289
G1 X-7.978 Y-4.185 E0.01468
G1 X-16.349 Y4.185 E0.34289
G1 X-16.855 Y4.185 E0.01468
G1 X-8.485 Y-4.185 E0.34289
G1 X-8.992 Y-4.185 E0.01468
G1 X-17.362 Y4.185 E0.34289
G1 X-17.869 Y4.185 E0.01468
G1 X-9.499 Y-4.185 E0.34289
G1 X-10.006 Y-4.185 E0.01468
G1 X-18.376 Y4.185 E0.34289
G1 X-18.883 Y4.185 E0.01468
G1 X-10.512 Y-4.185 E0.34289
G1 X-11.019 Y-4.185 E0.01468
G1 X-19.389 Y4.185 E0.34289
G1 X-19.896 Y4.185 E0.01468
G1 X-11.526 Y-4.185 E0.34289
G1 X-12.033 Y-4.185 E0.01468
G1 X-20.403 Y4.185 E0.34289
G1 X-20.910 Y4.185 E0.01468
G1 X-12.540 Y-4.185 E0.34289
G1 X-13.046 Y-4.185 E0.01468
G1 X-21.417 Y4.185 E0.34289
G1 X-21.924 Y4.185 E0.01468
G1 X-13.553 Y-4.185 E0.34289
G1 X-14.060 Y-4.185 E0.01468
G1 X-22.430 Y4.185 E0.34289
G1 X-22.937 Y4.185 E0.01468
G1 X-14.567 Y-4.185 E0.34289
G1 X-15.074 Y-4.185 E0.01468
G1 X-23.444 Y4.185 E0.34289
G1 X-23.951 Y4.185 E0.01468
G1 X-15.580 Y-4.185 E0.34289
G1 X-16.087 Y-4.185 E0.01468
G1 X-24.458 Y4.185 E0.34289
G1 X-24.964 Y4.185 E0.01468
G1 X-16.594 Y-4.185 E0.34289
G1 X-17.101 Y-4.185 E0.01468
G1 X-25.471 Y4.185 E0.34289
G1 X-25.978 Y4.185 E0.01468
G1 X-17.608 Y-4.185 E0.34289
G1 X-18.114 Y-4.185 E0.01468
G1 X-26.485 Y4.185 E0.34289
G1 X-26.992 Y4.185 E0.01468
G1 X-18.621 Y-4.185 E0.34289
G1 X-19.128 Y-4.185 E0.01468
G1 X-27.498 Y4.185 E0.34289
G1 X-27.935 Y4.115 E0.01281
G1 X-19.635 Y-4.185 E0.34002
G1 X-20.142 Y-4.185 E0.01468
G1 X-27.935 Y3.608 E0.31926
G1 X-27.935 Y3.102 E0.01468
G1 X-20.648 Y-4.185 E0.29850
G1 X-21.155 Y-4.185 E0.01468
G1 X-27.935 Y2.595 E0.27774
G1 X-27.935 Y2.088 E0.01468
G1 X-21.662 Y-4.185 E0.25698
G1 X-22.169 Y-4.185 E0.01468
G1 X-27.935 Y1.581 E0.23622
G1 X-27.935 Y1.074 E0.01468
G1 X-22.676 Y-4.185 E0.21545
G1 X-23.183 Y-4.185 E0.01468
G1 X-27.935 Y0.567 E0.19469
G1 X-27.935 Y0.061 E0.01468
G1 X-23.689 Y-4.185 E0.17393
G1 X-24.196 Y-4.185 E0.01468
G1 X-27.935 Y-0.446 E0.15317
G1 X-27.935 Y-0.953 E0.01468
G1 X-24.703 Y-4.185 E0.13241
G1 X-25.210 Y-4.185 E0.01468
G1 X-27.935 Y-1.460 E0.11165
G1 X-27.935 Y-1.967 E0.01468
G1 X-25.717 Y-4.185 E0.09089
G1 X-26.223 Y-4.185 E0.01468
G1 X-27.935 Y-2.473 E0.07012
G1 X-27.935 Y-2.980 E0.01468
G1 X-26.730 Y-4.185 E0.04936
G1 X-27.237 Y-4.185 E0.01468
G1 X-27.935 Y-3.487 E0.02860
G1 X-27.935 Y-3.994 E0.01468
G1 X-27.744 Y-4.185 E0.00784
G1 E-3.50000 F1500.00000
G1 Z0.900 F15000.000
G1 X-15.751 Y4.393 F15000.000
G1 Z0.700 F15000.000
G1 E3.50000 F1500.00000
G1 X-28.143 Y4.393 E0.35767 F2400.000
G1 X-28.143 Y-4.393 E0.25358
G1 X28.143 Y-4.393 E1.62456
G1 X28.143 Y4.393 E0.25358
G1 X-15.691 Y4.393 E1.26516 F2400.000
G1 X-15.691 Y4.750 F15000.000
G1 X-28.500 Y4.750 E0.36971 F2400.000
G1 X-28.500 Y-4.750 E0.27420
G1 X28.500 Y-4.750 E1.64517
G1 X28.500 Y4.750 E0.27420
G1 X-15.631 Y4.750 E1.27373 F2400.000
G1 X-15.891 Y4.404 F15000.000
G1 X-27.935 Y1.845 F15000.000
G1 X-25.595 Y4.185 E0.09553 F2400.000
G1 X-24.384 Y4.185 E0.03495
G1 X-27.935 Y1.025 E0.13722
G1 X-27.935 Y-3.205 E0.12208
G1 X-20.545 Y4.185 E0.30166
G1 X-19.006 Y4.185 E0.04441
G1 X-27.935 Y-3.735 E0.34449
G1 X-23.865 Y-4.185 E0.11818
G1 X-15.495 Y4.185 E0.34166
G1 X-13.628 Y4.185 E0.05387
G1 X-23.066 Y-4.185 E0.36409
G1 X-18.815 Y-4.185 E0.12268
G1 X-10.445 Y4.185 E0.34166
G1 X-8.251 Y4.185 E0.06333
G1 X-17.688 Y-4.185 E0.36409
G1 X-13.766 Y-4.185 E0.11322
G1 X-5.395 Y4.185 E0.34166
G1 X-2.873 Y4.185 E0.07280
G1 X-12.310 Y-4.185 E0.36409
G1 X-8.716 Y-4.185 E0.10376
G1 X-0.345 Y4.185 E0.34166
G1 X2.505 Y4.185 E0.08226
G1 X-6.933 Y-4.185 E0.36409
G1 X-3.666 Y-4.185 E0.09429
G1 X4.705 Y4.185 E0.34166
G1 X7.882 Y4.185 E0.09172
G1 X-1.555 Y-4.185 E0.36409
G1 X1.384 Y-4.185 E0.08483
G1 X9.754 Y4.185 E0.34166
G1 X13.260 Y4.185 E0.10118
G1 X3.823 Y-4.185 E0.36409
G1 X6.434 Y-4.185 E0.07537
G1 X14.804 Y4.185 E0.34166
G1 X18.638 Y4.185 E0.11064
G1 X9.200 Y-4.185 E0.36409
G1 X11.484 Y-4.185 E0.06591
G1 X19.854 Y4.185 E0.34166
G1 X24.015 Y4.185 E0.12011
G1 X14.578 Y-4.185 E0.36409
G1 X16.534 Y-4.185 E0.05645
G1 X24.904 Y4.185 E0.34166
G1 X27.935 Y2.895 E0.09508
G1 X19.956 Y-4.185 E0.30789
G1 X21.584 Y-4.185 E0.04698
G1 X27.935 Y2.166 E0.25926
G1 X27.935 Y-1.865 E0.11636
G1 X25.333 Y-4.185 E0.10062
G1 X26.633 Y-4.185 E0.03752
G1 X27.935 Y-2.883 E0.05313
M106 S255
G1 E-3.50000 F1500.00000
G1 Z1.100 F15000.000
G1 X-2.566 Y4.393 F15000.000
G1 Z0.900 F15000.000
G1 E3.50000 F1500.00000
G1 X-28.143 Y4.393 E0.73821 F2400.000
G1 X-28.143 Y-4.393 E0.25358
G1 X28.143 Y-4.393 E1.62456
G1 X28.143 Y4.393 E0.25358
G1 X-2.506 Y4.393 E0.88462 F2400.000
G1 X-2.506 Y4.750 F15000.000
G1 X-28.500 Y4.750 E0.75025 F2400.000
G1 X-28.500 Y-4.750 E0.27420
G1 X28.500 Y-4.750 E1.64517
G1 X28.500 Y4.750 E0.27420
G1 X-2.446 Y4.750 E0.89319 F2400.000
G1 X-2.706 Y4.404 F15000.000
G1 X-27.935 Y-1.845 F15000.000
G1 X-25.595 Y-4.185 E0.09553 F2400.000
G1 X-22.045 Y-4.185 E0.10244
G1 X-27.935 Y2.450 E0.25607
G1 X-27.935 Y3.205 E0.02180
G1 X-20.545 Y-4.185 E0.30166
G1 X-17.286 Y-4.185 E0.09407
G1 X-24.711 Y4.185 E0.32296
G1 X-23.865 Y4.185 E0.02442
G1 X-15.495 Y-4.185 E0.34166
G1 X-12.526 Y-4.185 E0.08570
G1 X-19.952 Y4.185 E0.32296
G1 X-18.815 Y4.185 E0.03280
G1 X-10.445 Y-4.185 E0.34166
G1 X-7.766 Y-4.185 E0.07732
G1 X-15.192 Y4.185 E0.32296
G1 X-13.766 Y4.185 E0.04117
G1 X-5.395 Y-4.185 E0.34166
G1 X-3.006 Y-4.185 E0.06895
G1 X-10.432 Y4.185 E0.32296
G1 X-8.716 Y4.185 E0.04955
G1 X-0.345 Y-4.185 E0.34166
G1 X1.753 Y-4.185 E0.06057
G1 X-5.673 Y4.185 E0.32296
G1 X-3.666 Y4.185 E0.05792
G1 X4.705 Y-4.185 E0.34166
