; generated by Slic3r 1.2.9 on 2017-09-15 at 17:01:09

; external perimeters extrusion width = 0.40mm
; perimeters extrusion width = 0.40mm
; infill extrusion width = 0.40mm
; solid infill extrusion width = 0.40mm
; top infill extrusion width = 0.40mm

M107
M83
T0
M116
G21 ; set units to millimeters
G90 ; use absolute coordinates
M83 ; use relative distances for extrusion
G1 E-3.50000 F1500.00000
G1 Z0.400 F15000.000
G1 X0.000 Y15.634 F15000.000
G1 Z0.300 F15000.000
G1 E3.50000 F1500.00000
G1 X-38.719 Y15.634 E2.98387 F960.000
G1 X-39.219 Y15.599 E0.03861
G1 X-41.266 Y15.315 E0.15934
G1 X-41.876 Y15.176 E0.04821
G1 X-43.845 Y14.545 E0.15934
G1 X-44.422 Y14.303 E0.04822
G1 X-46.254 Y13.344 E0.15934
G1 X-46.781 Y13.007 E0.04821
G1 X-48.421 Y11.748 E0.15934
G1 X-48.883 Y11.326 E0.04822
G1 X-50.282 Y9.804 E0.15934
G1 X-50.665 Y9.309 E0.04821
G1 X-51.783 Y7.570 E0.15934
G1 X-52.075 Y7.016 E0.04822
G1 X-52.878 Y5.111 E0.15934
G1 X-53.071 Y4.516 E0.04822
G1 X-53.536 Y2.501 E0.15934
G1 X-53.623 Y1.882 E0.04821
G1 X-53.736 Y-0.183 E0.15934
G1 X-53.716 Y-0.808 E0.04822
G1 X-53.473 Y-2.861 E0.15934
G1 X-53.346 Y-3.474 E0.04821
G1 X-52.755 Y-5.455 E0.15934
G1 X-52.525 Y-6.037 E0.04821
G1 X-51.603 Y-7.888 E0.15934
G1 X-51.276 Y-8.421 E0.04822
G1 X-50.051 Y-10.086 E0.15934
G1 X-49.638 Y-10.556 E0.04822
G1 X-48.144 Y-11.986 E0.15934
G1 X-47.657 Y-12.379 E0.04821
G1 X-45.941 Y-13.531 E0.15934
G1 X-45.393 Y-13.834 E0.04822
G1 X-43.505 Y-14.676 E0.15934
G1 X-42.913 Y-14.880 E0.04822
G1 X-40.908 Y-15.386 E0.15934
G1 X-40.291 Y-15.486 E0.04822
G1 X-37.958 Y-15.650 E0.18022
G1 X38.235 Y-15.640 E5.87186
G1 X40.224 Y-15.491 E0.15367 F960.000
G1 X40.820 Y-15.396 E0.04657
G1 X42.899 Y-14.886 E0.16493
G1 X43.511 Y-14.676 E0.04986
G1 X45.399 Y-13.834 E0.15934
G1 X45.947 Y-13.531 E0.04822
G1 X47.663 Y-12.379 E0.15934
G1 X48.150 Y-11.986 E0.04822
G1 X49.644 Y-10.556 E0.15934
G1 X50.057 Y-10.086 E0.04821
G1 X51.283 Y-8.421 E0.15934
G1 X51.609 Y-7.888 E0.04822
G1 X52.531 Y-6.037 E0.15934
G1 X52.761 Y-5.455 E0.04822
G1 X53.352 Y-3.474 E0.15934
G1 X53.479 Y-2.861 E0.04821
G1 X53.722 Y-0.808 E0.15934
G1 X53.742 Y-0.183 E0.04821
G1 X53.629 Y1.882 E0.15934
G1 X53.542 Y2.501 E0.04822
G1 X53.077 Y4.516 E0.15934
G1 X52.884 Y5.111 E0.04821
G1 X52.081 Y7.016 E0.15934
G1 X51.789 Y7.570 E0.04822
G1 X50.671 Y9.309 E0.15934
G1 X50.289 Y9.804 E0.04821
G1 X48.889 Y11.326 E0.15934
G1 X48.427 Y11.748 E0.04822
G1 X46.787 Y13.007 E0.15934
G1 X46.260 Y13.344 E0.04821
G1 X44.429 Y14.303 E0.15934
G1 X43.851 Y14.545 E0.04822
G1 X41.883 Y15.176 E0.15934
G1 X41.273 Y15.315 E0.04822
G1 X39.225 Y15.599 E0.15934
G1 X38.725 Y15.634 E0.03861
G1 X0.060 Y15.634 E2.97972
G1 E-3.50000 F1500.00000
G1 Z0.700 F15000.000
G1 X-36.257 Y8.979 F15000.000
G1 Z0.300 F15000.000
G1 E3.50000 F1500.00000
G1 X-36.365 Y9.284 E0.02494 F600.000
G1 X-36.529 Y9.573 E0.02562
G1 X-36.724 Y9.815 E0.02399
G1 X-36.966 Y10.028 E0.02485
G1 X-37.241 Y10.198 E0.02485
G1 X-37.540 Y10.318 E0.02485
G1 X-37.855 Y10.386 E0.02485
G1 X-38.179 Y10.399 E0.02497
G1 X-38.512 Y10.354 E0.02590
G1 X-38.806 Y10.264 E0.02368
G1 X-39.094 Y10.119 E0.02485
G1 X-39.353 Y9.927 E0.02485
G1 X-39.576 Y9.694 E0.02485
G1 X-39.757 Y9.427 E0.02485
G1 X-39.890 Y9.133 E0.02485
G1 X-39.971 Y8.821 E0.02485
G1 X-39.999 Y8.498 E0.02497
G1 X-39.967 Y8.164 E0.02590
G1 X-39.890 Y7.866 E0.02368
G1 X-39.757 Y7.572 E0.02485
G1 X-39.576 Y7.305 E0.02485
G1 X-39.353 Y7.072 E0.02485
G1 X-39.094 Y6.881 E0.02485
G1 X-38.805 Y6.735 E0.02497
G1 X-38.482 Y6.639 E0.02590
G1 X-38.178 Y6.600 E0.02368 F600.000
G1 X-37.855 Y6.614 E0.02485
G1 X-37.540 Y6.682 E0.02485
G1 X-37.241 Y6.802 E0.02485
G1 X-36.966 Y6.971 E0.02485
G1 X-36.724 Y7.184 E0.02485
G1 X-36.522 Y7.435 E0.02485
G1 X-36.364 Y7.716 E0.02485
G1 X-36.257 Y8.021 E0.02485
G1 X-36.202 Y8.338 E0.02485
G1 X-36.202 Y8.661 E0.02485
G1 X-36.247 Y8.920 E0.02023
G1 X-36.033 Y9.212 F15000.000
G1 E-3.50000 F1500.00000
G1 Z0.700 F15000.000
G1 X-45.224 Y1.315 F15000.000
G1 Z0.300 F15000.000
G1 E3.50000 F1500.00000
G1 X-45.466 Y1.528 E0.02485 F600.000
G1 X-45.741 Y1.697 E0.02485
G1 X-46.040 Y1.818 E0.02485
G1 X-46.356 Y1.886 E0.02485
G1 X-46.678 Y1.899 E0.02485
G1 X-46.998 Y1.858 E0.02485
G1 X-47.307 Y1.763 E0.02497
G1 X-47.606 Y1.610 E0.02590
G1 X-47.853 Y1.427 E0.02368
G1 X-48.076 Y1.194 E0.02485
G1 X-48.257 Y0.927 E0.02485
G1 X-48.390 Y0.633 E0.02485
G1 X-48.471 Y0.321 E0.02485
G1 X-48.499 Y-0.002 E0.02497
G1 X-48.467 Y-0.337 E0.02590
G1 X-48.390 Y-0.634 E0.02368
G1 X-48.257 Y-0.928 E0.02485
G1 X-48.076 Y-1.195 E0.02486
G1 X-47.853 Y-1.428 E0.02485
G1 X-47.594 Y-1.620 E0.02485
G1 X-47.305 Y-1.765 E0.02497
G1 X-46.983 Y-1.861 E0.02590
G1 X-46.678 Y-1.900 E0.02368 F600.000
G1 X-46.356 Y-1.886 E0.02485
G1 X-46.040 Y-1.819 E0.02485
G1 X-45.741 Y-1.698 E0.02485
G1 X-45.466 Y-1.529 E0.02485
G1 X-45.223 Y-1.315 E0.02497
G1 X-45.014 Y-1.052 E0.02590
G1 X-44.864 Y-0.784 E0.02368
G1 X-44.757 Y-0.480 E0.02485
G1 X-44.702 Y-0.162 E0.02485
G1 X-44.702 Y0.161 E0.02485
G1 X-44.757 Y0.479 E0.02485
G1 X-44.865 Y0.784 E0.02497
G1 X-45.031 Y1.076 E0.02590
G1 X-45.187 Y1.269 E0.01905
G1 X-45.143 Y1.627 F15000.000
G1 E-3.50000 F1500.00000
G1 Z0.700 F15000.000
G1 X33.190 Y-0.000 F15000.000
G1 Z0.300 F15000.000
G1 E3.50000 F1500.00000
G1 X33.261 Y-0.831 E0.06422 F600.000
G1 X33.471 Y-1.637 E0.06422
G1 X33.814 Y-2.396 E0.06422
G1 X34.281 Y-3.087 E0.06422
G1 X34.857 Y-3.688 E0.06422
G1 X35.527 Y-4.184 E0.06422
G1 X36.274 Y-4.561 E0.06448
G1 X37.100 Y-4.807 E0.06642
G1 X37.895 Y-4.909 E0.06172 F600.000
G1 X38.727 Y-4.873 E0.06422
G1 X39.542 Y-4.698 E0.06422
G1 X40.315 Y-4.387 E0.06422
G1 X41.024 Y-3.950 E0.06422
G1 X41.650 Y-3.400 E0.06422
G1 X42.173 Y-2.751 E0.06422
G1 X42.580 Y-2.024 E0.06422
G1 X42.857 Y-1.238 E0.06421
G1 X42.994 Y-0.439 E0.06252
G1 X43.013 Y-0.000 E0.03382
G1 X42.994 Y0.438 E0.03381
G1 X42.857 Y1.238 E0.06252
G1 X42.580 Y2.023 E0.06422
G1 X42.173 Y2.751 E0.06422
G1 X41.650 Y3.399 E0.06422
G1 X41.024 Y3.950 E0.06421
G1 X40.315 Y4.386 E0.06422
G1 X39.542 Y4.697 E0.06422
G1 X38.727 Y4.873 E0.06422
G1 X37.895 Y4.908 E0.06422
G1 X37.068 Y4.802 E0.06421
G1 X36.271 Y4.558 E0.06422
G1 X35.527 Y4.183 E0.06422
G1 X34.857 Y3.688 E0.06422
G1 X34.281 Y3.086 E0.06422
G1 X33.814 Y2.396 E0.06422
G1 X33.471 Y1.636 E0.06422
G1 X33.261 Y0.830 E0.06422
G1 X33.195 Y0.059 E0.05959
G1 X33.829 Y0.005 F15000.000
G1 X33.890 Y-0.723 E0.05633 F600.000
G1 X34.072 Y-1.425 E0.05588
G1 X34.371 Y-2.085 E0.05588
G1 X34.777 Y-2.686 E0.05588
G1 X35.279 Y-3.209 E0.05588
G1 X35.862 Y-3.641 E0.05588
G1 X36.510 Y-3.968 E0.05597
G1 X37.232 Y-4.183 E0.05808
G1 X37.922 Y-4.271 E0.05356 F600.000
G1 X38.646 Y-4.241 E0.05588
G1 X39.355 Y-4.088 E0.05588
G1 X40.028 Y-3.818 E0.05588
G1 X40.645 Y-3.437 E0.05588
G1 X41.189 Y-2.958 E0.05588
G1 X41.645 Y-2.394 E0.05588
G1 X41.998 Y-1.761 E0.05588
G1 X42.240 Y-1.078 E0.05588
G1 X42.361 Y-0.371 E0.05523
G1 X42.377 Y-0.000 E0.02861
G1 X42.361 Y0.371 E0.02861
G1 X42.240 Y1.077 E0.05522
G1 X41.998 Y1.760 E0.05588
G1 X41.645 Y2.393 E0.05588
G1 X41.189 Y2.958 E0.05588
G1 X40.645 Y3.437 E0.05588
G1 X40.028 Y3.817 E0.05588
G1 X39.355 Y4.087 E0.05588
G1 X38.646 Y4.240 E0.05588
G1 X37.922 Y4.271 E0.05588
G1 X37.202 Y4.179 E0.05587
G1 X36.509 Y3.966 E0.05588
G1 X35.862 Y3.640 E0.05588
G1 X35.279 Y3.209 E0.05588
G1 X34.777 Y2.685 E0.05588
G1 X34.371 Y2.084 E0.05588
G1 X34.072 Y1.424 E0.05588
G1 X33.890 Y0.722 E0.05588
G1 X33.834 Y0.065 E0.05080
G1 X33.488 Y-0.204 F15000.000
G1 X32.133 Y0.065 F15000.000
G1 X32.133 Y0.215 E0.01153 F600.000
G1 X32.060 Y0.639 E0.03319
G1 X31.917 Y1.046 E0.03319
G1 X31.707 Y1.422 E0.03319
G1 X31.436 Y1.757 E0.03319
G1 X31.113 Y2.041 E0.03319
G1 X30.746 Y2.267 E0.03319
G1 X30.347 Y2.428 E0.03319
G1 X29.925 Y2.518 E0.03319
G1 X29.495 Y2.537 E0.03319
G1 X29.068 Y2.482 E0.03319
G1 X28.656 Y2.356 E0.03319
G1 X28.272 Y2.162 E0.03319
G1 X27.925 Y1.906 E0.03319
G1 X27.627 Y1.595 E0.03319
G1 X27.386 Y1.238 E0.03319
G1 X27.209 Y0.846 E0.03320
G1 X27.099 Y0.425 E0.03352
G1 X27.065 Y-0.018 E0.03424
G1 X27.100 Y-0.430 E0.03180
G1 X27.209 Y-0.846 E0.03320
G1 X27.386 Y-1.239 E0.03320
G1 X27.627 Y-1.596 E0.03319
G1 X27.925 Y-1.907 E0.03319
G1 X28.272 Y-2.163 E0.03319
G1 X28.660 Y-2.359 E0.03351
G1 X29.086 Y-2.485 E0.03424
G1 X29.495 Y-2.537 E0.03181 F600.000
G1 X29.925 Y-2.519 E0.03319
G1 X30.347 Y-2.428 E0.03319
G1 X30.746 Y-2.268 E0.03319
G1 X31.113 Y-2.042 E0.03319
G1 X31.436 Y-1.757 E0.03319
G1 X31.707 Y-1.422 E0.03319
G1 X31.917 Y-1.046 E0.03319
G1 X32.060 Y-0.640 E0.03319
G1 X32.133 Y-0.216 E0.03319
G1 X32.133 Y0.005 E0.01703
G1 X31.498 Y0.005 F15000.000
G1 X31.498 Y0.161 E0.01199 F600.000
G1 X31.443 Y0.479 E0.02485
G1 X31.336 Y0.783 E0.02486
G1 X31.178 Y1.064 E0.02485
G1 X30.976 Y1.315 E0.02485
G1 X30.734 Y1.528 E0.02486
G1 X30.459 Y1.697 E0.02485
G1 X30.160 Y1.818 E0.02485
G1 X29.844 Y1.886 E0.02486
G1 X29.522 Y1.899 E0.02485
G1 X29.202 Y1.858 E0.02486
G1 X28.894 Y1.764 E0.02485
G1 X28.606 Y1.619 E0.02485
G1 X28.347 Y1.427 E0.02485
G1 X28.124 Y1.194 E0.02485
G1 X27.943 Y0.927 E0.02485
G1 X27.810 Y0.633 E0.02486
G1 X27.728 Y0.319 E0.02497
G1 X27.703 Y-0.016 E0.02590
G1 X27.729 Y-0.322 E0.02367
G1 X27.810 Y-0.634 E0.02486
G1 X27.943 Y-0.928 E0.02486
G1 X28.124 Y-1.195 E0.02485
G1 X28.347 Y-1.428 E0.02485
G1 X28.606 Y-1.620 E0.02485
G1 X28.895 Y-1.765 E0.02497
G1 X29.217 Y-1.861 E0.02590
G1 X29.522 Y-1.900 E0.02368 F600.000
G1 X29.844 Y-1.886 E0.02485
G1 X30.160 Y-1.819 E0.02486
G1 X30.459 Y-1.698 E0.02485
G1 X30.734 Y-1.529 E0.02486
G1 X30.976 Y-1.316 E0.02485
G1 X31.178 Y-1.065 E0.02485
G1 X31.336 Y-0.784 E0.02485
G1 X31.443 Y-0.480 E0.02485
G1 X31.498 Y-0.162 E0.02486
G1 X31.498 Y-0.055 E0.00824
G1 X31.632 Y0.083 F15000.000
G1 E-3.50000 F1500.00000
G1 Z0.700 F15000.000
G1 X-27.067 Y-0.055 F15000.000
G1 Z0.300 F15000.000
G1 E3.50000 F1500.00000
G1 X-27.067 Y0.215 E0.02078 F600.000
G1 X-27.140 Y0.644 E0.03352
G1 X-27.292 Y1.061 E0.03424
G1 X-27.493 Y1.422 E0.03181
G1 X-27.764 Y1.757 E0.03319
G1 X-28.087 Y2.041 E0.03319
G1 X-28.454 Y2.267 E0.03319
G1 X-28.853 Y2.428 E0.03319
G1 X-29.274 Y2.518 E0.03319
G1 X-29.705 Y2.537 E0.03319
G1 X-30.132 Y2.482 E0.03319
G1 X-30.544 Y2.356 E0.03319
G1 X-30.932 Y2.160 E0.03352
G1 X-31.287 Y1.893 E0.03424
G1 X-31.573 Y1.595 E0.03181
G1 X-31.814 Y1.238 E0.03319
G1 X-31.991 Y0.846 E0.03319
G1 X-32.100 Y0.429 E0.03319
G1 X-32.136 Y-0.000 E0.03319
G1 X-32.100 Y-0.430 E0.03319
G1 X-31.991 Y-0.846 E0.03319
G1 X-31.814 Y-1.239 E0.03319
G1 X-31.573 Y-1.596 E0.03319
G1 X-31.275 Y-1.907 E0.03319
G1 X-30.928 Y-2.163 E0.03319
G1 X-30.540 Y-2.359 E0.03352
G1 X-30.114 Y-2.485 E0.03424
G1 X-29.705 Y-2.537 E0.03181 F600.000
G1 X-29.274 Y-2.519 E0.03319
G1 X-28.853 Y-2.428 E0.03319
G1 X-28.454 Y-2.268 E0.03319
G1 X-28.083 Y-2.040 E0.03352
G1 X-27.752 Y-1.743 E0.03424
G1 X-27.493 Y-1.422 E0.03181
G1 X-27.283 Y-1.046 E0.03319
G1 X-27.139 Y-0.640 E0.03319
G1 X-27.067 Y-0.216 E0.03319
G1 X-27.067 Y-0.115 E0.00779
G1 X-27.702 Y-0.115 F15000.000
G1 X-27.702 Y0.161 E0.02124 F600.000
G1 X-27.757 Y0.480 E0.02497
G1 X-27.872 Y0.796 E0.02590
G1 X-28.022 Y1.064 E0.02368
G1 X-28.224 Y1.315 E0.02485
G1 X-28.466 Y1.528 E0.02485
G1 X-28.741 Y1.697 E0.02485
G1 X-29.040 Y1.818 E0.02485
G1 X-29.355 Y1.886 E0.02485
G1 X-29.678 Y1.899 E0.02485
G1 X-29.997 Y1.858 E0.02485
G1 X-30.306 Y1.764 E0.02485
G1 X-30.595 Y1.618 E0.02497
G1 X-30.864 Y1.416 E0.02590
G1 X-31.076 Y1.194 E0.02368
G1 X-31.257 Y0.927 E0.02485
G1 X-31.390 Y0.633 E0.02485
G1 X-31.471 Y0.321 E0.02485
G1 X-31.498 Y-0.000 E0.02485
G1 X-31.471 Y-0.322 E0.02485
G1 X-31.390 Y-0.634 E0.02485
G1 X-31.257 Y-0.928 E0.02485
G1 X-31.076 Y-1.195 E0.02485
G1 X-30.853 Y-1.428 E0.02485
G1 X-30.594 Y-1.620 E0.02485
G1 X-30.305 Y-1.765 E0.02497
G1 X-29.982 Y-1.861 E0.02590
G1 X-29.678 Y-1.900 E0.02368 F600.000
G1 X-29.355 Y-1.886 E0.02485
G1 X-29.040 Y-1.819 E0.02485
G1 X-28.741 Y-1.698 E0.02485
G1 X-28.465 Y-1.528 E0.02497
G1 X-28.215 Y-1.304 E0.02590
G1 X-28.021 Y-1.065 E0.02368
G1 X-27.864 Y-0.784 E0.02485
G1 X-27.757 Y-0.480 E0.02485
G1 X-27.704 Y-0.175 E0.02385
G1 X-27.457 Y0.011 F15000.000
G1 E-3.50000 F1500.00000
G1 Z0.700 F15000.000
G1 X-33.001 Y-0.752 F15000.000
G1 Z0.300 F15000.000
G1 E3.50000 F1500.00000
G1 X-33.343 Y1.238 E0.15559 F600.000
G1 X-33.620 Y2.023 E0.06422
G1 X-34.027 Y2.751 E0.06422
G1 X-34.550 Y3.399 E0.06422
G1 X-35.176 Y3.950 E0.06422
G1 X-35.885 Y4.386 E0.06422
G1 X-36.658 Y4.697 E0.06422
G1 X-37.473 Y4.873 E0.06422
G1 X-38.305 Y4.908 E0.06422
G1 X-39.132 Y4.802 E0.06422
G1 X-39.929 Y4.558 E0.06422
G1 X-40.673 Y4.183 E0.06422
G1 X-41.343 Y3.688 E0.06422
G1 X-42.585 Y2.392 E0.13831
G1 X-42.449 Y2.256 E0.01478
G1 X-42.729 Y1.636 E0.05243
G1 X-42.939 Y0.830 E0.06422
G1 X-43.010 Y-0.004 E0.06449
G1 X-42.931 Y-0.862 E0.06641
G1 X-42.729 Y-1.637 E0.06172
G1 X-42.386 Y-2.396 E0.06422
G1 X-41.919 Y-3.087 E0.06422
G1 X-41.343 Y-3.688 E0.06422
G1 X-40.673 Y-4.184 E0.06422
G1 X-39.926 Y-4.561 E0.06449
G1 X-39.100 Y-4.807 E0.06641
G1 X-38.305 Y-4.909 E0.06172 F600.000
G1 X-37.473 Y-4.873 E0.06422
G1 X-36.658 Y-4.698 E0.06422
G1 X-35.885 Y-4.387 E0.06422
G1 X-35.176 Y-3.950 E0.06422
G1 X-34.550 Y-3.400 E0.06422
G1 X-34.027 Y-2.751 E0.06422
G1 X-33.620 Y-2.024 E0.06422
G1 X-33.343 Y-1.238 E0.06422
G1 X-33.259 Y-0.752 E0.03800
G1 X-33.061 Y-0.752 E0.01525
G1 X-33.880 Y-0.612 F15000.000
G1 X-33.838 Y-0.365 E0.01929 F600.000
G1 X-33.836 Y-0.117 E0.01915
G1 X-33.755 Y-0.117 E0.00622
G1 X-33.960 Y1.077 E0.09333
G1 X-34.202 Y1.760 E0.05588
G1 X-34.555 Y2.393 E0.05588
G1 X-35.011 Y2.958 E0.05588
G1 X-35.555 Y3.437 E0.05588
G1 X-36.172 Y3.817 E0.05588
G1 X-36.845 Y4.087 E0.05588
G1 X-37.554 Y4.240 E0.05588
G1 X-38.278 Y4.271 E0.05588
G1 X-38.998 Y4.179 E0.05588
G1 X-39.691 Y3.966 E0.05588
G1 X-40.338 Y3.640 E0.05588
G1 X-40.921 Y3.209 E0.05588
G1 X-41.695 Y2.401 E0.08618
G1 X-41.647 Y2.353 E0.00522
G1 X-41.829 Y2.084 E0.02502
G1 X-42.128 Y1.424 E0.05588
G1 X-42.310 Y0.722 E0.05588
G1 X-42.372 Y-0.002 E0.05597
G1 X-42.303 Y-0.752 E0.05807
G1 X-42.128 Y-1.425 E0.05356
G1 X-41.829 Y-2.085 E0.05588
G1 X-41.423 Y-2.686 E0.05588
G1 X-40.921 Y-3.209 E0.05588
G1 X-40.338 Y-3.641 E0.05588
G1 X-39.690 Y-3.968 E0.05597
G1 X-38.968 Y-4.183 E0.05808
G1 X-38.278 Y-4.271 E0.05356 F600.000
G1 X-37.554 Y-4.241 E0.05588
G1 X-36.845 Y-4.088 E0.05588
G1 X-36.172 Y-3.818 E0.05588
G1 X-35.555 Y-3.437 E0.05588
G1 X-35.011 Y-2.958 E0.05588
G1 X-34.555 Y-2.394 E0.05588
G1 X-34.202 Y-1.761 E0.05588
G1 X-33.960 Y-1.078 E0.05588
G1 X-33.890 Y-0.671 E0.03178
G1 X-33.645 Y-0.525 F15000.000
G1 E-3.50000 F1500.00000
G1 Z0.700 F15000.000
G1 X39.797 Y-10.889 F15000.000
G1 Z0.300 F15000.000
G1 E3.50000 F1500.00000
G1 X41.710 Y-10.419 E0.15181 F720.000
G1 X43.441 Y-9.648 E0.14599
G1 X45.016 Y-8.590 E0.14622
G1 X46.386 Y-7.278 E0.14622
G1 X47.511 Y-5.750 E0.14622
G1 X48.357 Y-4.052 E0.14622
G1 X48.900 Y-2.234 E0.14622
G1 X48.985 Y-1.517 E0.05560
G1 X48.720 Y-1.406 E0.02211
G1 X48.436 Y-1.757 E0.03483
G1 X48.113 Y-2.042 E0.03319
G1 X47.746 Y-2.268 E0.03319
G1 X47.347 Y-2.428 E0.03319
G1 X46.926 Y-2.519 E0.03319
G1 X46.495 Y-2.537 E0.03319
G1 X46.086 Y-2.485 E0.03181
G1 X45.656 Y-2.357 E0.03458
G1 X45.271 Y-2.162 E0.03326
G1 X44.925 Y-1.907 E0.03311
G1 X44.627 Y-1.596 E0.03319
G1 X44.386 Y-1.239 E0.03319
G1 X44.209 Y-0.846 E0.03319
G1 X44.100 Y-0.430 E0.03320
G1 X44.064 Y-0.000 E0.03319
G1 X44.100 Y0.429 E0.03319
G1 X44.209 Y0.846 E0.03320
G1 X44.386 Y1.238 E0.03319
G1 X44.627 Y1.595 E0.03319
G1 X44.925 Y1.906 E0.03319
G1 X45.257 Y2.151 E0.03181
G1 X45.652 Y2.355 E0.03424
G1 X46.068 Y2.482 E0.03351
G1 X46.495 Y2.537 E0.03319
G1 X46.926 Y2.518 E0.03319
G1 X47.347 Y2.428 E0.03319
G1 X47.746 Y2.267 E0.03319
G1 X48.113 Y2.041 E0.03319
G1 X48.436 Y1.757 E0.03319
G1 X48.760 Y1.356 E0.03965
G1 X49.033 Y1.489 E0.02339
G1 X48.593 Y3.394 E0.15063
G1 X47.856 Y5.142 E0.14622
G1 X46.830 Y6.738 E0.14622
G1 X45.545 Y8.134 E0.14622
G1 X44.040 Y9.290 E0.14622
G1 X42.360 Y10.170 E0.14622
G1 X40.553 Y10.749 E0.14622
G1 X39.644 Y10.876 E0.07069
G1 X39.526 Y10.618 E0.02186
G1 X39.936 Y10.257 E0.04211
G1 X40.207 Y9.922 E0.03319
G1 X40.417 Y9.546 E0.03319
G1 X40.554 Y9.157 E0.03181
