; generated by Slic3r 1.2.9 on 2017-09-15 at 12:52:06

; external perimeters extrusion width = 0.40mm
; perimeters extrusion width = 0.40mm
; infill extrusion width = 0.40mm
; solid infill extrusion width = 0.40mm
; top infill extrusion width = 0.40mm

M107
M83
T0
M116
G21 ; set units to millimeters
G90 ; use absolute coordinates
M83 ; use relative distances for extrusion
G1 E-3.50000 F1500.00000
G1 Z0.400 F15000.000
G1 X0.000 Y29.558 F15000.000
G1 Z0.300 F15000.000
G1 E3.50000 F1500.00000
G1 X-38.139 Y29.558 E2.93922 F960.000
G1 X-38.639 Y29.523 E0.03861
G1 X-40.687 Y29.239 E0.15934
G1 X-41.297 Y29.100 E0.04821
G1 X-43.266 Y28.469 E0.15934
G1 X-43.843 Y28.227 E0.04822
G1 X-45.675 Y27.268 E0.15934
G1 X-46.202 Y26.931 E0.04821
G1 X-47.842 Y25.672 E0.15934
G1 X-48.303 Y25.249 E0.04822
G1 X-49.703 Y23.728 E0.15934
G1 X-50.085 Y23.232 E0.04821
G1 X-51.204 Y21.493 E0.15934
G1 X-51.495 Y20.940 E0.04822
G1 X-52.299 Y19.035 E0.15934
G1 X-52.491 Y18.439 E0.04822
G1 X-52.956 Y16.425 E0.15934
G1 X-53.044 Y15.805 E0.04821
G1 X-53.159 Y13.694 E0.16295
G1 X-54.318 Y-14.153 E2.14792
G1 X-54.296 Y-14.732 E0.04461
G1 X-54.053 Y-16.785 E0.15934
G1 X-53.926 Y-17.398 E0.04821
G1 X-53.334 Y-19.379 E0.15934
G1 X-53.104 Y-19.961 E0.04821
G1 X-52.182 Y-21.811 E0.15934
G1 X-51.856 Y-22.345 E0.04822
G1 X-50.630 Y-24.010 E0.15934
G1 X-50.217 Y-24.480 E0.04822
G1 X-48.724 Y-25.910 E0.15934
G1 X-48.236 Y-26.302 E0.04821
G1 X-46.520 Y-27.455 E0.15934
G1 X-45.973 Y-27.758 E0.04822
G1 X-44.084 Y-28.600 E0.15934
G1 X-43.493 Y-28.804 E0.04822
G1 X-41.488 Y-29.309 E0.15934
G1 X-40.870 Y-29.410 E0.04822
G1 X-38.537 Y-29.574 E0.18022
G1 X37.656 Y-29.564 E5.87186
G1 X39.644 Y-29.415 E0.15367 F960.000
G1 X40.241 Y-29.320 E0.04657
G1 X42.319 Y-28.809 E0.16493
G1 X42.931 Y-28.600 E0.04986
G1 X44.820 Y-27.758 E0.15934
G1 X45.367 Y-27.455 E0.04822
G1 X47.084 Y-26.302 E0.15934
G1 X47.571 Y-25.910 E0.04822
G1 X49.064 Y-24.480 E0.15934
G1 X49.477 Y-24.010 E0.04821
G1 X50.703 Y-22.345 E0.15934
G1 X51.029 Y-21.811 E0.04822
G1 X51.952 Y-19.961 E0.15934
G1 X52.182 Y-19.379 E0.04822
G1 X52.773 Y-17.398 E0.15934
G1 X52.900 Y-16.785 E0.04821
G1 X53.165 Y-14.456 E0.18068
G1 X54.324 Y13.392 E2.14792
G1 X54.321 Y13.741 E0.02691
G1 X54.209 Y15.805 E0.15934
G1 X54.121 Y16.425 E0.04822
G1 X53.656 Y18.440 E0.15934
G1 X53.464 Y19.035 E0.04821
G1 X52.660 Y20.940 E0.15934
G1 X52.368 Y21.493 E0.04822
G1 X51.250 Y23.232 E0.15934
G1 X50.868 Y23.728 E0.04821
G1 X49.468 Y25.249 E0.15934
G1 X49.007 Y25.672 E0.04822
G1 X47.367 Y26.931 E0.15934
G1 X46.839 Y27.268 E0.04821
G1 X45.008 Y28.227 E0.15934
G1 X44.431 Y28.469 E0.04822
G1 X42.462 Y29.100 E0.15934
G1 X41.852 Y29.239 E0.04822
G1 X39.804 Y29.523 E0.15934
G1 X39.304 Y29.558 E0.03861
G1 X0.060 Y29.558 E3.02437
G1 E-3.50000 F1500.00000
G1 Z0.700 F15000.000
G1 X-37.304 Y-4.108 F15000.000
G1 Z0.300 F15000.000
G1 E3.50000 F1500.00000
G1 X-37.546 Y-3.895 E0.02485 F600.000
G1 X-37.820 Y-3.726 E0.02485
G1 X-38.120 Y-3.606 E0.02485
G1 X-38.435 Y-3.538 E0.02485
G1 X-38.759 Y-3.524 E0.02497
G1 X-39.092 Y-3.570 E0.02590
G1 X-39.385 Y-3.660 E0.02368
G1 X-39.673 Y-3.805 E0.02485
G1 X-39.933 Y-3.997 E0.02485
G1 X-40.156 Y-4.229 E0.02485
G1 X-40.336 Y-4.497 E0.02485
G1 X-40.469 Y-4.791 E0.02485
G1 X-40.550 Y-5.103 E0.02485
G1 X-40.578 Y-5.425 E0.02497
G1 X-40.547 Y-5.760 E0.02590
G1 X-40.469 Y-6.057 E0.02368
G1 X-40.336 Y-6.351 E0.02485
G1 X-40.156 Y-6.618 E0.02485
G1 X-39.933 Y-6.851 E0.02485
G1 X-39.673 Y-7.043 E0.02485
G1 X-39.384 Y-7.189 E0.02497
G1 X-39.062 Y-7.285 E0.02590
G1 X-38.757 Y-7.324 E0.02368 F600.000
G1 X-38.435 Y-7.310 E0.02485
G1 X-38.120 Y-7.242 E0.02485
G1 X-37.820 Y-7.122 E0.02485
G1 X-37.546 Y-6.953 E0.02485
G1 X-37.304 Y-6.740 E0.02485
G1 X-37.101 Y-6.489 E0.02485
G1 X-36.944 Y-6.207 E0.02485
G1 X-36.836 Y-5.903 E0.02485
G1 X-36.782 Y-5.585 E0.02485
G1 X-36.782 Y-5.263 E0.02485
G1 X-36.836 Y-4.945 E0.02485
G1 X-36.944 Y-4.640 E0.02494
G1 X-37.108 Y-4.350 E0.02562
G1 X-37.266 Y-4.155 E0.01936
G1 X-37.222 Y-3.796 F15000.000
G1 E-3.50000 F1500.00000
G1 Z0.700 F15000.000
G1 X-45.804 Y-12.608 F15000.000
G1 Z0.300 F15000.000
G1 E3.50000 F1500.00000
G1 X-46.046 Y-12.395 E0.02485 F600.000
G1 X-46.320 Y-12.226 E0.02485
G1 X-46.620 Y-12.106 E0.02485
G1 X-46.935 Y-12.038 E0.02485
G1 X-47.257 Y-12.024 E0.02485
G1 X-47.577 Y-12.065 E0.02485
G1 X-47.887 Y-12.160 E0.02497
G1 X-48.186 Y-12.314 E0.02590
G1 X-48.433 Y-12.497 E0.02368
G1 X-48.656 Y-12.730 E0.02485
G1 X-48.836 Y-12.997 E0.02485
G1 X-48.969 Y-13.291 E0.02485
G1 X-49.051 Y-13.603 E0.02485
G1 X-49.078 Y-13.926 E0.02497
G1 X-49.047 Y-14.260 E0.02590
G1 X-48.969 Y-14.558 E0.02368
G1 X-48.836 Y-14.851 E0.02485
G1 X-48.656 Y-15.119 E0.02486
G1 X-48.433 Y-15.351 E0.02485
G1 X-48.173 Y-15.543 E0.02485
G1 X-47.884 Y-15.689 E0.02497
G1 X-47.562 Y-15.785 E0.02590
G1 X-47.257 Y-15.824 E0.02368 F600.000
G1 X-46.935 Y-15.810 E0.02485
G1 X-46.620 Y-15.742 E0.02485
G1 X-46.320 Y-15.622 E0.02485
G1 X-46.046 Y-15.453 E0.02485
G1 X-45.803 Y-15.239 E0.02497
G1 X-45.594 Y-14.975 E0.02590
G1 X-45.444 Y-14.707 E0.02368
G1 X-45.336 Y-14.403 E0.02485
G1 X-45.282 Y-14.085 E0.02485
G1 X-45.282 Y-13.763 E0.02485
G1 X-45.336 Y-13.445 E0.02485
G1 X-45.444 Y-13.139 E0.02497
G1 X-45.611 Y-12.847 E0.02590
G1 X-45.766 Y-12.655 E0.01905
G1 X-45.722 Y-12.296 F15000.000
G1 E-3.50000 F1500.00000
G1 Z0.700 F15000.000
G1 X32.611 Y-13.924 F15000.000
G1 Z0.300 F15000.000
G1 E3.50000 F1500.00000
G1 X32.681 Y-14.754 E0.06422 F600.000
G1 X32.891 Y-15.561 E0.06422
G1 X33.235 Y-16.320 E0.06422
G1 X33.701 Y-17.010 E0.06422
G1 X34.278 Y-17.612 E0.06422
G1 X34.948 Y-18.108 E0.06422
G1 X35.695 Y-18.484 E0.06448
G1 X36.521 Y-18.731 E0.06642
G1 X37.315 Y-18.833 E0.06172 F600.000
G1 X38.148 Y-18.797 E0.06422
G1 X38.962 Y-18.622 E0.06422
G1 X39.735 Y-18.311 E0.06422
G1 X40.445 Y-17.874 E0.06422
G1 X41.071 Y-17.323 E0.06422
G1 X41.594 Y-16.675 E0.06422
G1 X42.000 Y-15.948 E0.06422
G1 X42.278 Y-15.162 E0.06421
G1 X42.415 Y-14.362 E0.06252
G1 X42.434 Y-13.924 E0.03382
G1 X42.415 Y-13.486 E0.03381
G1 X42.278 Y-12.686 E0.06252
G1 X42.000 Y-11.900 E0.06422
G1 X41.594 Y-11.173 E0.06422
G1 X41.070 Y-10.525 E0.06422
G1 X40.445 Y-9.974 E0.06421
G1 X39.735 Y-9.537 E0.06422
G1 X38.962 Y-9.227 E0.06422
G1 X38.148 Y-9.051 E0.06422
G1 X37.315 Y-9.016 E0.06422
G1 X36.489 Y-9.121 E0.06421
G1 X35.692 Y-9.365 E0.06422
G1 X34.948 Y-9.741 E0.06422
G1 X34.278 Y-10.236 E0.06422
G1 X33.701 Y-10.838 E0.06422
G1 X33.235 Y-11.528 E0.06422
G1 X32.891 Y-12.287 E0.06422
G1 X32.681 Y-13.094 E0.06422
G1 X32.616 Y-13.864 E0.05959
G1 X33.249 Y-13.918 F15000.000
G1 X33.310 Y-14.647 E0.05633 F600.000
G1 X33.493 Y-15.348 E0.05588
G1 X33.792 Y-16.009 E0.05588
G1 X34.198 Y-16.610 E0.05588
G1 X34.699 Y-17.133 E0.05588
G1 X35.282 Y-17.564 E0.05588
G1 X35.931 Y-17.891 E0.05597
G1 X36.653 Y-18.107 E0.05808
G1 X37.342 Y-18.195 E0.05356 F600.000
G1 X38.067 Y-18.164 E0.05588
G1 X38.775 Y-18.012 E0.05588
G1 X39.448 Y-17.741 E0.05588
G1 X40.066 Y-17.361 E0.05588
G1 X40.610 Y-16.882 E0.05588
G1 X41.065 Y-16.318 E0.05588
G1 X41.419 Y-15.685 E0.05588
G1 X41.661 Y-15.001 E0.05588
G1 X41.782 Y-14.295 E0.05523
G1 X41.797 Y-13.924 E0.02861
G1 X41.782 Y-13.553 E0.02861
G1 X41.661 Y-12.847 E0.05522
G1 X41.419 Y-12.163 E0.05588
G1 X41.065 Y-11.530 E0.05588
G1 X40.610 Y-10.966 E0.05588
G1 X40.066 Y-10.487 E0.05588
G1 X39.448 Y-10.107 E0.05588
G1 X38.775 Y-9.837 E0.05588
G1 X38.067 Y-9.684 E0.05588
G1 X37.342 Y-9.653 E0.05588
G1 X36.623 Y-9.745 E0.05587
G1 X35.930 Y-9.957 E0.05588
G1 X35.282 Y-10.284 E0.05588
G1 X34.699 Y-10.715 E0.05588
G1 X34.198 Y-11.238 E0.05588
G1 X33.792 Y-11.839 E0.05588
G1 X33.493 Y-12.500 E0.05588
G1 X33.310 Y-13.202 E0.05588
G1 X33.254 Y-13.858 E0.05080
G1 X32.908 Y-14.128 F15000.000
G1 X31.554 Y-13.858 F15000.000
G1 X31.554 Y-13.709 E0.01153 F600.000
G1 X31.481 Y-13.284 E0.03319
G1 X31.337 Y-12.878 E0.03319
G1 X31.127 Y-12.502 E0.03319
G1 X30.857 Y-12.167 E0.03319
G1 X30.533 Y-11.882 E0.03319
G1 X30.167 Y-11.657 E0.03319
G1 X29.767 Y-11.496 E0.03319
G1 X29.346 Y-11.405 E0.03319
G1 X28.916 Y-11.387 E0.03319
G1 X28.489 Y-11.442 E0.03319
G1 X28.077 Y-11.568 E0.03319
G1 X27.692 Y-11.762 E0.03319
G1 X27.346 Y-12.018 E0.03319
G1 X27.048 Y-12.329 E0.03319
G1 X26.807 Y-12.686 E0.03319
G1 X26.629 Y-13.078 E0.03320
G1 X26.520 Y-13.499 E0.03352
G1 X26.486 Y-13.942 E0.03424
G1 X26.521 Y-14.353 E0.03180
G1 X26.629 Y-14.770 E0.03320
G1 X26.807 Y-15.163 E0.03320
G1 X27.048 Y-15.519 E0.03319
G1 X27.346 Y-15.830 E0.03319
G1 X27.692 Y-16.086 E0.03319
G1 X28.080 Y-16.282 E0.03351
G1 X28.506 Y-16.409 E0.03424
G1 X28.916 Y-16.461 E0.03181 F600.000
G1 X29.346 Y-16.443 E0.03319
G1 X29.767 Y-16.352 E0.03319
G1 X30.167 Y-16.192 E0.03319
G1 X30.534 Y-15.966 E0.03319
G1 X30.857 Y-15.681 E0.03319
G1 X31.127 Y-15.346 E0.03319
G1 X31.337 Y-14.970 E0.03319
G1 X31.481 Y-14.564 E0.03319
G1 X31.554 Y-14.139 E0.03319
G1 X31.554 Y-13.918 E0.01703
G1 X30.918 Y-13.918 F15000.000
G1 X30.918 Y-13.763 E0.01199 F600.000
G1 X30.864 Y-13.445 E0.02485
G1 X30.756 Y-13.141 E0.02486
G1 X30.599 Y-12.859 E0.02485
G1 X30.396 Y-12.608 E0.02485
G1 X30.154 Y-12.395 E0.02486
G1 X29.880 Y-12.226 E0.02485
G1 X29.580 Y-12.106 E0.02485
G1 X29.265 Y-12.038 E0.02486
G1 X28.943 Y-12.024 E0.02485
G1 X28.623 Y-12.065 E0.02486
G1 X28.315 Y-12.160 E0.02485
G1 X28.027 Y-12.305 E0.02485
G1 X27.767 Y-12.497 E0.02485
G1 X27.544 Y-12.730 E0.02485
G1 X27.364 Y-12.997 E0.02485
G1 X27.231 Y-13.291 E0.02486
G1 X27.149 Y-13.604 E0.02497
G1 X27.123 Y-13.939 E0.02590
G1 X27.149 Y-14.245 E0.02367
G1 X27.231 Y-14.558 E0.02486
G1 X27.364 Y-14.851 E0.02486
G1 X27.544 Y-15.119 E0.02485
G1 X27.767 Y-15.351 E0.02485
G1 X28.027 Y-15.543 E0.02485
G1 X28.316 Y-15.689 E0.02497
G1 X28.638 Y-15.785 E0.02590
G1 X28.943 Y-15.824 E0.02368 F600.000
G1 X29.265 Y-15.810 E0.02485
G1 X29.580 Y-15.742 E0.02486
G1 X29.880 Y-15.622 E0.02485
G1 X30.154 Y-15.453 E0.02486
G1 X30.396 Y-15.240 E0.02485
G1 X30.599 Y-14.989 E0.02485
G1 X30.756 Y-14.707 E0.02485
G1 X30.864 Y-14.403 E0.02485
G1 X30.918 Y-14.085 E0.02486
G1 X30.918 Y-13.978 E0.00824
G1 X31.053 Y-13.841 F15000.000
G1 E-3.50000 F1500.00000
G1 Z0.700 F15000.000
G1 X-27.646 Y-13.978 F15000.000
G1 Z0.300 F15000.000
G1 E3.50000 F1500.00000
G1 X-27.646 Y-13.709 E0.02078 F600.000
G1 X-27.720 Y-13.280 E0.03352
G1 X-27.871 Y-12.862 E0.03424
G1 X-28.072 Y-12.502 E0.03181
G1 X-28.343 Y-12.167 E0.03319
G1 X-28.666 Y-11.882 E0.03319
G1 X-29.033 Y-11.657 E0.03319
G1 X-29.433 Y-11.496 E0.03319
G1 X-29.854 Y-11.405 E0.03319
G1 X-30.284 Y-11.387 E0.03319
G1 X-30.711 Y-11.442 E0.03319
G1 X-31.123 Y-11.568 E0.03319
G1 X-31.511 Y-11.764 E0.03352
G1 X-31.866 Y-12.031 E0.03424
G1 X-32.152 Y-12.329 E0.03181
G1 X-32.393 Y-12.686 E0.03319
G1 X-32.571 Y-13.078 E0.03319
G1 X-32.679 Y-13.495 E0.03319
G1 X-32.716 Y-13.924 E0.03319
G1 X-32.679 Y-14.353 E0.03319
G1 X-32.571 Y-14.770 E0.03319
G1 X-32.393 Y-15.163 E0.03319
G1 X-32.152 Y-15.519 E0.03319
G1 X-31.854 Y-15.830 E0.03319
G1 X-31.508 Y-16.086 E0.03319
G1 X-31.119 Y-16.282 E0.03352
G1 X-30.693 Y-16.409 E0.03424
G1 X-30.284 Y-16.461 E0.03181 F600.000
G1 X-29.854 Y-16.443 E0.03319
G1 X-29.433 Y-16.352 E0.03319
G1 X-29.033 Y-16.192 E0.03319
G1 X-28.663 Y-15.964 E0.03352
G1 X-28.332 Y-15.667 E0.03424
G1 X-28.072 Y-15.346 E0.03181
G1 X-27.862 Y-14.970 E0.03319
G1 X-27.719 Y-14.564 E0.03319
G1 X-27.646 Y-14.139 E0.03319
G1 X-27.646 Y-14.038 E0.00779
G1 X-28.282 Y-14.038 F15000.000
G1 X-28.282 Y-13.763 E0.02124 F600.000
G1 X-28.336 Y-13.443 E0.02497
G1 X-28.451 Y-13.128 E0.02590
G1 X-28.601 Y-12.859 E0.02368
G1 X-28.804 Y-12.608 E0.02485
G1 X-29.046 Y-12.395 E0.02485
G1 X-29.320 Y-12.226 E0.02485
G1 X-29.619 Y-12.106 E0.02485
G1 X-29.935 Y-12.038 E0.02485
G1 X-30.257 Y-12.024 E0.02485
G1 X-30.577 Y-12.065 E0.02485
G1 X-30.885 Y-12.160 E0.02485
G1 X-31.175 Y-12.306 E0.02497
G1 X-31.443 Y-12.508 E0.02590
G1 X-31.656 Y-12.730 E0.02368
G1 X-31.836 Y-12.997 E0.02485
G1 X-31.969 Y-13.291 E0.02485
G1 X-32.050 Y-13.603 E0.02485
G1 X-32.078 Y-13.924 E0.02485
G1 X-32.050 Y-14.245 E0.02485
G1 X-31.969 Y-14.558 E0.02485
G1 X-31.836 Y-14.851 E0.02485
G1 X-31.656 Y-15.119 E0.02485
G1 X-31.433 Y-15.351 E0.02485
G1 X-31.173 Y-15.543 E0.02485
G1 X-30.884 Y-15.689 E0.02497
G1 X-30.562 Y-15.785 E0.02590
G1 X-30.257 Y-15.824 E0.02368 F600.000
G1 X-29.935 Y-15.810 E0.02485
G1 X-29.619 Y-15.742 E0.02485
G1 X-29.320 Y-15.622 E0.02485
G1 X-29.044 Y-15.452 E0.02497
G1 X-28.794 Y-15.228 E0.02590
G1 X-28.601 Y-14.989 E0.02368
G1 X-28.444 Y-14.707 E0.02485
G1 X-28.336 Y-14.403 E0.02485
G1 X-28.284 Y-14.098 E0.02385
G1 X-28.036 Y-13.913 F15000.000
G1 E-3.50000 F1500.00000
G1 Z0.700 F15000.000
G1 X-33.581 Y-14.676 F15000.000
G1 Z0.300 F15000.000
G1 E3.50000 F1500.00000
G1 X-33.922 Y-12.686 E0.15559 F600.000
G1 X-34.200 Y-11.900 E0.06422
G1 X-34.606 Y-11.173 E0.06422
G1 X-35.130 Y-10.525 E0.06422
G1 X-35.755 Y-9.974 E0.06422
G1 X-36.465 Y-9.537 E0.06422
G1 X-37.238 Y-9.227 E0.06422
G1 X-38.052 Y-9.051 E0.06422
G1 X-38.885 Y-9.016 E0.06422
G1 X-39.711 Y-9.121 E0.06422
G1 X-40.508 Y-9.365 E0.06422
G1 X-41.252 Y-9.741 E0.06422
G1 X-41.922 Y-10.236 E0.06422
G1 X-43.164 Y-11.532 E0.13831
G1 X-43.028 Y-11.667 E0.01478
G1 X-43.309 Y-12.287 E0.05243
G1 X-43.519 Y-13.094 E0.06422
G1 X-43.590 Y-13.928 E0.06449
G1 X-43.510 Y-14.786 E0.06641
G1 X-43.309 Y-15.561 E0.06172
G1 X-42.965 Y-16.320 E0.06422
G1 X-42.499 Y-17.010 E0.06422
G1 X-41.922 Y-17.612 E0.06422
G1 X-41.252 Y-18.108 E0.06422
G1 X-40.505 Y-18.484 E0.06449
G1 X-39.679 Y-18.731 E0.06641
G1 X-38.885 Y-18.833 E0.06172 F600.000
G1 X-38.052 Y-18.797 E0.06422
G1 X-37.238 Y-18.622 E0.06422
G1 X-36.465 Y-18.311 E0.06422
G1 X-35.755 Y-17.874 E0.06422
G1 X-35.130 Y-17.323 E0.06422
G1 X-34.606 Y-16.675 E0.06422
G1 X-34.200 Y-15.948 E0.06422
G1 X-33.922 Y-15.162 E0.06422
G1 X-33.839 Y-14.676 E0.03800
G1 X-33.641 Y-14.676 E0.01525
G1 X-34.460 Y-14.536 F15000.000
G1 X-34.417 Y-14.289 E0.01929 F600.000
G1 X-34.415 Y-14.040 E0.01915
G1 X-34.335 Y-14.040 E0.00622
G1 X-34.539 Y-12.847 E0.09333
G1 X-34.781 Y-12.163 E0.05588
G1 X-35.135 Y-11.530 E0.05588
G1 X-35.590 Y-10.966 E0.05588
G1 X-36.134 Y-10.487 E0.05588
G1 X-36.752 Y-10.107 E0.05588
G1 X-37.425 Y-9.837 E0.05588
G1 X-38.133 Y-9.684 E0.05588
G1 X-38.858 Y-9.653 E0.05588
G1 X-39.577 Y-9.745 E0.05588
G1 X-40.270 Y-9.957 E0.05588
G1 X-40.918 Y-10.284 E0.05588
G1 X-41.501 Y-10.715 E0.05588
G1 X-42.275 Y-11.522 E0.08618
G1 X-42.227 Y-11.570 E0.00522
G1 X-42.408 Y-11.839 E0.02502
G1 X-42.707 Y-12.500 E0.05588
G1 X-42.890 Y-13.202 E0.05588
G1 X-42.951 Y-13.925 E0.05597
G1 X-42.882 Y-14.676 E0.05807
G1 X-42.707 Y-15.348 E0.05356
G1 X-42.408 Y-16.009 E0.05588
G1 X-42.002 Y-16.610 E0.05588
G1 X-41.501 Y-17.133 E0.05588
G1 X-40.918 Y-17.564 E0.05588
G1 X-40.269 Y-17.891 E0.05597
G1 X-39.547 Y-18.107 E0.05808
G1 X-38.858 Y-18.195 E0.05356 F600.000
G1 X-38.133 Y-18.164 E0.05588
G1 X-37.425 Y-18.012 E0.05588
G1 X-36.752 Y-17.741 E0.05588
G1 X-36.134 Y-17.361 E0.05588
G1 X-35.590 Y-16.882 E0.05588
G1 X-35.135 Y-16.318 E0.05588
G1 X-34.781 Y-15.685 E0.05588
G1 X-34.539 Y-15.001 E0.05588
G1 X-34.470 Y-14.595 E0.03178
G1 X-34.225 Y-14.449 F15000.000
G1 E-3.50000 F1500.00000
G1 Z0.700 F15000.000
G1 X-40.142 Y-24.830 F15000.000
G1 Z0.300 F15000.000
G1 E3.50000 F1500.00000
G1 X-40.042 Y-24.561 E0.02210 F720.000
G1 X-40.354 Y-24.330 E0.02987 F720.000
G1 X-40.652 Y-24.019 E0.03319
G1 X-40.893 Y-23.663 E0.03319
G1 X-41.071 Y-23.270 E0.03319
G1 X-41.179 Y-22.853 E0.03319
G1 X-41.216 Y-22.424 E0.03319
G1 X-41.179 Y-21.995 E0.03319
G1 X-41.071 Y-21.578 E0.03319
G1 X-40.893 Y-21.186 E0.03319
G1 X-40.652 Y-20.829 E0.03319
G1 X-40.354 Y-20.518 E0.03319
G1 X-40.008 Y-20.262 E0.03319
G1 X-39.623 Y-20.068 E0.03319
G1 X-39.211 Y-19.942 E0.03319
G1 X-38.784 Y-19.887 E0.03319
G1 X-38.354 Y-19.905 E0.03319
G1 X-37.933 Y-19.996 E0.03319
G1 X-37.533 Y-20.157 E0.03319
G1 X-37.166 Y-20.383 E0.03319
G1 X-36.844 Y-20.666 E0.03307
G1 X-36.576 Y-20.996 E0.03281
G1 X-36.362 Y-21.378 E0.03370
G1 X-36.219 Y-21.784 E0.03319
G1 X-36.146 Y-22.209 E0.03319
G1 X-36.146 Y-22.640 E0.03319
G1 X-36.219 Y-23.064 E0.03319
G1 X-36.362 Y-23.470 E0.03319
