; generated by Slic3r 1.2.9 on 2017-09-14 at 17:16:09

; external perimeters extrusion width = 0.40mm
; perimeters extrusion width = 0.40mm
; infill extrusion width = 0.40mm
; solid infill extrusion width = 0.40mm
; top infill extrusion width = 0.40mm

M107
M83
T0
M116
G21 ; set units to millimeters
G90 ; use absolute coordinates
M83 ; use relative distances for extrusion
G1 E-3.50000 F1500.00000
G1 Z0.400 F15000.000
G1 X10.246 Y-21.021 F15000.000
G1 Z0.300 F15000.000
G1 E3.50000 F1500.00000
G1 X45.512 Y-3.832 E3.02348 F960.000
G1 X45.947 Y-3.582 E0.03862
G1 X47.663 Y-2.429 E0.15934
G1 X48.150 Y-2.036 E0.04822
G1 X49.644 Y-0.606 E0.15934
G1 X50.057 Y-0.136 E0.04821
G1 X51.283 Y1.529 E0.15934
G1 X51.609 Y2.062 E0.04822
G1 X52.531 Y3.913 E0.15934
G1 X52.761 Y4.495 E0.04822
G1 X53.352 Y6.476 E0.15934
G1 X53.479 Y7.089 E0.04821
G1 X53.722 Y9.142 E0.15934
G1 X53.742 Y9.767 E0.04821
G1 X53.629 Y11.832 E0.15934
G1 X53.542 Y12.451 E0.04822
G1 X53.077 Y14.466 E0.15934
G1 X52.884 Y15.061 E0.04821
G1 X52.081 Y16.966 E0.15934
G1 X51.789 Y17.520 E0.04822
G1 X50.671 Y19.259 E0.15934
G1 X50.289 Y19.754 E0.04821
G1 X48.889 Y21.276 E0.15934
G1 X48.427 Y21.698 E0.04822
G1 X46.787 Y22.957 E0.15934
G1 X46.260 Y23.294 E0.04821
G1 X44.429 Y24.253 E0.15934
G1 X43.851 Y24.495 E0.04822
G1 X41.883 Y25.126 E0.15934
G1 X41.273 Y25.265 E0.04822
G1 X39.225 Y25.549 E0.15934
G1 X38.725 Y25.584 E0.03861
G1 X-38.719 Y25.584 E5.96821
G1 X-39.219 Y25.549 E0.03861
G1 X-41.266 Y25.265 E0.15934
G1 X-41.876 Y25.126 E0.04821
G1 X-43.845 Y24.495 E0.15934
G1 X-44.422 Y24.253 E0.04822
G1 X-46.254 Y23.294 E0.15934
G1 X-46.781 Y22.957 E0.04821
G1 X-48.421 Y21.698 E0.15934
G1 X-48.883 Y21.276 E0.04822
G1 X-50.282 Y19.754 E0.15934
G1 X-50.665 Y19.259 E0.04821
G1 X-51.783 Y17.520 E0.15934
G1 X-52.075 Y16.966 E0.04822
G1 X-52.878 Y15.061 E0.15934
G1 X-53.071 Y14.466 E0.04822
G1 X-53.536 Y12.451 E0.15934
G1 X-53.623 Y11.832 E0.04821
G1 X-53.736 Y9.767 E0.15934
G1 X-53.716 Y9.142 E0.04822
G1 X-53.473 Y7.089 E0.15934
G1 X-53.346 Y6.476 E0.04821
G1 X-52.755 Y4.495 E0.15934
G1 X-52.525 Y3.913 E0.04821
G1 X-51.603 Y2.062 E0.15934
G1 X-51.276 Y1.529 E0.04822
G1 X-50.051 Y-0.136 E0.15934
G1 X-49.638 Y-0.606 E0.04822
G1 X-48.144 Y-2.036 E0.15934
G1 X-47.657 Y-2.429 E0.04821
G1 X-45.695 Y-3.732 E0.18151
G1 X-10.355 Y-23.603 E3.12454
G1 X-9.240 Y-24.171 E0.09640
G1 X-8.892 Y-24.325 E0.02933
G1 X-7.725 Y-24.774 E0.09640
G1 X-7.363 Y-24.891 E0.02933
G1 X-6.155 Y-25.215 E0.09640
G1 X-5.782 Y-25.294 E0.02933
G1 X-4.547 Y-25.490 E0.09640
G1 X-4.168 Y-25.530 E0.02933
G1 X-2.919 Y-25.595 E0.09640
G1 X-2.539 Y-25.595 E0.02933
G1 X-1.334 Y-25.532 E0.09297
G1 X-0.968 Y-25.494 E0.02832 F960.000
G1 X0.311 Y-25.296 E0.09981
G1 X0.696 Y-25.215 E0.03033
G1 X1.905 Y-24.891 E0.09640
G1 X2.267 Y-24.774 E0.02933
G1 X3.434 Y-24.325 E0.09640
G1 X3.724 Y-24.199 E0.02437
G1 X10.192 Y-21.047 E0.55447
G1 E-3.50000 F1500.00000
G1 Z0.700 F15000.000
G1 X-36.724 Y17.134 F15000.000
G1 Z0.300 F15000.000
G1 E3.50000 F1500.00000
G1 X-36.522 Y17.385 E0.02485 F600.000
G1 X-36.364 Y17.666 E0.02485
G1 X-36.257 Y17.971 E0.02485
G1 X-36.202 Y18.288 E0.02485
G1 X-36.202 Y18.611 E0.02485
G1 X-36.257 Y18.929 E0.02485
G1 X-36.365 Y19.234 E0.02494
G1 X-36.529 Y19.523 E0.02562
G1 X-36.724 Y19.765 E0.02399
G1 X-36.966 Y19.978 E0.02485
G1 X-37.241 Y20.147 E0.02485
G1 X-37.540 Y20.268 E0.02485
G1 X-37.855 Y20.336 E0.02485
G1 X-38.179 Y20.349 E0.02497
G1 X-38.512 Y20.304 E0.02590
G1 X-38.806 Y20.214 E0.02368
G1 X-39.094 Y20.069 E0.02485
G1 X-39.353 Y19.877 E0.02485
G1 X-39.576 Y19.644 E0.02485
G1 X-39.757 Y19.377 E0.02485
G1 X-39.890 Y19.083 E0.02485
G1 X-39.971 Y18.771 E0.02485
G1 X-39.999 Y18.448 E0.02497
G1 X-39.967 Y18.113 E0.02590
G1 X-39.890 Y17.816 E0.02368
G1 X-39.757 Y17.522 E0.02485
G1 X-39.576 Y17.255 E0.02485
G1 X-39.353 Y17.022 E0.02485
G1 X-39.094 Y16.830 E0.02485
G1 X-38.805 Y16.685 E0.02497
G1 X-38.482 Y16.589 E0.02590
G1 X-38.178 Y16.550 E0.02368 F600.000
G1 X-37.855 Y16.564 E0.02485
G1 X-37.540 Y16.632 E0.02485
G1 X-37.241 Y16.752 E0.02485
G1 X-36.966 Y16.921 E0.02485
G1 X-36.769 Y17.094 E0.02023
G1 X-36.409 Y17.066 F15000.000
G1 X-45.031 Y11.026 F15000.000
G1 X-45.224 Y11.265 E0.02368 F600.000
G1 X-45.466 Y11.478 E0.02485
G1 X-45.741 Y11.647 E0.02485
G1 X-46.040 Y11.768 E0.02485
G1 X-46.356 Y11.836 E0.02485
G1 X-46.678 Y11.849 E0.02485
G1 X-46.998 Y11.808 E0.02485
G1 X-47.307 Y11.713 E0.02497
G1 X-47.606 Y11.560 E0.02590
G1 X-47.853 Y11.377 E0.02368
G1 X-48.076 Y11.144 E0.02485
G1 X-48.257 Y10.877 E0.02485
G1 X-48.390 Y10.583 E0.02485
G1 X-48.471 Y10.271 E0.02485
G1 X-48.499 Y9.948 E0.02497
G1 X-48.467 Y9.613 E0.02590
G1 X-48.390 Y9.316 E0.02368
G1 X-48.257 Y9.022 E0.02485
G1 X-48.076 Y8.755 E0.02486
G1 X-47.853 Y8.522 E0.02485
G1 X-47.594 Y8.330 E0.02485
G1 X-47.305 Y8.185 E0.02497
G1 X-46.983 Y8.089 E0.02590
G1 X-46.678 Y8.050 E0.02368 F600.000
G1 X-46.356 Y8.063 E0.02485
G1 X-46.040 Y8.131 E0.02485
G1 X-45.741 Y8.252 E0.02485
G1 X-45.466 Y8.421 E0.02485
G1 X-45.223 Y8.635 E0.02497
G1 X-45.014 Y8.898 E0.02590
G1 X-44.864 Y9.166 E0.02368
G1 X-44.757 Y9.470 E0.02485
G1 X-44.702 Y9.788 E0.02485
G1 X-44.702 Y10.111 E0.02485
G1 X-44.757 Y10.429 E0.02485
G1 X-44.865 Y10.734 E0.02497
G1 X-45.002 Y10.974 E0.02128
G1 X-44.906 Y11.306 F15000.000
G1 E-3.50000 F1500.00000
G1 Z0.700 F15000.000
G1 X33.190 Y9.950 F15000.000
G1 Z0.300 F15000.000
G1 E3.50000 F1500.00000
G1 X33.261 Y9.119 E0.06422 F600.000
G1 X33.471 Y8.313 E0.06422
G1 X33.814 Y7.554 E0.06422
G1 X34.281 Y6.863 E0.06422
G1 X34.857 Y6.262 E0.06422
G1 X35.527 Y5.766 E0.06422
G1 X36.274 Y5.389 E0.06448
G1 X37.100 Y5.143 E0.06642
G1 X37.895 Y5.041 E0.06172 F600.000
G1 X38.727 Y5.076 E0.06422
G1 X39.542 Y5.252 E0.06422
G1 X40.315 Y5.563 E0.06422
G1 X41.024 Y6.000 E0.06422
G1 X41.650 Y6.550 E0.06422
G1 X42.173 Y7.198 E0.06422
G1 X42.580 Y7.926 E0.06422
G1 X42.857 Y8.712 E0.06421
G1 X42.994 Y9.511 E0.06252
G1 X43.013 Y9.950 E0.03382
G1 X42.994 Y10.388 E0.03381
G1 X42.857 Y11.187 E0.06252
G1 X42.580 Y11.973 E0.06422
G1 X42.173 Y12.701 E0.06422
G1 X41.650 Y13.349 E0.06422
G1 X41.024 Y13.899 E0.06421
G1 X40.315 Y14.336 E0.06422
G1 X39.542 Y14.647 E0.06422
G1 X38.727 Y14.823 E0.06422
G1 X37.895 Y14.858 E0.06422
G1 X37.068 Y14.752 E0.06421
G1 X36.271 Y14.508 E0.06422
G1 X35.527 Y14.133 E0.06422
G1 X34.857 Y13.637 E0.06422
G1 X34.281 Y13.036 E0.06422
G1 X33.814 Y12.345 E0.06422
G1 X33.471 Y11.586 E0.06422
G1 X33.261 Y10.780 E0.06422
G1 X33.195 Y10.009 E0.05959
G1 X33.829 Y9.955 F15000.000
G1 X33.890 Y9.227 E0.05633 F600.000
G1 X34.072 Y8.525 E0.05588
G1 X34.371 Y7.865 E0.05588
G1 X34.777 Y7.264 E0.05588
G1 X35.279 Y6.740 E0.05588
G1 X35.862 Y6.309 E0.05588
G1 X36.510 Y5.982 E0.05597
G1 X37.232 Y5.767 E0.05808
G1 X37.922 Y5.678 E0.05356 F600.000
G1 X38.646 Y5.709 E0.05588
G1 X39.355 Y5.862 E0.05588
G1 X40.028 Y6.132 E0.05588
G1 X40.645 Y6.512 E0.05588
G1 X41.189 Y6.992 E0.05588
G1 X41.645 Y7.556 E0.05588
G1 X41.998 Y8.189 E0.05588
G1 X42.240 Y8.872 E0.05588
G1 X42.361 Y9.579 E0.05523
G1 X42.377 Y9.950 E0.02861
G1 X42.361 Y10.320 E0.02861
G1 X42.240 Y11.027 E0.05522
G1 X41.998 Y11.710 E0.05588
G1 X41.645 Y12.343 E0.05588
G1 X41.189 Y12.908 E0.05588
G1 X40.645 Y13.387 E0.05588
G1 X40.028 Y13.767 E0.05588
G1 X39.355 Y14.037 E0.05588
G1 X38.646 Y14.190 E0.05588
G1 X37.922 Y14.221 E0.05588
G1 X37.202 Y14.129 E0.05587
G1 X36.509 Y13.916 E0.05588
G1 X35.862 Y13.590 E0.05588
G1 X35.279 Y13.159 E0.05588
G1 X34.777 Y12.635 E0.05588
G1 X34.371 Y12.034 E0.05588
G1 X34.072 Y11.374 E0.05588
G1 X33.890 Y10.672 E0.05588
G1 X33.834 Y10.015 E0.05080
G1 X33.488 Y9.746 F15000.000
G1 X32.133 Y10.015 F15000.000
G1 X32.133 Y10.165 E0.01153 F600.000
G1 X32.060 Y10.589 E0.03319
G1 X31.917 Y10.995 E0.03319
G1 X31.707 Y11.371 E0.03319
G1 X31.436 Y11.707 E0.03319
G1 X31.113 Y11.991 E0.03319
G1 X30.746 Y12.217 E0.03319
G1 X30.347 Y12.378 E0.03319
G1 X29.925 Y12.468 E0.03319
G1 X29.495 Y12.487 E0.03319
G1 X29.068 Y12.432 E0.03319
G1 X28.656 Y12.306 E0.03319
G1 X28.272 Y12.112 E0.03319
G1 X27.925 Y11.856 E0.03319
G1 X27.627 Y11.545 E0.03319
G1 X27.386 Y11.188 E0.03319
G1 X27.209 Y10.795 E0.03320
G1 X27.099 Y10.375 E0.03352
G1 X27.065 Y9.932 E0.03424
G1 X27.100 Y9.520 E0.03180
G1 X27.209 Y9.104 E0.03320
G1 X27.386 Y8.711 E0.03320
G1 X27.627 Y8.354 E0.03319
G1 X27.925 Y8.043 E0.03319
G1 X28.272 Y7.787 E0.03319
G1 X28.660 Y7.591 E0.03351
G1 X29.086 Y7.465 E0.03424
G1 X29.495 Y7.412 E0.03181 F600.000
G1 X29.925 Y7.431 E0.03319
G1 X30.347 Y7.521 E0.03319
G1 X30.746 Y7.682 E0.03319
G1 X31.113 Y7.908 E0.03319
G1 X31.436 Y8.192 E0.03319
G1 X31.707 Y8.528 E0.03319
G1 X31.917 Y8.904 E0.03319
G1 X32.060 Y9.310 E0.03319
G1 X32.133 Y9.734 E0.03319
G1 X32.133 Y9.955 E0.01703
G1 X31.498 Y9.955 F15000.000
G1 X31.498 Y10.111 E0.01199 F600.000
G1 X31.443 Y10.429 E0.02485
G1 X31.336 Y10.733 E0.02486
G1 X31.178 Y11.014 E0.02485
G1 X30.976 Y11.265 E0.02485
G1 X30.734 Y11.478 E0.02486
G1 X30.459 Y11.647 E0.02485
G1 X30.160 Y11.768 E0.02485
G1 X29.844 Y11.836 E0.02486
G1 X29.522 Y11.849 E0.02485
G1 X29.202 Y11.808 E0.02486
G1 X28.894 Y11.714 E0.02485
G1 X28.606 Y11.569 E0.02485
G1 X28.347 Y11.377 E0.02485
G1 X28.124 Y11.144 E0.02485
G1 X27.943 Y10.877 E0.02485
G1 X27.810 Y10.583 E0.02486
G1 X27.728 Y10.269 E0.02497
G1 X27.703 Y9.934 E0.02590
G1 X27.729 Y9.628 E0.02367
G1 X27.810 Y9.316 E0.02486
G1 X27.943 Y9.022 E0.02486
G1 X28.124 Y8.755 E0.02485
G1 X28.347 Y8.522 E0.02485
G1 X28.606 Y8.330 E0.02485
G1 X28.895 Y8.185 E0.02497
G1 X29.217 Y8.089 E0.02590
G1 X29.522 Y8.050 E0.02368 F600.000
G1 X29.844 Y8.063 E0.02485
G1 X30.160 Y8.131 E0.02486
G1 X30.459 Y8.252 E0.02485
G1 X30.734 Y8.421 E0.02486
G1 X30.976 Y8.634 E0.02485
G1 X31.178 Y8.885 E0.02485
G1 X31.336 Y9.166 E0.02485
G1 X31.443 Y9.470 E0.02485
G1 X31.498 Y9.788 E0.02486
G1 X31.498 Y9.895 E0.00824
G1 X31.632 Y10.033 F15000.000
G1 E-3.50000 F1500.00000
G1 Z0.700 F15000.000
G1 X-27.067 Y9.895 F15000.000
G1 Z0.300 F15000.000
G1 E3.50000 F1500.00000
G1 X-27.067 Y10.165 E0.02078 F600.000
G1 X-27.140 Y10.594 E0.03352
G1 X-27.292 Y11.011 E0.03424
G1 X-27.493 Y11.372 E0.03181
G1 X-27.764 Y11.707 E0.03319
G1 X-28.087 Y11.991 E0.03319
G1 X-28.454 Y12.217 E0.03319
G1 X-28.853 Y12.378 E0.03319
G1 X-29.274 Y12.468 E0.03319
G1 X-29.705 Y12.487 E0.03319
G1 X-30.132 Y12.432 E0.03319
G1 X-30.544 Y12.306 E0.03319
G1 X-30.932 Y12.110 E0.03352
G1 X-31.287 Y11.843 E0.03424
G1 X-31.573 Y11.545 E0.03181
G1 X-31.814 Y11.188 E0.03319
G1 X-31.991 Y10.795 E0.03319
G1 X-32.100 Y10.379 E0.03319
G1 X-32.136 Y9.950 E0.03319
G1 X-32.100 Y9.520 E0.03319
G1 X-31.991 Y9.104 E0.03319
G1 X-31.814 Y8.711 E0.03319
G1 X-31.573 Y8.354 E0.03319
G1 X-31.275 Y8.043 E0.03319
G1 X-30.928 Y7.787 E0.03319
G1 X-30.540 Y7.591 E0.03352
G1 X-30.114 Y7.465 E0.03424
G1 X-29.705 Y7.412 E0.03181 F600.000
G1 X-29.274 Y7.431 E0.03319
G1 X-28.853 Y7.521 E0.03319
G1 X-28.454 Y7.682 E0.03319
G1 X-28.083 Y7.910 E0.03352
G1 X-27.752 Y8.206 E0.03424
G1 X-27.493 Y8.528 E0.03181
G1 X-27.283 Y8.904 E0.03319
G1 X-27.139 Y9.310 E0.03319
G1 X-27.067 Y9.734 E0.03319
G1 X-27.067 Y9.835 E0.00779
G1 X-27.702 Y9.835 F15000.000
G1 X-27.702 Y10.111 E0.02124 F600.000
G1 X-27.757 Y10.430 E0.02497
G1 X-27.872 Y10.746 E0.02590
G1 X-28.022 Y11.014 E0.02368
G1 X-28.224 Y11.265 E0.02485
G1 X-28.466 Y11.478 E0.02485
G1 X-28.741 Y11.647 E0.02485
G1 X-29.040 Y11.768 E0.02485
G1 X-29.355 Y11.836 E0.02485
G1 X-29.678 Y11.849 E0.02485
G1 X-29.997 Y11.808 E0.02485
G1 X-30.306 Y11.714 E0.02485
G1 X-30.595 Y11.568 E0.02497
G1 X-30.864 Y11.366 E0.02590
G1 X-31.076 Y11.144 E0.02368
G1 X-31.257 Y10.877 E0.02485
G1 X-31.390 Y10.583 E0.02485
G1 X-31.471 Y10.271 E0.02485
G1 X-31.498 Y9.950 E0.02485
G1 X-31.471 Y9.628 E0.02485
G1 X-31.390 Y9.316 E0.02485
G1 X-31.257 Y9.022 E0.02485
G1 X-31.076 Y8.755 E0.02485
G1 X-30.853 Y8.522 E0.02485
G1 X-30.594 Y8.330 E0.02485
G1 X-30.305 Y8.185 E0.02497
G1 X-29.982 Y8.089 E0.02590
G1 X-29.678 Y8.050 E0.02368 F600.000
G1 X-29.355 Y8.063 E0.02485
G1 X-29.040 Y8.131 E0.02485
G1 X-28.741 Y8.252 E0.02485
G1 X-28.465 Y8.422 E0.02497
G1 X-28.215 Y8.646 E0.02590
G1 X-28.021 Y8.885 E0.02368
G1 X-27.864 Y9.166 E0.02485
G1 X-27.757 Y9.470 E0.02485
G1 X-27.704 Y9.775 E0.02385
G1 X-27.457 Y9.961 F15000.000
G1 E-3.50000 F1500.00000
G1 Z0.700 F15000.000
G1 X-33.001 Y9.198 F15000.000
G1 Z0.300 F15000.000
G1 E3.50000 F1500.00000
G1 X-33.343 Y11.187 E0.15559 F600.000
G1 X-33.620 Y11.973 E0.06422
G1 X-34.027 Y12.701 E0.06422
G1 X-34.550 Y13.349 E0.06422
G1 X-35.176 Y13.899 E0.06422
G1 X-35.885 Y14.336 E0.06422
G1 X-36.658 Y14.647 E0.06422
G1 X-37.473 Y14.823 E0.06422
G1 X-38.305 Y14.858 E0.06422
G1 X-39.132 Y14.752 E0.06422
G1 X-39.929 Y14.508 E0.06422
G1 X-40.673 Y14.133 E0.06422
G1 X-41.343 Y13.637 E0.06422
G1 X-42.585 Y12.342 E0.13831
G1 X-42.449 Y12.206 E0.01478
G1 X-42.729 Y11.586 E0.05243
G1 X-42.939 Y10.780 E0.06422
G1 X-43.010 Y9.946 E0.06449
G1 X-42.931 Y9.088 E0.06641
G1 X-42.729 Y8.313 E0.06172
G1 X-42.386 Y7.554 E0.06422
G1 X-41.919 Y6.863 E0.06422
G1 X-41.343 Y6.262 E0.06422
G1 X-40.673 Y5.766 E0.06422
G1 X-39.926 Y5.389 E0.06449
G1 X-39.100 Y5.143 E0.06641
G1 X-38.305 Y5.041 E0.06172 F600.000
G1 X-37.473 Y5.076 E0.06422
G1 X-36.658 Y5.252 E0.06422
G1 X-35.885 Y5.563 E0.06422
G1 X-35.176 Y6.000 E0.06422
G1 X-34.550 Y6.550 E0.06422
G1 X-34.027 Y7.198 E0.06422
G1 X-33.620 Y7.926 E0.06422
G1 X-33.343 Y8.712 E0.06422
G1 X-33.259 Y9.198 E0.03800
G1 X-33.061 Y9.198 E0.01525
G1 X-33.880 Y9.338 F15000.000
G1 X-33.838 Y9.585 E0.01929 F600.000
G1 X-33.836 Y9.833 E0.01915
G1 X-33.755 Y9.833 E0.00622
G1 X-33.960 Y11.027 E0.09333
G1 X-34.202 Y11.710 E0.05588
G1 X-34.555 Y12.343 E0.05588
G1 X-35.011 Y12.908 E0.05588
G1 X-35.555 Y13.387 E0.05588
G1 X-36.172 Y13.767 E0.05588
G1 X-36.845 Y14.037 E0.05588
G1 X-37.554 Y14.190 E0.05588
G1 X-38.278 Y14.221 E0.05588
G1 X-38.998 Y14.129 E0.05588
G1 X-39.691 Y13.916 E0.05588
G1 X-40.338 Y13.590 E0.05588
G1 X-40.921 Y13.159 E0.05588
G1 X-41.695 Y12.351 E0.08618
G1 X-41.647 Y12.303 E0.00522
G1 X-41.829 Y12.034 E0.02502
G1 X-42.128 Y11.374 E0.05588
G1 X-42.310 Y10.672 E0.05588
G1 X-42.372 Y9.948 E0.05597
G1 X-42.303 Y9.198 E0.05807
G1 X-42.128 Y8.525 E0.05356
G1 X-41.829 Y7.865 E0.05588
G1 X-41.423 Y7.264 E0.05588
G1 X-40.921 Y6.740 E0.05588
G1 X-40.338 Y6.309 E0.05588
G1 X-39.690 Y5.982 E0.05597
G1 X-38.968 Y5.767 E0.05808
G1 X-38.278 Y5.678 E0.05356 F600.000
G1 X-37.554 Y5.709 E0.05588
G1 X-36.845 Y5.862 E0.05588
G1 X-36.172 Y6.132 E0.05588
G1 X-35.555 Y6.512 E0.05588
G1 X-35.011 Y6.992 E0.05588
G1 X-34.555 Y7.556 E0.05588
G1 X-34.202 Y8.189 E0.05588
G1 X-33.960 Y8.872 E0.05588
G1 X-33.890 Y9.279 E0.03178
G1 X-33.645 Y9.425 F15000.000
G1 E-3.50000 F1500.00000
G1 Z0.700 F15000.000
G1 X18.689 Y19.287 F15000.000
G1 Z0.300 F15000.000
G1 E3.50000 F1500.00000
G1 X15.794 Y19.088 E0.22362 F720.000
G1 X5.269 Y18.725 E0.81164
G1 X-5.263 Y18.725 E0.81164
G1 X-15.788 Y19.088 E0.81164
G1 X-26.295 Y19.813 E0.81164
G1 X-36.665 Y20.888 E0.80347
G1 X-36.763 Y20.600 E0.02344
G1 X-36.587 Y20.491 E0.01595
G1 X-36.264 Y20.207 E0.03319
G1 X-36.001 Y19.882 E0.03217
G1 X-35.784 Y19.499 E0.03396
G1 X-35.640 Y19.090 E0.03343
G1 X-35.567 Y18.665 E0.03319
G1 X-35.567 Y18.234 E0.03319
G1 X-35.640 Y17.810 E0.03319
G1 X-35.783 Y17.404 E0.03319
G1 X-35.993 Y17.028 E0.03319
G1 X-36.264 Y16.693 E0.03319
G1 X-36.587 Y16.408 E0.03319
G1 X-36.954 Y16.182 E0.03319
G1 X-37.353 Y16.022 E0.03319
G1 X-37.774 Y15.931 E0.03319
G1 X-38.205 Y15.913 E0.03319
G1 X-38.614 Y15.965 E0.03181
G1 X-39.040 Y16.091 E0.03424
G1 X-39.428 Y16.287 E0.03352
G1 X-39.775 Y16.543 E0.03319
G1 X-40.073 Y16.854 E0.03319
G1 X-40.314 Y17.211 E0.03319
G1 X-40.491 Y17.604 E0.03319
G1 X-40.595 Y18.003 E0.03181
G1 X-40.637 Y18.445 E0.03424
G1 X-40.600 Y18.879 E0.03352
G1 X-40.491 Y19.296 E0.03319
G1 X-40.314 Y19.688 E0.03319
G1 X-40.073 Y20.045 E0.03319
G1 X-39.775 Y20.356 E0.03319
G1 X-39.507 Y20.554 E0.02565
G1 X-39.619 Y20.828 E0.02284
G1 X-40.547 Y20.699 E0.07218
G1 X-42.354 Y20.120 E0.14622
G1 X-44.034 Y19.240 E0.14622
G1 X-45.539 Y18.084 E0.14622
G1 X-46.824 Y16.688 E0.14622
G1 X-47.850 Y15.092 E0.14622
G1 X-48.587 Y13.344 E0.14622
